P3
50 25
255
0 0 0 0 0 0 0 0 0 0 0 0 0 0 0 0 0 0 0 0 0 0 0 0 0 0 0 0 0 0 0 0 0 0 0
0 0 0 0 0 0 0 0 0 0 0 0 0 0 0 0 0 0 0 0 0 0 0 0 0 0 0 0 0 0 0 0 0 0 0
0 0 0 0 0 0 0 0 0 0 0 0 0 0 0 0 0 0 0 0 0 0 0 0 0 0 0 0 0 0 0 0 0 0 0
0 0 0 0 0 0 0 0 0 0 0 0 0 0 0 0 0 0 3 52 39 3 36 35 2 26 31 2 26 30 2
26 28 2 26 26 2 26 24 2 26 22 2 26 20
0 0 0 0 0 0 0 0 0 0 0 0 0 0 0 0 0 0 0 0 0 0 0 0 0 0 0 0 0 0 0 0 0 0 0
0 0 0 0 0 0 0 0 0 0 0 0 0 0 0 0 0 0 0 0 0 0 0 0 0 0 0 0 0 0 0 0 0 0 0
0 0 0 0 0 0 0 0 0 0 0 0 0 0 0 0 0 0 0 0 0 0 0 0 0 0 0 0 0 0 0 0 0 0 0
0 0 0 0 0 0 0 0 0 0 0 0 0 0 0 10 73 45 3 41 37 2 30 33 2 26 31 2 26 29
2 26 27 2 26 25 2 26 24 2 26 22 2 26 20
0 0 0 0 0 0 0 0 0 0 0 0 0 0 0 0 0 0 0 0 0 0 0 0 0 0 0 0 0 0 0 0 0 0 0
0 0 0 0 0 0 0 0 0 0 0 0 0 0 0 0 0 0 0 0 0 0 0 0 0 0 0 0 0 0 0 0 0 0 0
0 0 0 0 0 0 0 0 0 0 0 0 0 0 0 0 0 0 0 0 0 0 0 0 0 0 0 0 0 0 0 0 0 0 0
0 0 0 0 0 0 0 0 0 0 0 0 0 0 0 46 118 69 2 34 35 2 26 32 2 26 30 2 26
28 2 26 27 2 26 25 2 26 23 2 26 21 2 26 19
0 0 0 0 0 0 0 0 0 0 0 0 0 0 0 0 0 0 0 0 0 0 0 0 0 0 0 0 0 0 0 0 0 0 0
0 0 0 0 0 0 0 0 0 0 0 0 0 0 0 0 0 0 0 0 0 0 0 0 0 0 0 0 0 0 0 0 0 0 0
0 0 0 0 0 0 0 0 0 0 0 0 0 0 0 0 0 0 0 0 0 0 0 0 0 0 0 0 0 0 0 0 0 0 0
0 0 0 0 0 0 0 0 0 0 0 0 0 0 0 3 41 37 2 29 33 2 26 31 7 28 79 2 26 28
2 26 26 2 26 24 2 26 22 2 26 20 2 25 18
0 0 0 0 0 0 0 0 0 0 0 0 0 0 0 0 0 0 0 0 0 0 0 0 0 0 0 0 0 0 0 0 0 0 0
0 0 0 0 0 0 0 0 0 0 0 0 0 0 0 0 0 0 0 0 0 0 0 0 0 0 0 0 0 0 0 0 0 0 0
0 0 0 0 0 0 0 0 0 0 0 0 0 0 0 0 0 0 0 0 0 0 0 0 0 0 0 0 0 0 0 0 0 0 0
0 0 0 0 0 0 0 0 0 0 0 0 4 55 39 3 36 35 2 26 31 2 26 30 2 26 28 2 26
27 2 26 25 2 26 23 2 26 21 2 26 19 2 25 17
0 0 0 0 0 0 0 0 0 0 0 0 0 0 0 0 0 0 0 0 0 0 0 0 0 0 0 0 0 0 0 0 0 0 0
0 0 0 0 0 0 0 0 0 0 0 0 0 0 0 0 0 0 0 0 0 0 0 0 0 0 0 0 0 0 0 0 0 0 0
0 0 0 0 0 0 0 0 0 0 0 0 0 0 0 0 0 0 0 0 0 0 0 0 0 0 0 0 0 0 0 0 0 0 0
0 0 0 0 0 0 0 0 0 0 0 0 3 48 37 2 32 33 2 26 30 2 26 29 2 26 27 2 26
25 2 26 24 2 26 22 2 26 20 2 25 18 2 25 16
23 48 25 23 48 25 23 48 25 23 48 25 23 48 25 23 48 25 23 48 25 23 48
25 23 48 25 23 49 25 23 49 25 23 49 25 23 49 25 23 49 25 23 49 25 23
49 25 23 49 25 23 49 25 23 49 25 23 49 25 23 49 25 23 49 25 23 49 25
23 49 25 23 49 25 23 49 25 23 49 25 23 49 25 23 49 25 23 49 25 23 49
25 23 49 25 23 49 25 23 49 25 23 49 25 23 49 25 23 49 25 23 49 25 23
49 25 3 44 34 2 29 31 2 26 29 2 26 27 2 26 26 2 26 24 2 26 22 2 26 21
2 26 19 2 25 17 2 25 15
30 63 33 30 63 33 30 63 33 30 64 33 30 64 34 30 64 34 31 64 34 31 64
34 31 65 34 31 65 34 31 65 34 31 65 34 31 65 34 31 65 34 31 66 34 31
66 34 31 66 34 31 66 35 31 66 35 31 66 35 32 66 35 32 66 35 32 66 35
32 66 35 32 66 35 32 66 35 32 66 35 32 66 35 32 66 35 32 66 35 32 66
35 32 66 35 32 66 35 32 66 34 31 66 34 31 66 34 31 66 34 31 66 34 31
66 34 3 42 32 2 27 28 2 26 27 2 26 26 2 26 24 2 26 23 2 26 21 2 26 19
2 25 18 2 25 16 2 25 14
39 81 43 39 81 43 39 82 44 39 82 44 40 83 44 40 83 44 40 84 45 40 84
45 40 85 45 41 85 45 41 86 45 41 86 46 41 87 46 41 87 46 42 87 46 42
88 46 42 88 46 42 89 46 42 89 47 43 89 47 43 89 47 43 90 47 43 90 47
43 90 47 43 90 47 43 90 47 43 90 47 43 91 47 43 91 47 43 91 47 43 90
47 43 90 47 43 90 47 43 90 46 43 90 46 43 90 46 43 90 46 43 89 46 42
89 46 3 46 29 2 26 26 2 26 25 2 26 24 2 26 23 2 26 21 2 26 20 2 25 18
2 25 16 2 25 15 2 25 13
49 102 55 49 103 55 49 104 56 50 105 56 50 106 57 51 107 57 51 108 58
52 109 58 52 110 58 53 111 59 53 112 59 54 113 59 54 114 60 55 115 60
55 116 61 56 117 61 56 118 61 56 118 61 57 119 62 57 120 62 58 121 62
58 122 62 58 122 62 59 123 63 59 123 63 59 124 63 59 124 63 59 124 63
59 125 63 59 125 63 59 125 63 59 125 62 59 125 62 59 124 62 59 124 62
59 124 62 59 123 61 58 123 61 58 122 61 58 121 60 2 26 24 2 26 24 2 26
22 2 26 21 2 26 20 2 25 18 2 25 17 2 25 15 2 25 13 2 25 12
60 125 68 60 126 69 61 128 70 62 130 70 63 131 71 64 133 72 65 135 73
65 137 73 66 139 74 67 141 75 68 143 75 69 145 76 70 147 77 71 149 77
72 151 78 73 153 79 74 155 79 75 157 80 76 159 80 77 161 81 77 162 81
78 164 82 79 166 82 80 168 83 81 169 83 81 171 83 82 172 83 82 173 84
83 174 84 83 174 84 83 175 84 83 175 84 84 175 83 83 175 83 83 175 83
83 174 82 83 173 82 82 172 81 82 171 81 81 170 80 2 28 21 2 26 21 2 26
20 2 26 19 2 25 18 2 25 16 2 25 15 2 25 13 2 25 12 2 25 10
71 148 83 72 151 84 73 153 85 74 156 86 76 158 87 77 161 88 78 164 89
80 167 90 81 170 91 82 173 92 84 176 93 85 179 94 87 183 95 89 186 96
90 190 97 92 193 99 94 197 100 96 201 101 97 205 102 99 209 103 101
212 104 103 216 105 105 220 106 106 224 107 108 227 107 110 231 108
111 234 109 113 237 110 114 240 110 115 243 111 117 245 111 117 247
111 118 248 111 118 249 111 118 249 111 118 249 111 118 248 110 117
246 109 116 244 108 115 241 107 114 239 106 2 25 18 2 25 18 2 25 17 2
25 16 2 25 15 2 25 13 2 25 12 2 25 10 2 25 10
81 170 98 83 173 99 84 176 100 86 179 102 87 183 103 89 186 104 91 190
106 93 194 107 94 198 108 96 202 110 98 207 111 101 211 112 103 216
114 105 221 115 107 226 117 110 232 118 112 237 120 115 243 121 117
248 123 120 254 124 123 255 126 126 255 127 129 255 129 131 255 130
134 255 132 137 255 133 140 255 134 142 255 136 145 255 137 147 255
138 150 255 139 152 255 140 153 255 140 155 255 140 156 255 141 156
255 140 156 255 140 156 255 139 155 255 138 153 255 137 152 255 135
149 255 133 2 25 14 2 25 14 2 25 13 2 25 12 2 25 11 2 25 10 2 25 10 2
25 10
90 187 112 91 191 113 93 194 115 95 198 116 97 202 118 99 206 119 101
211 121 103 215 122 105 220 124 107 225 125 109 230 127 112 236 129
114 241 130 117 247 132 120 253 133 123 255 135 125 255 137 129 255
138 132 255 140 135 255 142 138 255 143 141 255 145 144 255 147 148
255 148 151 255 150 154 255 151 157 255 152 160 255 154 162 255 155
165 255 156 167 255 156 168 255 157 170 255 157 171 255 157 172 255
157 172 255 157 172 255 156 172 255 155 171 255 154 170 255 152 168
255 151 167 255 149 164 255 147 162 255 145 2 25 10 2 25 10 2 25 10 2
25 10 2 25 10 2 25 10
96 200 125 97 203 126 99 207 128 101 211 129 103 215 131 105 219 132
107 224 133 109 229 135 111 233 136 113 238 138 116 244 139 118 249
141 121 255 142 123 255 144 126 255 145 129 255 147 132 255 148 135
255 150 138 255 151 141 255 153 144 255 154 147 255 155 150 255 157
153 255 158 156 255 159 159 255 161 161 255 162 164 255 162 166 255
163 168 255 163 169 255 164 170 255 163 171 255 163 171 255 163 171
255 162 171 255 161 170 255 160 170 255 159 169 255 157 167 255 156
166 255 154 164 255 152 162 255 150 160 255 148 158 255 146 156 255
144 2 25 10 2 25 10 2 25 10 2 25 10
99 207 135 101 210 136 103 214 137 104 217 139 106 221 140 108 225 141
110 229 143 112 234 144 114 238 145 116 243 146 118 247 147 120 252
148 122 255 150 124 255 151 127 255 152 129 255 153 131 255 154 134
255 155 136 255 156 139 255 157 141 255 158 144 255 158 146 255 159
148 255 160 151 255 161 153 255 161 155 255 162 156 255 162 158 255
162 159 255 162 160 255 162 161 255 162 162 255 161 162 255 161 162
255 160 161 255 159 161 255 158 160 255 156 159 255 155 158 255 153
157 255 152 155 255 150 154 255 148 152 255 147 151 255 145 149 255
143 147 255 141 145 255 139 143 255 137 141 255 135
94 205 69 102 212 143 104 216 144 105 219 145 107 222 146 108 226 147
110 229 148 111 233 149 113 236 150 115 240 150 116 244 151 118 248
152 120 252 153 122 255 153 123 255 154 125 255 154 127 255 155 129
255 155 131 255 156 132 255 156 134 255 156 136 255 157 138 255 157
139 255 157 141 255 157 142 255 157 143 255 157 145 255 157 146 255
157 147 255 157 147 255 157 148 255 156 148 255 155 148 255 155 149
255 154 148 255 153 148 255 152 148 255 151 147 255 150 146 255 149
146 255 147 145 255 146 144 255 145 143 255 143 141 255 142 140 255
140 139 255 139 138 255 137 136 255 136 130 255 93
101 209 146 102 212 147 104 214 147 105 217 148 106 220 149 107 223
149 109 226 150 110 228 151 111 231 151 112 234 151 114 237 152 115
240 152 116 244 152 118 247 153 119 250 153 120 253 153 121 255 153
123 255 153 124 255 153 125 255 153 126 255 153 128 255 153 129 255
153 130 255 153 131 255 153 132 255 153 133 255 152 134 255 152 134
255 152 135 255 151 135 255 151 136 255 150 136 255 149 136 255 149
136 255 148 136 255 147 136 255 146 136 255 145 136 255 144 136 255
143 135 255 142 134 255 141 134 255 140 133 255 139 132 255 138 132
255 137 131 255 135 130 255 134 129 255 133 75 154 55
100 207 147 101 209 148 102 211 148 103 214 149 104 216 149 105 218
149 106 221 150 107 223 150 108 225 150 109 227 150 110 230 150 111
232 151 112 234 151 113 237 151 114 239 151 115 241 150 116 244 150
117 246 150 118 248 150 119 250 150 120 252 150 120 254 149 121 255
149 122 255 149 123 255 148 123 255 148 124 255 147 125 255 147 125
255 147 126 255 146 126 255 145 126 255 145 126 255 144 127 255 144
127 255 143 127 255 142 127 255 141 127 255 141 127 255 140 126 255
139 126 255 138 126 255 137 125 255 136 125 255 135 125 255 134 73 161
102 73 160 101 25 45 67 24 45 66 24 45 66
99 204 146 100 206 147 101 208 147 102 210 147 102 211 148 103 213 148
104 215 148 105 217 148 105 219 148 106 221 148 107 222 148 108 224
148 108 226 148 109 228 148 110 230 147 111 231 147 111 233 147 112
235 147 113 236 146 113 238 146 114 239 146 115 241 145 115 242 145
116 244 145 116 245 144 117 246 144 117 247 143 118 248 143 118 249
142 118 250 142 118 251 141 119 251 140 119 252 140 119 252 139 119
253 138 119 253 138 119 253 137 119 253 136 119 253 136 119 253 135
119 253 134 119 252 133 119 252 133 71 156 103 71 155 102 71 154 101
70 153 100 70 152 99 25 45 68 25 45 67
98 201 144 98 202 145 99 204 145 100 205 145 100 207 145 101 208 145
101 210 145 102 211 145 103 213 145 103 214 145 104 216 145 104 217
145 105 218 144 106 220 144 106 221 144 107 223 144 107 224 143 108
225 143 108 226 143 109 228 142 109 229 142 110 230 142 110 231 141
111 232 141 111 233 140 111 234 140 112 235 139 112 236 139 112 236
138 112 237 138 113 238 137 113 238 137 113 239 136 113 239 135 113
239 135 113 240 134 113 240 134 113 240 133 113 240 132 113 240 132
113 240 131 69 150 103 69 149 102 69 149 101 68 148 101 68 148 100 68
147 99 67 146 98 67 145 98 25 45 68
96 198 142 97 199 142 97 200 142 98 201 142 98 202 142 99 204 142 99
205 142 100 206 142 100 207 142 101 208 142 101 210 142 102 211 141
102 212 141 102 213 141 103 214 141 103 215 140 104 216 140 104 217
140 105 218 139 105 219 139 105 220 139 106 221 138 106 222 138 106
223 137 107 223 137 107 224 136 107 225 136 107 226 135 108 226 135
108 227 134 108 227 134 108 228 133 108 228 133 108 228 132 109 229
132 109 229 131 109 229 131 109 229 130 109 229 129 109 229 129 67 144
102 67 144 102 66 143 101 66 143 100 66 143 100 66 142 99 65 142 98 65
141 97 65 141 97 65 140 96
94 194 139 95 195 139 95 196 139 96 197 139 96 198 139 97 199 139 97
200 139 97 201 139 98 202 139 98 203 139 99 204 138 99 205 138 99 206
138 100 207 138 100 208 137 100 209 137 101 210 137 101 211 136 101
211 136 102 212 136 102 213 135 102 214 135 103 214 135 103 215 134
103 216 134 103 216 133 104 217 133 104 217 132 104 218 132 104 218
131 104 219 131 104 219 130 105 220 130 105 220 129 105 220 129 105
220 128 105 221 128 105 221 127 105 221 127 105 221 126 65 139 101 65
139 100 64 139 100 64 138 99 64 138 98 64 138 98 64 137 97 63 137 97
63 136 96 63 136 95
93 191 137 93 192 137 94 193 137 94 194 136 94 195 136 95 196 136 95
197 136 95 197 136 96 198 136 96 199 136 96 200 135 97 201 135 97 201
135 97 202 135 98 203 134 98 204 134 98 204 134 99 205 133 99 206 133
99 206 133 99 207 132 100 208 132 100 208 132 100 209 131 100 209 131
100 210 131 101 210 130 101 211 130 101 211 129 101 212 129 101 212
128 101 212 128 101 213 127 101 213 127 102 213 127 102 213 126 102
213 126 102 214 125 102 214 125 63 135 100 63 135 100 63 135 99 63 134
99 63 134 98 62 134 97 62 134 97 62 133 96 62 133 96 62 133 95 62 133
95
92 188 134 92 189 134 92 190 134 93 191 134 93 192 134 93 192 134 93
193 133 94 194 133 94 194 133 94 195 133 95 196 133 95 196 132 95 197
132 95 198 132 96 198 132 96 199 131 96 200 131 96 200 131 97 201 130
97 201 130 97 202 130 97 202 129 97 203 129 98 203 129 98 204 128 98
204 128 98 205 128 98 205 127 98 205 127 98 206 126 98 206 126 99 206
126 99 207 125 99 207 125 99 207 124 99 207 124 99 207 124 99 208 123
99 208 123 61 131 99 61 131 98 61 131 98 61 131 97 61 131 97 61 131 96
61 130 96 61 130 95 61 130 95 60 130 94 60 130 94
