P3
100 50
255
20 1 16 20 1 16 20 1 16 20 1 16 20 1 16 20 1 16 20 1 16 20 1 17 20 1
17 20 1 17 20 1 17 20 1 17 20 1 17 20 1 17 20 1 17 20 1 17 20 1 17 20
1 17 20 1 17 20 1 17 20 1 17 20 1 17 20 1 17 20 1 17 20 1 17 20 1 17
20 1 17 20 1 17 20 1 17 20 1 17 20 1 17 20 1 17 20 1 17 20 1 17 20 1
17 20 1 17 20 1 17 20 1 17 20 1 17 20 1 17 20 1 17 20 1 17 20 1 17 20
1 17 20 1 17 20 1 17 116 65 20 134 74 22 138 76 22 138 76 22 136 75 22
133 74 22 129 72 21 125 70 21 119 67 21 114 64 20 107 61 20 101 57 19
94 54 19 86 50 18 79 46 18 79 46 18 79 46 18 79 46 18 79 46 18 79 46
18 30 1 35 30 1 35 30 1 35 30 1 35 30 1 35 30 1 35 30 1 35 30 1 35 30
1 35 30 1 35 30 1 35 30 1 35 30 1 35 30 1 35 30 1 35 20 1 17 20 1 17
20 1 17 20 1 17 20 1 17 20 1 17 20 1 17 20 1 17 20 1 17 20 1 17 20 1
16 20 1 16 20 1 16 20 1 16 20 1 16 20 1 16 20 1 16 20 1 16 20 1 16
21 1 17 21 1 17 21 1 17 21 1 17 21 1 17 21 1 17 21 1 17 21 1 17 21 1
17 21 1 17 21 1 18 21 1 18 21 1 18 21 1 18 21 1 18 21 1 18 21 1 18 21
1 18 21 1 18 21 1 18 21 1 18 21 1 18 21 1 18 21 1 18 21 1 18 21 1 18
21 1 18 21 1 18 21 1 18 21 1 18 21 1 18 21 1 18 21 1 18 21 1 18 21 1
18 21 1 18 21 1 18 21 1 18 21 1 18 21 1 18 21 1 18 21 1 18 21 1 18 21
1 18 21 1 18 21 1 18 133 74 22 143 79 22 145 80 22 145 80 22 143 79 22
139 77 22 135 75 22 130 72 21 125 69 21 119 66 21 112 63 20 105 60 20
98 56 19 91 52 19 83 48 18 79 46 18 79 46 18 79 46 18 79 46 18 79 46
18 30 1 35 30 1 35 30 1 35 30 1 35 30 1 35 30 1 35 30 1 35 30 1 35 30
1 35 30 1 35 30 1 35 30 1 35 30 1 35 30 1 35 30 1 35 21 1 18 21 1 18
21 1 18 21 1 18 21 1 18 21 1 18 21 1 18 21 1 17 21 1 17 21 1 17 21 1
17 21 1 17 21 1 17 21 1 17 21 1 17 21 1 17 21 1 17 21 1 17 21 1 17
22 1 18 22 1 18 22 1 18 22 1 18 22 1 18 22 1 18 22 1 18 22 1 18 22 1
18 22 1 19 22 1 19 22 1 19 22 1 19 22 1 19 22 1 19 22 1 19 22 1 19 22
1 19 22 1 19 22 1 19 22 1 19 22 1 19 22 1 19 22 1 19 22 1 19 22 1 19
22 1 19 22 1 19 22 1 19 22 1 19 22 1 19 22 1 19 22 1 19 22 1 19 22 1
19 22 1 19 22 1 19 22 1 19 22 1 19 22 1 19 22 1 19 22 1 19 22 1 19 22
1 19 22 1 19 22 1 19 143 79 22 150 82 23 152 83 23 151 83 23 148 81 23
145 80 22 140 77 22 135 75 22 129 72 21 123 69 21 116 65 20 109 62 20
102 58 19 94 54 19 86 50 18 79 46 18 79 46 18 79 46 18 79 46 18 79 46
18 30 1 35 30 1 35 30 1 35 30 1 35 30 1 35 30 1 35 30 1 35 30 1 35 30
1 35 30 1 35 30 1 35 30 1 35 30 1 35 30 1 35 30 1 35 22 1 19 22 1 19
22 1 19 22 1 19 22 1 19 22 1 19 22 1 19 22 1 19 22 1 18 22 1 18 22 1
18 22 1 18 22 1 18 22 1 18 22 1 18 22 1 18 22 1 18 22 1 18 22 1 18
23 1 19 23 1 19 23 1 19 23 1 19 23 1 19 23 1 19 23 1 19 23 1 20 23 1
20 23 1 20 23 1 20 23 1 20 23 1 20 23 1 20 23 1 20 23 1 20 23 1 20 23
1 20 23 1 20 23 1 20 23 1 20 23 1 20 23 1 20 23 1 20 23 1 20 23 1 20
23 1 20 24 1 20 24 1 20 24 1 20 24 1 20 24 1 20 24 1 20 24 1 20 24 1
20 24 1 20 24 1 20 24 1 20 24 1 20 24 1 20 24 1 20 24 1 20 24 1 20 24
1 20 24 1 20 24 1 20 150 82 23 156 85 23 157 86 23 156 85 23 153 84 23
149 82 23 145 80 22 139 77 22 133 74 22 127 71 21 120 67 21 113 64 20
106 60 20 98 56 19 90 52 19 81 48 18 79 46 18 79 46 18 79 46 18 79 46
18 30 1 35 30 1 35 30 1 35 30 1 35 30 1 35 30 1 35 30 1 35 30 1 35 30
1 35 30 1 35 30 1 35 30 1 35 30 1 35 30 1 35 30 1 35 23 1 20 23 1 20
23 1 20 23 1 20 23 1 20 23 1 20 23 1 20 23 1 20 23 1 20 23 1 20 23 1
19 23 1 19 23 1 19 23 1 19 23 1 19 23 1 19 23 1 19 23 1 19 23 1 19
24 1 20 24 1 20 24 1 20 24 1 21 24 1 21 24 1 21 24 1 21 24 1 21 24 1
21 24 1 21 24 1 21 24 1 21 24 1 21 24 1 21 24 1 21 24 1 21 24 1 21 25
1 21 25 1 21 25 1 21 25 1 21 25 1 21 25 1 21 25 1 21 25 1 21 25 1 21
25 1 21 25 1 21 25 1 21 25 1 21 25 1 21 25 1 22 25 1 22 25 1 22 25 1
22 25 1 22 25 1 22 25 1 22 25 1 22 25 1 22 25 1 22 25 1 22 25 1 22 25
1 22 25 1 22 25 1 22 154 84 23 160 87 24 161 88 24 160 87 23 157 86 23
153 84 23 148 81 23 143 79 22 137 76 22 130 72 21 123 69 21 116 65 20
108 61 20 101 57 19 92 53 19 84 49 18 79 46 18 79 46 18 79 46 18 79 46
18 30 1 35 30 1 35 30 1 35 30 1 35 30 1 35 30 1 35 30 1 35 30 1 35 30
1 35 30 1 35 30 1 35 30 1 35 30 1 35 30 1 35 30 1 35 24 1 21 24 1 21
24 1 21 24 1 21 24 1 21 24 1 21 24 1 21 24 1 21 24 1 21 24 1 21 24 1
21 24 1 21 24 1 21 24 1 20 24 1 20 24 1 20 24 1 20 24 1 20 24 1 20
25 1 22 25 1 22 25 1 22 25 1 22 25 1 22 25 1 22 25 1 22 25 1 22 25 1
22 25 1 22 26 1 22 26 1 22 26 1 22 26 1 22 26 1 22 26 1 22 26 1 22 26
1 22 26 1 22 26 1 22 26 1 23 26 1 23 26 1 23 26 1 23 26 1 23 26 1 23
26 1 23 26 1 23 26 1 23 26 1 23 26 1 23 26 1 23 26 1 23 26 1 23 26 1
23 26 1 23 26 1 23 26 1 23 26 1 23 26 1 23 26 1 23 26 1 23 26 1 23 26
1 23 27 1 23 27 1 23 157 86 23 164 89 24 165 90 24 164 89 24 161 88 24
163 91 24 152 83 23 146 80 23 140 77 22 133 74 22 126 70 21 119 66 21
111 63 20 103 58 20 94 54 19 85 50 18 79 46 18 79 46 18 79 46 18 79 46
18 30 1 35 30 1 35 30 1 35 30 1 35 30 1 35 30 1 35 30 1 35 30 1 35 30
1 35 30 1 35 30 1 35 30 1 35 30 1 35 30 1 35 30 1 35 26 1 22 26 1 22
26 1 22 25 1 22 25 1 22 25 1 22 25 1 22 25 1 22 25 1 22 25 1 22 25 1
22 25 1 22 25 1 22 25 1 22 25 1 22 25 1 22 25 1 21 25 1 21 25 1 21
26 1 23 26 1 23 26 1 23 26 1 23 27 1 23 27 1 23 27 1 23 27 1 23 27 1
23 27 1 23 27 1 23 27 1 23 27 1 24 27 1 24 27 1 24 27 1 24 27 1 24 27
1 24 27 1 24 27 1 24 27 1 24 27 1 24 27 1 24 28 1 24 28 1 24 28 1 24
28 1 24 28 1 24 28 1 24 28 1 24 28 1 24 28 1 25 28 1 25 28 1 25 28 1
25 28 1 25 28 1 25 28 1 25 28 1 25 28 1 25 28 1 25 28 1 25 28 1 25 28
1 25 28 1 25 28 1 25 159 87 23 166 90 24 167 91 24 166 90 24 165 90 24
255 184 40 165 93 25 148 81 23 142 78 22 135 75 22 128 71 21 120 67 21
113 63 20 104 59 20 96 55 19 87 50 18 79 46 18 79 46 18 79 46 18 79 46
18 30 1 35 30 1 35 30 1 35 30 1 35 30 1 35 30 1 35 30 1 35 30 1 35 30
1 35 30 1 35 30 1 35 30 1 35 30 1 35 30 1 35 30 1 35 27 1 24 27 1 24
27 1 24 27 1 23 27 1 23 27 1 23 27 1 23 27 1 23 26 1 23 26 1 23 26 1
23 26 1 23 26 1 23 26 1 23 26 1 23 26 1 23 26 1 23 26 1 23 26 1 23
28 1 24 28 1 24 28 1 24 28 1 24 28 1 24 28 1 24 28 1 25 28 1 25 28 1
25 28 1 25 28 1 25 28 1 25 28 1 25 28 1 25 29 1 25 29 1 25 29 1 25 29
1 25 29 1 25 29 1 26 29 1 26 29 1 26 29 1 26 29 1 26 29 1 26 29 1 26
29 1 26 29 1 26 29 1 26 29 1 26 29 1 26 29 1 26 29 1 26 29 1 26 30 1
26 30 1 26 30 1 26 30 1 27 30 1 27 30 1 27 30 1 27 30 1 27 30 1 27 30
1 27 30 1 27 30 1 27 157 86 23 166 90 24 168 92 24 168 91 24 165 90 24
176 100 26 159 88 24 150 82 23 143 79 22 137 76 22 129 72 21 122 68 21
114 64 20 105 60 20 97 55 19 87 51 18 79 46 18 79 46 18 79 46 18 79 46
18 30 1 35 30 1 35 30 1 35 30 1 35 30 1 35 30 1 35 30 1 35 30 1 35 30
1 35 30 1 35 30 1 35 30 1 35 30 1 35 30 1 35 30 1 35 28 1 25 28 1 25
28 1 25 28 1 25 28 1 25 28 1 25 28 1 25 28 1 25 28 1 25 28 1 24 28 1
24 28 1 24 27 1 24 27 1 24 27 1 24 27 1 24 27 1 24 27 1 24 27 1 24
29 1 25 29 1 26 29 1 26 29 1 26 29 1 26 29 1 26 29 1 26 30 1 26 30 1
26 30 1 26 30 1 26 30 1 27 30 1 27 30 1 27 30 1 27 30 1 27 30 1 27 30
1 27 30 1 27 30 1 27 31 1 27 31 1 27 31 1 27 31 1 28 31 1 28 31 1 28
31 1 28 31 1 28 31 1 28 31 1 28 31 1 28 31 1 28 31 1 28 31 1 28 31 1
28 31 1 28 31 1 28 31 1 28 31 1 29 31 1 29 31 1 29 31 1 29 31 1 29 32
1 29 32 1 29 32 1 29 149 82 23 164 90 24 168 91 24 168 91 24 165 90 24
161 88 24 156 86 23 151 83 23 144 79 22 137 76 22 130 72 21 122 68 21
114 64 20 106 60 20 97 55 19 87 51 18 79 46 18 79 46 18 79 46 18 79 46
18 30 1 35 30 1 35 30 1 35 30 1 35 30 1 35 30 1 35 30 1 35 30 1 35 30
1 35 30 1 35 30 1 35 30 1 35 30 1 35 30 1 35 30 1 27 30 1 27 30 1 27
30 1 27 30 1 26 29 1 26 29 1 26 29 1 26 29 1 26 29 1 26 29 1 26 29 1
26 29 1 26 29 1 26 29 1 26 29 1 25 29 1 25 28 1 25 28 1 25 28 1 25
30 1 27 30 1 27 31 1 27 31 1 27 31 1 27 31 1 28 31 1 28 31 1 28 31 1
28 31 1 28 31 1 28 31 1 28 32 1 28 32 1 28 32 1 29 32 1 29 32 1 29 32
1 29 32 1 29 32 1 29 32 1 29 32 1 29 32 1 29 32 1 30 33 1 30 33 1 30
33 1 30 33 1 30 33 1 30 33 1 30 33 1 30 33 1 30 33 1 30 33 1 30 33 1
30 33 1 31 33 1 31 33 1 31 33 1 31 33 1 31 33 1 31 33 1 31 33 1 31 33
1 31 33 1 31 33 1 31 33 1 31 159 87 23 166 90 24 167 91 24 165 90 24
161 88 24 156 85 23 151 83 23 144 79 22 137 76 22 130 72 21 122 68 21
114 64 20 105 60 20 96 55 19 86 50 18 79 46 18 79 46 18 79 46 18 30 1
35 30 1 35 30 1 35 30 1 35 30 1 35 30 1 35 30 1 35 30 1 35 30 1 35 30
1 35 30 1 35 30 1 35 30 1 35 30 1 35 30 1 35 31 1 29 31 1 28 31 1 28
31 1 28 31 1 28 31 1 28 31 1 28 31 1 28 31 1 28 31 1 28 30 1 27 30 1
27 30 1 27 30 1 27 30 1 27 30 1 27 30 1 27 30 1 27 30 1 27 30 1 26
32 1 28 32 1 29 32 1 29 32 1 29 32 1 29 32 1 29 33 1 29 33 1 29 33 1
30 33 1 30 33 1 30 33 1 30 33 1 30 33 1 30 33 1 30 34 1 31 34 1 31 34
1 31 34 1 31 34 1 31 34 1 31 34 1 31 34 1 32 34 1 32 35 1 32 35 1 32
35 1 32 35 1 32 35 1 32 35 1 32 35 1 32 35 1 33 35 1 33 35 1 33 35 1
33 35 1 33 35 1 33 35 1 33 35 1 33 35 1 33 36 1 33 36 1 33 36 1 33 36
1 33 36 1 33 36 1 33 36 1 33 145 80 22 160 87 24 163 89 24 162 88 24
159 87 23 155 85 23 149 82 23 143 79 22 136 75 22 129 72 21 121 68 21
113 63 20 104 59 20 94 54 19 84 49 18 79 46 18 79 46 18 30 1 35 30 1
35 30 1 35 30 1 35 30 1 35 30 1 35 30 1 35 30 1 35 30 1 35 30 1 35 30
1 35 30 1 35 30 1 35 30 1 35 30 1 35 33 1 31 33 1 30 33 1 30 33 1 30
33 1 30 99 84 46 106 88 49 100 84 48 90 76 46 74 64 43 60 55 38 32 1
29 32 1 29 32 1 29 32 1 29 31 1 29 31 1 28 31 1 28 31 1 28 31 1 28 31
1 28
33 1 30 34 1 30 34 1 30 34 1 31 34 1 31 34 1 31 34 1 31 34 1 31 35 1
31 35 1 32 35 1 32 35 1 32 35 1 32 35 1 32 35 1 33 36 1 33 36 1 33 36
1 33 36 1 33 36 1 33 36 1 34 36 1 34 36 1 34 36 1 34 37 1 34 37 1 34
37 1 34 37 1 35 37 1 35 37 1 35 37 1 35 37 1 35 37 1 35 37 1 35 38 1
35 38 1 36 38 1 36 38 1 36 38 1 36 38 1 36 38 1 36 38 1 36 38 1 36 38
1 36 38 1 36 38 1 36 38 1 36 38 1 36 148 81 23 157 86 23 158 86 23 156
85 23 152 83 23 147 81 23 141 78 22 134 74 22 127 71 21 119 67 21 110
62 20 101 58 19 91 53 19 80 47 18 79 46 18 79 46 18 56 2 44 57 2 44 30
1 35 30 1 35 30 1 35 30 1 35 30 1 35 30 1 35 30 1 35 30 1 35 30 1 35
30 1 35 30 1 35 30 1 35 35 1 33 35 1 33 35 1 33 35 1 32 35 1 32 124
102 52 129 106 54 125 104 53 116 97 51 105 88 49 91 77 47 75 64 44 60
55 38 62 54 39 33 1 30 33 1 30 33 1 30 33 1 30 33 1 30 33 1 30 32 1 29
32 1 29
35 1 32 35 1 32 35 1 32 36 1 32 36 1 33 36 1 33 36 1 33 36 1 33 36 1
34 37 1 34 37 1 34 37 1 34 37 1 34 37 1 35 37 1 35 38 1 35 38 1 35 38
1 35 38 1 36 38 1 36 38 2 36 38 2 36 39 2 36 39 2 37 39 2 37 39 2 37
39 2 37 39 2 37 39 2 38 39 2 38 40 2 38 40 2 38 40 2 38 40 2 38 40 2
38 40 2 39 40 2 39 40 2 39 40 2 39 40 2 39 40 2 39 40 2 39 40 2 39 40
2 39 41 2 39 41 2 39 41 2 39 41 2 39 40 2 39 143 79 22 150 82 23 150
82 23 147 81 23 142 78 22 137 76 22 130 72 21 123 69 21 115 65 20 106
60 20 96 55 19 86 50 18 79 46 18 79 46 18 51 1 48 52 1 43 54 2 43 54 2
43 54 2 43 53 1 43 51 1 42 50 1 42 48 1 41 45 1 40 42 1 39 39 1 38 35
1 37 31 1 35 30 1 35 37 1 35 37 1 35 37 1 35 37 1 34 128 106 53 143
117 56 142 117 56 136 112 55 127 105 53 116 96 51 102 85 49 86 72 46
66 56 42 63 54 42 35 1 32 35 1 32 34 1 32 34 1 32 34 1 31 34 1 31 34 1
31 34 1 31
37 1 34 37 1 34 37 1 34 37 1 34 38 1 35 38 1 35 38 1 35 38 1 35 38 2
36 39 2 36 39 2 36 39 2 36 39 2 37 39 2 37 40 2 37 40 2 37 40 2 38 40
2 38 40 2 38 40 2 38 41 2 39 41 2 39 41 2 39 41 2 39 41 2 40 41 2 40
42 2 40 42 2 40 42 2 41 42 2 41 42 2 41 42 2 41 42 2 41 43 2 42 43 2
42 43 2 42 43 2 42 43 2 42 43 2 42 43 2 43 43 2 43 43 2 43 43 2 43 43
2 43 88 60 61 88 63 43 96 71 46 104 81 54 80 56 33 71 50 31 124 69 21
138 76 22 138 76 22 135 75 22 130 72 21 124 69 21 117 65 20 108 61 20
99 57 19 89 51 19 79 46 18 30 1 39 30 1 38 30 1 38 45 1 44 49 1 41 50
1 42 50 1 42 49 1 42 48 1 41 47 1 41 45 1 40 42 1 39 39 1 38 35 1 37
30 1 35 40 2 38 39 2 38 39 2 38 39 2 37 39 2 37 39 2 37 146 120 56 152
125 58 150 123 57 143 118 56 134 110 54 122 101 52 108 90 50 92 77 47
72 62 43 62 54 42 67 58 41 36 1 34 36 1 34 36 1 33 36 1 33 36 1 33 35
1 33 35 1 32
39 2 36 39 2 36 39 2 36 39 2 37 40 2 37 40 2 37 40 2 37 40 2 38 40 2
38 41 2 38 41 2 39 41 2 39 41 2 39 42 2 39 42 2 40 42 2 40 42 2 40 42
2 41 43 2 41 43 2 41 43 2 42 43 2 42 44 2 42 44 2 43 44 2 43 44 2 43
44 2 43 45 2 44 45 2 44 45 2 44 45 2 45 45 2 45 45 2 45 46 2 45 46 2
46 46 2 46 46 2 46 46 2 46 46 2 46 46 2 47 46 2 47 46 2 47 46 2 47 84
59 35 94 63 31 97 63 29 96 62 26 93 59 24 87 55 22 79 50 20 68 44 18
55 36 16 38 26 14 120 67 21 117 66 21 112 63 20 105 60 20 96 55 19 85
49 18 32 1 42 32 1 42 32 1 42 32 1 42 32 1 41 32 1 41 31 1 41 41 1 39
44 1 40 44 1 40 43 1 40 42 1 39 40 1 38 37 1 37 33 1 36 42 2 41 42 2
41 42 2 41 42 2 40 41 2 40 41 2 40 41 2 39 41 2 39 152 126 57 157 129
58 153 126 58 146 121 56 137 113 55 125 103 52 110 92 50 94 79 47 74
64 43 61 54 41 60 54 38 38 1 36 38 1 35 37 1 35 37 1 35 37 1 35 37 1
34 37 1 34
41 2 38 41 2 38 41 2 38 41 2 39 42 2 39 42 2 39 42 2 40 42 2 40 43 2
40 43 2 41 43 2 41 43 2 41 44 2 42 44 2 42 44 2 43 45 2 43 45 2 43 45
2 44 45 2 44 46 2 44 46 2 45 46 2 45 46 2 46 47 2 46 47 2 46 47 2 47
47 2 47 48 2 48 48 2 48 48 2 48 48 2 49 48 2 49 49 2 49 49 2 50 49 2
50 49 2 50 49 2 50 49 2 51 50 2 51 50 2 51 50 2 51 50 2 51 82 54 26 95
60 23 101 63 21 102 63 19 101 61 18 97 59 16 93 56 16 86 52 15 77 47
14 65 40 12 51 31 10 31 20 8 14 10 6 35 2 47 35 2 47 35 2 47 35 1 47
34 1 46 34 1 46 34 1 46 34 1 45 34 1 45 34 1 45 33 1 44 33 1 44 33 1
44 33 1 43 33 1 43 32 1 43 32 1 42 45 2 45 45 2 45 45 2 44 44 2 44 44
2 44 44 2 43 44 2 43 43 2 43 43 2 42 43 2 42 151 126 56 156 129 57 153
127 57 146 121 56 136 113 54 124 104 51 109 92 49 93 79 45 73 64 42 60
54 39 61 54 40 40 2 38 39 2 37 39 2 37 39 2 37 39 2 36 38 2 36 38 2 36
43 2 40 43 2 40 43 2 41 44 2 41 44 2 41 44 2 42 44 2 42 45 2 43 45 2
43 45 2 43 46 2 44 46 2 44 46 2 45 47 2 45 47 2 46 47 2 46 47 2 46 48
2 47 48 2 47 48 2 48 49 2 48 49 2 49 49 2 49 50 2 50 50 2 50 50 2 51
51 2 51 51 2 52 51 2 52 51 2 53 52 2 53 52 2 53 52 2 54 52 2 54 53 2
55 53 2 55 53 2 55 53 2 56 53 2 56 54 2 56 54 2 57 71 45 18 91 56 17
102 62 17 108 66 17 111 67 18 111 67 18 109 66 18 104 63 17 97 59 16
89 54 15 105 48 54 88 40 52 47 29 10 24 16 7 38 2 52 37 2 52 37 2 52
37 2 51 37 2 51 37 2 51 36 2 50 36 2 50 36 2 49 36 2 49 36 2 48 35 2
48 35 2 47 35 2 47 34 1 47 34 1 46 48 2 49 48 2 49 48 2 48 47 2 48 47
2 47 47 2 47 46 2 46 46 2 46 46 2 45 45 2 45 45 2 44 146 122 55 152
126 56 149 124 55 142 119 54 132 111 52 120 101 50 105 90 47 88 77 43
68 61 39 61 54 40 42 2 40 41 2 40 41 2 39 41 2 39 41 2 39 40 2 38 40 2
38 40 2 38
45 2 42 45 2 42 45 2 43 46 2 43 46 2 44 46 2 44 47 2 45 47 2 45 47 2
46 48 2 46 48 2 47 48 2 47 49 2 48 49 2 48 50 2 49 50 2 49 50 2 50 51
2 50 51 2 51 51 2 51 52 2 52 52 2 53 53 2 53 53 2 54 53 2 54 54 2 55
54 2 56 54 2 56 55 2 57 55 2 57 55 2 58 56 2 59 56 2 59 56 2 60 57 2
60 57 2 61 57 2 61 58 2 62 58 2 62 58 2 62 58 2 63 85 52 15 103 62 17
113 68 18 118 72 19 121 73 19 120 73 19 117 71 19 113 68 18 106 64 17
97 59 16 117 54 49 99 46 48 78 36 43 37 24 9 14 10 6 40 2 57 40 2 57
40 2 56 40 2 56 39 2 55 39 2 55 39 2 54 38 2 54 38 2 53 38 2 53 38 2
52 37 2 51 37 2 51 37 2 50 52 2 54 51 2 53 51 2 52 50 2 52 50 2 51 50
2 51 49 2 50 49 2 49 48 2 49 48 2 48 48 2 48 47 2 47 125 106 51 143
119 54 142 119 54 136 114 53 126 106 51 114 97 48 99 85 45 81 71 42 61
54 40 61 54 40 43 2 42 43 2 42 43 2 41 42 2 41 42 2 40 42 2 40 42 2 40
41 2 39
47 2 44 47 2 45 48 2 45 48 2 46 48 2 46 49 2 47 49 2 47 49 2 48 50 2
48 50 2 49 51 2 49 51 2 50 52 2 51 52 2 51 52 2 52 53 2 53 53 2 53 54
2 54 54 2 55 55 2 55 55 2 56 55 2 57 56 2 57 56 2 58 57 2 59 57 2 60
58 2 60 58 2 61 59 2 62 59 2 63 60 2 63 60 2 64 60 2 65 61 2 66 61 2
66 62 3 67 62 3 67 62 3 68 63 3 69 63 3 69 82 41 28 97 59 16 112 68 18
121 73 19 126 76 20 127 77 20 127 76 20 124 75 19 179 110 38 175 108
38 103 63 17 108 57 33 106 50 41 83 40 36 46 29 10 21 14 7 44 2 63 43
2 63 43 2 62 43 2 62 42 2 61 42 2 60 42 2 59 41 2 59 41 2 58 40 2 57
40 2 57 40 2 56 39 2 55 55 2 58 55 2 58 54 2 57 54 2 56 53 2 55 53 2
55 52 2 54 52 2 53 51 2 53 51 2 52 50 2 51 50 2 51 50 2 50 49 2 49 120
102 50 128 108 51 124 105 50 115 98 49 103 88 46 87 76 43 67 60 39 61
54 40 46 2 45 45 2 44 45 2 44 45 2 43 44 2 43 44 2 42 44 2 42 43 2 42
43 2 41
108 55 46 128 68 52 50 2 48 50 2 48 51 2 49 51 2 49 52 2 50 52 2 50 52
2 51 53 2 52 53 2 52 54 2 53 54 2 54 55 2 55 55 2 55 56 2 56 56 2 57
57 2 58 57 2 58 58 2 59 58 2 60 59 2 61 60 2 62 60 2 63 61 2 64 61 2
65 62 3 65 62 3 66 63 3 67 63 3 68 64 3 69 65 3 70 65 3 71 66 3 72 66
3 73 67 3 74 67 3 75 67 3 75 68 3 76 68 3 77 96 49 29 104 63 17 118 71
19 126 76 20 130 78 20 132 79 20 131 79 20 128 77 20 177 108 35 171
105 35 107 65 17 97 59 16 108 52 35 85 43 30 51 32 10 28 18 7 34 11 34
47 2 69 47 2 68 46 2 68 46 2 67 45 2 66 45 2 65 44 2 64 44 2 63 43 2
62 43 2 61 42 2 60 59 2 64 59 2 63 58 2 62 57 2 61 57 2 60 56 2 59 56
2 58 55 2 57 55 2 57 54 2 56 53 2 55 53 2 54 52 2 54 52 2 53 51 2 52
51 2 52 50 2 51 99 85 45 94 81 45 82 72 42 62 57 38 48 2 48 48 2 47 47
2 47 47 2 46 47 2 46 46 2 45 46 2 45 46 2 44 45 2 44 45 2 43 45 2 43
141 74 48 152 80 48 161 87 51 171 95 59 163 96 71 54 2 52 54 2 52 55 2
53 55 2 54 56 2 55 56 2 55 57 2 56 57 2 57 58 2 58 58 2 59 59 2 59 59
2 60 60 2 61 61 2 62 61 2 63 62 2 64 63 3 65 63 3 66 64 3 67 64 3 68
65 3 70 66 3 71 67 3 72 67 3 73 68 3 74 69 3 75 69 3 77 70 3 78 71 3
79 71 3 80 72 3 81 72 3 82 73 3 83 73 3 84 74 3 85 110 52 40 107 65 17
121 73 19 128 77 20 132 80 20 134 81 21 139 85 21 131 79 20 125 75 19
118 71 19 109 66 18 99 60 16 116 80 34 72 44 13 54 33 11 46 20 21 45
11 39 51 2 76 50 2 75 49 2 74 49 2 73 48 2 72 48 2 70 47 2 69 46 2 68
46 2 67 45 2 66 63 3 69 63 3 68 62 3 67 61 2 66 60 2 65 60 2 64 59 2
63 58 2 62 58 2 61 57 2 60 57 2 59 56 2 58 55 2 57 55 2 56 54 2 56 54
2 55 53 2 54 53 2 53 52 2 53 52 2 52 51 2 51 51 2 51 50 2 50 50 2 49
49 2 49 49 2 48 48 2 48 48 2 47 48 2 47 47 2 46 47 2 45 46 2 45 46 2
45
155 82 49 166 89 50 173 93 50 180 98 53 185 105 62 56 2 54 57 2 55 57
2 56 58 2 56 58 2 57 59 2 58 59 2 59 60 2 60 61 2 61 61 2 62 62 2 63
63 3 64 63 3 65 64 3 66 65 3 67 65 3 68 66 3 69 67 3 71 68 3 72 68 3
73 69 3 74 70 3 76 71 3 77 72 3 79 72 3 80 73 3 81 74 3 83 75 3 84 76
3 86 76 3 87 77 3 88 78 3 90 79 3 91 79 3 92 80 3 93 120 52 53 137 66
45 141 74 36 137 78 27 133 80 20 134 81 21 140 86 21 131 79 20 125 75
19 118 71 19 109 66 18 99 60 16 86 53 15 103 80 17 76 34 31 60 21 38
51 11 46 54 2 83 54 2 81 53 2 80 52 2 79 51 2 77 51 2 76 50 2 74 49 2
73 69 3 77 68 3 75 67 3 74 66 3 72 65 3 71 64 3 70 64 3 69 63 3 67 62
3 66 61 2 65 60 2 64 60 2 63 59 2 62 58 2 61 58 2 60 57 2 59 56 2 58
56 2 57 55 2 57 55 2 56 54 2 55 54 2 54 53 2 53 53 2 53 52 2 52 52 2
51 51 2 51 51 2 50 50 2 49 50 2 49 49 2 48 49 2 48 48 2 47 48 2 47 48
2 46
161 87 50 173 93 50 180 98 50 175 99 48 180 105 54 186 111 67 59 2 57
60 2 58 60 2 59 61 2 60 61 2 61 62 2 62 63 3 63 63 3 64 64 3 65 65 3
66 66 3 67 66 3 68 67 3 69 68 3 71 69 3 72 70 3 73 70 3 75 71 3 76 72
3 77 73 3 79 74 3 80 75 3 82 76 3 84 77 3 85 78 3 87 79 3 89 80 3 90
80 3 92 81 3 94 82 3 95 83 3 97 84 3 98 85 4 100 85 4 101 121 49 62
146 65 60 159 73 57 169 78 55 177 80 53 184 81 52 184 81 51 174 79 47
163 76 45 132 71 39 142 66 44 131 60 44 118 53 45 92 43 23 87 33 47 65
19 48 43 11 50 58 3 89 57 3 87 56 3 85 55 2 84 54 2 82 53 2 80 52 2 79
73 3 83 72 3 81 71 3 79 70 3 78 69 3 76 68 3 75 67 3 73 66 3 72 65 3
71 65 3 69 64 3 68 52 63 7 47 55 6 37 43 4 23 27 2 60 2 63 59 2 62 59
2 61 58 2 60 57 2 59 57 2 58 56 2 57 55 2 56 55 2 55 54 2 55 54 2 54
53 2 53 53 2 52 35 2 48 35 2 47 34 1 46 34 1 46 34 1 45 33 1 45 33 1
44 49 2 48
160 87 49 172 94 49 228 138 55 177 101 46 177 102 48 178 106 56 61 2
60 62 2 60 63 2 61 63 3 62 64 3 63 65 3 64 66 3 65 66 3 66 67 3 68 68
3 69 69 3 70 69 3 71 70 3 72 71 3 74 72 3 75 73 3 77 74 3 78 75 3 80
76 3 81 77 3 83 78 3 84 79 3 86 80 3 88 81 3 90 82 3 91 83 3 93 84 3
95 85 3 97 86 4 99 87 4 100 88 4 102 88 4 104 89 4 105 90 4 107 111 41
66 143 61 66 159 70 65 168 75 64 174 78 63 177 79 63 177 78 62 174 77
61 168 74 59 159 70 58 148 65 57 136 58 56 106 50 25 106 42 54 87 30
54 62 15 53 61 3 95 60 3 93 59 3 91 58 3 89 57 3 88 56 3 86 78 3 90 77
3 88 76 3 86 75 3 84 74 3 83 73 3 81 72 3 79 71 3 78 70 3 76 69 3 75
68 3 73 67 3 72 61 73 8 59 67 6 51 58 5 41 45 3 33 36 3 21 24 2 61 2
64 61 2 63 60 2 62 59 2 61 59 2 60 58 2 59 57 2 58 57 2 57 37 2 52 37
2 51 37 2 50 36 2 50 36 2 49 35 2 48 35 2 48 35 2 47 34 1 46 34 1 46
34 1 45 50 2 49
151 85 43 163 92 43 170 96 43 171 98 42 162 96 36 160 100 46 64 3 61
65 3 62 65 3 63 66 3 64 67 3 65 67 3 66 68 3 67 69 3 69 70 3 70 70 3
71 71 3 72 72 3 74 73 3 75 74 3 76 75 3 78 76 3 79 77 3 81 78 3 82 79
3 84 80 3 86 81 3 87 82 3 89 83 3 91 84 3 93 85 3 95 86 4 96 87 4 98
88 4 100 89 4 102 90 4 104 91 4 106 92 4 107 93 4 109 93 4 110 94 4
112 133 54 68 151 64 68 141 69 30 147 73 30 150 74 31 150 74 31 147 72
31 142 69 30 135 65 29 125 60 28 113 54 26 99 46 24 82 36 22 61 24 19
37 11 16 62 3 97 61 3 95 60 3 93 59 3 92 83 3 96 82 3 94 81 3 92 80 3
90 79 3 88 77 3 87 76 3 85 75 3 83 74 3 82 73 3 80 72 3 78 71 3 77 70
3 75 69 3 74 64 73 7 59 66 5 51 56 4 44 48 3 37 40 3 26 30 3 17 20 2
62 3 64 62 2 63 61 2 62 60 2 61 39 2 55 39 2 55 38 2 54 38 2 53 38 2
52 37 2 52 37 2 51 36 2 50 36 2 49 36 2 49 35 2 48 35 2 48 53 2 51 52
2 51 52 2 50
132 80 32 144 86 34 151 91 34 154 92 35 148 89 34 137 87 45 66 3 63 67
3 64 68 3 65 68 3 66 69 3 67 70 3 68 71 3 69 71 3 70 72 3 72 73 3 73
74 3 74 75 3 75 76 3 77 76 3 78 77 3 80 78 3 81 79 3 83 80 3 84 81 3
86 82 3 87 83 3 89 84 3 91 85 3 93 86 4 94 87 4 96 88 4 98 89 4 100 90
4 102 91 4 103 92 4 105 93 4 107 94 4 108 95 4 110 95 4 111 46 2 20 86
38 22 115 55 26 128 63 28 136 67 29 139 69 29 140 69 29 137 67 29 132
64 28 125 60 28 116 55 26 104 48 25 89 40 23 71 30 21 47 16 17 16 1 13
16 1 13 16 1 13 43 1 20 43 1 20 85 4 97 84 3 95 83 3 93 81 3 91 80 3
90 79 3 88 78 3 86 77 3 84 76 3 83 75 3 81 74 3 80 73 3 78 72 3 77 56
67 7 61 69 6 56 62 5 51 55 4 45 49 3 38 41 3 27 31 3 17 20 2 64 3 66
63 3 65 41 2 58 40 2 57 40 2 57 40 2 56 39 2 55 39 2 54 38 2 53 38 2
53 37 2 52 37 2 51 37 2 50 36 2 50 55 2 54 55 2 53 54 2 53 54 2 52 53
2 51
115 71 31 127 77 32 134 81 32 133 81 32 121 74 32 68 3 64 68 3 65 69 3
65 70 3 66 71 3 67 71 3 68 72 3 70 73 3 71 74 3 72 74 3 73 75 3 74 76
3 75 77 3 77 78 3 78 79 3 79 80 3 81 81 3 82 82 3 84 82 3 85 83 3 87
84 3 88 85 3 90 86 3 91 87 4 93 88 4 95 89 4 96 90 4 98 91 4 100 92 4
101 93 4 103 94 4 104 94 4 106 95 4 107 48 2 21 48 2 21 48 2 21 47 2
21 91 41 23 111 53 26 121 58 27 126 61 28 127 61 28 125 60 27 120 58
27 113 54 26 103 48 25 91 41 23 76 32 21 55 20 19 23 10 13 16 1 13 45
2 20 45 2 20 45 2 20 44 2 20 44 2 20 44 2 20 44 2 20 83 3 91 81 3 90
80 3 88 79 3 86 78 3 85 77 3 83 76 3 82 75 3 80 74 3 79 73 3 77 72 3
76 55 61 5 51 55 4 49 52 3 43 47 3 36 39 3 25 28 3 17 20 2 42 2 61 42
2 60 41 2 59 41 2 58 40 2 57 40 2 56 39 2 56 39 2 55 39 2 54 38 2 53
38 2 53 37 2 52 57 2 56 57 2 56 56 2 55 56 2 54 55 2 54 55 2 53 54 2
52
85 54 27 97 61 29 100 62 29 68 3 63 69 3 64 70 3 65 70 3 66 71 3 67 72
3 68 73 3 69 73 3 70 74 3 71 75 3 72 76 3 73 77 3 74 77 3 75 78 3 76
79 3 77 80 3 79 81 3 80 82 3 81 83 3 82 83 3 84 84 3 85 85 3 87 86 3
88 87 3 89 88 4 91 89 4 92 90 4 94 90 4 95 91 4 97 92 4 98 93 4 99 93
4 101 94 4 102 95 4 103 50 2 22 50 2 21 50 2 21 50 2 21 49 2 21 49 2
21 81 35 22 99 46 24 107 50 25 109 52 25 108 51 25 104 48 25 97 44 24
87 38 23 73 31 21 54 20 19 23 10 13 47 2 21 47 2 21 47 2 21 46 2 21 46
2 21 46 2 21 46 2 20 45 2 20 45 2 20 45 2 20 82 3 89 81 3 87 80 3 86
79 3 84 78 3 83 77 3 81 76 3 80 75 3 79 74 3 77 73 3 76 44 49 4 45 49
3 43 47 3 38 42 3 30 34 3 18 21 2 43 2 62 43 2 61 42 2 60 42 2 59 41 2
59 41 2 58 40 2 57 40 2 56 39 2 55 39 2 55 60 2 59 60 2 59 59 2 58 59
2 57 58 2 56 57 2 56 57 2 55 56 2 54 56 2 54 55 2 53
68 3 62 69 3 62 70 3 63 70 3 64 71 3 65 72 3 66 72 3 66 73 3 67 74 3
68 75 3 69 75 3 70 76 3 71 77 3 72 78 3 73 79 3 74 79 3 75 80 3 76 81
3 78 82 3 79 83 3 80 83 3 81 84 3 82 85 3 84 86 3 85 87 3 86 88 3 87
88 4 89 89 4 90 90 4 91 91 4 92 91 4 94 92 4 95 93 4 96 93 4 97 94 4
98 94 4 99 52 2 22 52 2 22 52 2 22 52 2 22 52 2 22 52 2 22 51 2 22 51
2 22 51 2 22 51 2 22 51 2 22 50 2 22 50 2 22 50 2 22 50 2 22 50 2 21
49 2 21 49 2 21 49 2 21 49 2 21 48 2 21 48 2 21 48 2 21 47 2 21 47 2
21 47 2 21 47 2 21 46 2 21 46 2 21 82 3 86 81 3 84 80 3 83 79 3 82 78
3 81 77 3 79 76 3 78 75 3 77 74 3 76 73 3 75 30 34 3 33 36 3 28 31 3
18 21 2 44 2 63 43 2 62 43 2 61 42 2 60 42 2 60 41 2 59 41 2 58 40 2
57 63 3 62 63 2 61 62 2 61 61 2 60 61 2 59 60 2 58 60 2 58 59 2 57 58
2 56 58 2 56 57 2 55 57 2 54 56 2 54
70 3 62 71 3 63 72 3 64 72 3 65 73 3 65 74 3 66 74 3 67 75 3 68 76 3
69 77 3 70 77 3 71 78 3 72 79 3 72 80 3 73 81 3 74 81 3 75 82 3 76 83
3 77 84 3 79 84 3 80 85 3 81 86 3 82 87 3 83 87 3 84 88 3 85 89 4 86
90 4 87 90 4 88 91 4 89 92 4 90 92 4 91 93 4 92 93 4 93 94 4 94 94 4
95 95 4 96 54 2 23 54 2 23 54 2 23 54 2 23 54 2 23 54 2 22 54 2 22 53
2 22 53 2 22 53 2 22 53 2 22 52 2 22 52 2 22 52 2 22 52 2 22 51 2 22
51 2 22 51 2 22 51 2 22 50 2 22 50 2 22 50 2 21 49 2 21 49 2 21 49 2
21 48 2 21 48 2 21 48 2 21 47 2 21 47 2 21 81 3 83 80 3 82 79 3 81 78
3 80 77 3 78 76 3 77 76 3 76 75 3 75 74 3 74 73 3 73 72 3 72 71 3 71
71 3 70 70 3 69 69 3 68 68 3 67 68 3 67 67 3 66 66 3 65 66 3 64 65 3
63 64 3 62 64 3 62 63 2 61 62 2 60 62 2 59 61 2 59 61 2 58 60 2 57 59
2 57 59 2 56 58 2 56 58 2 55 57 2 54
72 3 63 73 3 64 74 3 64 74 3 65 75 3 66 76 3 67 76 3 67 77 3 68 78 3
69 79 3 70 79 3 71 80 3 72 81 3 73 82 3 73 82 3 74 83 3 75 84 3 76 85
3 77 85 3 78 86 3 79 87 3 80 88 3 81 88 3 82 89 3 83 90 4 84 90 4 85
91 4 86 91 4 87 92 4 87 93 4 88 93 4 89 93 4 90 94 4 91 94 4 91 95 4
92 95 4 93 95 4 93 57 2 23 56 2 23 56 2 23 56 2 23 56 2 23 56 2 23 56
2 23 55 2 23 55 2 23 55 2 23 54 2 23 54 2 23 54 2 23 54 2 22 53 2 22
53 2 22 53 2 22 52 2 22 52 2 22 52 2 22 51 2 22 51 2 22 51 2 22 50 2
22 50 2 22 50 2 21 49 2 21 49 2 21 48 2 21 81 3 81 80 3 80 79 3 79 79
3 78 78 3 77 77 3 76 76 3 75 75 3 74 74 3 73 74 3 72 73 3 72 72 3 71
44 2 20 44 2 20 43 2 20 43 1 20 43 1 20 43 1 20 42 1 20 42 1 20 66 3
63 65 3 63 64 3 62 64 3 61 63 2 60 63 2 60 62 2 59 61 2 58 61 2 58 60
2 57 60 2 57 59 2 56 59 2 55 58 2 55
74 3 63 75 3 64 75 3 65 76 3 66 77 3 66 78 3 67 78 3 68 79 3 68 80 3
69 81 3 70 81 3 71 82 3 72 83 3 72 84 3 73 84 3 74 85 3 75 86 3 76 87
3 77 87 3 77 88 3 78 89 3 79 89 3 80 90 3 81 90 4 82 91 4 82 92 4 83
92 4 84 93 4 85 93 4 86 94 4 86 94 4 87 94 4 88 95 4 88 95 4 89 95 4
89 95 4 90 96 4 90 96 4 91 59 2 24 59 2 24 58 2 24 58 2 24 58 2 24 58
2 23 57 2 23 57 2 23 57 2 23 57 2 23 56 2 23 56 2 23 56 2 23 55 2 23
55 2 23 55 2 23 54 2 23 54 2 22 53 2 22 53 2 22 53 2 22 52 2 22 52 2
22 51 2 22 51 2 22 51 2 22 50 2 22 82 3 80 81 3 79 81 3 79 80 3 78 79
3 77 78 3 76 77 3 75 77 3 74 76 3 73 75 3 73 74 3 72 73 3 71 73 3 70
72 3 69 45 2 20 44 2 20 44 2 20 44 2 20 43 2 20 43 1 20 43 1 20 43 1
20 42 1 20 42 1 20 42 1 19 41 1 19 41 1 19 63 2 59 62 2 59 62 2 58 61
2 57 61 2 57 60 2 56 59 2 56 59 2 55
76 3 64 77 3 64 77 3 65 78 3 66 79 3 66 80 3 67 80 3 68 81 3 69 82 3
69 83 3 70 83 3 71 84 3 71 85 3 72 86 3 73 86 3 74 87 3 74 88 3 75 88
3 76 89 3 77 90 3 77 90 3 78 91 4 79 92 4 80 92 4 80 93 4 81 93 4 82
94 4 82 94 4 83 95 4 84 95 4 84 95 4 85 96 4 85 96 4 86 96 4 86 96 4
87 96 4 87 96 4 88 96 4 88 96 4 88 96 4 88 61 2 24 61 2 24 60 2 24 60
2 24 60 2 24 59 2 24 59 2 24 59 2 24 58 2 24 58 2 24 58 2 23 57 2 23
57 2 23 56 2 23 56 2 23 56 2 23 55 2 23 55 2 23 54 2 23 54 2 23 53 2
22 53 2 22 53 2 22 52 2 22 83 3 79 82 3 78 82 3 78 81 3 77 80 3 76 79
3 75 78 3 75 78 3 74 77 3 73 76 3 72 75 3 72 75 3 71 74 3 70 73 3 69
72 3 69 72 3 68 71 3 67 70 3 66 45 2 20 44 2 20 44 2 20 44 2 20 43 2
20 43 1 20 43 1 20 43 1 20 42 1 20 42 1 20 42 1 19 41 1 19 41 1 19 41
1 19 41 1 19 61 2 56 60 2 56 60 2 55
78 3 64 79 3 65 79 3 65 80 3 66 81 3 67 82 3 67 82 3 68 83 3 69 84 3
69 85 3 70 85 3 71 86 3 71 87 3 72 88 3 73 88 3 73 89 3 74 90 3 75 90
3 75 91 3 76 92 4 77 92 4 77 93 4 78 93 4 79 94 4 79 94 4 80 95 4 80
95 4 81 96 4 82 96 4 82 96 4 83 97 4 83 97 4 83 97 4 84 97 4 84 97 4
85 97 4 85 97 4 85 97 4 85 97 4 86 97 4 86 97 4 86 97 4 86 96 4 86 62
2 25 62 2 25 62 2 24 61 2 24 61 2 24 60 2 24 60 2 24 60 2 24 59 2 24
59 2 24 58 2 24 58 2 23 57 2 23 57 2 23 56 2 23 56 2 23 55 2 23 55 2
23 55 2 23 85 3 79 84 3 78 83 3 77 83 3 77 82 3 76 81 3 75 80 3 75 80
3 74 79 3 73 78 3 73 77 3 72 77 3 71 76 3 71 75 3 70 74 3 69 74 3 68
73 3 68 72 3 67 72 3 66 71 3 66 70 3 65 70 3 65 69 3 64 68 3 63 44 2
20 44 2 20 44 2 20 43 2 20 43 1 20 43 1 20 42 1 20 42 1 20 42 1 20 42
1 19 41 1 19 41 1 19 41 1 19 40 1 19
80 3 64 81 3 65 81 3 65 82 3 66 83 3 67 84 3 67 84 3 68 85 3 69 86 3
69 87 3 70 88 3 70 88 3 71 89 3 72 90 3 72 90 3 73 91 3 74 92 3 74 93
4 75 93 4 75 94 4 76 94 4 77 95 4 77 95 4 78 96 4 78 96 4 79 97 4 79
97 4 80 98 4 80 98 4 81 98 4 81 98 4 81 98 4 82 32 89 12 23 64 8 17 49
6 14 40 7 20 47 18 76 118 78 98 4 83 98 4 83 98 4 84 98 4 84 97 4 84
97 4 83 96 4 83 96 4 83 96 4 83 95 4 83 95 4 83 62 2 25 62 2 24 61 2
24 61 2 24 60 2 24 60 2 24 59 2 24 90 3 80 89 3 79 88 3 79 87 3 78 87
3 78 86 3 77 85 3 77 84 3 76 84 3 76 83 3 75 82 3 74 81 3 74 81 3 73
80 3 73 79 3 72 78 3 71 78 3 71 77 3 70 76 3 70 76 3 69 75 3 68 74 3
68 73 3 67 73 3 66 72 3 66 71 3 65 71 3 65 70 3 64 70 3 63 69 3 63 68
3 62 68 3 62 67 3 61 66 3 61 66 3 60 44 2 20 43 1 20 43 1 20 43 1 20
42 1 20 42 1 20 42 1 20 41 1 19 41 1 19
82 3 64 83 3 65 83 3 66 84 3 66 85 3 67 86 3 67 87 3 68 87 3 68 88 3
69 89 3 70 90 3 70 91 3 71 91 3 71 92 3 72 93 4 73 93 4 73 94 4 74 95
4 74 95 4 75 96 4 75 97 4 76 97 4 76 98 4 77 98 4 77 98 4 78 99 4 78
99 4 79 99 4 79 100 4 79 100 4 80 37 102 10 80 114 15 21 54 6 14 38 5
9 25 4 5 14 3 4 11 2 4 11 2 7 23 8 99 4 82 99 4 82 99 4 82 98 4 81 98
4 81 97 4 81 97 4 81 96 4 81 96 4 81 95 4 81 95 4 80 94 4 80 93 4 80
93 4 79 92 4 79 91 4 79 91 3 78 90 3 78 89 3 78 88 3 77 88 3 77 87 3
76 86 3 76 86 3 75 85 3 75 84 3 74 83 3 74 83 3 73 82 3 73 81 3 72 80
3 71 80 3 71 79 3 70 78 3 70 77 3 69 77 3 69 76 3 68 75 3 67 75 3 67
74 3 66 73 3 66 73 3 65 72 3 65 71 3 64 71 3 64 70 3 63 69 3 62 69 3
62 68 3 61 68 3 61 67 3 60 66 3 60 66 3 59 65 3 59 65 3 58 64 3 58 64
2 57 63 2 57 63 2 56 62 2 56 62 2 55
84 3 64 85 3 65 85 3 66 86 3 66 87 3 67 88 3 67 89 3 68 90 3 68 90 3
69 91 3 69 92 3 70 93 3 71 94 4 71 94 4 72 95 4 72 96 4 73 96 4 73 97
4 74 98 4 74 98 4 75 99 4 75 99 4 76 100 4 76 100 4 76 101 4 77 101 4
77 101 4 78 102 4 78 102 4 78 37 99 9 135 157 22 21 52 6 12 34 4 7 21
3 4 11 2 4 11 2 4 11 2 4 11 2 4 11 2 5 15 4 100 4 80 100 4 80 99 4 80
99 4 80 98 4 80 98 4 79 97 4 79 97 4 79 96 4 79 95 4 79 95 4 78 94 4
78 93 4 78 93 4 77 92 4 77 91 3 77 90 3 76 90 3 76 89 3 75 88 3 75 87
3 75 87 3 74 86 3 74 85 3 73 84 3 73 84 3 72 83 3 72 82 3 71 81 3 71
81 3 70 80 3 70 79 3 69 79 3 69 78 3 68 77 3 68 76 3 67 76 3 67 75 3
66 74 3 66 74 3 65 73 3 65 72 3 64 72 3 63 71 3 63 70 3 62 70 3 62 69
3 61 69 3 61 68 3 60 67 3 60 67 3 60 66 3 59 66 3 59 65 3 58 65 3 58
64 2 57 64 2 57 63 2 56 63 2 56 62 2 55
86 3 65 87 3 65 88 3 66 88 3 66 89 3 67 90 3 67 91 3 68 92 3 68 93 3
69 94 3 69 94 4 70 95 4 70 96 4 71 97 4 71 98 4 72 98 4 72 99 4 73 100
4 73 100 4 74 101 4 74 101 4 75 102 4 75 102 4 75 103 4 76 103 4 76
103 4 76 104 4 77 104 4 77 104 4 77 27 71 7 18 49 5 12 32 4 6 18 3 4
11 2 4 11 2 4 11 2 4 11 2 4 11 2 4 11 2 4 11 2 6 20 6 101 4 78 101 4
78 100 4 78 100 4 78 99 4 78 98 4 78 98 4 77 97 4 77 96 4 77 96 4 77
95 4 76 94 4 76 93 4 76 93 4 75 92 4 75 91 3 75 90 3 74 90 3 74 89 3
74 88 3 73 87 3 73 86 3 72 86 3 72 85 3 71 84 3 71 83 3 71 83 3 70 82
3 70 81 3 69 80 3 69 80 3 68 79 3 68 78 3 67 78 3 67 77 3 66 76 3 66
75 3 65 75 3 65 74 3 64 73 3 64 73 3 63 72 3 63 72 3 62 71 3 62 70 3
61 70 3 61 69 3 61 69 3 60 68 3 60 67 3 59 67 3 59 66 3 58 66 3 58 65
3 57 65 3 57 64 2 57 64 2 56 63 2 56 63 2 55
88 3 65 89 3 65 90 3 66 91 3 66 92 3 67 93 3 67 93 3 68 94 4 68 95 4
69 96 4 69 97 4 70 98 4 70 99 4 71 99 4 71 100 4 72 101 4 72 102 4 73
102 4 73 103 4 73 104 4 74 104 4 74 105 4 75 105 4 75 105 4 75 106 4
76 106 4 76 106 4 76 106 4 76 29 78 8 18 51 6 12 32 4 6 17 3 4 11 2 4
11 2 4 11 2 4 11 2 4 11 2 4 11 2 4 11 2 4 11 2 4 11 2 103 4 77 102 4
77 102 4 77 101 4 77 100 4 76 99 4 76 99 4 76 98 4 76 97 4 76 96 4 75
96 4 75 95 4 75 94 4 74 93 4 74 93 4 74 92 3 73 91 3 73 90 3 73 89 3
72 89 3 72 88 3 72 87 3 71 86 3 71 85 3 70 85 3 70 84 3 69 83 3 69 82
3 69 82 3 68 81 3 68 80 3 67 79 3 67 79 3 66 78 3 66 77 3 65 77 3 65
76 3 65 75 3 64 75 3 64 74 3 63 73 3 63 73 3 62 72 3 62 71 3 61 71 3
61 70 3 61 70 3 60 69 3 60 68 3 59 68 3 59 67 3 58 67 3 58 66 3 58 66
3 57 65 3 57 65 3 56 64 2 56 64 2 56 63 2 55
90 3 65 91 3 65 92 3 66 93 3 66 94 3 67 95 4 67 96 4 68 97 4 68 98 4
69 99 4 69 99 4 70 100 4 70 101 4 71 102 4 71 103 4 71 104 4 72 104 4
72 105 4 73 106 4 73 106 4 73 107 4 74 107 4 74 108 4 74 108 4 75 108
4 75 109 4 75 109 4 76 109 4 76 21 57 6 12 35 4 6 18 3 4 11 2 4 11 2 4
11 2 4 11 2 4 11 2 4 11 2 4 11 2 4 11 2 4 11 2 4 11 2 104 4 76 104 4
76 103 4 76 102 4 76 101 4 75 101 4 75 100 4 75 99 4 75 98 4 74 97 4
74 97 4 74 96 4 74 95 4 73 94 4 73 93 4 73 92 3 72 92 3 72 91 3 72 90
3 71 89 3 71 88 3 70 87 3 70 87 3 70 86 3 69 85 3 69 84 3 68 83 3 68
83 3 68 82 3 67 81 3 67 80 3 66 80 3 66 79 3 66 78 3 65 78 3 65 77 3
64 76 3 64 76 3 63 75 3 63 74 3 63 74 3 62 73 3 62 72 3 61 72 3 61 71
3 61 71 3 60 70 3 60 69 3 59 69 3 59 68 3 59 68 3 58 67 3 58 67 3 57
66 3 57 66 3 57 65 3 56 65 2 56 64 2 55 64 2 55
92 3 65 93 3 65 94 3 66 95 4 66 96 4 67 97 4 67 98 4 68 99 4 68 100 4
69 101 4 69 102 4 70 103 4 70 104 4 71 105 4 71 106 4 71 106 4 72 107
4 72 108 4 73 108 4 73 109 4 73 110 4 74 110 4 74 110 4 74 111 4 74
111 4 75 111 4 75 111 4 75 111 4 75 15 42 5 7 21 3 4 11 2 4 11 2 4 11
2 4 11 2 4 11 2 4 11 2 4 11 2 4 11 2 4 11 2 4 11 2 4 11 2 106 4 75 105
4 75 104 4 75 103 4 74 103 4 74 102 4 74 101 4 74 100 4 74 99 4 73 98
4 73 97 4 73 97 4 72 96 4 72 95 4 72 94 4 71 93 4 71 92 3 71 91 3 70
90 3 70 90 3 70 89 3 69 88 3 69 87 3 69 86 3 68 86 3 68 85 3 68 84 3
67 83 3 67 82 3 66 82 3 66 81 3 66 80 3 65 79 3 65 79 3 64 78 3 64 77
3 64 77 3 63 76 3 63 75 3 62 75 3 62 74 3 62 73 3 61 73 3 61 72 3 60
72 3 60 71 3 60 70 3 59 70 3 59 69 3 59 69 3 58 68 3 58 68 3 57 67 3
57 67 3 57 66 3 56 66 3 56 65 3 56 65 2 55 64 2 55
95 3 65 96 4 65 97 4 66 98 4 66 99 4 67 100 4 67 101 4 68 102 4 68 103
4 69 104 4 69 105 4 70 106 4 70 107 4 70 107 4 71 108 4 71 109 4 72
110 4 72 111 4 72 111 4 73 112 4 73 112 4 73 113 4 74 113 4 74 113 4
74 114 4 74 114 4 75 114 4 75 114 4 75 10 29 4 4 11 2 4 11 2 4 11 2 4
11 2 4 11 2 4 11 2 4 11 2 4 11 2 4 11 2 4 11 2 4 11 2 4 11 2 107 4 74
106 4 74 106 4 74 105 4 74 104 4 73 103 4 73 102 4 73 101 4 73 100 4
72 99 4 72 98 4 72 97 4 71 96 4 71 96 4 71 95 4 71 94 4 70 93 3 70 92
3 70 91 3 69 90 3 69 89 3 68 88 3 68 88 3 68 87 3 67 86 3 67 85 3 67
84 3 66 84 3 66 83 3 66 82 3 65 81 3 65 81 3 64 80 3 64 79 3 64 78 3
63 78 3 63 77 3 63 76 3 62 76 3 62 75 3 61 74 3 61 74 3 61 73 3 60 73
3 60 72 3 60 71 3 59 71 3 59 70 3 59 70 3 58 69 3 58 69 3 57 68 3 57
67 3 57 67 3 56 66 3 56 66 3 56 65 3 55 65 2 55 64 2 55
97 4 65 98 4 66 99 4 66 100 4 66 101 4 67 102 4 67 103 4 68 104 4 68
105 4 69 106 4 69 107 4 70 108 4 70 109 4 70 110 4 71 111 4 71 112 4
72 113 4 72 113 4 72 114 4 73 114 4 73 115 4 73 115 4 73 116 4 74 116
4 74 116 4 74 116 4 74 116 4 74 116 4 74 7 20 3 4 11 2 4 11 2 4 11 2 4
11 2 4 11 2 4 11 2 4 11 2 4 11 2 4 11 2 4 11 2 4 11 2 4 11 2 109 4 73
108 4 73 107 4 73 106 4 73 105 4 73 104 4 72 103 4 72 102 4 72 101 4
71 100 4 71 99 4 71 98 4 71 97 4 70 96 4 70 95 4 70 94 4 69 93 3 69 93
3 69 92 3 68 91 3 68 90 3 68 89 3 67 88 3 67 87 3 67 86 3 66 86 3 66
85 3 66 84 3 65 83 3 65 82 3 65 82 3 64 81 3 64 80 3 63 79 3 63 79 3
63 78 3 62 77 3 62 77 3 62 76 3 61 75 3 61 75 3 61 74 3 60 73 3 60 73
3 60 72 3 59 72 3 59 71 3 59 71 3 58 70 3 58 69 3 57 69 3 57 68 3 57
68 3 56 67 3 56 67 3 56 66 3 56 66 3 55 65 3 55 65 2 55
99 4 65 100 4 66 101 4 66 102 4 67 103 4 67 104 4 67 106 4 68 107 4 68
108 4 69 109 4 69 110 4 70 111 4 70 112 4 70 113 4 71 114 4 71 114 4
72 115 4 72 116 4 72 117 4 73 117 4 73 118 4 73 118 4 73 118 4 74 119
4 74 119 4 74 119 4 74 119 4 74 119 4 74 118 4 74 4 11 2 4 11 2 4 11 2
4 11 2 4 11 2 4 11 2 4 11 2 4 11 2 4 11 2 4 11 2 4 11 2 111 4 73 110 4
73 109 4 73 108 4 72 107 4 72 106 4 72 105 4 72 104 4 71 103 4 71 102
4 71 101 4 70 100 4 70 99 4 70 98 4 69 97 4 69 96 4 69 95 4 69 94 3 68
93 3 68 92 3 68 91 3 67 90 3 67 89 3 67 89 3 66 88 3 66 87 3 66 86 3
65 85 3 65 84 3 65 84 3 64 83 3 64 82 3 64 81 3 63 81 3 63 80 3 62 79
3 62 78 3 62 78 3 61 77 3 61 76 3 61 76 3 60 75 3 60 74 3 60 74 3 59
73 3 59 73 3 59 72 3 58 71 3 58 71 3 58 70 3 57 70 3 57 69 3 57 69 3
57 68 3 56 68 3 56 67 3 56 67 3 55 66 3 55 66 3 55 65 2 54
101 4 65 102 4 66 103 4 66 104 4 67 106 4 67 107 4 68 108 4 68 109 4
68 110 4 69 111 4 69 112 4 70 113 4 70 114 4 70 115 4 71 116 4 71 117
4 72 118 4 72 118 4 72 119 4 72 120 4 73 120 4 73 120 4 73 121 4 73
121 4 74 121 4 74 121 4 74 121 4 74 121 4 74 120 4 74 4 11 2 4 11 2 4
11 2 4 11 2 4 11 2 4 11 2 4 11 2 4 11 2 4 11 2 4 11 2 4 11 2 112 4 72
111 4 72 110 4 72 109 4 72 108 4 71 107 4 71 106 4 71 105 4 71 104 4
70 103 4 70 102 4 70 100 4 69 99 4 69 98 4 69 97 4 68 96 4 68 95 4 68
94 4 67 93 3 67 93 3 67 92 3 66 91 3 66 90 3 66 89 3 66 88 3 65 87 3
65 86 3 65 85 3 64 85 3 64 84 3 64 83 3 63 82 3 63 82 3 63 81 3 62 80
3 62 79 3 62 79 3 61 78 3 61 77 3 61 77 3 60 76 3 60 75 3 60 75 3 59
74 3 59 73 3 59 73 3 58 72 3 58 72 3 58 71 3 57 71 3 57 70 3 57 70 3
57 69 3 56 68 3 56 68 3 56 67 3 55 67 3 55 66 3 55 66 3 54 66 3 54
103 4 65 104 4 66 105 4 66 107 4 67 108 4 67 109 4 68 110 4 68 111 4
68 112 4 69 114 4 69 115 4 70 116 4 70 117 4 70 118 4 71 118 4 71 119
4 72 120 4 72 121 4 72 121 4 72 122 4 73 122 4 73 123 4 73 123 4 73
123 4 73 123 4 73 123 4 73 123 4 74 123 4 74 122 4 74 122 4 74 4 11 2
4 11 2 4 11 2 4 11 2 4 11 2 4 11 2 4 11 2 4 11 2 4 11 2 114 4 72 113 4
72 112 4 72 111 4 71 110 4 71 109 4 71 108 4 70 106 4 70 105 4 70 104
4 70 103 4 69 102 4 69 101 4 69 100 4 68 99 4 68 98 4 68 97 4 67 96 4
67 95 4 67 94 3 66 93 3 66 92 3 66 91 3 66 90 3 65 89 3 65 88 3 65 87
3 64 87 3 64 86 3 64 85 3 63 84 3 63 83 3 63 83 3 62 82 3 62 81 3 62
80 3 61 80 3 61 79 3 61 78 3 60 78 3 60 77 3 60 76 3 60 76 3 59 75 3
59 74 3 59 74 3 58 73 3 58 73 3 58 72 3 57 71 3 57 71 3 57 70 3 57 70
3 56 69 3 56 69 3 56 68 3 55 68 3 55 67 3 55 67 3 54 66 3 54 66 3 54
105 4 65 106 4 66 107 4 66 109 4 67 110 4 67 111 4 68 112 4 68 113 4
69 115 4 69 116 4 69 117 4 70 118 4 70 119 4 70 120 4 71 121 4 71 121
4 71 122 4 72 123 4 72 123 4 72 124 4 72 124 4 73 124 4 73 125 4 73
125 4 73 125 4 73 125 4 73 124 4 73 124 4 73 124 4 73 123 4 73 123 4
73 122 4 73 4 11 2 4 11 2 4 11 2 4 11 2 4 11 2 117 4 72 116 4 72 115 4
71 114 4 71 113 4 71 111 4 71 110 4 70 109 4 70 108 4 70 107 4 70 106
4 69 105 4 69 104 4 69 103 4 68 101 4 68 100 4 68 99 4 67 98 4 67 97 4
67 96 4 66 95 4 66 94 3 66 93 3 66 92 3 65 91 3 65 90 3 65 89 3 64 89
3 64 88 3 64 87 3 63 86 3 63 85 3 63 84 3 62 84 3 62 83 3 62 82 3 61
81 3 61 81 3 61 80 3 61 79 3 60 79 3 60 78 3 60 77 3 59 77 3 59 76 3
59 75 3 59 75 3 58 74 3 58 73 3 58 73 3 57 72 3 57 72 3 57 71 3 56 71
3 56 70 3 56 70 3 56 69 3 55 69 3 55 68 3 55 68 3 55 67 3 54 67 3 54
66 3 54
107 4 66 108 4 66 109 4 66 110 4 67 112 4 67 113 4 68 114 4 68 115 4
69 116 4 69 117 4 69 119 4 70 120 4 70 121 4 70 121 4 71 122 4 71 123
4 71 124 4 72 124 4 72 125 4 72 125 4 72 126 4 72 126 5 73 126 5 73
126 5 73 126 5 73 126 5 73 126 4 73 125 4 73 125 4 73 124 4 73 124 4
73 123 4 73 122 4 72 121 4 72 120 4 72 119 4 72 119 4 72 117 4 71 116
4 71 115 4 71 114 4 71 113 4 70 112 4 70 111 4 70 110 4 69 109 4 69
107 4 69 106 4 69 105 4 68 104 4 68 103 4 68 102 4 67 101 4 67 100 4
67 98 4 66 97 4 66 96 4 66 95 4 66 94 3 65 93 3 65 92 3 65 92 3 64 91
3 64 90 3 64 89 3 63 88 3 63 87 3 63 86 3 62 85 3 62 85 3 62 84 3 62
83 3 61 82 3 61 82 3 61 81 3 60 80 3 60 79 3 60 79 3 60 78 3 59 77 3
59 77 3 59 76 3 58 75 3 58 75 3 58 74 3 58 74 3 57 73 3 57 73 3 57 72
3 56 71 3 56 71 3 56 70 3 56 70 3 55 69 3 55 69 3 55 68 3 55 68 3 54
67 3 54 67 3 54 66 3 54
108 4 66 110 4 66 111 4 66 112 4 67 113 4 67 115 4 68 116 4 68 117 4
68 118 4 69 119 4 69 120 4 70 121 4 70 122 4 70 123 4 71 124 4 71 125
4 71 125 4 71 126 4 72 126 5 72 127 5 72 127 5 72 127 5 72 127 5 72
127 5 72 127 5 73 127 5 73 126 5 73 126 5 72 126 4 72 125 4 72 124 4
72 124 4 72 123 4 72 122 4 72 121 4 71 120 4 71 119 4 71 118 4 71 117
4 71 116 4 70 115 4 70 113 4 70 112 4 69 111 4 69 110 4 69 109 4 69
108 4 68 106 4 68 105 4 68 104 4 67 103 4 67 102 4 67 101 4 66 100 4
66 99 4 66 98 4 66 97 4 65 96 4 65 95 3 65 94 3 64 93 3 64 92 3 64 91
3 63 90 3 63 89 3 63 88 3 63 87 3 62 86 3 62 86 3 62 85 3 61 84 3 61
83 3 61 82 3 61 82 3 60 81 3 60 80 3 60 80 3 59 79 3 59 78 3 59 78 3
59 77 3 58 76 3 58 76 3 58 75 3 57 74 3 57 74 3 57 73 3 57 73 3 56 72
3 56 72 3 56 71 3 56 71 3 55 70 3 55 70 3 55 69 3 55 69 3 54 68 3 54
68 3 54 67 3 54 67 3 53
110 4 66 111 4 66 112 4 66 114 4 67 115 4 67 116 4 68 117 4 68 118 4
68 119 4 69 120 4 69 121 4 69 122 4 70 123 4 70 124 4 70 125 4 71 126
4 71 126 5 71 127 5 71 127 5 72 128 5 72 128 5 72 128 5 72 128 5 72
128 5 72 128 5 72 127 5 72 127 5 72 126 5 72 126 4 72 125 4 72 125 4
72 124 4 72 123 4 71 122 4 71 121 4 71 120 4 71 119 4 70 118 4 70 117
4 70 116 4 70 115 4 69 113 4 69 112 4 69 111 4 69 110 4 68 109 4 68
108 4 68 106 4 67 105 4 67 104 4 67 103 4 66 102 4 66 101 4 66 100 4
66 99 4 65 98 4 65 97 4 65 96 4 64 95 3 64 94 3 64 93 3 63 92 3 63 91
3 63 90 3 63 89 3 62 88 3 62 87 3 62 86 3 61 86 3 61 85 3 61 84 3 61
83 3 60 83 3 60 82 3 60 81 3 59 80 3 59 80 3 59 79 3 59 78 3 58 78 3
58 77 3 58 76 3 58 76 3 57 75 3 57 75 3 57 74 3 57 73 3 56 73 3 56 72
3 56 72 3 56 71 3 55 71 3 55 70 3 55 70 3 55 69 3 54 69 3 54 68 3 54
68 3 54 67 3 53 67 3 53
