P3
50 25
255
37 14 15 43 15 17 46 16 18 48 15 18 48 14 18 43 12 15 30 7 10 18 5 59
26 13 107 26 14 108 15 12 76 15 12 77 15 12 78 15 12 78 15 12 79 15 12
79 15 12 79 7 4 28 7 4 28 7 4 28 30 15 120 30 15 121 73 32 40 65 28 36
55 21 28 51 18 25 49 17 24 49 17 24 49 17 24 49 17 24 49 17 24 49 17
24 49 17 24 49 17 24 49 17 24 49 17 24 49 17 24 49 17 24 49 17 24 25
12 100 25 12 99 25 12 97 24 11 96 24 11 94 23 11 92 23 11 91 23 11 89
22 11 88 22 10 87 21 10 85
27 11 12 34 13 14 38 13 15 40 13 16 40 12 15 34 10 12 27 14 111 28 14
113 28 14 115 29 15 117 29 15 119 29 15 121 30 15 122 51 10 97 74 11
125 38 4 54 7 4 28 7 4 28 7 4 28 23 6 73 33 16 131 33 16 131 33 16 131
66 27 35 58 22 30 52 19 26 49 17 24 49 17 24 49 17 24 49 17 24 49 17
24 49 17 24 49 17 24 49 17 24 49 17 24 49 17 24 49 17 24 49 17 24 28
13 109 27 13 107 27 12 105 26 12 103 26 12 101 25 12 100 25 12 98 24
11 96 24 11 95 24 11 93 23 11 91 23 11 90
26 14 107 20 8 8 23 9 10 25 9 10 22 7 8 28 15 118 29 15 120 30 15 122
30 16 124 31 16 126 31 16 128 32 16 130 32 16 132 80 16 158 99 16 179
85 11 137 23 6 75 24 6 76 24 6 77 24 6 78 35 17 142 36 17 142 36 17
142 36 17 142 62 25 32 55 21 28 50 17 24 49 17 24 49 17 24 49 17 24 49
17 24 49 17 24 49 17 24 49 17 24 49 17 24 49 17 24 49 17 24 30 14 118
30 14 116 29 13 114 28 13 112 28 13 110 27 13 107 27 12 105 26 12 103
26 12 102 25 12 100 25 12 98 24 11 96 13 9 63
27 14 114 28 15 116 29 15 119 29 15 121 30 16 124 30 16 126 31 16 129
32 17 131 32 17 133 33 17 136 34 17 138 34 18 141 35 18 143 63 15 137
87 16 166 76 11 129 25 6 79 25 7 80 26 7 81 38 19 153 38 19 154 39 19
154 39 18 154 39 18 153 39 18 153 59 23 30 53 19 26 49 17 24 49 17 24
49 17 24 49 17 24 49 17 24 49 17 24 49 17 24 49 17 24 49 17 24 33 15
128 32 15 126 32 14 123 31 14 121 30 14 118 30 14 116 29 13 113 28 13
111 28 13 109 27 13 107 27 12 105 26 12 103 13 10 66 13 10 65
29 15 121 30 16 124 30 16 127 31 16 129 32 17 132 32 17 135 33 17 138
34 18 140 35 18 143 37 10 59 37 7 50 36 5 43 41 5 48 20 17 105 31 8 74
11 3 27 26 7 83 27 7 85 41 20 164 41 20 165 41 20 166 42 20 166 42 20
166 42 20 165 42 20 164 173 96 111 58 23 30 51 18 25 49 17 24 49 17 24
49 17 24 49 17 24 49 17 24 49 17 24 36 16 142 36 16 139 35 16 136 34
15 133 33 15 130 33 15 127 32 15 125 31 14 122 31 14 119 30 14 117 29
13 114 29 13 112 28 13 110 14 11 69 13 10 68 13 10 67
31 16 129 31 17 132 32 17 135 33 18 138 34 18 141 34 18 144 35 19 147
40 16 80 36 12 66 33 9 53 32 6 44 33 4 40 38 5 45 43 5 51 21 18 114 42
21 172 43 22 174 43 22 176 44 22 177 44 22 177 44 22 178 45 21 178 45
21 177 45 21 177 116 101 72 109 90 66 100 77 59 91 65 51 82 54 45 49
17 24 49 17 24 54 23 25 51 22 24 47 21 22 19 15 11 28 7 88 27 7 86 36
16 140 35 16 137 35 16 134 34 15 131 33 15 128 32 15 125 31 14 122 31
14 120 30 14 117 29 13 115 7 4 28 7 4 28 7 4 28
32 18 136 33 18 140 34 18 143 35 19 146 36 19 150 37 20 153 37 20 157
35 14 69 27 10 50 25 7 40 25 4 33 28 4 35 33 4 40 80 12 71 43 5 50 45
23 185 45 23 186 46 23 188 47 23 189 47 23 190 47 23 190 47 23 190 48
23 189 114 113 86 105 100 68 97 87 61 88 75 54 78 63 47 69 51 40 60 40
33 51 29 26 43 20 20 40 20 20 37 19 18 19 15 11 19 15 11 29 7 90 28 7
88 27 7 86 27 7 85 26 7 83 26 7 81 25 7 80 24 6 78 24 6 77 23 6 75 7 4
28 7 4 28 7 4 28 7 4 28
34 19 144 35 19 148 36 20 151 37 20 155 38 21 159 39 21 163 6 18 30 6
18 33 7 19 36 8 20 40 9 22 44 11 23 49 76 42 124 32 4 39 36 5 43 38 5
45 48 25 199 49 25 200 49 25 201 50 25 202 50 25 202 33 8 103 51 27 90
101 109 70 94 97 63 85 84 56 76 71 49 67 59 42 58 48 35 49 37 28 40 26
22 33 18 17 31 18 16 28 17 15 25 16 14 19 15 11 30 20 55 29 7 92 29 7
90 28 7 88 27 7 86 27 7 84 26 7 83 25 7 81 25 6 79 7 4 28 7 4 28 7 4
28 7 4 28 7 4 28
36 20 152 37 20 156 38 21 160 39 21 164 17 28 79 4 16 23 4 16 23 5 16
25 5 17 29 6 18 32 7 19 36 8 21 40 10 22 46 12 24 52 38 39 161 32 4 39
51 27 211 51 27 212 52 26 213 34 8 104 34 8 106 35 8 107 38 23 70 112
113 74 83 93 59 73 79 51 65 67 44 56 55 37 48 44 30 39 34 24 31 23 18
24 16 13 22 16 12 20 15 12 19 15 11 19 15 11 23 18 32 30 7 95 30 7 93
29 7 91 28 7 89 28 7 87 27 7 85 26 7 83 7 4 28 7 4 28 7 4 28 7 4 28 7
4 28 7 4 28
38 21 160 39 21 164 40 22 169 22 31 101 4 16 23 4 16 23 4 16 23 4 16
23 4 16 23 5 16 26 6 17 29 7 19 33 8 20 38 26 28 45 15 26 68 24 4 30
53 28 222 33 8 103 34 8 105 35 8 107 35 8 109 36 8 110 33 22 70 95 102
80 74 91 57 62 75 46 54 63 39 46 51 32 77 58 48 58 39 33 22 20 14 19
15 11 19 15 11 19 15 11 19 15 11 19 15 11 22 16 23 31 8 98 31 7 96 30
7 94 29 7 92 29 7 90 28 7 88 27 7 86 7 4 28 7 4 28 7 4 28 7 4 28 7 4
28 7 4 28
39 22 168 40 23 173 41 23 177 4 16 23 4 16 23 4 16 23 4 16 23 4 16 23
4 16 23 4 16 23 4 16 23 45 34 49 72 58 80 7 19 36 9 21 41 69 76 86 33
8 103 34 8 105 35 8 107 36 8 109 36 8 111 37 8 112 37 25 87 84 97 68
67 83 50 58 71 43 57 71 65 42 48 30 35 37 24 28 27 18 21 17 13 19 15
11 19 15 11 19 15 11 19 15 11 19 15 11 22 16 23 32 8 100 31 8 98 31 7
96 30 7 94 29 7 92 29 7 90 7 4 28 7 4 28 7 4 28 7 4 28 7 4 28 7 4 28 7
4 28
41 23 176 42 24 181 25 27 114 4 16 23 4 16 23 4 16 23 4 16 23 4 16 23
4 16 23 4 16 23 4 16 23 4 16 23 40 31 44 6 17 29 7 19 34 37 45 58 34 8
105 35 8 107 35 8 109 36 8 111 37 8 113 37 8 114 42 28 111 84 97 103
64 78 47 55 67 41 55 68 76 40 45 28 33 34 22 26 24 17 19 15 11 19 15
11 19 15 11 19 15 11 36 62 56 30 39 40 22 16 23 33 8 102 32 8 100 31 8
98 31 7 96 30 7 94 29 7 92 7 4 28 7 4 28 7 4 28 7 4 28 7 4 28 7 4 28 7
4 28
42 24 183 43 25 188 19 24 86 4 16 23 4 16 23 4 16 23 4 16 23 4 16 23 4
16 23 4 16 23 4 16 23 4 16 23 4 16 23 4 16 24 9 19 44 17 27 40 30 26
107 35 8 108 36 8 110 36 8 112 37 8 113 37 8 115 33 18 55 80 95 117 65
84 59 55 64 52 44 51 32 37 41 26 30 31 20 23 21 15 19 15 11 19 15 11
19 15 11 36 65 54 37 69 60 36 41 61 22 16 23 33 8 103 33 8 101 32 8 99
31 7 97 31 7 95 30 7 93 7 4 28 7 4 28 7 4 28 7 4 28 7 4 28 7 4 28 7 4
28
44 25 190 45 26 196 21 25 98 4 16 23 4 16 23 4 16 23 4 16 23 4 16 23 4
16 23 4 16 23 4 16 23 4 16 23 4 16 23 8 18 39 34 90 89 17 26 41 28 24
99 35 8 109 36 8 110 37 8 112 37 8 114 38 8 115 34 18 59 44 30 123 58
68 53 62 64 93 49 50 64 38 38 42 27 26 18 20 17 12 19 15 11 19 15 11
22 16 23 40 69 70 38 67 62 22 16 23 22 16 23 34 8 104 33 8 102 32 8
100 32 8 98 31 7 96 7 4 28 7 4 28 7 4 28 7 4 28 7 4 28 7 4 28 7 4 28 7
4 28
45 26 197 46 27 202 48 28 208 14 21 63 4 16 23 4 16 23 4 16 23 4 16 23
4 16 23 4 16 23 4 16 23 4 16 23 9 19 47 8 18 39 14 24 74 8 18 39 35 8
107 35 8 109 36 8 110 36 8 112 37 8 113 7 4 28 7 4 28 34 18 57 75 74
143 65 62 123 54 50 100 45 38 81 36 28 66 30 20 56 30 20 55 25 20 42
25 20 44 38 59 71 32 40 47 22 16 23 7 4 28 7 4 28 33 8 103 33 8 101 32
8 99 31 7 97 7 4 28 7 4 28 7 4 28 7 4 28 7 4 28 7 4 28 7 4 28 40 105
108
46 27 203 47 28 208 49 29 214 21 25 96 14 21 67 10 19 49 4 16 23 4 16
23 4 16 23 8 18 41 9 19 48 8 18 39 12 22 65 14 24 75 16 26 87 8 18 39
35 8 107 35 8 109 36 8 110 36 8 112 7 4 28 7 4 28 7 4 28 22 16 23 22
16 23 62 55 128 54 45 114 46 35 100 38 25 88 36 24 82 36 23 79 36 23
78 27 22 54 27 22 55 22 16 23 22 16 23 7 4 28 7 4 28 7 4 28 7 4 28 32
8 100 31 8 98 7 4 28 7 4 28 7 4 28 7 4 28 7 4 28 7 4 28 52 116 143 57
125 170
47 28 208 49 29 213 50 30 219 30 27 167 15 25 81 19 23 85 12 22 62 11
21 60 16 22 75 18 23 80 20 24 87 22 25 97 25 26 109 16 26 89 8 18 39
34 8 105 35 8 106 35 8 108 36 8 109 36 8 111 7 4 28 7 4 28 7 4 28 7 4
28 22 16 23 22 16 23 29 27 29 32 27 74 30 24 69 29 24 65 29 23 63 28
23 61 28 23 60 22 16 23 22 16 23 7 4 28 7 4 28 7 4 28 7 4 28 7 4 28 7
4 28 32 8 98 7 4 28 7 4 28 7 4 28 7 4 28 7 4 28 43 116 117 55 124 151
57 129 170
29 26 158 30 26 162 30 27 167 31 28 171 32 28 175 8 18 39 16 19 62 23
26 103 23 26 103 24 26 106 25 27 112 27 28 119 30 29 130 19 29 106 33
8 103 34 8 104 34 8 106 35 8 107 35 8 109 7 4 28 7 4 28 7 4 28 7 4 28
7 4 28 7 4 28 7 4 28 22 16 23 22 16 23 22 16 23 22 16 23 22 16 23 22
16 23 22 16 23 7 4 28 7 4 28 7 4 28 7 4 28 7 4 28 7 4 28 7 4 28 7 4 28
7 4 28 7 4 28 7 4 28 7 4 28 7 4 28 7 4 28 56 125 154 57 128 157 52 132
124
29 26 161 30 27 165 31 28 169 31 28 173 32 29 177 33 29 180 21 31 117
30 30 135 29 30 131 29 30 132 31 30 137 33 32 145 22 20 79 33 8 101 33
8 102 34 8 104 34 8 105 34 8 106 35 8 108 7 4 28 7 4 28 7 4 28 7 4 28
7 4 28 7 4 28 7 4 28 7 4 28 7 4 28 7 4 28 7 4 28 7 4 28 7 4 28 7 4 28
7 4 28 7 4 28 7 4 28 7 4 28 7 4 28 7 4 28 7 4 28 7 4 28 7 4 28 7 4 28
7 4 28 7 4 28 7 4 28 44 121 120 45 126 123 57 134 136 55 142 124
30 27 164 31 27 167 31 28 171 32 28 175 32 29 178 33 30 181 33 30 184
34 30 186 34 31 188 58 35 255 59 35 255 59 35 255 32 8 99 32 8 100 33
8 102 33 8 103 34 8 104 34 8 105 35 8 106 7 4 28 7 4 28 7 4 28 7 4 28
7 4 28 7 4 28 7 4 28 7 4 28 7 4 28 7 4 28 7 4 28 7 4 28 7 4 28 7 4 28
7 4 28 7 4 28 7 4 28 7 4 28 7 4 28 7 4 28 7 4 28 7 4 28 7 4 28 7 4 28
7 4 28 7 4 28 7 4 28 44 123 120 45 127 123 51 133 119 59 152 141
30 27 165 31 27 169 31 28 172 32 29 176 32 29 179 33 30 181 33 30 184
34 30 186 34 31 187 58 34 254 58 35 255 59 35 255 32 8 99 32 8 100 33
8 101 33 8 102 33 8 103 34 8 104 7 4 28 7 4 28 7 4 28 7 4 28 7 4 28 7
4 28 7 4 28 7 4 28 7 4 28 7 4 28 7 4 28 7 4 28 7 4 28 7 4 28 7 4 28 7
4 28 7 4 28 7 4 28 7 4 28 7 4 28 7 4 28 7 4 28 7 4 28 7 4 28 7 4 28 7
4 28 7 4 28 7 4 28 44 123 120 44 126 120 51 132 119 58 135 145
30 27 166 31 28 169 31 28 173 32 29 176 32 29 178 33 29 181 33 30 183
33 30 184 57 34 250 57 34 252 58 34 253 58 34 254 58 34 254 32 8 99 32
8 100 33 8 101 33 8 102 33 8 103 7 4 28 7 4 28 7 4 28 7 4 28 7 4 28 7
4 28 7 4 28 7 4 28 7 4 28 7 4 28 7 4 28 7 4 28 7 4 28 7 4 28 7 4 28 7
4 28 7 4 28 7 4 28 7 4 28 7 4 28 7 4 28 7 4 28 7 4 28 7 4 28 7 4 28 7
4 28 7 4 28 7 4 28 43 121 119 44 124 119 44 125 120 50 130 118
30 27 166 31 28 169 31 28 172 32 29 175 32 29 177 33 29 179 33 30 181
33 30 182 56 34 248 57 34 249 57 34 250 57 34 250 57 33 250 58 33 250
32 8 99 32 8 100 33 8 101 33 8 102 7 4 28 7 4 28 7 4 28 7 4 28 7 4 28
7 4 28 7 4 28 7 4 28 7 4 28 7 4 28 7 4 28 7 4 28 7 4 28 7 4 28 7 4 28
7 4 28 7 4 28 7 4 28 7 4 28 7 4 28 7 4 28 7 4 28 7 4 28 7 4 28 7 4 28
7 4 28 7 4 28 7 4 28 43 118 117 43 122 117 44 123 119 43 123 118
30 27 166 31 28 169 31 28 172 32 28 174 32 29 176 32 29 177 32 29 179
55 33 243 56 33 245 56 33 246 56 33 246 57 33 247 57 33 247 57 33 246
57 32 245 32 8 99 32 8 100 33 8 101 7 4 28 7 4 28 7 4 28 7 4 28 7 4 28
7 4 28 7 4 28 7 4 28 7 4 28 7 4 28 7 4 28 7 4 28 7 4 28 7 4 28 7 4 28
7 4 28 7 4 28 7 4 28 7 4 28 7 4 28 7 4 28 7 4 28 7 4 28 7 4 28 7 4 28
7 4 28 7 4 28 7 4 28 41 113 113 42 118 115 43 120 116 43 120 117
30 27 166 31 27 168 31 28 170 31 28 172 32 28 174 32 29 175 54 32 238
55 32 240 55 33 241 55 33 242 56 33 243 56 32 243 56 32 243 56 32 242
56 32 241 56 32 240 32 8 99 32 8 100 7 4 28 7 4 28 7 4 28 7 4 28 7 4
28 7 4 28 7 4 28 7 4 28 7 4 28 7 4 28 7 4 28 7 4 28 7 4 28 7 4 28 7 4
28 7 4 28 7 4 28 7 4 28 7 4 28 7 4 28 7 4 28 7 4 28 7 4 28 7 4 28 7 4
28 7 4 28 7 4 28 7 4 28 39 103 107 42 114 114 42 116 113 42 117 115
