P3
100 50
255
61 29 93 51 20 89 51 20 89 51 20 89 51 20 88 51 19 88 51 19 87 50 19
87 50 19 86 50 19 86 50 19 86 50 19 85 50 19 85 50 19 85 50 19 85 50
19 85 50 19 85 53 20 87 56 21 89 60 22 92 71 30 97 75 31 100 80 32 102
0 0 0 0 0 0 0 0 0 0 0 0 0 0 0 0 0 0 0 0 0 0 0 0 0 0 0 0 0 0 0 0 0 0 0
0 0 0 0 0 0 0 0 0 0 0 0 0 0 0 0 0 0 0 0 0 0 0 0 0 0 0 0 0 0 0 0 0 0 0
0 0 0 0 0 0 0 0 0 0 0 0 0 0 0 0 0 0 0 0 0 0 0 0 0 0 0 0 0 0 0 0 0 0 0
0 0 0 0 0 0 0 0 0 0 0 0 0 0 0 0 0 0 0 0 0 0 0 0 0 0 0 0 0 0 0 0 0 0 0
0 0 0 0 0 0 0 0 0 0 0 0 0 0 0 0 0 0 0 0 0 0 0 0 0 0 0 0 0 0 0 0 0 0 0
0 0 0 0 0 0 0 0 0 0 0 0 0 0 0 0 0 0 0 0 0 0 0 0 0 0 0 0 0 0 0 0 0 0 0
0 0 0 0 0 0 0 0 0 0 0 0 0 0 0 0 0 0 0 0 0
51 20 89 51 20 88 51 19 88 51 19 87 50 19 87 50 19 86 50 19 86 50 19
85 57 26 88 57 26 87 57 25 87 50 19 84 50 19 84 49 19 84 49 19 84 49
18 84 49 18 84 52 19 85 55 20 88 59 22 90 62 23 93 67 24 96 77 32 101
82 33 104 0 0 0 0 0 0 0 0 0 0 0 0 0 0 0 0 0 0 0 0 0 0 0 0 0 0 0 0 0 0
0 0 0 0 0 0 0 0 0 0 0 0 0 0 0 0 0 0 0 0 0 0 0 0 0 0 0 0 0 0 0 0 0 0 0
0 0 0 0 0 0 0 0 0 0 0 0 0 0 0 0 0 0 0 0 0 0 0 0 0 0 0 0 0 0 0 0 0 0 0
0 0 0 0 0 0 0 0 0 0 0 0 0 0 0 0 0 0 0 0 0 0 0 0 0 0 0 0 0 0 0 0 0 0 0
0 0 0 0 0 0 0 0 0 0 0 0 0 0 0 0 0 0 0 0 0 0 0 0 0 0 0 0 0 0 0 0 0 0 0
0 0 0 0 0 0 0 0 0 0 0 0 0 0 0 0 0 0 0 0 0 0 0 0 0 0 0 0 0 0 0 0 0 0 0
0 0 0 0 0 0 0 0 0 0 0 0 0 0 0 0 0 0 0 0 0 0 0
51 19 87 51 19 87 50 19 86 50 19 86 50 19 85 50 19 85 50 19 84 49 19
84 49 18 84 49 18 83 56 25 86 56 25 85 56 25 85 56 25 85 56 24 85 56
24 85 49 18 83 51 19 84 54 20 86 58 21 89 61 22 91 65 24 94 69 25 97
74 26 100 85 34 106 23 20 19 23 20 19 23 20 19 23 20 19 23 20 19 23 20
19 23 20 19 23 20 19 23 20 19 23 20 19 23 20 19 23 20 19 23 20 19 23
20 19 23 20 19 23 20 19 23 20 19 23 20 19 23 20 19 23 20 19 23 20 19
23 20 19 23 20 19 23 20 19 23 20 19 23 20 19 23 20 19 23 20 19 23 20
19 23 20 19 23 20 19 23 20 19 23 20 19 23 20 19 23 20 19 23 20 19 23
20 19 23 20 19 23 20 19 23 20 19 23 20 19 23 20 19 23 20 19 23 20 19
23 20 19 23 20 19 23 20 19 23 20 19 23 20 19 23 20 19 23 20 19 23 20
19 23 20 19 23 20 19 23 20 19 23 20 19 23 20 19 23 20 19 23 20 19 23
20 19 23 20 19 23 20 19 23 20 19 23 20 19 23 20 19 23 20 19 23 20 19
23 20 19 23 20 19 23 20 19 23 20 19 23 20 19 23 20 19 23 20 19 23 20
19
50 19 86 50 19 85 50 19 85 50 19 84 49 19 84 49 18 83 56 25 86 56 25
85 56 25 85 56 25 85 55 24 85 55 24 84 55 24 84 55 24 84 55 24 84 55
24 84 55 24 84 56 24 85 59 25 87 57 21 87 60 22 90 64 23 93 68 24 96
72 26 99 77 27 102 89 35 108 96 37 113 25 22 21 25 22 21 25 22 21 25
22 21 25 22 21 25 22 21 25 22 21 25 22 21 25 22 21 25 22 21 25 22 21
25 22 21 25 22 21 25 22 21 25 22 21 25 22 21 25 22 21 25 22 21 25 22
21 25 22 21 25 22 21 25 22 21 25 22 21 25 22 21 25 22 21 25 22 21 25
22 21 25 22 21 25 22 21 25 22 21 25 22 21 25 22 21 25 22 21 25 22 21
25 22 21 25 22 21 25 22 21 25 22 21 25 22 21 25 22 21 25 22 21 25 22
21 24 22 20 24 22 20 24 22 20 24 22 20 24 22 20 24 22 20 24 22 20 24
22 20 24 22 20 25 22 21 25 22 21 25 22 21 25 22 21 25 22 21 25 22 21
25 22 21 25 22 21 25 22 21 25 22 21 24 22 21 24 22 21 24 22 21 24 22
20 24 22 20 24 22 20 24 22 20 24 22 20 24 22 20 24 21 20 24 21 20 24
21 20
50 19 84 58 26 87 57 26 86 57 25 86 56 25 85 56 25 85 56 25 84 55 24
84 55 24 84 55 24 84 55 24 83 55 24 83 55 24 83 55 24 83 54 24 83 54
23 83 54 23 83 55 24 83 58 25 86 62 26 88 65 27 91 63 23 91 67 24 94
71 25 97 76 27 101 81 28 104 92 36 110 27 24 23 27 24 23 27 24 23 27
24 23 27 24 23 27 24 23 27 24 23 27 24 23 27 24 23 27 24 23 27 24 23
27 24 23 27 24 23 27 24 23 27 24 23 27 24 23 27 24 23 27 24 23 27 24
23 27 24 23 27 24 23 27 24 23 27 24 23 27 24 23 27 24 23 27 24 23 27
24 23 27 24 23 27 24 23 27 24 23 27 24 23 27 24 23 27 24 23 27 24 23
27 24 23 27 24 23 27 24 23 27 24 23 27 24 23 27 24 23 27 24 23 27 24
23 26 23 20 26 23 20 26 23 20 26 23 20 26 23 20 26 23 20 27 24 22 27
24 22 27 24 22 27 24 22 27 24 22 27 24 22 27 24 22 27 24 22 27 23 22
27 23 22 27 23 22 27 23 22 26 23 22 26 23 22 26 23 22 26 23 22 26 23
22 26 23 22 26 23 22 26 23 22 26 23 22 26 23 22 26 23 22 26 23 22 26
23 22
57 26 86 57 26 85 56 25 85 56 25 84 56 25 84 55 24 84 55 24 83 55 24
83 55 24 83 54 24 83 54 24 83 54 23 82 54 23 82 54 23 82 54 23 82 54
23 82 54 23 82 54 23 82 54 23 82 54 23 82 54 23 82 54 23 82 71 29 95
70 25 96 74 26 99 79 28 103 85 30 106 96 37 113 29 26 25 29 26 25 29
26 25 29 26 25 29 26 25 29 26 25 29 26 25 29 26 25 30 26 25 30 26 25
30 26 25 30 26 25 30 26 25 21 32 37 20 45 43 30 26 25 30 26 25 30 26
25 30 26 25 30 26 25 30 26 25 30 26 25 30 26 25 30 26 25 30 26 25 30
26 25 30 26 25 30 26 25 30 26 25 30 26 25 30 26 25 30 26 25 30 26 25
30 26 25 30 26 25 30 26 25 30 26 25 30 26 25 30 26 25 30 26 25 29 26
25 29 26 25 29 26 25 29 26 24 29 26 24 29 26 24 29 26 24 29 26 24 29
26 24 29 26 24 29 26 24 29 26 24 29 26 24 29 26 24 29 25 24 29 25 24
29 25 24 29 25 24 29 25 24 29 25 24 29 25 24 28 25 24 28 25 24 28 25
24 28 25 24 28 25 24 28 25 24 28 25 23 28 25 23 28 25 23 28 25 23 28
25 23
56 25 85 56 25 84 56 25 84 55 24 83 55 24 83 55 24 83 54 24 82 54 24
82 54 23 82 54 23 82 54 23 82 54 23 82 54 23 81 53 23 81 53 23 81 53
23 81 53 23 81 53 23 81 53 23 81 53 23 81 53 22 81 53 22 81 53 22 81
53 22 81 48 17 79 48 18 79 83 29 105 89 31 109 101 38 115 32 28 27 32
28 27 32 28 27 32 28 27 32 28 27 32 28 27 32 28 27 32 28 27 32 28 27
32 28 27 32 28 27 27 50 116 23 70 125 25 105 119 29 126 92 32 29 27 32
29 27 32 29 27 33 29 27 33 29 27 33 29 27 33 29 27 33 29 27 33 29 27
33 29 27 33 29 27 33 29 27 33 29 27 33 29 27 32 29 27 32 29 27 32 29
27 32 29 27 32 29 27 32 29 27 32 29 27 32 29 27 32 28 27 32 28 27 32
28 27 32 28 27 32 28 27 32 28 27 32 28 26 32 28 26 32 28 26 32 28 26
32 28 26 32 28 26 31 28 26 31 28 26 31 28 26 31 28 26 31 28 26 31 27
26 31 27 26 31 27 26 31 27 26 31 27 26 31 27 26 31 27 25 31 27 25 31
27 25 30 27 25 30 27 25 30 27 25 30 27 25 30 27 25 30 27 25 30 27 25
30 26 25
56 25 84 55 24 83 55 24 83 55 24 82 54 24 82 54 23 82 54 23 82 54 23
81 54 23 81 53 23 81 53 23 81 53 23 81 53 23 81 53 22 81 53 22 81 53
22 80 53 22 80 53 22 80 53 22 80 53 22 80 53 22 80 53 22 80 53 22 80
53 22 80 53 22 80 48 17 79 48 17 79 48 17 79 93 32 112 107 39 119 34
30 29 34 30 29 35 30 29 35 31 29 35 31 29 35 31 29 35 31 29 35 31 29 1
3 21 1 3 21 1 3 21 1 3 21 1 3 21 1 3 21 1 3 21 9 12 30 35 31 30 35 31
30 35 31 30 36 31 30 36 31 30 36 31 30 36 31 30 36 31 30 36 31 30 36
31 30 36 31 30 36 31 30 35 31 29 35 31 29 35 31 29 35 31 29 35 31 29
35 31 29 35 31 29 35 31 29 35 31 29 35 31 29 35 31 29 35 31 29 35 31
29 35 31 29 35 31 29 35 31 29 34 30 28 34 30 28 34 30 28 34 30 28 34
30 28 34 30 28 34 30 28 34 30 28 34 30 28 34 30 28 34 30 28 33 30 28
33 29 28 33 29 27 33 29 27 33 29 27 33 29 27 33 29 27 33 29 27 33 29
27 32 29 27 32 29 27 32 29 27 32 28 27 32 28 27 32 28 26
55 24 83 55 24 82 54 24 82 54 23 82 54 23 81 54 23 81 53 23 81 53 23
81 53 23 81 53 22 80 53 22 80 53 22 80 53 22 80 53 22 80 52 22 80 52
22 80 52 22 80 52 22 80 52 22 80 52 22 80 52 22 80 52 22 80 52 22 80
52 22 80 52 22 80 52 22 80 52 22 80 47 17 78 47 17 78 103 38 116 37 33
31 37 33 31 37 33 32 37 33 32 38 33 32 38 33 32 1 3 21 1 3 21 1 3 21 1
3 21 1 3 21 1 3 21 1 3 21 1 3 21 1 3 21 1 3 21 1 4 21 1 5 26 39 34 32
39 34 32 39 34 32 39 34 32 39 34 32 39 34 32 39 34 32 39 34 32 39 34
32 39 34 32 39 34 32 39 34 32 39 34 32 39 34 32 39 34 32 38 34 32 38
34 32 38 34 32 38 34 32 38 34 31 38 34 31 38 34 31 38 34 31 38 33 31
38 33 31 38 33 31 37 33 31 37 33 31 37 33 31 37 33 30 37 33 30 37 33
30 37 32 30 37 32 30 36 32 30 36 32 30 36 32 30 36 32 30 36 32 29 36
32 29 36 32 29 35 31 29 35 31 29 35 31 29 35 31 29 35 31 29 35 31 29
35 31 29 35 31 28 34 30 28 34 30 28 34 30 28
54 24 82 54 23 81 54 23 81 53 23 81 53 23 80 53 23 80 53 22 80 53 22
80 53 22 80 52 22 80 52 22 80 52 22 79 52 22 79 52 22 79 52 22 79 52
22 79 52 21 79 52 21 79 52 21 79 52 21 79 52 21 79 52 21 79 52 21 79
52 21 79 51 21 79 51 21 79 51 21 79 51 21 79 47 17 77 47 17 77 110 40
121 40 35 34 40 36 34 40 36 34 41 36 34 1 3 21 1 3 21 1 3 21 1 3 21 1
3 21 1 3 21 1 3 21 1 3 21 1 3 21 1 3 21 1 3 21 1 3 21 1 4 21 1 5 26 42
37 35 42 37 35 42 37 35 42 37 35 42 37 35 42 37 35 42 37 35 42 37 35
42 37 35 42 37 35 42 37 35 42 37 35 42 37 35 42 37 35 42 37 34 42 37
34 42 37 34 42 37 34 42 37 34 41 37 34 41 37 34 41 36 34 41 36 34 41
36 33 41 36 33 41 36 33 40 36 33 40 36 33 40 36 33 40 35 33 40 35 32
40 35 32 40 35 32 39 35 32 39 35 32 39 35 32 39 34 32 39 34 32 39 34
31 38 34 31 38 34 31 38 34 31 38 34 31 38 33 31 38 33 31 37 33 30 37
33 30 37 33 30 37 33 30 37 32 30 37 32 30
54 23 81 53 23 80 53 23 80 53 22 80 53 22 80 53 22 80 52 22 79 52 22
79 52 22 79 52 22 79 52 22 79 52 21 79 52 21 79 52 21 79 52 21 79 51
21 79 51 21 78 51 21 78 51 21 78 51 21 78 51 21 78 51 21 78 51 21 78
51 21 78 51 21 78 51 21 78 51 21 78 51 20 78 51 20 78 47 17 76 50 20
77 43 38 37 44 38 37 44 39 37 1 3 21 1 3 21 1 3 21 1 3 21 1 3 21 1 3
21 1 3 21 1 3 21 1 3 21 1 3 21 1 3 21 1 3 21 1 3 21 1 3 21 1 4 22 1 6
27 46 41 38 46 41 38 46 41 38 46 41 38 46 41 38 46 41 38 46 41 38 46
41 38 46 41 38 46 41 38 46 41 38 46 41 38 46 41 37 46 41 37 46 40 37
46 40 37 45 40 37 45 40 37 45 40 37 45 40 37 45 40 36 45 40 36 44 39
36 44 39 36 44 39 36 44 39 36 44 39 35 44 39 35 43 38 35 43 38 35 43
38 35 43 38 35 43 38 34 42 38 34 42 37 34 42 37 34 42 37 34 41 37 34
41 37 33 41 36 33 41 36 33 41 36 33 40 36 33 40 36 33 40 35 32 40 35
32 40 35 32 39 35 32 39 35 32 39 35 32
53 23 80 53 22 80 53 22 79 52 22 79 52 22 79 52 22 79 52 22 79 52 21
79 52 21 79 51 21 78 51 21 78 51 21 78 51 21 78 51 21 78 51 21 78 51
21 78 51 21 78 51 21 78 51 21 78 51 21 78 51 20 78 51 20 78 51 20 78
50 20 77 50 20 77 50 20 77 50 20 77 50 20 77 50 20 77 46 17 75 46 17
75 47 41 40 47 41 40 38 17 63 34 16 60 1 3 21 1 3 21 1 3 21 1 3 21 1 3
21 1 3 21 1 3 21 1 3 21 1 3 21 1 3 21 1 3 21 1 3 21 1 3 21 1 3 21 1 5
24 1 7 29 50 44 42 50 44 42 50 44 41 50 45 41 50 45 41 50 45 41 44 30
35 44 30 35 44 30 35 44 30 35 44 30 35 44 30 35 44 30 35 50 44 40 50
44 40 49 44 40 49 44 40 49 44 40 49 43 39 49 43 39 49 43 39 48 43 39
48 43 39 48 43 38 48 42 38 47 42 38 47 42 38 47 42 38 47 41 37 46 41
37 46 41 37 46 41 37 46 41 37 45 40 36 45 40 36 45 40 36 45 40 36 44
39 36 44 39 35 44 39 35 44 39 35 43 38 35 43 38 35 43 38 34 43 38 34
42 38 34 42 37 34 42 37 34 42 37 34
52 22 79 52 22 79 52 22 79 52 21 78 52 21 78 51 21 78 51 21 78 51 21
78 51 21 78 51 21 78 51 21 78 51 21 78 51 21 78 51 20 78 51 20 77 50
20 77 50 20 77 50 20 77 50 20 77 50 20 77 50 20 77 50 20 77 50 20 77
50 20 77 50 20 77 50 20 77 50 20 76 49 19 76 49 19 76 49 19 76 46 16
74 50 44 43 18 10 48 18 10 48 29 13 56 1 3 21 1 3 21 1 3 21 1 3 21 1 3
21 1 3 21 1 3 21 1 3 21 1 3 21 1 3 21 1 3 21 1 3 21 1 3 21 1 3 21 1 4
22 1 6 26 2 8 33 55 48 45 55 48 45 44 30 35 44 30 35 44 30 35 44 30 35
44 30 35 44 30 35 44 30 35 44 30 35 44 30 35 44 30 35 44 30 35 44 30
35 44 30 35 54 48 43 54 48 43 53 47 43 53 47 42 53 47 42 53 47 42 52
47 42 52 46 41 52 46 41 52 46 41 51 45 41 51 45 40 51 45 40 50 45 40
50 44 40 50 44 39 49 44 39 49 44 39 49 43 39 48 43 38 48 43 38 48 42
38 47 42 38 47 42 37 47 42 37 47 41 37 46 41 37 46 41 37 46 40 36 45
40 36 45 40 36 45 40 36 44 39 35
52 21 78 51 21 78 51 21 78 51 21 78 51 21 78 51 21 78 51 21 77 51 20
77 51 20 77 50 20 77 50 20 77 50 20 77 50 20 77 50 20 77 50 20 77 50
20 77 50 20 77 50 20 77 50 20 77 50 20 77 50 20 76 49 20 76 49 19 76
49 19 76 49 19 76 49 19 76 49 19 76 49 19 75 48 19 75 48 18 75 47 18
74 46 16 73 18 10 47 18 10 47 17 9 48 1 3 21 1 3 21 1 3 21 1 3 21 1 3
21 1 3 21 1 3 21 1 3 21 1 3 21 1 3 21 1 3 21 1 3 21 1 3 21 1 3 21 1 3
21 1 3 21 1 3 21 44 30 35 44 30 35 44 30 35 44 30 35 44 30 35 44 30 35
44 30 35 44 30 35 44 30 35 44 30 35 44 30 35 44 30 35 44 30 35 44 30
35 44 30 35 44 30 35 44 30 35 58 52 46 58 51 46 58 51 45 57 51 45 57
51 45 57 50 44 56 50 44 56 50 44 56 49 44 55 49 43 55 49 43 54 48 43
54 48 42 54 48 42 53 47 42 53 47 41 53 47 41 52 46 41 52 46 41 51 46
40 51 45 40 51 45 40 50 45 40 50 44 39 50 44 39 49 44 39 49 43 38 48
43 38 48 43 38 48 42 38 47 42 37
51 21 77 51 20 77 50 20 77 50 20 77 50 20 77 50 20 77 50 20 77 50 20
77 50 20 77 50 20 77 50 20 77 50 20 76 50 20 76 50 20 76 50 20 76 49
19 76 49 19 76 49 19 76 49 19 76 49 19 76 49 19 76 49 19 76 49 19 76
49 19 75 48 19 75 48 18 75 48 18 75 48 18 75 47 18 74 47 17 74 46 17
73 42 13 70 17 9 47 18 10 47 19 10 48 1 3 21 1 3 21 1 3 21 1 3 21 1 3
21 1 3 21 1 3 21 1 3 21 1 3 21 1 3 21 1 3 21 1 3 21 1 3 21 1 3 21 1 3
21 17 14 33 44 30 35 44 30 35 44 30 35 44 30 35 44 30 35 44 30 35 44
30 35 44 30 35 44 30 35 44 30 35 44 30 35 44 30 35 44 30 35 44 30 35
44 30 35 44 30 35 44 30 35 44 30 35 44 30 35 63 56 49 63 56 49 62 56
48 62 55 48 62 55 48 61 55 47 61 54 47 60 54 47 60 53 46 59 53 46 59
53 46 59 52 45 58 52 45 58 51 45 57 51 44 57 51 44 56 50 44 56 50 43
55 49 43 55 49 43 54 48 42 54 48 42 54 48 42 53 47 41 53 47 41 52 46
41 52 46 40 51 46 40 51 45 40 51 45 40
50 20 76 50 20 76 50 20 76 50 20 76 50 20 76 49 20 76 49 19 76 49 19
76 49 19 76 49 19 76 49 19 76 49 19 76 49 19 76 49 19 76 49 19 76 49
19 76 49 19 76 49 19 75 49 19 75 48 19 75 48 19 75 48 18 75 48 18 75
48 18 75 48 18 75 47 18 74 47 18 74 47 17 74 46 17 73 46 16 73 42 13
70 16 8 46 16 8 46 17 9 47 18 10 48 1 3 21 1 3 21 1 3 21 1 3 21 1 3 21
1 3 21 1 3 21 1 3 21 1 3 21 1 3 21 1 3 21 1 3 21 1 3 21 1 3 21 17 14
33 44 30 35 44 30 35 44 30 35 44 30 35 44 30 35 44 30 35 44 30 35 44
30 35 44 30 35 44 30 35 44 30 35 44 30 35 44 30 35 44 30 35 44 30 35
44 30 35 44 30 35 44 30 35 44 30 35 44 30 35 44 30 35 82 63 52 68 61
52 68 60 52 67 60 51 67 60 51 66 59 50 66 59 50 65 58 50 65 58 49 64
57 49 63 57 48 63 56 48 62 56 48 62 55 47 61 55 47 61 54 46 60 54 46
60 53 46 59 53 45 58 52 45 58 52 44 57 51 44 57 51 44 56 50 43 56 50
43 55 49 43 55 49 42 54 48 42 54 48 42
49 19 75 49 19 75 49 19 75 49 19 75 49 19 75 49 19 75 49 19 75 49 19
75 49 19 75 49 19 75 49 19 75 48 19 75 48 19 75 48 19 75 48 18 75 48
18 75 48 18 75 48 18 75 48 18 75 48 18 75 48 18 74 47 18 74 47 18 74
47 17 74 47 17 74 47 17 74 46 17 73 46 16 73 42 13 70 42 13 70 42 13
70 16 8 46 16 8 46 16 8 46 18 10 48 1 3 21 1 3 21 1 3 21 1 3 21 1 3 21
1 3 21 1 3 21 1 3 21 1 3 21 1 3 21 1 3 21 1 3 21 1 3 21 17 14 33 44 30
35 44 30 35 44 30 35 44 30 35 44 30 35 44 30 35 44 30 35 44 30 35 44
30 35 44 30 35 44 30 35 44 30 35 44 30 35 44 30 35 44 30 35 44 30 35
44 30 35 44 30 35 44 30 35 44 30 35 44 30 35 44 30 35 44 30 35 74 67
56 74 66 56 73 66 55 73 65 55 72 64 54 72 64 54 71 63 53 70 63 53 70
62 52 69 62 52 68 61 51 68 60 51 67 60 50 66 59 50 66 59 49 65 58 49
64 57 48 64 57 48 63 56 47 62 56 47 62 55 47 61 54 46 60 54 46 60 53
45 59 53 45 59 52 45 58 52 44 58 51 44
48 18 74 48 18 74 48 18 75 48 18 75 48 18 75 48 18 75 48 18 75 48 18
75 48 18 75 48 18 75 48 18 75 48 18 75 48 18 74 48 18 74 48 18 74 47
18 74 47 18 74 47 18 74 47 17 74 47 17 74 47 17 74 47 17 74 46 17 73
46 17 73 46 16 73 46 16 73 42 13 70 42 13 70 42 13 70 42 13 70 42 13
70 16 8 46 16 8 46 16 8 46 17 9 47 1 3 21 1 3 21 1 3 21 1 3 21 1 3 21
1 3 21 1 3 21 1 3 21 1 3 21 1 3 21 1 3 21 1 3 21 17 14 33 44 30 35 44
30 35 44 30 35 44 30 35 44 30 35 44 30 35 44 30 35 44 30 35 44 30 35
44 30 35 44 30 35 44 30 35 44 30 35 44 30 35 44 30 35 44 30 35 44 30
35 44 30 35 44 30 35 44 30 35 44 30 35 44 30 35 44 30 35 44 30 35 44
30 35 81 72 60 80 72 59 79 71 59 79 71 58 78 70 57 77 69 57 76 68 56
76 68 56 75 67 55 74 66 55 73 66 54 72 65 53 72 64 53 71 63 52 70 63
52 69 62 51 68 61 51 68 61 50 67 60 50 66 59 49 65 58 49 65 58 48 64
57 48 63 57 48 63 56 47 62 55 47 61 55 46
46 17 73 47 17 74 47 17 74 47 17 74 47 17 74 47 17 74 47 17 74 47 17
74 47 17 74 47 17 74 47 17 74 47 17 74 47 17 74 47 17 74 47 17 74 47
17 74 47 17 73 46 17 73 46 17 73 46 17 73 46 16 73 46 16 73 45 16 73
42 13 70 42 13 70 42 13 70 42 13 70 42 13 70 42 13 70 42 13 70 42 13
70 16 8 46 16 8 46 16 8 46 16 8 46 1 3 21 1 3 21 1 3 21 1 3 21 1 3 21
1 3 21 1 3 21 1 3 21 1 3 21 1 3 21 1 3 21 17 14 33 17 14 33 44 30 35
44 30 35 44 30 35 44 30 35 44 30 35 44 30 35 44 30 35 44 30 35 44 30
35 44 30 35 44 30 35 44 30 35 44 30 35 44 30 35 44 30 35 44 30 35 44
30 35 44 30 35 44 30 35 44 30 35 44 30 35 44 30 35 44 30 35 44 30 35
44 30 35 44 30 35 88 79 63 87 78 63 86 77 62 85 76 61 84 76 61 83 75
60 82 74 59 81 73 59 80 72 58 79 71 58 78 70 57 77 69 56 77 69 56 76
68 55 75 67 54 74 66 54 73 65 53 72 64 53 71 64 52 70 63 52 69 62 51
69 61 51 68 61 50 67 60 50 66 59 49 65 58 49
42 13 70 45 16 73 46 16 73 46 16 73 46 16 73 46 16 73 46 16 73 46 16
73 46 17 73 46 17 73 46 16 73 46 16 73 46 16 73 46 16 73 46 16 73 46
16 73 46 16 73 45 16 73 42 13 70 42 13 70 42 13 70 42 13 70 42 13 70
42 13 70 42 13 70 42 13 70 42 13 70 42 13 70 42 13 70 42 13 70 42 13
70 16 8 46 16 8 46 16 8 46 14 15 32 9 11 29 9 11 28 1 3 21 1 3 21 1 3
21 1 3 21 1 3 21 1 3 21 1 3 21 1 3 21 1 3 21 17 14 33 44 30 35 44 30
35 44 30 35 44 30 35 44 30 35 44 30 35 44 30 35 44 30 35 44 30 35 44
30 35 44 30 35 44 30 35 44 30 35 44 30 35 44 30 35 44 30 35 44 30 35
44 30 35 44 30 35 44 30 35 44 30 35 44 30 35 44 30 35 44 30 35 44 30
35 44 30 35 44 30 35 92 75 60 95 86 67 94 85 67 93 84 66 92 83 65 91
82 64 90 81 64 89 80 63 87 79 62 86 78 61 85 76 61 84 75 60 83 74 59
82 73 58 81 72 58 79 71 57 78 70 56 77 69 56 76 68 55 75 68 54 74 67
54 73 66 53 72 65 53 71 64 52 71 63 52 70 62 51
42 13 70 42 13 70 42 13 70 42 13 70 42 13 70 42 13 70 42 13 70 42 13
70 42 13 70 42 13 70 42 13 70 42 13 70 42 13 70 42 13 70 42 13 70 42
13 70 42 13 70 42 13 70 42 13 70 42 13 70 42 13 70 42 13 70 42 13 70
42 13 70 42 13 70 42 13 70 42 13 70 42 13 70 42 13 70 42 13 70 42 13
70 16 8 46 16 8 46 16 8 46 19 20 38 18 19 36 17 18 35 10 11 32 10 11
31 15 16 33 15 16 32 14 15 29 14 15 29 16 17 33 16 17 34 17 14 33 17
14 33 44 30 35 44 30 35 44 30 35 44 30 35 44 30 35 44 30 35 44 30 35
44 30 35 44 30 35 44 30 35 44 30 35 44 30 35 44 30 35 44 30 35 44 30
35 44 30 35 44 30 35 44 30 35 44 30 35 44 30 35 44 30 35 44 30 35 44
30 35 44 30 35 44 30 35 44 30 35 44 30 35 44 30 35 105 94 72 103 93 71
102 92 70 101 91 70 99 90 69 98 88 68 97 87 67 95 86 66 94 84 65 92 83
64 91 82 64 90 81 63 88 79 62 87 78 61 86 77 60 84 76 60 83 75 59 82
74 58 81 73 57 80 72 57 78 70 56 77 69 55 76 69 55 75 68 54 74 67 54
42 13 70 42 13 70 42 13 70 42 13 70 42 13 70 42 13 70 42 13 70 42 13
70 42 13 70 42 13 70 42 13 70 42 13 70 42 13 70 42 13 70 42 13 70 42
13 70 42 13 70 42 13 70 42 13 70 42 13 70 42 13 70 42 13 70 42 13 70
42 13 70 42 13 70 42 13 70 42 13 70 42 13 70 42 13 70 42 13 70 86 74
87 87 75 88 16 8 46 16 8 46 24 24 44 23 23 42 22 22 40 12 12 36 12 12
35 11 12 35 21 21 38 21 21 38 22 22 38 22 23 39 21 22 32 17 14 33 44
30 35 44 30 35 44 30 35 44 30 35 44 30 35 44 30 35 44 30 35 44 30 35
44 30 35 44 30 35 44 30 35 44 30 35 44 30 35 44 30 35 44 30 35 44 30
35 44 30 35 44 30 35 44 30 35 44 30 35 44 30 35 44 30 35 44 30 35 44
30 35 44 30 35 44 30 35 44 30 35 44 30 35 44 30 35 57 39 39 113 102 76
112 101 75 110 100 74 109 98 73 107 97 72 105 95 71 104 94 70 102 92
69 100 91 68 99 89 67 97 88 67 96 86 66 94 85 65 92 83 64 91 82 63 89
81 62 88 79 61 87 78 61 85 77 60 84 76 59 83 74 58 81 73 58 80 72 57
79 71 56
42 13 70 42 13 70 42 13 70 42 13 70 42 13 70 42 13 70 42 13 70 42 13
70 42 13 70 42 13 70 42 13 70 42 13 70 42 13 70 42 13 70 42 13 70 42
13 70 42 13 70 42 13 70 42 13 70 42 13 70 42 13 70 42 13 70 42 13 70
42 13 70 42 13 70 42 13 70 42 13 70 42 13 70 42 13 70 90 77 93 91 78
94 92 79 95 16 8 46 16 8 46 28 27 49 27 26 46 26 25 45 13 13 39 13 13
38 12 13 38 25 25 42 26 25 42 26 26 42 27 27 43 25 25 33 17 14 33 44
30 35 44 30 35 44 30 35 44 30 35 44 30 35 44 30 35 44 30 35 44 30 35
44 30 35 44 30 35 44 30 35 44 30 35 44 30 35 44 30 35 44 30 35 44 30
35 44 30 35 44 30 35 44 30 35 44 30 35 44 30 35 44 30 35 44 30 35 44
30 35 44 30 35 44 30 35 44 30 35 44 30 35 44 30 35 44 30 35 124 113 82
123 111 81 121 109 80 119 108 78 117 106 77 115 104 76 113 102 75 111
100 74 109 99 73 107 97 72 105 95 71 103 93 70 101 92 69 100 90 68 98
88 67 96 87 66 95 85 65 93 84 64 91 82 63 90 81 62 88 80 61 87 78 61
86 77 60 84 76 59
42 13 70 42 13 70 42 13 70 42 13 70 42 13 70 42 13 70 42 13 70 42 13
70 42 13 70 42 13 70 42 13 70 42 13 70 42 13 70 42 13 70 42 13 70 42
13 70 42 13 70 42 13 70 42 13 70 42 13 70 42 13 70 42 13 70 42 13 70
42 13 70 42 13 70 42 13 70 42 13 70 42 13 70 42 13 70 94 80 101 95 81
102 97 83 103 98 84 104 34 32 60 32 30 54 30 29 51 29 28 49 14 14 42
14 14 41 28 28 46 29 28 46 29 28 45 30 29 45 15 27 81 17 14 33 17 14
33 44 30 35 44 30 35 44 30 35 44 30 35 44 30 35 44 30 35 44 30 35 44
30 35 44 30 35 44 30 35 44 30 35 44 30 35 44 30 35 44 30 35 44 30 35
44 30 35 44 30 35 44 30 35 44 30 35 44 30 35 44 30 35 44 30 35 44 30
35 44 30 35 44 30 35 44 30 35 44 30 35 44 30 35 44 30 35 44 30 35 125
117 57 123 115 56 122 113 55 130 118 84 128 116 82 125 114 81 123 111
80 121 109 78 118 107 77 116 105 76 114 103 75 112 101 74 109 99 72
107 97 71 105 95 70 103 93 69 101 92 68 100 90 67 98 88 66 96 87 65 94
85 64 93 84 63 91 82 63 90 81 62
42 13 70 42 13 70 42 13 70 42 13 70 42 13 70 42 13 70 42 13 70 42 13
70 42 13 70 42 13 70 42 13 70 42 13 70 42 13 70 42 13 70 42 13 70 42
13 70 42 13 70 42 13 70 42 13 70 42 13 70 42 13 70 42 13 70 42 13 70
42 13 70 42 13 70 42 13 70 42 13 70 42 13 70 97 83 107 99 84 109 100
85 110 101 86 111 103 87 112 22 19 63 35 33 60 16 15 49 15 15 46 15 14
44 14 14 43 14 14 43 26 27 34 32 30 48 32 31 48 17 30 106 17 14 33 44
30 35 44 30 35 44 30 35 44 30 35 44 30 35 44 30 35 44 30 35 44 30 35
44 30 35 44 30 35 44 30 35 44 30 35 44 30 35 44 30 35 44 30 35 44 30
35 44 30 35 44 30 35 44 30 35 44 30 35 44 30 35 44 30 35 44 30 35 44
30 35 44 30 35 44 30 35 44 30 35 44 30 35 44 30 35 44 30 35 44 30 35
137 128 61 135 126 60 133 124 59 131 122 59 128 119 58 126 117 57 123
115 56 131 119 83 128 116 82 126 114 80 123 112 79 120 109 78 118 107
76 115 105 75 113 102 74 111 100 73 109 98 72 106 96 71 104 94 69 102
93 68 100 91 67 99 89 66 97 87 66 95 86 65
69 59 70 70 60 71 42 13 70 42 13 70 42 13 70 42 13 70 42 13 70 42 13
70 42 13 70 42 13 70 42 13 70 42 13 70 42 13 70 42 13 70 42 13 70 42
13 70 42 13 70 42 13 70 42 13 70 42 13 70 42 13 70 42 13 70 42 13 70
42 13 70 42 13 70 42 13 70 42 13 70 50 37 95 50 38 97 51 38 98 51 38
99 51 38 100 51 38 100 52 39 101 41 37 70 18 16 53 17 15 49 16 15 47
19 14 41 15 14 45 15 14 44 14 14 43 35 33 50 30 30 35 17 14 33 44 30
35 44 30 35 44 30 35 44 30 35 44 30 35 44 30 35 44 30 35 44 30 35 44
30 35 44 30 35 44 30 35 44 30 35 44 30 35 44 30 35 44 30 35 44 30 35
44 30 35 44 30 35 44 30 35 44 30 35 44 30 35 44 30 35 44 30 35 44 30
35 44 30 35 44 30 35 44 30 35 44 30 35 44 30 35 44 30 35 44 30 35 150
139 66 147 137 65 145 135 64 142 133 63 140 130 62 137 127 61 134 125
60 131 122 59 128 119 58 135 123 85 132 120 84 130 118 82 127 115 81
124 112 79 121 110 78 119 107 77 116 105 75 114 103 74 111 101 73 109
99 72 107 97 71 105 95 69 103 93 68 101 91 67
71 61 73 72 62 74 73 62 76 42 13 70 42 13 70 42 13 70 42 13 70 42 13
70 42 13 70 42 13 70 42 13 70 42 13 70 42 13 70 42 13 70 42 13 70 42
13 70 42 13 70 42 13 70 42 13 70 42 13 70 42 13 70 42 13 70 42 13 70
42 13 70 42 13 70 51 38 99 52 39 101 52 39 103 53 39 104 53 40 106 54
40 107 54 40 107 54 40 108 54 40 108 54 40 108 43 38 71 18 17 54 17 16
50 16 15 48 16 15 47 15 15 46 15 15 45 9 10 27 9 10 27 17 14 33 44 30
35 44 30 35 44 30 35 44 30 35 44 30 35 44 30 35 44 30 35 44 30 35 44
30 35 44 30 35 44 30 35 44 30 35 44 30 35 44 30 35 44 30 35 44 30 35
44 30 35 44 30 35 44 30 35 44 30 35 44 30 35 44 30 35 44 30 35 44 30
35 44 30 35 44 30 35 44 30 35 44 30 35 44 30 35 44 30 35 44 30 35 48
33 36 159 148 69 156 146 68 154 143 67 151 141 66 148 138 65 144 135
64 141 132 62 138 129 61 135 126 60 142 129 88 139 126 86 135 123 85
132 120 83 129 117 82 126 115 80 124 112 79 121 110 77 118 107 76 116
105 75 113 103 74 111 100 73 109 98 71 107 96 70
38 30 64 39 30 65 39 31 66 40 31 67 40 31 68 42 13 70 42 13 70 42 13
70 42 13 70 42 13 70 42 13 70 42 13 70 42 13 70 42 13 70 42 13 70 42
13 70 42 13 70 42 13 70 42 13 70 42 13 70 42 13 70 42 13 70 42 13 70
56 17 80 53 39 104 54 40 106 54 40 108 55 41 110 55 41 111 56 41 113
56 42 114 57 42 115 57 42 115 57 42 115 57 42 115 57 42 115 56 41 114
19 17 57 18 16 52 17 16 50 4 15 51 4 15 45 4 14 41 4 14 41 17 14 33 44
30 35 44 30 35 44 30 35 44 30 35 44 30 35 44 30 35 44 30 35 44 30 35
44 30 35 44 30 35 44 30 35 44 30 35 44 30 35 44 30 35 44 30 35 44 30
35 44 30 35 44 30 35 44 30 35 44 30 35 44 30 35 44 30 35 44 30 35 44
30 35 44 30 35 44 30 35 44 30 35 44 30 35 44 30 35 44 30 35 44 30 35
47 31 35 169 158 73 167 156 72 164 153 71 161 150 70 158 147 69 154
144 67 151 141 66 147 137 65 144 134 63 140 131 62 148 134 90 144 131
89 141 128 87 137 125 85 134 122 84 131 119 82 128 116 81 125 114 79
122 111 78 120 109 77 117 106 76 115 104 74 112 102 73
39 31 66 40 31 68 40 31 69 41 32 70 41 32 71 42 32 73 42 33 74 43 33
76 42 13 70 42 13 70 42 13 70 42 13 70 42 13 70 42 13 70 42 13 70 42
13 70 42 13 70 42 13 70 42 13 70 42 13 70 42 13 70 53 39 104 54 40 106
54 40 108 55 41 111 56 41 113 57 42 115 57 42 116 58 42 118 58 43 119
59 43 120 59 43 121 59 43 121 59 43 121 59 43 121 58 43 120 58 43 119
58 42 117 22 20 19 4 25 69 3 18 61 6 19 79 7 20 76 8 26 76 11 36 89 44
30 35 44 30 35 44 30 35 44 30 35 44 30 35 44 30 35 44 30 35 44 30 35
44 30 35 44 30 35 44 30 35 44 30 35 44 30 35 44 30 35 44 30 35 44 30
35 44 30 35 44 30 35 44 30 35 44 30 35 44 30 35 44 30 35 44 30 35 44
30 35 44 30 35 44 30 35 44 30 35 44 30 35 44 30 35 44 30 35 44 30 35
179 167 76 177 166 76 175 163 75 172 161 74 170 158 73 166 155 72 163
152 70 159 149 69 156 145 68 152 142 66 149 138 65 145 135 64 152 139
92 148 135 91 145 132 89 141 129 87 138 126 86 135 123 84 132 120 83
129 117 81 126 114 80 123 112 78 120 109 77 118 107 76
40 31 69 41 32 70 41 32 72 42 32 73 42 33 75 43 33 76 43 33 78 44 34
79 45 34 81 45 34 83 46 35 85 47 35 86 47 36 88 42 13 70 42 13 70 42
13 70 42 13 70 51 38 99 52 39 102 53 39 104 54 40 107 55 40 109 55 41
111 56 41 114 57 42 116 58 42 118 58 43 120 59 43 122 60 44 123 60 44
124 60 44 125 60 44 125 60 44 125 60 44 125 60 44 124 125 105 147 126
106 146 90 84 44 92 85 44 94 87 45 95 88 46 97 90 46 99 92 47 101 93
48 103 95 48 44 30 35 44 30 35 44 30 35 44 30 35 44 30 35 44 30 35 44
30 35 44 30 35 44 30 35 44 30 35 44 30 35 44 30 35 44 30 35 44 30 35
44 30 35 44 30 35 44 30 35 44 30 35 44 30 35 44 30 35 44 30 35 44 30
35 44 30 35 44 30 35 44 30 35 44 30 35 44 30 35 44 30 35 44 30 35 44
30 35 44 30 35 184 172 78 182 170 78 181 169 77 178 167 76 176 164 75
173 161 74 170 158 73 166 155 72 163 152 70 159 148 69 155 145 68 152
141 66 159 145 96 155 142 94 152 138 92 148 135 90 145 132 89 141 128
87 138 125 86 135 123 84 132 120 83 129 117 81 126 114 80 123 112 78
41 32 72 42 32 73 42 33 74 43 33 76 43 33 77 44 34 79 44 34 81 45 34
82 46 35 84 46 35 86 47 36 88 48 36 90 49 37 92 49 37 94 50 38 96 51
38 99 52 39 101 53 39 103 53 40 106 54 40 108 55 41 111 56 41 113 57
42 116 58 42 118 58 43 120 59 43 122 60 44 124 60 44 125 61 44 126 61
45 127 61 45 128 61 45 128 61 45 128 61 45 127 61 44 126 60 44 125 127
107 148 91 84 44 93 86 45 94 87 45 96 89 46 98 90 46 99 92 47 101 94
48 103 96 48 44 30 35 44 30 35 44 30 35 44 30 35 44 30 35 44 30 35 44
30 35 44 30 35 44 30 35 44 30 35 44 30 35 44 30 35 44 30 35 44 30 35
44 30 35 44 30 35 44 30 35 44 30 35 44 30 35 44 30 35 44 30 35 44 30
35 44 30 35 44 30 35 44 30 35 44 30 35 44 30 35 44 30 35 44 30 35 44
30 35 44 30 35 185 173 79 184 172 78 183 171 78 181 169 77 179 167 76
177 165 75 174 162 74 171 159 73 168 156 72 164 153 71 161 150 70 168
154 100 165 150 98 161 147 97 157 143 95 154 140 93 150 137 91 147 134
90 143 130 88 140 127 87 137 125 85 134 122 84 131 119 82 128 117 81
42 32 74 43 33 76 43 33 77 44 33 79 44 34 80 45 34 82 45 35 83 46 35
85 47 35 87 47 36 89 48 36 91 49 37 93 50 37 95 50 38 97 51 38 100 52
39 102 53 39 104 54 40 107 55 40 109 55 41 112 56 42 114 57 42 116 58
43 118 59 43 121 59 44 123 60 44 124 61 44 126 61 45 127 61 45 128 62
45 129 62 45 129 62 45 129 62 45 129 61 45 128 61 44 127 127 107 150
128 108 149 92 85 44 93 86 45 95 88 45 96 89 46 98 91 47 100 92 47 101
94 48 103 96 49 44 30 35 44 30 35 44 30 35 44 30 35 44 30 35 44 30 35
44 30 35 44 30 35 44 30 35 44 30 35 44 30 35 44 30 35 44 30 35 44 30
35 44 30 35 44 30 35 44 30 35 44 30 35 44 30 35 44 30 35 44 30 35 44
30 35 44 30 35 44 30 35 44 30 35 44 30 35 44 30 35 44 30 35 44 30 35
44 30 35 44 30 35 184 172 78 184 172 78 183 171 78 182 170 77 180 168
77 178 166 76 176 164 75 173 161 74 170 159 73 179 164 106 176 160 104
172 157 102 169 154 100 165 151 99 162 147 97 158 144 95 155 141 94
151 138 92 148 135 90 145 132 89 142 129 87 139 126 86 136 123 84 133
121 83
43 33 76 43 33 78 44 34 79 45 34 81 45 34 82 46 35 84 46 35 86 47 36
88 48 36 90 48 36 92 49 37 94 50 37 96 51 38 98 51 38 100 52 39 102 53
39 104 54 40 107 55 40 109 55 41 111 56 41 114 57 42 116 58 42 118 59
43 120 59 43 122 60 44 124 60 44 125 61 44 126 61 45 127 61 45 128 62
45 129 62 45 129 61 45 128 61 45 128 125 105 150 126 106 150 127 107
149 128 108 148 128 108 146 93 87 45 95 88 45 96 89 46 98 91 47 100 93
47 101 94 48 103 96 49 105 98 49 44 30 35 44 30 35 44 30 35 44 30 35
44 30 35 44 30 35 44 30 35 44 30 35 44 30 35 44 30 35 44 30 35 44 30
35 44 30 35 44 30 35 44 30 35 44 30 35 44 30 35 44 30 35 44 30 35 44
30 35 44 30 35 44 30 35 44 30 35 44 30 35 44 30 35 44 30 35 44 30 35
44 30 35 44 30 35 180 168 77 181 169 77 181 169 77 180 168 77 180 168
77 179 167 76 190 174 112 188 172 111 186 170 110 183 167 108 180 165
107 177 162 105 174 159 104 171 156 102 168 153 100 165 150 99 161 147
97 158 144 95 155 141 94 151 138 92 148 135 91 145 132 89 142 129 88
139 127 86 137 124 85
44 33 78 44 34 80 45 34 81 45 34 83 46 35 85 46 35 86 47 36 88 48 36
90 48 36 92 49 37 94 50 37 96 51 38 98 51 38 100 52 39 102 53 39 104
54 40 106 54 40 108 55 41 110 56 41 113 57 42 115 57 42 117 58 43 119
59 43 120 59 43 122 60 44 123 60 44 125 60 44 126 61 44 126 120 100
148 121 101 149 122 102 149 123 103 149 124 104 149 125 105 148 9 51
230 10 61 216 12 73 215 14 85 220 16 99 232 95 88 45 96 89 46 98 91 47
100 92 47 101 94 48 103 96 48 24 24 89 44 30 35 44 30 35 44 30 35 44
30 35 44 30 35 44 30 35 44 30 35 44 30 35 44 30 35 44 30 35 44 30 35
44 30 35 44 30 35 44 30 35 44 30 35 44 30 35 44 30 35 44 30 35 44 30
35 44 30 35 44 30 35 44 30 35 44 30 35 44 30 35 44 30 35 44 30 35 44
30 35 44 30 35 44 30 35 175 163 75 176 164 75 176 164 75 176 165 75
190 173 114 189 172 113 188 171 112 186 170 111 184 168 110 182 166
108 180 164 107 177 162 106 175 159 104 172 157 103 169 154 101 166
151 100 163 149 98 160 146 97 157 143 95 154 140 94 151 138 92 148 135
91 145 132 89 142 130 88 140 127 87
44 34 80 45 34 82 45 35 83 46 35 85 47 35 86 47 36 88 48 36 90 48 36
92 49 37 93 50 37 95 50 38 97 51 38 99 52 39 101 52 39 103 53 39 105
54 40 107 55 40 109 55 41 111 56 41 113 57 42 115 57 42 116 111 93 138
112 94 139 114 95 141 115 96 143 116 97 144 117 98 145 118 99 146 120
100 146 121 101 147 121 102 147 122 103 147 123 103 146 8 48 196 8 46
172 8 51 163 10 63 164 12 74 168 14 87 176 16 101 190 129 110 137 130
111 136 99 92 47 101 94 48 23 19 131 9 9 57 8 8 43 44 30 35 44 30 35
44 30 35 44 30 35 44 30 35 44 30 35 44 30 35 44 30 35 44 30 35 44 30
35 44 30 35 44 30 35 44 30 35 44 30 35 44 30 35 44 30 35 44 30 35 44
30 35 44 30 35 44 30 35 44 30 35 44 30 35 44 30 35 44 30 35 44 30 35
44 30 35 44 30 35 44 30 35 184 168 115 185 168 114 185 169 114 185 169
113 185 169 113 185 168 112 184 168 111 183 167 110 181 165 109 180
164 108 178 162 107 176 160 106 174 158 104 171 156 103 169 154 102
166 152 100 164 149 99 161 147 98 158 144 96 155 142 95 153 139 93 150
137 92 147 134 91 145 132 89 142 129 88
45 34 82 45 35 83 46 35 85 46 35 86 47 36 88 48 36 89 48 36 91 49 37
93 49 37 94 96 80 113 97 81 115 98 82 117 99 83 119 101 84 121 102 85
123 103 86 125 105 87 127 106 88 129 107 90 131 108 91 133 110 92 135
111 93 136 112 94 138 113 95 139 115 96 141 116 97 142 117 98 142 118
99 143 119 99 143 120 100 144 121 101 144 121 102 143 8 47 180 7 45
153 7 43 135 7 42 121 9 54 127 10 66 140 12 78 154 24 102 175 16 106
185 129 110 134 129 111 132 18 17 83 9 9 55 20 12 60 12 9 41 44 30 35
44 30 35 44 30 35 44 30 35 44 30 35 44 30 35 44 30 35 44 30 35 44 30
35 44 30 35 44 30 35 44 30 35 44 30 35 44 30 35 44 30 35 44 30 35 44
30 35 44 30 35 44 30 35 44 30 35 44 30 35 44 30 35 44 30 35 44 30 35
44 30 35 44 30 35 44 30 35 178 161 113 179 162 113 179 163 113 180 164
112 180 164 112 180 164 111 180 164 111 179 163 110 179 163 109 178
162 108 177 161 107 175 160 106 174 158 105 172 157 104 170 155 103
168 153 102 165 151 100 163 149 99 161 147 98 158 144 97 156 142 95
153 140 94 151 137 93 148 135 92 146 133 90 144 131 89
87 73 98 88 74 100 89 75 101 90 76 103 91 77 105 92 77 106 93 78 108
94 79 110 95 80 112 96 81 114 97 82 116 99 83 118 100 84 119 101 85
121 102 86 123 104 87 125 105 88 127 106 89 129 107 90 130 108 91 132
110 92 133 111 93 135 112 94 136 113 94 137 114 95 138 115 96 139 116
97 139 117 98 140 118 99 140 119 100 140 119 101 140 120 101 140 7 44
141 7 42 120 7 42 113 7 42 113 8 47 120 9 59 133 11 71 146 13 84 161 7
42 113 127 109 131 128 110 130 20 65 176 20 67 161 21 71 153 23 77 149
25 83 147 44 30 35 44 30 35 44 30 35 44 30 35 44 30 35 44 30 35 44 30
35 44 30 35 44 30 35 44 30 35 44 30 35 44 30 35 44 30 35 44 30 35 44
30 35 44 30 35 44 30 35 44 30 35 44 30 35 44 30 35 44 30 35 44 30 35
44 30 35 44 30 35 44 30 35 171 155 112 172 156 112 173 157 111 174 158
111 174 158 111 175 159 110 175 159 110 175 159 109 175 159 108 174
159 108 174 158 107 173 157 106 172 156 105 170 155 104 169 154 103
167 152 102 166 151 101 164 149 100 162 147 99 160 146 98 158 144 97
156 142 96 153 140 94 151 138 93 149 136 92 147 133 91 144 131 90
88 74 99 89 75 101 89 76 102 90 76 104 91 77 106 93 78 107 94 79 109
95 80 111 96 81 112 97 81 114 98 82 116 99 83 118 100 84 119 101 85
121 102 86 123 104 87 124 105 88 126 106 89 127 107 90 129 108 91 130
109 91 131 110 92 133 111 93 134 112 94 134 113 95 135 114 96 136 115
97 136 116 97 137 117 98 137 117 99 137 118 100 137 7 44 147 7 42 113
7 42 113 7 42 113 7 42 113 7 42 113 8 52 125 7 42 113 7 42 113 7 42
113 14 43 159 14 44 142 15 47 132 16 51 125 17 56 120 18 62 117 20 68
116 22 75 115 44 30 35 44 30 35 44 30 35 44 30 35 44 30 35 44 30 35 44
30 35 44 30 35 44 30 35 44 30 35 44 30 35 44 30 35 44 30 35 44 30 35
44 30 35 44 30 35 44 30 35 44 30 35 44 30 35 44 30 35 44 30 35 44 30
35 44 30 35 165 149 110 166 150 110 167 151 110 168 152 110 169 153
109 169 153 109 170 154 108 170 154 108 170 154 107 170 154 107 170
154 106 169 154 106 169 153 105 168 153 104 167 152 103 166 151 103
165 150 102 163 148 101 162 147 100 160 146 99 158 144 98 157 142 97
155 141 96 153 139 95 151 137 94 149 135 92 147 133 91 145 132 90
88 75 100 89 75 102 90 76 103 91 77 105 92 78 106 93 79 108 94 79 109
95 80 111 96 81 112 97 82 114 98 83 116 99 83 117 100 84 119 101 85
120 102 86 122 104 87 123 105 88 124 106 89 126 107 89 127 108 90 128
109 91 129 110 92 130 111 93 131 111 94 132 112 94 132 113 95 133 114
96 133 115 97 133 116 98 133 116 98 133 117 99 133 7 42 116 7 42 113 7
42 113 7 42 113 7 42 113 7 42 113 7 42 113 7 42 113 7 42 113 13 41 145
22 45 169 16 40 134 11 36 105 12 40 99 14 45 96 15 50 93 16 56 92 18
62 91 20 70 92 44 30 35 44 30 35 44 30 35 44 30 35 44 30 35 44 30 35
44 30 35 44 30 35 44 30 35 44 30 35 44 30 35 44 30 35 44 30 35 44 30
35 44 30 35 44 30 35 44 30 35 44 30 35 44 30 35 44 30 35 44 30 35 159
143 109 160 144 109 161 145 108 162 146 108 163 147 108 163 148 108
164 149 107 165 149 107 165 149 106 165 150 106 165 150 105 165 150
105 165 150 104 164 149 104 164 149 103 163 148 102 162 148 102 161
147 101 160 146 100 159 145 99 158 143 98 156 142 97 155 141 96 153
139 95 152 138 95 150 136 94 148 135 93 146 133 92 145 131 91
89 75 101 90 76 102 91 77 104 92 77 105 93 78 107 94 79 108 94 80 109
95 80 111 96 81 112 97 82 114 98 83 115 99 84 116 100 84 118 101 85
119 102 86 120 103 87 122 104 88 123 105 88 124 106 89 125 107 90 126
108 91 127 109 92 128 110 92 128 111 93 129 111 94 129 112 95 130 113
95 130 114 96 130 114 97 130 115 98 130 116 98 130 116 99 130 7 42 113
7 42 113 7 42 113 7 42 113 7 42 113 7 42 113 7 42 113 13 40 138 13 38
123 12 37 108 11 35 98 11 34 88 10 33 80 11 35 75 12 40 73 13 46 71 15
52 72 17 59 77 19 67 83 44 30 35 44 30 35 44 30 35 44 30 35 44 30 35
44 30 35 44 30 35 44 30 35 44 30 35 44 30 35 44 30 35 44 30 35 44 30
35 44 30 35 44 30 35 44 30 35 44 30 35 44 30 35 44 30 35 153 138 108
154 139 107 156 140 107 156 141 107 157 142 107 158 143 106 159 144
106 159 144 106 160 145 105 160 145 105 161 145 104 161 146 104 161
146 104 161 146 103 160 145 102 160 145 102 159 145 101 159 144 101
158 144 100 157 143 99 156 142 98 155 141 98 154 140 97 153 139 96 151
138 95 150 136 94 149 135 93 147 134 92 145 132 92 144 131 91
89 76 101 90 76 103 91 77 104 92 78 105 93 79 107 94 79 108 95 80 109
96 81 110 97 81 112 97 82 113 98 83 114 99 84 116 100 84 117 101 85
118 102 86 119 103 87 120 104 87 121 105 88 122 106 89 123 106 90 124
107 90 125 108 91 125 109 92 126 110 93 126 110 93 127 111 94 127 112
95 127 113 95 127 113 96 127 114 97 127 115 97 127 115 98 126 7 42 113
7 42 113 7 42 113 7 42 113 7 42 113 7 42 113 13 40 135 12 37 116 11 36
103 11 35 92 10 33 83 10 32 74 10 32 67 9 31 60 9 32 57 11 38 61 13 44
66 15 51 71 17 59 77 19 67 83 23 77 90 44 30 35 44 30 35 44 30 35 44
30 35 44 30 35 44 30 35 44 30 35 44 30 35 44 30 35 44 30 35 44 30 35
44 30 35 44 30 35 44 30 35 44 30 35 44 30 35 149 133 106 150 134 106
151 135 106 151 136 106 152 137 105 153 138 105 154 139 105 154 139
104 155 140 104 156 141 104 156 141 103 156 141 103 156 142 103 156
142 102 156 142 102 156 142 101 156 142 101 156 141 100 155 141 100
155 140 99 154 140 98 153 139 98 152 138 97 151 138 96 150 137 95 149
136 95 148 135 94 147 133 93 146 132 92 144 131 91 143 130 91
90 76 102 91 77 103 91 77 104 92 78 105 93 79 106 94 79 108 95 80 109
96 81 110 97 82 111 97 82 112 98 83 113 99 84 114 100 84 116 101 85
117 102 86 118 103 87 118 103 87 119 104 88 120 105 89 121 106 89 122
107 90 122 107 91 123 108 91 123 109 92 123 110 93 124 110 93 124 111
94 124 112 95 124 52 39 102 52 39 102 52 39 101 52 38 101 51 38 100 7
42 113 7 42 113 7 42 113 7 42 113 13 40 136 12 37 114 11 35 99 11 34
88 10 33 78 10 32 70 9 31 62 9 30 55 9 30 55 9 30 55 9 31 56 11 37 61
13 44 66 15 51 71 17 58 76 19 67 83 22 76 90 25 87 98 44 30 35 44 30
35 44 30 35 44 30 35 44 30 35 44 30 35 44 30 35 44 30 35 44 30 35 44
30 35 44 30 35 142 127 106 143 128 106 144 129 105 145 130 105 146 131
105 147 132 105 148 133 104 148 134 104 149 134 104 150 135 103 150
136 103 151 136 103 152 137 102 152 137 102 152 138 102 152 138 101
153 138 101 153 138 100 153 138 100 152 138 100 152 138 99 152 138 99
151 137 98 151 137 97 150 136 97 150 136 96 149 135 95 148 134 95 147
133 94 146 133 93 145 132 93 144 131 92 143 130 91 142 128 90
90 76 102 91 77 103 92 78 104 93 78 105 93 79 106 94 80 107 95 80 108
96 81 109 97 82 110 97 82 111 98 83 112 99 84 113 100 84 114 101 85
115 101 86 116 102 86 117 103 87 117 104 88 118 104 88 119 105 89 119
106 90 120 107 90 120 107 91 121 51 38 100 51 38 100 51 38 100 51 38
100 51 38 100 51 38 99 51 38 99 51 38 98 51 38 98 50 38 97 50 38 97 7
42 113 7 42 113 7 42 113 12 37 114 11 35 97 10 34 85 10 33 75 9 31 66
9 31 58 9 30 55 9 30 55 9 30 55 9 30 55 9 30 55 9 31 56 11 37 60 13 44
65 15 51 71 17 59 77 19 67 83 22 77 91 25 90 100 32 112 117 131 116
108 132 117 107 44 30 35 44 30 35 44 30 35 136 121 106 137 122 106 137
123 105 138 123 105 139 124 105 140 125 104 141 126 104 142 127 104
143 128 104 143 129 103 144 130 103 145 130 103 146 131 102 146 132
102 147 132 102 147 133 101 148 133 101 148 134 101 149 134 100 149
134 100 149 135 100 149 135 99 149 135 99 149 135 98 149 135 98 149
135 97 148 134 97 148 134 96 147 134 96 147 133 95 146 133 95 146 132
94 145 131 93 144 131 93 143 130 92 142 129 92 141 128 91 140 127 90
90 77 101 91 77 102 92 78 103 93 78 104 93 79 105 94 80 106 95 80 107
96 81 108 96 82 109 97 82 110 98 83 111 99 84 112 99 84 113 100 85 114
101 85 114 102 86 115 102 87 116 103 87 116 50 38 97 50 38 97 51 38 98
51 38 98 51 38 98 51 38 98 51 38 98 51 38 98 50 38 97 50 38 97 50 38
97 50 38 96 50 37 96 50 37 96 50 37 95 49 37 94 22 20 19 22 20 19 12
38 119 11 35 97 10 34 84 10 32 73 9 31 63 9 30 55 9 30 55 9 30 55 9 30
55 9 30 55 9 30 55 9 30 55 9 30 55 9 31 56 11 37 61 13 44 66 15 52 71
17 60 77 20 69 84 23 80 93 27 95 104 109 101 51 130 115 106 131 116
106 132 117 105 132 118 105 133 118 105 134 119 104 135 120 104 136
121 104 137 122 103 137 123 103 138 124 103 139 124 103 140 125 102
140 126 102 141 127 102 142 127 101 142 128 101 143 129 101 143 129
101 144 130 100 144 130 100 145 131 100 145 131 99 145 131 99 146 131
99 146 132 98 146 132 98 146 132 97 146 132 97 146 132 97 145 131 96
145 131 96 145 131 95 144 131 95 144 130 94 143 130 93 143 129 93 142
129 92 141 128 92 140 127 91 139 126 90 139 126 90
91 77 101 91 77 102 92 78 103 93 79 104 93 79 105 94 80 106 95 80 107
96 81 108 96 82 108 97 82 109 98 83 110 98 83 111 99 84 111 100 85 112
100 85 113 49 37 94 49 37 95 50 37 95 50 37 95 50 37 95 50 37 96 50 37
96 50 37 96 50 37 96 50 37 95 50 37 95 50 37 95 50 37 95 49 37 95 49
37 94 49 37 94 49 37 93 49 37 93 22 20 19 22 20 19 22 20 19 11 36 100
10 34 84 10 32 71 9 31 62 9 30 55 9 30 55 9 30 55 9 30 55 9 30 55 9 30
55 9 30 55 9 30 55 9 30 55 9 30 55 9 31 56 11 38 61 13 45 66 15 53 72
18 61 79 20 72 86 24 84 96 108 100 50 109 101 50 110 102 51 111 103 51
130 116 104 131 116 104 132 117 103 133 118 103 133 119 103 134 120
102 135 120 102 135 121 102 136 122 101 137 122 101 138 123 101 138
124 101 139 124 100 139 125 100 140 126 100 140 126 99 141 127 99 141
127 99 142 128 99 142 128 98 142 128 98 142 128 97 143 129 97 143 129
97 143 129 96 143 129 96 143 129 96 142 129 95 142 129 95 142 128 94
142 128 94 141 128 93 141 127 93 140 127 92 140 127 92 139 126 91 138
125 91 138 125 90 137 124 89
91 77 101 91 78 102 92 78 103 93 79 103 93 79 104 94 80 105 95 80 106
95 81 107 96 82 107 97 82 108 97 83 109 98 83 109 48 36 92 49 37 92 49
37 92 49 37 93 49 37 93 49 37 93 49 37 93 49 37 93 49 37 94 49 37 94
49 37 94 49 37 93 49 37 93 49 37 93 49 37 93 49 37 93 49 37 92 49 37
92 48 36 92 48 36 91 48 36 91 22 20 19 22 20 19 22 20 19 10 34 86 10
32 72 9 31 61 9 30 55 9 30 55 9 30 55 9 30 55 9 30 55 9 30 55 9 30 55
9 30 55 9 30 55 9 30 55 9 30 55 9 30 55 9 32 57 11 39 62 13 46 67 16
55 74 18 64 81 22 76 90 106 98 50 107 99 50 108 100 50 109 101 51 110
102 51 111 103 51 130 115 102 130 116 102 131 117 101 132 117 101 132
118 101 133 119 101 134 119 100 134 120 100 135 121 100 135 121 99 136
122 99 137 122 99 137 123 99 138 124 98 138 124 98 138 124 98 139 125
97 139 125 97 139 125 97 140 126 96 140 126 96 140 126 96 140 126 95
140 126 95 140 126 95 140 126 94 140 126 94 139 126 93 139 126 93 139
126 93 139 125 92 138 125 92 138 125 91 137 124 91 137 124 90 136 123
90 135 122 89
91 77 100 91 78 101 92 78 102 93 79 103 93 79 103 94 80 104 95 80 105
95 81 106 96 81 106 47 36 89 48 36 89 48 36 90 48 36 90 48 36 90 48 36
91 48 36 91 48 36 91 48 36 91 48 36 92 48 36 92 48 36 92 48 36 92 48
36 92 48 36 91 48 36 91 48 36 91 48 36 91 48 36 91 48 36 90 48 36 90
48 36 90 48 36 89 47 36 89 22 20 19 22 20 19 22 20 19 10 32 74 9 31 61
9 30 55 9 30 55 9 30 55 9 30 55 9 30 55 9 30 55 9 30 55 9 30 55 9 30
55 9 30 55 9 30 55 9 30 55 9 30 55 9 30 55 10 33 57 12 40 63 14 48 69
16 57 76 20 68 84 104 97 49 105 98 49 106 99 50 107 99 50 108 100 50
109 101 51 110 102 51 111 103 51 129 115 100 129 115 100 130 116 100
131 117 100 131 117 99 132 118 99 132 118 99 133 119 98 134 120 98 134
120 98 134 121 98 135 121 97 135 122 97 136 122 97 136 122 96 136 123
96 137 123 96 137 123 96 137 123 95 137 124 95 137 124 95 137 124 94
137 124 94 137 124 93 137 124 93 137 124 93 137 124 92 137 123 92 136
123 91 136 123 91 136 123 91 135 122 90 135 122 90 134 121 89 134 121
89
91 77 100 91 78 101 92 78 101 93 79 102 93 79 103 94 80 103 47 35 86
47 35 87 47 35 87 47 36 88 47 36 88 47 36 88 47 36 89 47 36 89 48 36
89 48 36 89 48 36 90 48 36 90 48 36 90 48 36 90 48 36 90 48 36 90 48
36 90 48 36 90 48 36 90 48 36 89 48 36 89 47 36 89 47 36 89 47 36 88
47 36 88 47 36 88 47 35 87 22 20 19 22 20 19 10 34 86 9 31 63 9 30 55
9 30 55 9 30 55 9 30 55 9 30 55 9 30 55 9 30 55 9 30 55 9 30 55 9 30
55 9 30 55 9 30 55 9 30 55 9 30 55 9 30 55 9 30 55 10 35 59 12 42 64
15 51 71 18 61 79 23 79 92 104 96 49 105 97 49 106 98 49 106 99 50 107
100 50 108 100 50 109 101 51 110 102 51 110 103 51 128 114 99 129 115
99 129 115 98 130 116 98 130 116 98 131 117 97 131 117 97 132 118 97
132 118 97 133 119 96 133 119 96 133 120 96 134 120 96 134 120 95 134
121 95 134 121 95 135 121 94 135 121 94 135 121 94 135 122 93 135 122
93 135 122 93 135 122 92 135 122 92 135 121 92 134 121 91 134 121 91
134 121 90 134 121 90 133 120 89 133 120 89 132 120 89 132 119 88
91 77 99 91 78 100 92 78 101 46 35 84 46 35 85 46 35 85 46 35 85 46 35
86 46 35 86 47 35 86 47 35 87 47 35 87 47 35 87 47 36 88 47 36 88 47
36 88 47 36 88 47 36 88 47 36 88 47 36 88 47 36 88 47 36 88 47 36 88
47 36 88 47 36 88 47 36 88 47 35 87 47 35 87 47 35 87 47 35 87 46 35
86 46 35 86 46 35 85 22 20 19 22 20 19 10 33 75 9 30 55 9 30 55 9 30
55 9 30 55 9 30 55 9 30 55 9 30 55 9 30 55 9 30 55 9 30 55 9 30 55 9
30 55 9 30 55 9 30 55 9 30 55 9 30 55 9 30 55 43 70 200 42 69 191 41
68 188 16 55 74 102 94 48 103 95 48 103 96 49 104 97 49 105 97 49 106
98 49 106 99 50 107 99 50 108 100 50 109 101 50 109 102 51 127 113 98
127 113 97 128 114 97 128 114 97 129 115 97 129 115 96 129 116 96 130
116 96 130 117 95 131 117 95 131 117 95 131 118 95 132 118 94 132 118
94 132 119 94 132 119 94 132 119 93 133 119 93 133 119 93 133 119 92
133 120 92 133 120 92 133 120 91 133 119 91 132 119 91 132 119 90 132
119 90 132 119 89 131 119 89 131 118 89 131 118 88 130 118 88
91 77 99 45 34 82 45 34 83 45 35 83 46 35 84 46 35 84 46 35 84 46 35
85 46 35 85 46 35 85 46 35 86 46 35 86 46 35 86 46 35 86 47 35 86 47
35 87 47 35 87 47 35 87 47 35 87 47 35 87 47 35 87 47 35 87 47 35 87
47 35 86 46 35 86 46 35 86 46 35 86 46 35 86 46 35 85 46 35 85 46 35
85 46 35 84 46 35 84 22 20 19 22 20 19 22 20 19 9 30 55 9 30 55 9 30
55 9 30 55 9 30 55 9 30 55 9 30 55 9 30 55 9 30 55 9 30 55 9 30 55 9
30 55 9 30 55 9 30 55 44 71 210 43 70 193 42 69 181 41 68 172 41 67
164 40 66 157 40 66 152 39 65 149 101 94 48 102 95 48 103 95 48 103 96
49 104 97 49 105 97 49 106 98 49 106 99 50 107 99 50 108 100 50 108
101 50 109 101 51 126 112 96 126 113 96 127 113 96 127 114 95 127 114
95 128 114 95 128 115 95 129 115 94 129 115 94 129 116 94 129 116 94
130 116 93 130 117 93 130 117 93 130 117 92 130 117 92 131 117 92 131
117 92 131 118 91 131 118 91 131 118 91 131 118 90 130 118 90 130 117
90 130 117 89 130 117 89 130 117 88 129 117 88 129 116 88 129 116 87
