P3
50 25
255
0 0 0 0 0 0 0 0 0 0 0 0 0 0 0 0 0 0 0 0 0 0 0 0 0 0 0 0 0 0 0 0 0 0 0
0 0 0 0 0 0 0 0 0 0 0 0 0 0 0 0 0 0 0 0 0 0 0 0 0 0 0 0 0 0 0 0 0 0 0
0 0 0 0 0 0 0 0 0 0 0 0 0 0 0 0 0 0 0 0 0 0 0 0 0 0 0 0 0 0 0 0 0 0 0
0 0 0 0 0 0 0 0 0 0 0 0 0 0 0 0 0 0 0 0 0 0 0 0 0 0 0 0 0 0 0 0 0 0 0
0 0 0 0 0 0 0 0 0 0
0 0 0 0 0 0 0 0 0 0 0 0 0 0 0 0 0 0 0 0 0 0 0 0 0 0 0 0 0 0 0 0 0 0 0
0 0 0 0 0 0 0 0 0 0 0 0 0 0 0 0 0 0 0 17 1 18 32 6 19 31 5 19 28 5 19
0 0 0 0 0 0 0 0 0 0 0 0 0 0 0 0 0 0 0 0 0 0 0 0 0 0 0 0 0 0 0 0 0 69
20 26 69 20 26 70 20 26 0 0 0 0 0 0 0 0 0 0 0 0 0 0 0 0 0 0 0 0 0 0 0
0 0 0 0 0 0 0 0 0 0 0 0 0 0 0 0 0 0 0
0 0 0 0 0 0 0 0 0 0 0 0 0 0 0 0 0 0 0 0 0 0 0 0 0 0 0 0 0 0 0 0 0 0 0
0 0 0 0 0 0 0 0 0 0 0 0 0 0 0 0 19 8 21 41 8 19 40 8 19 37 7 19 33 6
19 29 5 19 21 17 21 21 17 21 0 0 0 0 0 0 0 0 0 0 0 0 0 0 0 0 0 0 0 0 0
67 19 26 67 19 26 67 19 26 68 19 26 69 19 26 0 0 0 0 0 0 0 0 0 0 0 0 0
0 0 0 0 0 0 0 0 0 0 0 0 0 0 0 0 0 0 0 0 0 0 0 0 0 0
0 0 0 0 0 0 0 0 0 0 0 0 0 0 0 0 0 0 0 0 0 0 0 0 0 0 0 0 0 0 0 0 0 0 0
0 0 0 0 0 0 0 0 0 0 0 0 0 35 6 19 24 4 18 29 10 19 34 6 19 32 6 19 31
5 19 34 4 28 26 4 18 21 17 21 21 17 21 0 0 0 0 0 0 0 0 0 0 0 0 0 0 0
76 21 29 66 19 25 66 19 25 66 19 25 66 19 25 66 19 25 67 19 26 0 0 0 0
0 0 0 0 0 0 0 0 0 0 0 0 0 0 0 0 0 0 0 0 0 0 0 0 0 0 0 0 0 0 0 0
13 4 1 13 4 1 13 4 1 13 4 1 13 4 1 13 4 1 13 4 1 13 4 1 13 4 1 13 4 1
13 4 1 13 4 1 13 4 1 13 4 1 13 4 1 13 4 1 24 3 18 24 3 18 18 3 20 18 3
20 18 3 20 23 3 18 23 3 18 23 3 18 21 17 21 21 17 21 13 4 1 13 4 1 13
4 1 13 4 1 13 4 1 67 19 26 64 18 25 53 4 30 64 18 25 64 18 25 65 18 25
65 18 25 13 4 1 13 4 1 13 4 1 13 4 1 13 4 1 13 4 1 13 4 1 13 4 1 13 4
1 13 4 1 13 4 1 13 4 1
16 5 1 16 5 1 16 5 1 16 5 1 16 5 1 16 5 1 17 5 1 17 5 1 17 5 1 17 5 1
17 5 1 17 5 1 17 5 1 17 5 1 17 5 1 17 5 1 29 4 24 18 1 18 17 3 20 17 3
20 17 3 20 17 3 20 17 1 18 14 0 18 17 5 1 17 5 1 17 5 1 17 5 1 17 5 1
17 5 1 17 5 1 65 18 26 54 3 30 54 3 30 54 4 29 63 18 25 63 18 25 63 18
25 17 5 1 17 5 1 17 5 1 17 5 1 17 5 1 17 5 1 16 5 1 16 5 1 16 5 1 16 5
1 16 5 1 16 5 1
19 6 1 20 6 1 20 6 1 20 6 1 20 6 1 20 6 1 20 6 1 20 6 1 21 6 1 21 6 1
21 6 1 21 6 1 21 6 1 21 6 1 21 7 1 22 7 1 14 0 18 14 0 18 17 3 20 16 3
20 16 3 20 14 0 18 14 0 18 14 0 18 22 7 1 22 7 1 22 7 1 22 7 1 22 7 1
22 7 1 22 7 1 72 20 29 54 3 30 54 3 30 54 3 30 63 18 25 63 18 25 21 6
1 21 6 1 21 6 1 21 6 1 21 6 1 20 6 1 20 6 1 20 6 1 20 6 1 20 6 1 20 6
1 20 6 1 19 6 1
23 7 1 23 7 1 24 7 1 24 7 1 24 7 1 24 7 1 25 8 1 25 8 1 25 8 1 26 8 1
26 8 1 26 8 1 27 8 1 27 8 1 27 8 1 27 8 1 14 0 18 14 0 18 14 0 18 14 0
18 14 0 18 14 0 18 14 0 18 14 0 18 29 9 1 29 9 1 29 9 1 29 9 1 29 9 1
29 9 1 29 9 1 28 9 1 52 3 29 54 3 30 63 18 25 63 18 25 27 8 1 27 8 1
26 8 1 26 8 1 26 8 1 25 8 1 25 8 1 25 8 1 25 7 1 24 7 1 24 7 1 24 7 1
23 7 1 23 7 1
27 8 1 28 8 1 28 9 1 28 9 1 29 9 1 29 9 1 30 9 1 30 9 1 31 9 1 31 10 1
32 10 1 33 10 1 33 10 1 34 10 1 34 10 1 35 11 1 35 11 1 14 0 18 14 0
18 14 0 18 14 0 18 14 0 18 14 0 18 38 12 1 42 30 48 38 12 1 38 12 1 38
12 1 38 12 1 38 11 1 37 11 1 37 11 1 36 11 1 36 11 1 35 11 1 35 11 1
34 10 1 34 10 1 33 10 1 32 10 1 32 10 1 31 10 1 31 9 1 30 9 1 30 9 1
29 9 1 29 9 1 28 9 1 28 8 1 27 8 1
32 10 1 32 10 1 33 10 1 33 10 1 34 10 1 35 11 1 36 11 1 36 11 1 37 11
1 38 12 1 39 12 2 40 12 2 41 12 2 42 13 2 43 13 2 44 13 2 45 14 2 46
14 2 47 14 2 48 15 2 49 15 2 50 15 2 51 15 2 51 16 2 37 17 1 37 17 1
52 16 2 51 16 2 51 15 2 50 15 2 49 15 2 48 15 2 47 14 2 46 14 2 45 14
2 44 13 2 43 13 2 42 13 2 41 12 2 40 12 2 39 12 2 38 12 1 37 11 1 36
11 1 36 11 1 35 11 1 34 10 1 33 10 1 33 10 1 32 10 1
36 11 1 37 11 1 38 11 1 39 12 1 40 12 2 41 12 2 42 13 2 43 13 2 44 13
2 45 14 2 59 11 28 97 17 49 50 15 2 52 16 2 54 16 2 56 17 2 58 18 2 60
18 2 62 19 2 64 19 2 66 20 3 68 21 3 69 21 3 38 21 2 39 22 2 37 17 1
37 17 1 71 21 3 69 21 3 68 21 3 66 20 3 64 20 2 62 19 2 60 18 2 58 18
2 56 17 2 54 16 2 52 16 2 50 15 2 49 15 2 47 14 2 46 14 2 44 14 2 43
13 2 42 13 2 41 12 2 40 12 2 39 12 2 38 12 1 37 11 1
41 12 2 42 13 2 43 13 2 44 13 2 45 14 2 46 14 2 48 15 2 49 15 2 51 10
23 50 9 23 49 9 23 56 10 27 131 42 68 62 19 2 65 20 3 68 21 3 71 22 3
75 23 3 78 24 3 82 25 3 86 26 3 13 4 1 13 4 1 38 21 2 39 22 2 40 17 1
40 17 1 97 29 4 94 29 4 91 28 4 88 27 3 84 25 3 80 24 3 76 23 3 73 22
3 69 21 3 66 20 3 63 19 2 61 18 2 58 18 2 56 17 2 54 16 2 52 16 2 50
15 2 48 15 2 47 14 2 46 14 2 44 13 2 43 13 2 42 13 2
45 14 2 46 14 2 47 14 2 49 15 2 50 15 2 52 16 2 53 16 2 55 17 2 53 10
23 50 10 23 49 9 23 48 9 23 70 12 35 71 22 3 75 23 3 79 24 3 83 25 3
88 27 3 93 28 4 98 30 4 104 32 4 110 33 4 115 35 4 42 18 1 42 18 1 42
18 1 42 18 1 122 37 5 118 36 5 84 128 41 71 104 33 102 31 4 96 29 4 91
28 4 86 26 3 81 25 3 77 23 3 73 22 3 70 21 3 66 20 3 64 19 2 61 19 2
59 18 2 56 17 2 54 17 2 53 16 2 51 16 2 49 15 2 48 15 2 47 14 2
48 15 2 50 15 2 51 16 2 52 16 2 54 16 2 56 17 2 58 18 2 60 18 2 41 7
22 45 8 22 45 8 22 43 7 22 46 8 25 77 23 3 80 24 3 85 26 3 89 27 3 94
29 4 99 30 4 105 32 4 110 34 4 116 35 4 121 37 5 125 38 5 129 39 5 130
40 5 130 40 5 128 39 5 61 82 26 48 57 17 47 55 17 47 55 17 47 55 17 98
30 4 93 28 4 88 27 3 84 25 3 80 24 3 76 23 3 72 22 3 69 21 3 67 20 3
64 19 2 62 19 2 59 18 2 57 17 2 55 17 2 54 16 2 52 16 2 51 15 2
51 16 2 52 16 2 54 16 2 55 17 2 57 17 2 59 18 2 61 18 2 63 19 2 65 20
3 41 7 22 41 7 22 41 7 22 75 23 3 78 24 3 82 25 3 85 26 3 89 27 3 93
28 4 97 30 4 101 31 4 105 32 4 109 33 4 113 34 4 115 35 4 117 36 5 118
36 5 118 36 5 55 71 22 47 55 17 47 55 17 47 55 17 47 55 17 47 55 17 47
55 17 93 28 4 89 27 3 85 26 3 82 25 3 78 24 3 75 23 3 72 22 3 70 21 3
67 20 3 65 20 3 63 19 2 61 18 2 59 18 2 57 17 2 55 17 2 54 16 2
53 16 2 55 17 2 56 17 2 57 17 2 59 18 2 61 18 2 62 19 2 64 20 2 66 20
3 68 21 3 70 21 3 73 22 3 75 23 3 78 24 3 80 24 3 83 25 3 86 26 3 89
27 3 91 28 4 94 29 4 97 29 4 99 30 4 101 31 4 103 31 4 104 32 4 105 32
4 105 32 4 47 55 17 47 55 17 47 55 17 47 55 17 47 55 17 47 55 17 47 55
17 89 27 3 86 26 3 83 25 3 81 25 3 78 24 3 76 23 3 73 22 3 71 22 3 69
21 3 66 20 3 65 20 2 63 19 2 61 19 2 59 18 2 58 18 2 56 17 2
55 17 2 56 17 2 57 17 2 58 18 2 60 18 2 61 19 2 63 19 2 64 20 2 66 20
3 68 21 3 70 21 3 72 22 3 73 22 3 75 23 3 77 24 3 79 24 3 81 25 3 83
25 3 85 26 3 87 26 3 89 27 3 90 27 3 91 28 4 92 28 4 93 28 4 94 28 4
94 28 4 23 35 11 23 35 11 23 35 11 23 35 11 23 35 11 23 35 11 23 35 11
84 26 3 82 25 3 80 24 3 78 24 3 76 23 3 74 23 3 72 22 3 70 21 3 69 21
3 67 20 3 65 20 3 63 19 2 62 19 2 60 18 2 59 18 2 58 18 2
56 17 2 57 17 2 58 18 2 59 18 2 60 18 2 61 19 2 63 19 2 64 19 2 65 20
3 67 20 3 68 21 3 70 21 3 71 22 3 73 22 3 74 23 3 76 23 3 77 23 3 79
24 3 80 24 3 81 25 3 82 25 3 83 25 3 84 26 3 85 26 3 85 26 3 85 26 3
85 26 3 13 4 1 23 35 11 23 35 11 23 35 11 23 35 11 23 35 11 13 4 1 13
4 1 78 24 3 77 23 3 75 23 3 74 22 3 72 22 3 71 21 3 69 21 3 68 21 3 66
20 3 65 20 3 63 19 2 62 19 2 61 19 2 60 18 2 58 18 2
56 17 2 57 17 2 58 18 2 59 18 2 60 18 2 61 19 2 62 19 2 63 19 2 64 20
2 66 20 3 67 20 3 68 21 3 69 21 3 70 21 3 71 22 3 72 22 3 73 22 3 74
23 3 75 23 3 76 23 3 77 23 3 78 24 3 78 24 3 79 24 3 79 24 3 79 24 3
79 24 3 79 24 3 13 4 1 13 4 1 13 4 1 13 4 1 13 4 1 13 4 1 13 4 1 13 4
1 13 4 1 72 22 3 71 22 3 70 21 3 69 21 3 68 21 3 66 20 3 65 20 3 64 20
2 63 19 2 62 19 2 61 18 2 60 18 2 59 18 2
56 17 2 57 17 2 58 18 2 59 18 2 60 18 2 60 18 2 61 19 2 62 19 2 63 19
2 64 20 2 65 20 3 66 20 3 67 20 3 68 21 3 69 21 3 69 21 3 70 21 3 71
22 3 72 22 3 72 22 3 73 22 3 73 22 3 74 22 3 74 23 3 74 23 3 75 23 3
75 23 3 75 23 3 74 23 3 13 4 1 13 4 1 13 4 1 13 4 1 13 4 1 13 4 1 13 4
1 13 4 1 13 4 1 69 21 3 68 21 3 67 20 3 66 20 3 65 20 3 64 20 2 63 19
2 62 19 2 61 19 2 60 18 2 59 18 2 59 18 2
56 17 2 57 17 2 57 17 2 58 18 2 59 18 2 60 18 2 60 18 2 61 19 2 62 19
2 63 19 2 63 19 2 64 20 2 65 20 3 66 20 3 66 20 3 67 20 3 68 21 3 68
21 3 69 21 3 69 21 3 70 21 3 13 4 1 13 4 1 13 4 1 13 4 1 13 4 1 13 4 1
71 22 3 71 22 3 71 21 3 13 4 1 13 4 1 13 4 1 13 4 1 13 4 1 13 4 1 13 4
1 13 4 1 13 4 1 66 20 3 65 20 3 64 20 2 64 19 2 63 19 2 62 19 2 61 19
2 61 18 2 60 18 2 59 18 2 58 18 2
56 17 2 56 17 2 57 17 2 58 18 2 58 18 2 59 18 2 60 18 2 60 18 2 61 18
2 61 19 2 62 19 2 63 19 2 63 19 2 64 19 2 64 20 2 65 20 3 65 20 3 66
20 3 66 20 3 67 20 3 13 4 1 13 4 1 13 4 1 13 4 1 13 4 1 13 4 1 13 4 1
13 4 1 68 21 3 68 21 3 68 21 3 13 4 1 13 4 1 13 4 1 13 4 1 13 4 1 13 4
1 13 4 1 13 4 1 64 19 2 63 19 2 63 19 2 62 19 2 62 19 2 61 19 2 60 18
2 60 18 2 59 18 2 58 18 2 58 18 2
55 17 2 56 17 2 56 17 2 57 17 2 58 17 2 58 18 2 59 18 2 59 18 2 60 18
2 60 18 2 61 18 2 61 19 2 62 19 2 62 19 2 63 19 2 63 19 2 63 19 2 64
19 2 13 4 1 13 4 1 13 4 1 13 4 1 13 4 1 13 4 1 13 4 1 13 4 1 13 4 1 13
4 1 65 20 3 65 20 3 65 20 3 65 20 3 65 20 3 65 20 2 13 4 1 13 4 1 13 4
1 13 4 1 13 4 1 62 19 2 62 19 2 62 19 2 61 19 2 61 18 2 60 18 2 59 18
2 59 18 2 58 18 2 58 18 2 57 17 2
55 17 2 55 17 2 56 17 2 56 17 2 57 17 2 57 17 2 58 18 2 58 18 2 59 18
2 59 18 2 60 18 2 60 18 2 60 18 2 61 18 2 61 19 2 61 19 2 13 4 1 13 4
1 13 4 1 13 4 1 13 4 1 13 4 1 13 4 1 13 4 1 13 4 1 13 4 1 13 4 1 13 4
1 13 4 1 63 19 2 63 19 2 63 19 2 63 19 2 63 19 2 63 19 2 62 19 2 62 19
2 62 19 2 61 19 2 61 19 2 61 18 2 60 18 2 60 18 2 59 18 2 59 18 2 59
18 2 58 18 2 58 18 2 57 17 2 57 17 2
54 17 2 55 17 2 55 17 2 56 17 2 56 17 2 57 17 2 57 17 2 57 17 2 58 18
2 58 18 2 58 18 2 59 18 2 59 18 2 59 18 2 60 18 2 13 4 1 13 4 1 13 4 1
13 4 1 13 4 1 13 4 1 13 4 1 13 4 1 13 4 1 13 4 1 13 4 1 13 4 1 13 4 1
13 4 1 62 19 2 62 19 2 61 19 2 61 19 2 61 19 2 61 19 2 61 19 2 61 18 2
60 18 2 60 18 2 60 18 2 59 18 2 59 18 2 59 18 2 58 18 2 58 18 2 58 18
2 57 17 2 57 17 2 57 17 2 56 17 2
