P3
200 100
255
0 0 0 0 0 0 0 0 0 0 0 0 0 0 0 0 0 0 0 0 0 0 0 0 0 0 0 0 0 0 0 0 0 0 0
0 0 0 0 0 0 0 0 0 0 0 0 0 0 0 0 0 0 0 0 0 0 0 0 0 0 0 0 0 0 0 0 0 0 0
0 0 0 0 0 0 0 0 0 0 0 0 0 0 0 0 0 0 0 0 0 0 0 0 0 0 0 0 0 0 0 0 0 0 0
0 0 0 0 0 0 0 0 0 0 0 0 0 0 0 0 0 0 0 0 0 0 0 0 0 0 0 0 0 0 0 0 0 0 0
0 0 0 0 0 0 0 0 0 0 0 0 0 0 0 0 0 0 0 0 0 0 0 0 0 0 0 0 0 0 0 0 0 0 0
0 0 0 0 0 0 0 0 0 0 0 0 0 0 0 0 0 0 0 0 0 0 0 0 0 0 0 0 0 0 0 0 0 0 0
0 0 0 0 0 0 0 0 0 0 0 0 0 0 0 0 0 0 0 0 0 0 0 0 0 0 0 0 0 0 0 0 0 0 0
0 0 0 0 0 0 0 0 0 0 0 0 0 0 0 0 0 0 0 0 0 0 0 0 0 0 0 0 0 0 0 0 0 0 0
0 0 0 0 0 0 0 0 0 0 0 0 0 0 0 0 0 0 0 0 0 0 0 0 0 0 0 0 0 0 0 0 0 0 0
0 0 0 0 0 0 0 0 0 0 0 0 0 0 0 0 0 0 0 0 0 0 0 0 0 0 0 0 0 0 0 0 0 0 0
0 0 0 0 0 0 0 0 0 0 0 0 0 0 0 0 0 0 0 0 0 0 0 0 0 0 0 0 0 0 0 0 0 0 0
0 0 0 0 0 0 0 0 0 0 0 0 0 0 0 0 0 0 0 0 0 0 0 0 0 0 0 0 0 0 0 0 0 0 0
0 0 0 0 0 0 0 0 0 0 0 0 0 0 0 0 0 0 0 0 0 0 0 0 0 0 0 0 0 0 0 0 0 0 0
0 0 0 0 0 0 0 0 0 0 0 0 0 0 0 0 0 0 0 0 0 0 0 0 0 0 0 0 0 0 0 0 0 0 0
0 0 0 0 0 0 0 0 0 0 0 0 0 0 0 0 0 0 0 0 0 0 0 0 0 0 0 0 0 0 0 0 0 0 0
0 0 0 0 0 0 0 0 0 0 0 0 0 0 0 0 0 0 0 0 0 0 0 0 0 0 0 0 0 0 0 0 0 0 0
0 0 0 0 0 0 0 0 0 0 0 0 0 0 0 0 0 0 0 0 0 0 0 0 0 0 0 0 0 0 0 0 0 0 0
0 0 0 0 0
0 0 0 0 0 0 0 0 0 0 0 0 0 0 0 0 0 0 0 0 0 0 0 0 0 0 0 0 0 0 0 0 0 0 0
0 0 0 0 0 0 0 0 0 0 0 0 0 0 0 0 0 0 0 0 0 0 0 0 0 0 0 0 0 0 0 0 0 0 0
0 0 0 0 0 0 0 0 0 0 0 0 0 0 0 0 0 0 0 0 0 0 0 0 0 0 0 0 0 0 0 0 0 0 0
0 0 0 0 0 0 0 0 0 0 0 0 0 0 0 0 0 0 0 0 0 0 0 0 0 0 0 0 0 0 0 0 0 0 0
0 0 0 0 0 0 0 0 0 0 0 0 0 0 0 0 0 0 0 0 0 0 0 0 0 0 0 0 0 0 0 0 0 0 0
0 0 0 0 0 0 0 0 0 0 0 0 0 0 0 0 0 0 0 0 0 0 0 0 0 0 0 0 0 0 0 0 0 0 0
0 0 0 0 0 0 0 0 0 0 0 0 0 0 0 0 0 0 0 0 0 0 0 0 0 0 0 0 0 0 0 0 0 0 0
0 0 0 0 0 0 0 0 0 0 0 0 0 0 0 0 0 0 0 0 0 0 0 0 0 0 0 0 0 0 0 0 0 0 0
0 0 0 0 0 0 0 0 0 0 0 0 0 0 0 0 0 0 0 0 0 0 0 0 0 0 0 0 0 0 0 0 0 0 0
0 0 0 0 0 0 0 0 0 0 0 0 0 0 0 0 0 0 0 0 0 0 0 0 0 0 0 0 0 0 0 0 0 0 0
0 0 0 0 0 0 0 0 0 0 0 0 0 0 0 0 0 0 0 0 0 0 0 0 0 0 0 0 0 0 0 0 0 0 0
0 0 0 0 0 0 0 0 0 0 0 0 0 0 0 0 0 0 0 0 0 0 0 0 0 0 0 0 0 0 0 0 0 0 0
0 0 0 0 0 0 0 0 0 0 0 0 0 0 0 0 0 0 0 0 0 0 0 0 0 0 0 0 0 0 0 0 0 0 0
0 0 0 0 0 0 0 0 0 0 0 0 0 0 0 0 0 0 0 0 0 0 0 0 0 0 0 0 0 0 0 0 0 0 0
0 0 0 0 0 0 0 0 0 0 0 0 0 0 0 0 0 0 0 0 0 0 0 0 0 0 0 0 0 0 0 0 0 0 0
0 0 0 0 0 0 0 0 0 0 0 0 0 0 0 0 0 0 0 0 0 0 0 0 0 0 0 0 0 0 0 0 0 0 0
0 0 0 0 0 0 0 0 0 0 0 0 0 0 0 0 0 0 0 0 0 0 0 0 0 0 0 0 0 0 0 0 0 0 0
0 0 0 0 0
0 0 0 0 0 0 0 0 0 0 0 0 0 0 0 0 0 0 0 0 0 0 0 0 0 0 0 0 0 0 0 0 0 0 0
0 0 0 0 0 0 0 0 0 0 0 0 0 0 0 0 0 0 0 0 0 0 0 0 0 0 0 0 0 0 0 0 0 0 0
0 0 0 0 0 0 0 0 0 0 0 0 0 0 0 0 0 0 0 0 0 0 0 0 0 0 0 0 0 0 0 0 0 0 0
0 0 0 0 0 0 0 0 0 0 0 0 0 0 0 0 0 0 0 0 0 0 0 0 0 0 0 0 0 0 0 0 0 0 0
0 0 0 0 0 0 0 0 0 0 0 0 0 0 0 0 0 0 0 0 0 0 0 0 0 0 0 0 0 0 0 0 0 0 0
0 0 0 0 0 0 0 0 0 0 0 0 0 0 0 0 0 0 0 0 0 0 0 0 0 0 0 0 0 0 0 0 0 0 0
0 0 0 0 0 0 0 0 0 0 0 0 0 0 0 0 0 0 0 0 0 0 0 0 0 0 0 0 0 0 0 0 0 0 0
0 0 0 0 0 0 0 0 0 0 0 0 0 0 0 0 0 0 0 0 0 0 0 0 0 0 0 0 0 0 0 0 0 0 0
0 0 0 0 0 0 0 0 0 0 0 0 0 0 0 0 0 0 0 0 0 0 0 0 0 0 0 0 0 0 0 0 0 0 0
0 0 0 0 0 0 0 0 0 0 0 0 0 0 0 0 0 0 0 0 0 0 0 0 0 0 0 0 0 0 0 0 0 0 0
0 0 0 0 0 0 0 0 0 0 0 0 0 0 0 0 0 0 0 0 0 0 0 0 0 0 0 0 0 0 0 0 0 0 0
0 0 0 0 0 0 0 0 0 0 0 0 0 0 0 0 0 0 0 0 0 0 0 0 0 0 0 0 0 0 0 0 0 0 0
0 0 0 0 0 0 0 0 0 0 0 0 0 0 0 0 0 0 0 0 0 0 0 0 0 0 0 0 0 0 0 0 0 0 0
0 0 0 0 0 0 0 0 0 0 0 0 0 0 0 0 0 0 0 0 0 0 0 0 0 0 0 0 0 0 0 0 0 0 0
0 0 0 0 0 0 0 0 0 0 0 0 0 0 0 0 0 0 0 0 0 0 0 0 0 0 0 0 0 0 0 0 0 0 0
0 0 0 0 0 0 0 0 0 0 0 0 0 0 0 0 0 0 0 0 0 0 0 0 0 0 0 0 0 0 0 0 0 0 0
0 0 0 0 0 0 0 0 0 0 0 0 0 0 0 0 0 0 0 0 0 0 0 0 0 0 0 0 0 0 0 0 0 0 0
0 0 0 0 0
0 0 0 0 0 0 0 0 0 0 0 0 0 0 0 0 0 0 0 0 0 0 0 0 0 0 0 0 0 0 0 0 0 0 0
0 0 0 0 0 0 0 0 0 0 0 0 0 0 0 0 0 0 0 0 0 0 0 0 0 0 0 0 0 0 0 0 0 0 0
0 0 0 0 0 0 0 0 0 0 0 0 0 0 0 0 0 0 0 0 0 0 0 0 0 0 0 0 0 0 0 0 0 0 0
0 0 0 0 0 0 0 0 0 0 0 0 0 0 0 0 0 0 0 0 0 0 0 0 0 0 0 0 0 0 0 0 0 0 0
0 0 0 0 0 0 0 0 0 0 0 0 0 0 0 0 0 0 0 0 0 0 0 0 0 0 0 0 0 0 0 0 0 0 0
0 0 0 0 0 0 0 0 0 0 0 0 0 0 0 0 0 0 0 0 0 0 0 0 0 0 0 0 0 0 0 0 0 0 0
0 0 0 0 0 0 0 0 0 0 0 0 0 0 0 0 0 0 0 0 0 0 0 0 0 0 0 0 0 0 0 0 0 0 0
0 0 0 0 0 0 0 0 0 0 0 0 0 0 0 0 0 0 0 0 0 0 0 0 0 0 0 0 0 0 0 0 0 0 0
0 0 0 0 0 0 0 0 0 0 0 0 0 0 0 0 0 0 0 0 0 0 0 0 0 0 0 0 0 0 0 0 0 0 0
0 0 0 0 0 0 0 0 0 0 0 0 0 0 0 0 0 0 0 0 0 0 0 0 0 0 0 0 0 0 0 0 0 0 0
0 0 0 0 0 0 0 0 0 0 0 0 0 0 0 0 0 0 0 0 0 0 0 0 0 0 0 0 0 0 0 0 0 0 0
0 0 0 0 0 0 0 0 0 0 0 0 0 0 0 0 0 0 0 0 0 0 0 0 0 0 0 0 0 0 0 0 0 0 0
0 0 0 0 0 0 0 0 0 0 0 0 0 0 0 0 0 0 0 0 0 0 0 0 0 0 0 0 0 0 0 0 0 0 0
0 0 0 0 0 0 0 0 0 0 0 0 0 0 0 0 0 0 0 0 0 0 0 0 0 0 0 0 0 0 0 0 0 0 0
0 0 0 0 0 0 0 0 0 0 0 0 0 0 0 0 0 0 0 0 0 0 0 0 0 0 0 0 0 0 0 0 0 0 0
0 0 0 0 0 0 0 0 0 0 0 0 0 0 0 0 0 0 0 0 0 0 0 0 0 0 0 0 0 0 0 0 0 0 0
0 0 0 0 0 0 0 0 0 0 0 0 0 0 0 0 0 0 0 0 0 0 0 0 0 0 0 0 0 0 0 0 0 0 0
0 0 0 0 0
0 0 0 0 0 0 0 0 0 0 0 0 0 0 0 0 0 0 0 0 0 0 0 0 0 0 0 0 0 0 0 0 0 0 0
0 0 0 0 0 0 0 0 0 0 0 0 0 0 0 0 0 0 0 0 0 0 0 0 0 0 0 0 0 0 0 0 0 0 0
0 0 0 0 0 0 0 0 0 0 0 0 0 0 0 0 0 0 0 0 0 0 0 0 0 0 0 0 0 0 0 0 0 0 0
0 0 0 0 0 0 0 0 0 0 0 0 0 0 0 0 0 0 0 0 0 0 0 0 0 0 0 0 0 0 0 0 0 0 0
0 0 0 0 0 0 0 0 0 0 0 0 0 0 0 0 0 0 0 0 0 0 0 0 0 0 0 0 0 0 0 0 0 0 0
0 0 0 0 0 0 0 0 0 0 0 0 0 0 0 0 0 0 0 0 0 0 0 0 0 0 0 0 0 0 0 0 0 0 0
0 0 0 0 0 0 0 0 0 0 0 0 0 0 0 0 0 0 0 0 0 0 0 0 0 0 0 0 0 0 0 0 0 0 0
0 0 0 0 0 0 0 0 0 0 0 0 0 0 0 0 0 0 0 0 0 0 0 0 0 0 0 0 0 0 0 0 0 0 0
0 0 0 0 0 0 0 0 0 0 0 0 0 0 0 0 0 0 0 0 0 0 0 0 0 0 0 0 0 0 0 0 0 0 0
0 0 0 0 0 0 0 0 0 0 0 0 0 0 0 0 0 0 0 0 0 0 0 0 0 0 0 0 0 0 0 0 0 0 0
0 0 0 0 0 0 0 0 0 0 0 0 0 0 0 0 0 0 0 0 0 0 0 0 0 0 0 0 0 0 0 0 0 0 0
0 0 0 0 0 0 0 0 0 0 0 0 0 0 0 0 0 0 0 0 0 0 0 0 0 0 0 0 0 0 0 0 0 0 0
0 0 0 0 0 0 0 0 0 0 0 0 0 0 0 0 0 0 0 0 0 0 0 0 0 0 0 0 0 0 0 0 0 0 0
0 0 0 0 0 0 0 0 0 0 0 0 0 0 0 0 0 0 0 0 0 0 0 0 0 0 0 0 0 0 0 0 0 0 0
0 0 0 0 0 0 0 0 0 0 0 0 0 0 0 0 0 0 0 0 0 0 0 0 0 0 0 0 0 0 0 0 0 0 0
0 0 0 0 0 0 0 0 0 0 0 0 0 0 0 0 0 0 0 0 0 0 0 0 0 0 0 0 0 0 0 0 0 0 0
0 0 0 0 0 0 0 0 0 0 0 0 0 0 0 0 0 0 0 0 0 0 0 0 0 0 0 0 0 0 0 0 0 0 0
0 0 0 0 0
0 0 0 0 0 0 0 0 0 0 0 0 0 0 0 0 0 0 0 0 0 0 0 0 0 0 0 0 0 0 0 0 0 0 0
0 0 0 0 0 0 0 0 0 0 0 0 0 0 0 0 0 0 0 0 0 0 0 0 0 0 0 0 0 0 0 0 0 0 0
0 0 0 0 0 0 0 0 0 0 0 0 0 0 0 0 0 0 0 0 0 0 0 0 0 0 0 0 0 0 0 0 0 0 0
0 0 0 0 0 0 0 0 0 0 0 0 0 0 0 0 0 0 0 0 0 0 0 0 0 0 0 0 0 0 0 0 0 0 0
0 0 0 0 0 0 0 0 0 0 0 0 0 0 0 0 0 0 0 0 0 0 0 0 0 0 0 0 0 0 0 0 0 0 0
0 0 0 0 0 0 0 0 0 0 0 0 0 0 0 0 0 0 0 0 0 0 0 0 0 0 0 0 0 0 0 0 0 0 0
0 0 0 0 0 0 0 0 0 0 0 0 0 0 0 0 0 0 0 0 0 0 0 0 0 0 0 0 0 0 0 0 0 0 0
0 0 0 0 0 0 0 0 0 0 0 0 0 0 0 0 0 0 0 0 0 0 0 0 0 0 0 0 0 0 0 0 0 0 0
0 0 0 0 0 0 0 0 0 0 0 0 0 0 0 0 0 0 0 0 0 0 0 0 0 0 0 0 0 0 0 0 0 0 0
0 0 0 0 0 0 0 0 0 0 0 0 0 0 0 0 0 0 0 0 0 0 0 0 0 0 0 0 0 0 0 0 0 0 0
0 0 0 0 0 0 0 0 0 0 0 0 0 91 34 9 103 42 11 99 44 11 101 45 11 96 43
11 82 36 9 0 0 0 0 0 0 0 0 0 0 0 0 0 0 0 0 0 0 0 0 0 0 0 0 0 0 0 0 0 0
0 0 0 0 0 0 0 0 0 0 0 0 0 0 0 0 0 0 0 0 0 0 0 0 0 0 0 0 0 0 0 0 0 0 0
0 0 0 0 0 0 0 0 0 0 0 0 0 0 0 0 0 0 0 0 0 0 0 0 0 0 0 0 0 0 0 0 0 0 0
0 0 0 0 0 0 0 0 0 0 0 0 0 0 0 0 0 0 0 0 0 0 0 0 0 0 0 0 0 0 0 0 0 0 0
0 0 0 0 0 0 0 0 0 0 0 0 0 0 0 0 0 0 0 0 0 0 0 0 0 0 0 0 0 0 0 0 0 0 0
0 0 0 0 0 0 0 0 0 0 0 0 0 0 0 0 0 0 0 0 0 0 0 0 0 0 0 0 0 0 0 0 0 0 0
0 0 0 0 0 0 0 0 0 0 0 0 0 0
0 0 0 0 0 0 0 0 0 0 0 0 0 0 0 0 0 0 0 0 0 0 0 0 0 0 0 0 0 0 0 0 0 0 0
0 0 0 0 0 0 0 0 0 0 0 0 0 0 0 0 0 0 0 0 0 0 0 0 0 0 0 0 0 0 0 0 0 0 0
0 0 0 0 0 0 0 0 0 0 0 0 0 0 0 0 0 0 0 0 0 0 0 0 0 0 0 0 0 0 0 0 0 0 0
0 0 0 0 0 0 0 0 0 0 0 0 0 0 0 0 0 0 0 0 0 0 0 0 0 0 0 0 0 0 0 0 0 0 0
0 0 0 0 0 0 0 0 0 0 0 0 0 0 0 0 0 0 0 0 0 0 0 0 0 0 0 0 0 0 0 0 0 0 0
0 0 0 0 0 0 0 0 0 0 0 0 0 0 0 0 0 0 0 0 0 0 0 0 0 0 0 0 0 0 0 0 0 0 0
0 0 0 0 0 0 0 0 0 0 0 0 0 0 0 0 0 0 0 0 0 0 0 0 0 0 0 0 0 0 0 0 0 0 0
0 0 0 0 0 0 0 0 0 0 0 0 0 0 0 0 0 0 0 0 0 0 0 0 0 0 0 0 0 0 0 0 0 0 0
0 0 0 0 0 0 0 0 0 0 0 0 0 0 0 0 0 0 0 0 0 0 0 0 0 0 0 0 0 0 0 0 0 0 0
0 0 0 0 0 0 0 0 0 0 0 0 0 0 0 0 0 0 0 0 0 0 0 0 0 0 0 0 0 0 0 0 0 0 0
0 0 0 0 0 0 0 0 0 0 146 54 14 155 60 15 156 64 16 148 64 16 133 61 15
129 59 15 119 54 13 101 45 11 67 28 7 0 0 0 0 0 0 0 0 0 0 0 0 0 0 0 0
0 0 0 0 0 0 0 0 0 0 0 0 0 0 0 0 0 0 0 0 0 0 0 0 0 0 0 0 0 0 0 0 0 0 0
0 0 0 0 0 0 0 0 0 0 0 0 0 0 0 0 0 0 0 0 0 0 0 0 0 0 0 0 0 0 0 0 0 0 0
0 0 0 0 0 0 0 0 0 0 0 0 0 0 0 0 0 0 0 0 0 0 0 0 0 0 0 0 0 0 0 0 0 0 0
0 0 0 0 0 0 0 0 0 0 0 0 0 0 0 0 0 0 0 0 0 0 0 0 0 0 0 0 0 0 0 0 0 0 0
0 0 0 0 0 0 0 0 0 0 0 0 0 0 0 0 0 0 0 0 0 0 0 0 0 0 0 0 0 0 0 0 0 0 0
0 0 0 0 0 0 0 0 0 0 0 0 0 0 0 0 0 0 0 0 0 0
0 0 0 0 0 0 0 0 0 0 0 0 0 0 0 0 0 0 0 0 0 0 0 0 0 0 0 0 0 0 0 0 0 0 0
0 0 0 0 0 0 0 0 0 0 0 0 0 0 0 0 0 0 0 0 0 0 0 0 0 0 0 0 0 0 0 0 0 0 0
0 0 0 0 0 0 0 0 0 0 0 0 0 0 0 0 0 0 0 0 0 0 0 0 0 0 0 0 0 0 0 0 0 0 0
0 0 0 0 0 0 0 0 0 0 0 0 0 0 0 0 0 0 0 0 0 0 0 0 0 0 0 0 0 0 0 0 0 0 0
0 0 0 0 0 0 0 0 0 0 0 0 0 0 0 0 0 0 0 0 0 0 0 0 0 0 0 0 0 0 0 0 0 0 0
0 0 0 0 0 0 0 0 0 0 0 0 0 0 0 0 0 0 0 0 0 0 0 0 0 0 0 0 0 0 0 0 0 0 0
0 0 0 0 0 0 0 0 0 0 0 0 0 0 0 0 0 0 0 0 0 0 0 0 0 0 0 0 0 0 0 0 0 0 0
0 0 0 0 0 0 0 0 0 0 0 0 0 0 0 0 0 0 0 0 0 0 0 0 0 0 0 0 0 0 0 0 0 0 0
0 0 0 0 0 0 0 0 0 0 0 0 0 0 0 0 0 0 0 0 0 0 0 0 0 0 0 0 0 0 0 0 0 0 0
0 0 0 0 0 0 0 0 0 0 0 0 0 0 0 0 0 0 0 0 0 0 0 0 0 0 0 0 0 0 0 0 0 0 0
0 0 0 0 0 0 0 202 75 19 201 76 19 196 76 20 193 79 20 183 78 20 168 75
19 152 71 18 144 67 17 129 59 15 104 47 12 0 0 0 0 0 0 0 0 0 0 0 0 0 0
0 0 0 0 0 0 0 0 0 0 0 0 0 51 1 31 51 1 31 51 1 31 0 0 0 0 0 0 0 0 0 0
0 0 0 0 0 0 0 0 0 0 0 0 0 0 0 0 0 0 0 0 0 0 0 0 0 0 0 0 0 0 0 0 0 0 0
0 0 0 0 0 0 0 0 0 0 0 0 0 0 0 0 0 0 0 0 0 0 0 0 0 0 0 0 0 0 0 0 0 0 0
0 0 0 0 0 0 0 0 0 0 0 0 0 0 0 0 0 0 0 0 0 0 0 0 0 0 0 0 0 0 0 0 0 0 0
0 0 0 0 0 0 0 0 0 0 0 0 0 0 0 0 0 0 0 0 0 0 0 0 0 0 0 0 0 0 0 0 0 0 0
0 0 0 0 0 0 0 0 0 0 0 0 0 0 0 0 0 0 0 0 0 0 0 0 0 0 0
0 0 0 0 0 0 0 0 0 0 0 0 0 0 0 0 0 0 0 0 0 0 0 0 0 0 0 0 0 0 0 0 0 0 0
0 0 0 0 0 0 0 0 0 0 0 0 0 0 0 0 0 0 0 0 0 0 0 0 0 0 0 0 0 0 0 0 0 0 0
0 0 0 0 0 0 0 0 0 0 0 0 0 0 0 0 0 0 0 0 0 0 0 0 0 0 0 0 0 0 0 0 0 0 0
0 0 0 0 0 0 0 0 0 0 0 0 0 0 0 0 0 0 0 0 0 0 0 0 0 0 0 0 0 0 0 0 0 0 0
0 0 0 0 0 0 0 0 0 0 0 0 0 0 0 0 0 0 0 0 0 0 0 0 0 0 0 0 0 0 0 0 0 0 0
0 0 0 0 0 0 0 0 0 0 0 0 0 0 0 0 0 0 0 0 0 0 0 0 0 0 0 0 0 0 0 0 0 0 0
0 0 0 0 0 0 0 0 0 0 0 0 0 0 0 0 0 0 0 0 0 0 0 0 0 0 0 0 0 0 0 0 0 0 0
0 0 0 0 0 0 0 0 0 0 0 0 0 0 0 0 0 0 0 0 0 0 0 0 0 0 0 0 0 0 0 0 0 0 0
0 0 0 0 0 0 0 0 0 0 0 0 0 0 0 0 0 0 0 0 0 0 0 0 0 0 0 0 0 0 0 0 0 0 0
0 0 0 0 0 0 0 0 0 0 0 0 0 0 0 0 0 0 0 0 0 0 0 0 0 0 0 0 0 0 0 0 0 0 0
0 0 0 0 234 89 22 250 95 24 241 93 24 227 89 23 222 90 23 211 89 23
195 86 22 173 80 20 162 76 19 149 69 17 127 58 15 83 36 9 0 0 0 0 0 0
0 0 0 0 0 0 0 0 0 0 0 0 69 1 39 68 1 40 65 1 40 63 1 40 62 1 39 58 1
36 51 1 31 0 0 0 0 0 0 0 0 0 0 0 0 0 0 0 0 0 0 0 0 0 0 0 0 0 0 0 0 0 0
0 0 0 0 0 0 0 0 0 0 0 0 0 0 0 0 0 0 0 0 0 0 0 0 0 0 0 0 0 0 0 0 0 0 0
0 0 0 0 0 0 0 0 0 0 0 0 0 0 0 0 0 0 0 0 0 0 0 0 0 0 0 0 0 0 0 0 0 0 0
0 0 0 0 0 0 0 0 0 0 0 0 0 0 0 0 0 0 0 0 0 0 0 0 0 0 0 0 0 0 0 0 0 0 0
0 0 0 0 0 0 0 0 0 0 0 0 0 0 0 0 0 0 0 0 0 0 0 0 0 0 0 0 0 0 0 0 0 0 0
0
0 0 0 0 0 0 0 0 0 0 0 0 0 0 0 0 0 0 0 0 0 0 0 0 0 0 0 0 0 0 0 0 0 0 0
0 0 0 0 0 0 0 0 0 0 0 0 0 0 0 0 0 0 0 0 0 0 0 0 0 0 0 0 0 0 0 0 0 0 0
0 0 0 0 0 0 0 0 0 0 0 0 0 0 0 0 0 0 0 0 0 0 0 0 0 0 0 0 0 0 0 0 0 0 0
0 0 0 0 0 0 0 0 0 0 0 0 0 0 0 0 0 0 0 0 0 0 0 0 0 0 0 0 0 0 0 0 0 0 0
0 0 0 0 0 0 0 0 0 0 0 0 0 0 0 0 0 0 0 0 0 0 0 0 0 0 0 0 0 0 0 0 0 0 0
0 0 0 0 0 0 0 0 0 0 0 0 0 0 0 0 0 0 0 0 0 0 0 0 0 0 0 0 0 0 0 0 0 0 0
0 0 0 0 0 0 0 0 0 0 0 0 0 0 0 0 0 0 0 0 0 0 0 0 0 0 0 0 0 0 0 0 0 0 0
0 0 0 0 0 0 0 0 0 0 0 0 0 0 0 0 0 0 0 0 0 0 0 0 0 0 0 0 0 0 0 0 0 0 0
0 0 0 0 0 0 0 0 0 0 0 0 0 0 0 0 0 0 0 0 0 0 0 0 0 0 0 0 0 0 0 0 0 0 0
0 0 0 0 0 0 0 0 0 0 0 0 0 0 0 0 0 0 0 0 0 0 0 0 0 0 0 0 0 0 0 0 0 0 0
0 0 0 0 255 109 27 255 110 28 255 106 27 253 99 25 245 99 25 233 98 25
217 94 24 195 89 22 175 82 21 163 76 19 142 66 16 106 48 12 0 0 0 0 0
0 0 0 0 0 0 0 0 0 0 92 1 52 87 1 51 83 1 50 79 1 50 74 1 48 72 1 46 69
1 44 63 1 40 52 1 32 0 0 0 0 0 0 0 0 0 0 0 0 0 0 0 0 0 0 0 0 0 0 0 0 0
0 0 0 0 0 0 0 0 0 0 0 0 0 0 0 0 0 0 0 0 0 0 0 0 0 0 0 0 0 0 0 0 0 0 0
0 0 0 0 0 0 0 0 0 0 0 0 0 0 0 0 0 0 0 0 0 0 0 0 0 0 0 0 0 0 0 0 0 0 0
0 0 0 0 0 0 0 0 0 0 0 0 0 0 0 0 0 0 0 0 0 0 0 0 0 0 0 0 0 0 0 0 0 0 0
0 0 0 0 0 0 0 0 0 0 0 0 0 0 0 0 0 0 0 0 0 0 0 0 0 0 0 0 0 0 0 0 0 0 0
0 0 0
0 0 0 0 0 0 0 0 0 0 0 0 0 0 0 0 0 0 0 0 0 0 0 0 0 0 0 0 0 0 0 0 0 0 0
0 0 0 0 0 0 0 0 0 0 0 0 0 0 0 0 0 0 0 0 0 0 0 0 0 0 0 0 0 0 0 0 0 0 0
0 0 0 0 0 0 0 0 0 0 0 0 0 0 0 0 0 0 0 0 0 0 0 0 0 0 0 0 0 0 0 0 0 0 0
0 0 0 0 0 0 0 0 0 0 0 0 0 0 0 0 0 0 0 0 0 0 0 0 0 0 0 0 0 0 0 0 0 0 0
0 0 0 0 0 0 0 0 0 0 0 0 0 0 0 0 0 0 0 0 0 0 0 0 0 0 0 0 0 0 0 0 0 0 0
0 0 0 0 0 0 0 0 0 0 0 0 0 0 0 0 0 0 0 0 0 0 0 0 0 0 0 0 0 0 0 0 0 0 0
0 0 0 0 0 0 0 0 0 0 0 0 0 0 0 0 0 0 0 0 0 0 0 0 0 0 0 0 0 0 0 0 0 0 0
0 0 0 0 0 0 0 0 0 0 0 0 0 0 0 0 0 0 0 0 0 0 0 0 0 0 0 0 0 0 0 0 0 0 0
0 0 0 0 0 0 0 0 0 0 0 0 0 0 0 0 0 0 0 0 0 0 0 0 0 0 0 0 0 0 0 0 0 0 0
0 0 0 0 0 0 0 0 0 0 0 0 0 0 0 0 0 0 0 0 0 0 0 0 0 0 0 0 0 0 0 0 0 0 0
0 0 0 0 255 123 30 255 123 31 255 117 30 255 110 28 255 106 27 250 104
27 233 101 25 211 95 24 185 87 22 172 81 20 152 71 18 117 53 13 0 0 0
0 0 0 0 0 0 0 0 0 171 29 68 107 1 62 99 1 58 94 1 57 90 1 56 83 1 54
80 1 52 76 1 50 71 1 46 63 1 39 0 0 0 0 0 0 0 0 0 0 0 0 0 0 0 0 0 0 0
0 0 0 0 0 0 0 0 0 0 0 0 0 0 0 0 0 0 0 0 0 0 0 0 0 0 0 0 0 0 0 0 0 0 0
0 0 0 0 0 0 0 0 0 0 0 0 0 0 0 0 0 0 0 0 0 0 0 0 0 0 0 0 0 0 0 0 0 0 0
0 0 0 0 0 0 0 0 0 0 0 0 0 0 0 0 0 0 0 0 0 0 0 0 0 29 2 27 29 2 27 0 0
0 0 0 0 0 0 0 0 0 0 0 0 0 0 0 0 0 0 0 0 0 0 0 0 0 0 0 0 0 0 0 0 0 0 0
0 0 0 0 0 0 0 0 0 0 0
0 0 0 0 0 0 0 0 0 0 0 0 0 0 0 0 0 0 0 0 0 0 0 0 0 0 0 0 0 0 0 0 0 0 0
0 0 0 0 0 0 0 0 0 0 0 0 0 0 0 0 0 0 0 0 0 0 0 0 0 0 0 0 0 0 0 0 0 0 0
0 0 0 0 0 0 0 0 0 0 0 0 0 0 0 0 0 0 0 0 0 0 0 0 0 0 0 0 0 0 0 0 0 0 0
0 0 0 0 0 0 0 0 0 0 0 0 0 0 0 0 0 0 0 0 0 0 0 0 0 0 0 0 0 0 0 0 0 0 0
0 0 0 0 0 0 0 0 0 0 0 0 0 0 0 0 0 0 0 0 0 0 0 0 0 0 0 0 0 0 0 0 0 0 0
0 0 0 0 0 0 0 0 0 0 0 0 0 0 0 0 0 0 0 0 0 0 0 0 0 0 0 0 0 0 0 0 0 0 0
0 0 0 0 0 0 0 0 0 0 0 0 0 0 0 0 0 0 0 0 0 0 0 0 0 0 0 0 0 0 0 0 0 0 0
0 0 0 0 0 0 0 0 0 0 0 0 0 0 0 0 0 0 0 0 0 0 0 0 0 0 0 0 0 0 0 0 0 0 0
0 0 0 0 0 0 0 0 0 0 0 0 0 0 0 0 0 0 0 0 0 0 0 0 0 0 0 0 0 0 0 0 0 0 0
0 0 0 0 0 0 0 0 0 0 0 0 0 0 0 0 0 0 0 0 0 0 0 0 0 0 0 0 0 0 0 0 0 0 0
0 0 0 0 255 133 33 255 132 33 255 130 38 255 118 30 255 110 28 255 119
44 247 107 30 221 99 25 193 90 23 177 83 21 156 73 18 119 54 13 0 0 0
0 0 0 0 0 0 0 0 0 123 1 70 117 1 68 108 1 64 103 1 63 98 1 61 91 1 59
85 1 56 82 1 54 77 1 50 69 1 44 54 1 33 0 0 0 0 0 0 0 0 0 0 0 0 0 0 0
0 0 0 0 0 0 0 0 0 0 0 0 0 0 0 0 0 0 0 0 0 0 0 0 0 0 0 0 0 0 0 0 0 0 0
0 0 0 0 0 0 0 0 0 0 0 0 0 0 0 0 0 0 0 0 0 0 0 0 0 0 0 0 0 0 0 0 0 0 0
0 0 0 0 0 0 0 0 0 0 0 107 7 93 88 6 74 71 4 60 56 4 50 43 3 41 35 3 35
29 2 27 29 2 27 29 2 27 29 2 27 0 0 0 0 0 0 0 0 0 0 0 0 0 0 0 0 0 0 0
0 0 0 0 0 0 0 0 0 0 0 0 0 0 0 0 0 0 0 0
0 0 0 0 0 0 0 0 0 0 0 0 0 0 0 0 0 0 0 0 0 0 0 0 0 0 0 0 0 0 0 0 0 0 0
0 0 0 0 0 0 0 0 0 0 0 0 0 0 0 0 0 0 0 0 0 0 0 0 0 0 0 0 0 0 0 0 0 0 0
0 0 0 0 0 0 0 0 0 0 0 0 0 0 0 0 0 0 0 0 0 0 0 0 0 0 0 0 0 0 0 0 0 0 0
0 0 0 0 0 0 0 0 0 0 0 0 0 0 0 0 0 0 0 0 0 0 0 0 0 0 0 0 0 0 0 0 0 0 0
0 0 0 0 0 0 0 0 0 0 0 0 0 0 0 0 0 0 0 0 0 0 0 0 0 0 0 0 0 0 0 0 0 0 0
0 0 0 0 0 0 0 0 0 0 0 0 0 0 0 0 0 0 0 0 0 0 0 0 0 0 0 0 0 0 0 0 0 0 0
0 0 0 0 0 0 0 0 0 0 0 0 0 0 0 0 0 0 0 0 0 0 0 0 0 0 0 0 0 0 0 0 0 0 0
0 0 0 0 0 0 0 0 0 0 0 0 0 0 0 0 0 0 0 0 0 0 0 0 0 0 0 0 0 0 0 0 0 0 0
0 0 0 0 0 0 0 0 0 0 0 0 0 0 0 0 0 0 0 0 0 0 0 0 0 0 0 0 0 0 0 0 0 0 0
0 0 0 0 0 0 0 0 0 0 0 0 0 0 0 0 0 0 0 0 0 0 0 0 0 0 0 0 0 0 0 0 0 0 0
0 0 0 0 255 140 34 255 143 40 255 146 58 255 125 32 255 115 29 255 114
33 251 107 27 227 101 25 197 92 23 178 84 21 155 72 18 108 49 12 0 0 0
0 0 0 0 0 0 0 0 0 132 2 76 125 1 74 116 1 69 109 1 67 129 18 100 124
20 102 115 19 95 110 18 90 100 15 81 73 1 47 58 1 36 0 0 0 0 0 0 0 0 0
0 0 0 0 0 0 0 0 0 0 0 0 0 0 0 0 0 0 0 0 0 0 0 0 0 0 0 0 0 0 0 0 0 0 0
0 0 0 0 0 0 0 0 0 0 0 0 0 0 0 0 0 0 0 0 0 0 0 0 0 0 0 0 0 0 0 0 0 0 0
0 0 0 0 0 0 0 0 0 0 0 165 11 141 168 11 146 154 10 137 133 9 120 109 7
100 94 6 89 79 6 79 63 5 67 56 4 59 48 4 49 37 3 37 29 2 27 29 2 27 29
2 27 0 0 0 0 0 0 0 0 0 0 0 0 0 0 0 0 0 0 0 0 0 0 0 0 0 0 0 0 0 0 0 0 0
0 0 0 0 0 0 0 0 0 0 0 0 0 0 0 0 0 0 0 0 0 0 0 0 0 0 0 0 0 0 0 0 0 0 0
0 0 0 0 0 0 0 0 0 0 0 0 0 0 0 0 0 0 0 0 0 0 0 0 0 0 0 0 0 0 0 0 0 0 0
0 0 0 0 0 0 0 0 0 0 0 0 0 0 0 0 0 0 0 0 0 0 0 0 0 0 0 0 0 0 0 0 0 0 0
0 0 0 0 0 0 0 0 0 0 0 0 0 0 0 0 0 0 0 0 0 0 0 0 0 0 0 0 0 0 0 0 0 0 0
0 0 0 0 0 0 0 0 0 0 0 0 0 0 0 0 0 0 0 0 0 0 0 0 0 0 0 0 0 0 0 0 0 0 0
0 0 0 0 0 0 0 0 0 0 0 0 0 0 0 0 0 0 0 0 0 0 0 0 0 0 0 0 0 0 0 0 0 0 0
0 0 0 0 0 0 0 0 0 0 0 0 0 0 0 0 0 0 0 0 0 0 0 0 0 0 0 0 0 0 0 0 0 0 0
0 0 0 0 0 0 0 0 0 0 0 0 0 0 0 0 0 0 0 0 0 0 0 0 0 0 0 0 0 0 0 0 0 0 0
0 0 0 0 0 0 0 0 0 0 0 0 0 0 0 0 0 0 0 0 0 0 0 0 0 0 0 0 0 0 0 0 0 0 0
0 0 0 0 0 0 0 0 0 0 0 0 0 0 0 0 0 0 0 0 0 0 0 0 0 0 0 0 0 0 0 0 0 0 0
0 0 0 0 255 142 35 255 169 73 255 138 35 255 129 33 255 119 30 255 111
28 251 107 27 226 100 25 195 91 23 173 81 20 145 67 17 0 0 0 0 0 0 0 0
0 0 0 0 0 0 0 149 9 91 187 33 140 176 39 149 146 25 119 180 51 170 117
28 77 111 15 88 144 40 138 206 10 165 107 24 95 57 1 35 0 0 0 0 0 0 0
0 0 0 0 0 0 0 0 0 0 0 0 0 0 0 0 0 0 0 0 0 0 0 0 0 0 0 0 0 0 0 0 0 0 0
0 0 0 0 0 0 0 0 0 0 0 0 0 0 0 0 0 0 0 0 0 0 0 0 0 0 0 0 0 0 0 0 0 0 0
0 0 0 0 0 0 0 0 0 0 226 15 198 223 15 198 207 14 187 186 13 170 162 11
150 136 9 128 122 9 118 106 8 107 88 7 93 77 6 83 68 5 73 58 5 61 46 3
47 31 2 30 29 2 27 29 2 27 0 0 0 0 0 0 0 0 0 0 0 0 0 0 0 0 0 0 0 0 0 0
0 0 0 0 0 0 0 0
0 0 0 0 0 0 0 0 0 0 0 0 0 0 0 0 0 0 0 0 0 0 0 0 0 0 0 0 0 0 0 0 0 0 0
0 0 0 0 0 0 0 0 0 0 0 0 0 0 0 0 0 0 0 0 0 0 0 0 0 0 0 0 0 0 0 0 0 0 0
0 0 0 0 0 0 0 0 0 0 0 0 0 0 0 0 0 0 0 0 0 0 0 0 0 0 0 0 0 0 0 0 0 0 0
0 0 0 0 0 0 0 0 0 0 0 0 0 0 0 0 0 0 0 0 0 0 0 0 0 0 0 0 0 0 0 0 0 0 0
0 0 0 0 0 0 0 0 0 0 0 0 0 0 0 0 0 0 0 0 0 0 0 0 0 0 0 0 0 0 0 0 0 0 0
0 0 0 0 0 0 0 0 0 0 0 0 0 0 0 0 0 0 0 0 0 0 0 0 0 0 0 0 0 0 0 0 0 0 0
0 0 0 0 0 0 0 0 0 0 0 0 0 0 0 0 0 0 0 0 0 0 0 0 0 0 0 0 0 0 0 0 0 0 0
0 0 0 0 0 0 0 0 0 0 0 0 0 0 0 0 0 0 0 0 0 0 0 0 0 0 0 0 0 0 0 0 0 0 0
0 0 0 0 0 0 0 0 0 0 0 0 0 0 0 0 0 0 0 0 0 0 0 0 0 0 0 0 0 0 0 0 0 0 0
0 0 0 0 0 0 0 0 0 0 0 0 0 0 0 0 0 0 0 0 0 0 0 0 0 0 0 0 0 0 0 0 0 0 0
0 0 0 0 0 0 0 255 143 35 255 139 35 255 131 33 255 121 31 255 108 28
244 104 26 218 96 24 184 86 21 160 75 19 116 53 13 0 0 0 0 0 0 0 0 0 0
0 0 0 0 0 203 45 161 218 57 192 240 76 228 236 83 238 239 93 255 171
45 155 185 67 196 144 37 135 131 39 130 117 31 109 0 0 0 0 0 0 0 0 0 0
0 0 0 0 0 0 0 0 0 0 0 0 0 0 0 0 0 0 0 0 0 0 0 0 0 0 0 0 0 0 0 0 0 0 0
0 0 0 0 0 0 0 0 0 0 0 0 0 0 0 0 0 0 0 0 0 0 0 0 0 0 0 0 0 0 0 0 0 0 0
0 0 0 0 0 0 0 255 18 242 255 18 242 254 17 231 234 16 215 210 14 196
185 13 174 159 11 152 144 10 142 127 9 129 109 8 115 94 8 102 85 7 92
75 6 80 63 5 67 49 4 51 33 2 31 29 2 27 29 2 27 0 0 0 0 0 0 0 0 0 0 0
0 0 0 0 0 0 0 0 0 0 0 0 0 0 0 0
0 0 0 0 0 0 0 0 0 0 0 0 0 0 0 0 0 0 0 0 0 0 0 0 0 0 0 0 0 0 0 0 0 0 0
0 0 0 0 0 0 0 0 0 0 0 0 0 0 0 0 0 0 0 0 0 0 0 0 0 0 0 0 0 0 0 0 0 0 0
0 0 0 0 0 0 0 0 0 0 0 0 0 0 0 0 0 0 0 0 0 0 0 0 0 0 0 0 0 0 0 0 0 0 0
0 0 0 0 0 0 0 0 0 0 0 0 0 0 0 0 0 0 0 0 0 0 0 0 0 0 0 0 0 0 0 0 0 0 0
0 0 0 0 0 0 0 0 0 0 0 0 0 0 0 0 0 0 0 0 0 0 0 0 0 0 0 0 0 0 0 0 0 0 0
0 0 0 0 0 0 0 0 0 0 0 0 0 0 0 0 0 0 0 0 0 0 0 0 0 0 0 0 0 0 0 0 0 0 0
0 0 0 0 0 0 0 0 0 0 0 0 0 0 0 0 0 0 0 0 0 0 0 0 0 0 0 0 0 0 0 0 0 0 0
0 0 0 0 0 0 0 0 0 0 0 0 0 0 0 0 0 0 0 0 0 0 0 0 0 0 0 0 0 0 0 0 0 0 0
0 0 0 0 0 0 0 0 0 0 0 0 0 0 0 0 0 0 0 0 0 0 0 0 0 0 0 0 0 0 0 0 0 0 0
0 0 0 0 0 0 0 0 0 0 0 0 0 0 0 0 0 0 0 0 0 0 0 0 0 0 0 0 0 0 0 0 0 0 0
0 0 0 0 0 0 0 255 132 32 255 136 34 255 129 32 255 119 30 255 106 27
228 96 24 199 88 22 161 75 19 126 58 14 0 0 0 0 0 0 0 0 0 0 0 0 0 0 0
0 0 0 189 33 146 252 80 238 255 97 255 254 95 255 242 94 255 220 85
237 159 75 141 170 59 176 147 48 147 99 23 87 0 0 0 0 0 0 0 0 0 0 0 0
0 0 0 0 0 0 0 0 0 0 0 0 0 0 0 0 0 0 0 0 0 0 0 0 0 0 0 0 0 0 0 0 0 0 0
0 0 0 0 0 0 0 0 0 0 0 0 0 0 0 0 0 0 0 0 0 0 0 0 0 0 0 0 0 0 0 0 0 0 0
0 0 255 21 255 255 21 255 255 20 255 255 19 255 255 17 237 230 16 216
203 14 193 178 12 172 162 12 161 145 11 148 126 10 133 108 9 119 99 8
108 89 7 96 77 6 83 63 5 67 47 4 49 29 2 27 29 2 27 0 0 0 0 0 0 0 0 0
0 0 0 0 0 0 0 0 0 0 0 0 0 0 0 0 0 0
0 0 0 0 0 0 0 0 0 0 0 0 0 0 0 0 0 0 0 0 0 0 0 0 0 0 0 0 0 0 0 0 0 0 0
0 0 0 0 0 0 0 0 0 0 0 0 0 0 0 0 0 0 0 0 0 0 0 0 0 0 0 0 0 0 0 0 0 0 0
0 0 0 0 0 0 0 0 0 0 0 0 0 0 0 0 0 0 0 0 0 0 0 0 0 0 0 0 0 0 0 0 0 0 0
0 0 0 0 0 0 0 0 0 0 0 0 0 0 0 0 0 0 0 0 0 0 0 0 0 0 0 0 0 0 0 0 0 0 0
0 0 0 0 0 0 0 0 0 0 0 0 0 0 0 0 0 0 0 0 0 0 0 0 0 0 0 0 0 0 0 0 0 0 0
0 0 0 0 0 0 0 0 0 0 0 0 0 0 0 0 0 0 0 0 0 0 0 0 0 0 0 0 0 0 0 0 0 0 0
0 0 0 0 0 0 0 0 0 0 0 0 0 0 0 0 0 0 0 0 0 0 0 0 0 0 0 0 0 0 0 0 0 0 0
0 0 0 0 0 0 0 0 0 0 0 0 0 0 0 0 0 0 0 0 0 0 0 0 0 0 0 0 0 0 0 0 0 0 0
0 0 0 0 0 0 0 0 0 0 0 0 0 0 0 0 0 0 0 0 0 0 0 0 0 0 0 0 0 0 0 0 0 0 0
0 0 0 0 0 0 0 0 0 0 0 0 0 0 0 0 0 0 0 0 0 0 0 0 0 0 0 0 0 0 0 0 0 0 0
0 0 0 0 0 0 0 0 0 0 0 0 0 255 118 29 255 110 27 235 98 24 192 81 21
154 69 17 0 0 0 0 0 0 0 0 0 0 0 0 0 0 0 0 0 0 0 0 0 0 0 0 0 0 0 229 66
210 255 94 255 245 90 251 227 85 236 207 77 218 183 68 194 163 57 168
128 39 125 0 0 0 0 0 0 0 0 0 0 0 0 0 0 0 0 0 0 0 0 0 0 0 0 0 0 0 0 0 0
0 0 0 0 0 0 0 0 0 0 0 0 0 0 0 0 0 0 0 0 0 0 0 0 0 0 0 0 0 0 0 0 0 0 0
0 0 0 0 0 0 0 0 0 0 0 0 0 0 0 0 0 0 0 255 22 255 255 23 255 255 23 255
255 22 255 255 20 255 255 19 255 245 17 233 218 15 209 194 14 189 177
13 177 159 12 164 140 11 148 120 10 132 111 9 122 100 8 110 88 7 96 75
6 80 59 5 62 41 3 41 29 2 27 29 2 27 0 0 0 0 0 0 0 0 0 0 0 0 0 0 0 0 0
0 0 0 0 0 0 0
0 0 0 0 0 0 0 0 0 0 0 0 0 0 0 0 0 0 0 0 0 0 0 0 0 0 0 0 0 0 0 0 0 0 0
0 0 0 0 0 0 0 0 0 0 0 0 0 0 0 0 0 0 0 0 0 0 0 0 0 0 0 0 0 0 0 0 0 0 0
0 0 0 0 0 0 0 0 0 0 0 0 0 0 0 0 0 0 0 0 0 0 0 0 0 0 0 0 0 0 0 0 0 0 0
0 0 0 0 0 0 0 0 0 0 0 0 0 0 0 0 0 0 0 0 0 0 0 0 0 0 0 0 0 0 0 0 0 0 0
0 0 0 0 0 0 0 0 0 0 0 0 0 0 0 0 0 0 0 0 0 0 0 0 0 0 0 0 0 0 0 0 0 0 0
0 0 0 0 0 0 0 0 0 0 0 0 0 0 0 0 0 0 0 0 0 0 0 0 0 0 0 0 0 0 0 0 0 0 0
0 0 0 0 0 0 0 0 0 0 0 0 0 0 0 0 0 0 0 0 0 0 0 0 0 0 0 0 0 0 0 0 0 0 0
0 0 0 0 0 0 0 0 0 0 0 0 0 0 0 0 0 0 0 0 0 0 0 0 0 0 0 0 0 0 0 0 0 0 0
0 0 0 0 0 0 0 0 0 0 0 0 0 0 0 0 0 0 0 0 0 0 0 0 0 0 0 0 0 0 0 0 0 0 0
0 0 0 0 0 0 0 0 0 0 0 0 0 0 0 0 0 0 0 0 0 0 0 0 0 0 0 0 0 0 0 0 0 0 0
0 0 0 0 0 0 0 0 0 0 0 0 0 0 0 0 0 0 0 0 0 0 0 0 0 0 0 0 0 0 0 0 0 0 0
0 0 0 0 0 0 0 0 0 0 0 0 0 0 0 0 0 0 0 0 0 0 0 207 61 192 219 76 219
204 74 209 186 68 192 161 57 166 114 32 108 0 0 0 0 0 0 0 0 0 0 0 0 0
0 0 0 0 0 0 0 0 0 0 0 0 0 0 0 0 0 0 0 0 0 0 0 0 0 0 0 0 0 0 0 0 0 0 0
0 0 0 0 0 0 0 0 0 0 0 0 0 0 0 0 0 0 0 0 0 0 0 0 0 0 0 0 0 0 0 0 0 0 0
0 0 0 0 255 25 255 255 25 255 255 24 255 255 23 255 255 21 255 255 20
255 255 18 246 230 16 222 207 15 203 189 14 191 171 13 177 151 12 161
130 11 144 120 10 133 109 9 120 97 8 106 84 7 90 68 5 72 50 4 51 29 2
27 29 2 27 0 0 0 0 0 0 0 0 0 0 0 0 0 0 0 0 0 0 0 0 0 0 0 0
0 0 0 0 0 0 0 0 0 0 0 0 0 0 0 0 0 0 0 0 0 0 0 0 0 0 0 0 0 0 0 0 0 0 0
0 0 0 0 0 0 0 0 0 0 0 0 0 0 0 0 0 0 0 0 0 0 0 0 0 0 0 0 0 0 0 0 0 0 0
0 0 0 0 0 0 0 0 0 0 0 0 0 0 0 0 0 0 0 0 0 0 0 0 0 0 0 0 0 0 0 0 0 0 0
0 0 0 0 0 0 0 0 0 0 0 0 0 0 0 0 0 0 0 0 0 0 0 0 0 0 0 0 0 0 0 0 0 0 0
0 0 0 0 0 0 0 0 0 0 0 0 0 0 0 0 0 0 0 0 0 0 0 0 0 0 0 0 0 0 0 0 0 0 0
0 0 0 0 0 0 0 0 0 0 0 0 0 0 0 0 0 0 0 0 0 0 0 0 0 0 0 0 0 0 0 0 0 0 0
0 0 0 0 0 0 0 0 0 0 0 0 0 0 0 0 0 0 0 0 0 0 0 0 0 0 0 0 0 0 0 0 0 0 0
0 0 0 0 0 0 0 0 0 0 0 0 0 0 0 0 0 0 0 0 0 0 0 0 0 0 0 0 0 0 0 0 0 0 0
0 0 0 0 0 0 0 0 0 0 0 0 0 0 0 0 0 0 0 0 0 0 0 0 0 0 0 0 0 0 0 0 0 0 0
0 0 0 0 0 0 0 0 0 0 0 0 0 0 0 0 0 0 0 0 0 0 0 0 0 0 0 0 0 0 0 0 0 0 0
0 0 0 0 0 0 0 0 0 0 0 0 0 0 0 0 0 0 0 0 0 0 0 0 0 0 0 0 0 0 0 0 0 0 0
0 0 0 0 0 0 0 0 0 0 0 0 0 0 0 0 0 10 11 255 11 12 255 10 11 255 9 10
229 7 8 183 5 6 134 0 0 0 0 0 0 0 0 0 0 0 0 0 0 0 0 0 0 0 0 0 0 0 0 0
0 0 0 0 0 0 0 0 0 0 0 0 0 0 0 0 0 0 0 0 0 0 0 0 0 0 0 0 0 0 0 0 0 0 0
0 0 0 0 0 0 0 0 0 0 0 0 0 0 0 0 0 0 0 0 0 0 0 0 0 0 0 0 0 0 255 25 255
255 27 255 255 26 255 255 25 255 255 24 255 255 22 255 255 21 255 255
19 255 239 17 233 217 15 214 199 15 201 180 14 187 160 13 171 139 11
154 128 10 142 117 10 129 104 8 115 91 7 99 75 6 80 56 4 59 34 3 33 29
2 27 0 0 0 0 0 0 0 0 0 0 0 0 0 0 0 0 0 0 0 0 0 0 0 0
0 0 0 0 0 0 0 0 0 0 0 0 0 0 0 0 0 0 0 0 0 0 0 0 0 0 0 0 0 0 0 0 0 0 0
0 0 0 0 0 0 0 0 0 0 0 0 0 0 0 0 0 0 0 0 0 0 0 0 0 0 0 0 0 0 0 0 0 0 0
0 0 0 0 0 0 0 0 0 0 0 0 0 0 0 0 0 0 0 0 0 0 0 0 0 0 0 0 0 0 0 0 0 0 0
0 0 0 0 0 0 0 0 0 0 0 0 0 0 0 0 0 0 0 0 0 0 0 0 0 0 0 0 0 0 0 0 0 0 0
0 0 0 0 0 0 0 0 0 0 0 0 0 0 0 0 0 0 0 0 0 0 0 0 0 0 0 0 0 0 0 0 0 0 0
0 0 0 0 0 0 0 0 0 0 0 0 0 0 0 0 0 0 0 0 0 0 0 0 0 0 0 0 0 0 0 0 0 0 0
0 0 0 0 0 0 0 0 0 0 0 0 0 0 0 0 0 0 0 0 0 0 0 0 0 0 0 0 0 0 0 0 0 0 0
0 0 0 0 0 0 0 0 0 0 0 0 0 0 0 0 0 0 0 0 0 0 0 0 0 0 0 0 0 0 0 0 0 0 0
0 0 0 0 0 0 0 0 0 0 0 0 0 0 0 0 0 0 0 0 0 0 0 0 0 0 0 0 0 0 0 0 0 0 0
0 0 0 0 0 0 0 0 0 0 0 0 0 0 0 0 0 0 0 0 0 0 0 0 0 0 0 0 0 0 0 0 0 0 0
0 0 0 0 0 0 0 0 0 0 0 0 0 0 0 0 0 0 0 0 0 0 0 0 0 0 0 0 0 0 0 0 0 0 0
0 0 0 0 0 0 0 0 0 0 0 0 0 0 11 12 255 14 15 255 14 15 255 13 14 255 11
12 255 8 10 232 6 8 185 0 0 0 0 0 0 0 0 0 0 0 0 0 0 0 0 0 0 0 0 0 0 0
0 0 0 0 0 0 0 0 0 0 0 0 0 0 0 0 0 0 0 0 0 0 0 0 0 0 0 0 0 0 0 0 0 0 0
0 0 0 0 0 0 0 0 0 0 0 0 0 0 0 0 0 0 0 0 0 0 0 0 0 0 0 0 0 0 0 0 255 27
255 255 28 255 255 29 255 255 26 255 255 25 255 255 23 255 255 21 255
255 19 255 247 17 241 225 16 223 207 15 210 188 14 195 167 13 179 145
12 161 134 11 149 122 10 136 110 9 121 96 8 104 79 6 86 61 5 64 38 3
37 29 2 27 0 0 0 0 0 0 0 0 0 0 0 0 0 0 0 0 0 0 0 0 0 0 0 0
0 0 0 0 0 0 0 0 0 0 0 0 0 0 0 0 0 0 0 0 0 0 0 0 0 0 0 0 0 0 0 0 0 0 0
0 0 0 0 0 0 0 0 0 0 0 0 0 0 0 0 0 0 0 0 0 0 0 0 0 0 0 0 0 0 0 0 0 0 0
0 0 0 0 0 0 0 0 0 0 0 0 0 0 0 0 0 0 0 0 0 0 0 0 0 0 0 0 0 0 0 0 0 0 0
0 0 0 0 0 0 0 0 0 0 0 0 0 0 0 0 0 0 0 0 0 0 0 0 0 0 0 0 0 0 0 0 0 0 0
0 0 0 0 0 0 0 0 0 0 0 0 0 0 0 0 0 0 0 0 0 0 0 0 0 0 0 0 0 0 0 0 0 0 0
0 0 0 0 0 0 0 0 0 0 0 0 0 0 0 0 0 0 0 0 0 0 0 0 0 0 0 0 0 0 0 0 0 0 0
0 0 0 0 0 0 0 0 0 0 0 0 0 0 0 0 0 0 0 0 0 0 0 0 0 0 0 0 0 0 0 0 0 0 0
0 0 0 0 0 0 0 0 0 0 0 0 0 0 0 0 0 0 0 0 0 0 0 0 0 0 0 0 0 0 0 0 0 0 0
0 0 0 0 0 0 0 0 0 0 0 0 0 0 0 0 0 0 0 0 0 0 0 0 0 0 0 0 0 0 0 0 0 0 0
0 0 0 0 0 0 0 0 0 0 0 0 0 0 0 0 0 0 0 0 0 0 0 0 0 0 0 0 0 0 0 0 0 0 0
0 0 0 0 0 0 0 0 0 0 0 0 0 0 0 0 0 0 0 0 0 0 0 0 0 0 0 0 0 0 0 0 0 0 0
0 0 0 0 0 0 0 0 0 0 0 0 0 0 15 16 255 16 17 255 15 17 255 14 15 255 12
13 255 9 11 255 7 9 207 5 6 144 0 0 0 0 0 0 0 0 0 0 0 0 0 0 0 0 0 0 0
0 0 0 0 0 0 0 0 0 0 0 0 0 0 0 0 0 0 0 0 0 0 0 0 0 0 0 0 0 0 0 0 0 0 0
0 0 0 0 0 0 0 0 0 0 0 0 0 0 0 0 0 0 0 0 0 0 0 0 0 0 0 0 0 0 0 0 0 255
28 255 255 29 255 255 87 255 255 29 255 255 29 255 255 23 255 255 22
255 255 20 255 252 18 247 231 17 230 212 16 216 193 15 201 172 13 184
149 12 166 138 11 153 126 10 140 113 9 125 99 8 108 82 7 88 62 5 66 38
3 38 29 2 27 0 0 0 0 0 0 0 0 0 0 0 0 0 0 0 0 0 0 0 0 0 0 0 0
0 0 0 0 0 0 0 0 0 0 0 0 0 0 0 0 0 0 0 0 0 0 0 0 0 0 0 0 0 0 0 0 0 0 0
0 0 0 0 0 0 0 0 0 0 0 0 0 0 0 0 0 0 0 0 0 0 0 0 0 0 0 0 0 0 0 0 0 0 0
0 0 0 0 0 0 0 0 0 0 0 0 0 0 0 0 0 0 0 0 0 0 0 0 0 0 0 0 0 0 0 0 0 0 0
0 0 0 0 0 0 0 0 0 0 0 0 0 0 0 0 0 0 0 0 0 0 0 0 0 0 0 0 0 0 0 0 0 0 0
0 0 0 0 0 0 0 0 0 0 0 0 0 0 0 0 0 0 0 0 0 0 0 0 0 0 0 0 0 0 0 0 0 0 0
0 0 0 0 0 0 0 0 0 0 0 0 0 0 0 0 0 0 0 0 0 0 0 0 0 0 0 0 0 0 0 0 0 0 0
0 0 0 0 0 0 0 0 0 0 0 0 0 0 0 0 0 0 0 0 0 0 0 0 0 0 0 0 0 0 0 0 0 0 0
0 0 0 0 0 0 0 0 0 0 0 0 0 0 0 0 0 0 0 0 0 0 0 0 0 0 0 0 0 0 0 0 0 0 0
0 0 0 0 0 0 0 0 0 0 0 0 0 0 0 0 0 0 0 0 0 0 0 0 0 0 0 0 0 0 0 0 0 0 0
0 0 0 0 0 0 0 0 0 0 0 0 0 0 0 0 0 0 0 0 0 0 0 0 0 0 0 0 0 0 0 0 0 0 0
0 0 0 0 0 0 0 0 0 0 0 0 0 0 0 0 0 0 0 0 0 0 0 0 0 0 0 0 0 0 0 0 0 0 0
0 0 0 0 0 0 0 0 0 0 0 0 0 0 16 17 255 102 93 255 94 57 255 103 78 255
26 23 255 37 29 255 30 26 248 5 6 146 0 0 0 0 0 0 0 0 0 0 0 0 0 0 0 0
0 0 0 0 0 0 0 0 0 0 0 0 0 0 0 0 0 0 0 0 0 0 0 0 0 0 0 0 0 0 0 0 0 0 0
0 0 0 0 0 0 0 0 0 0 0 0 0 0 0 0 0 0 0 0 0 0 0 0 0 0 0 0 0 0 0 0 0 0 0
0 255 29 255 255 29 255 255 36 255 255 28 255 255 26 255 255 24 255
255 22 255 255 25 255 255 56 255 234 17 234 215 16 220 195 15 204 174
14 187 151 12 169 140 12 156 128 10 142 115 9 126 99 8 109 82 7 88 61
5 64 35 3 34 29 2 27 0 0 0 0 0 0 0 0 0 0 0 0 0 0 0 0 0 0 0 0 0 0 0 0
0 0 0 0 0 0 0 0 0 0 0 0 0 0 0 0 0 0 0 0 0 0 0 0 0 0 0 0 0 0 0 0 0 0 0
0 0 0 0 0 0 0 0 0 0 0 0 0 0 0 0 0 0 0 0 0 0 0 0 0 0 0 0 0 0 0 0 0 0 0
0 0 0 0 0 0 0 0 0 0 0 0 0 0 0 0 0 0 0 0 0 0 0 0 0 0 0 0 0 0 0 0 0 0 0
0 0 0 0 0 0 0 0 0 0 0 0 0 0 0 0 0 0 0 0 0 0 0 0 0 0 0 0 0 0 0 0 0 0 0
0 0 0 0 0 0 0 0 0 0 0 0 0 0 0 0 0 0 0 0 0 0 0 0 0 0 0 0 0 0 0 0 0 0 0
0 0 0 0 0 0 0 0 0 0 0 0 0 0 0 0 0 0 0 0 0 0 0 0 0 0 0 0 0 0 0 0 0 0 0
0 0 0 0 0 0 0 0 0 0 0 0 0 0 0 0 0 0 0 0 0 0 0 0 0 0 0 0 0 0 0 0 0 0 0
0 0 0 0 0 0 0 0 0 0 0 0 0 0 0 0 0 0 0 0 0 0 0 0 0 0 0 0 0 0 0 0 0 0 0
0 0 0 0 0 0 0 0 0 0 0 0 0 0 0 0 0 0 0 0 0 0 0 0 0 0 0 0 0 0 0 0 0 0 0
0 0 0 0 0 0 0 0 0 0 0 0 0 0 0 0 0 0 0 0 0 0 0 0 0 0 0 0 0 0 0 0 0 0 0
0 0 0 0 0 0 0 0 0 0 0 0 0 0 0 0 0 0 0 0 0 0 0 0 0 0 0 0 0 0 0 0 0 0 0
0 0 0 0 0 0 0 0 0 0 0 0 0 0 43 36 255 87 67 255 119 87 255 103 78 255
81 62 255 62 48 255 45 36 255 0 0 0 0 0 0 0 0 0 0 0 0 0 0 0 0 0 0 0 0
0 0 0 0 0 0 0 0 0 0 0 0 0 0 0 0 0 0 0 0 0 0 0 0 0 0 0 0 0 0 0 0 0 0 0
0 0 0 0 0 0 0 0 0 0 0 0 0 0 0 0 0 0 0 0 0 0 0 0 0 0 0 0 0 0 0 0 0 0 0
255 29 255 255 29 255 255 28 255 255 27 255 255 26 255 255 24 255 255
22 255 255 20 255 255 19 253 235 17 236 216 16 221 195 15 205 174 14
188 152 12 169 141 12 156 128 10 142 114 9 125 98 8 107 79 6 85 56 4
59 29 2 27 0 0 0 0 0 0 0 0 0 0 0 0 0 0 0 0 0 0 0 0 0 0 0 0 0 0 0
0 0 0 0 0 0 0 0 0 0 0 0 0 0 0 0 0 0 0 0 0 0 0 0 0 0 0 0 0 0 0 0 0 0 0
0 0 0 0 0 0 0 0 0 0 0 0 0 0 0 0 0 0 0 0 0 0 0 0 0 0 0 0 0 0 0 0 0 0 0
0 0 0 0 0 0 0 0 0 0 0 0 0 0 0 0 0 0 0 0 0 0 0 0 0 0 0 0 0 0 0 0 0 0 0
0 0 0 0 0 0 0 0 0 0 0 0 0 0 0 0 0 0 0 0 0 0 0 0 0 0 0 0 0 0 0 0 0 0 0
0 0 0 0 0 0 0 0 0 0 0 0 0 0 0 0 0 0 0 0 0 0 0 0 0 0 0 0 0 0 0 0 0 0 0
0 0 0 0 0 0 0 0 0 0 0 0 0 0 0 0 0 0 0 0 0 0 0 0 0 0 0 0 0 0 0 0 0 0 0
0 0 0 0 0 0 0 0 0 0 0 0 0 0 0 0 0 0 0 0 0 0 0 0 0 0 0 0 0 0 0 0 0 0 0
0 0 0 0 0 0 0 0 0 0 0 0 0 0 0 0 0 0 0 0 0 0 0 0 0 0 0 0 0 0 0 0 0 0 0
0 0 0 0 0 0 0 0 0 0 0 0 0 0 0 0 0 0 0 0 0 0 0 0 0 0 0 0 0 0 0 0 0 0 0
0 0 0 0 0 0 0 0 0 0 0 0 0 0 0 0 0 0 0 0 0 0 0 0 0 0 0 0 0 0 0 0 0 0 0
0 0 0 0 0 0 0 0 0 0 0 0 0 0 0 0 0 0 0 0 0 0 0 0 0 0 0 0 0 0 0 0 0 0 0
0 0 0 0 0 0 0 0 0 0 0 0 0 0 0 0 0 75 59 255 93 71 255 87 66 255 74 57
255 60 46 255 33 25 199 0 0 0 0 0 0 0 0 0 0 0 0 0 0 0 0 0 0 0 0 0 0 0
0 0 0 0 0 0 0 0 0 0 0 0 0 0 0 0 0 0 0 0 0 0 0 0 0 0 0 0 0 0 0 0 0 0 0
0 0 0 0 0 0 0 0 0 0 0 0 0 0 0 0 0 0 0 0 0 0 0 0 0 0 0 0 0 0 0 0 255 28
255 255 29 255 255 28 255 255 27 255 255 26 255 255 24 255 255 22 255
255 20 255 253 18 250 233 17 235 214 16 220 193 15 203 171 14 185 150
12 168 139 11 154 125 10 139 110 9 122 93 8 102 73 6 78 47 4 48 29 2
27 0 0 0 0 0 0 0 0 0 0 0 0 0 0 0 0 0 0 0 0 0 0 0 0 0 0 0
0 0 0 0 0 0 0 0 0 0 0 0 0 0 0 0 0 0 0 0 0 0 0 0 0 0 0 0 0 0 0 0 0 0 0
0 0 0 0 0 0 0 0 0 0 0 0 0 0 0 0 0 0 0 0 0 0 0 0 0 0 0 0 0 0 0 0 0 0 0
0 0 0 0 0 0 0 0 0 0 0 0 0 0 0 0 0 0 0 0 0 0 0 0 0 0 0 0 0 0 0 0 0 0 0
0 0 0 0 0 0 0 0 0 0 0 0 0 0 0 0 0 0 0 0 0 0 0 0 0 0 0 0 0 0 0 0 0 0 0
0 0 0 0 0 0 0 0 0 0 0 0 0 0 0 0 0 0 0 0 0 0 0 0 0 0 0 0 0 0 0 0 0 0 0
0 0 0 0 0 0 0 0 0 0 0 0 0 0 0 0 0 0 0 0 0 0 0 0 0 0 0 0 0 0 0 0 0 0 0
0 0 0 0 0 0 0 0 0 0 0 0 0 0 0 0 0 0 0 0 0 0 0 0 0 0 0 0 0 0 0 0 0 0 0
0 0 0 0 0 0 0 0 0 0 0 0 0 0 0 0 0 0 0 0 0 0 0 0 0 0 0 0 0 0 0 0 0 0 0
0 0 0 0 0 0 0 0 0 0 0 0 0 0 0 0 0 0 0 0 0 0 0 0 0 0 0 0 0 0 0 0 0 0 0
0 0 0 0 0 0 0 0 0 0 0 0 0 0 0 0 0 0 0 0 0 0 0 0 0 0 0 0 0 0 0 0 0 0 0
0 0 0 0 0 0 0 0 0 0 0 0 0 0 0 0 0 0 0 0 0 0 0 0 0 0 0 0 0 0 0 0 0 0 0
0 0 0 0 0 0 0 0 0 0 0 0 0 0 0 0 0 0 0 0 61 47 255 65 50 255 56 43 255
0 0 0 0 0 0 0 0 0 0 0 0 0 0 0 0 0 0 0 0 0 0 0 0 0 0 0 0 0 0 0 0 0 0 0
0 0 0 0 0 0 0 0 0 0 0 0 0 0 0 0 0 0 0 0 0 0 0 0 0 0 0 0 0 0 0 0 0 0 0
0 0 0 0 0 0 0 0 0 0 0 0 0 0 0 0 0 0 0 0 0 0 0 0 0 0 0 0 0 255 28 255
255 28 255 255 27 255 255 25 255 255 24 255 255 22 255 255 20 255 248
18 246 228 17 230 208 16 215 187 14 198 164 13 180 146 12 163 134 11
149 120 10 133 104 8 114 85 7 92 61 5 64 29 2 27 0 0 0 0 0 0 0 0 0 0 0
0 0 0 0 0 0 0 0 0 0 0 0 0 0 0 0 0 0 0
0 0 0 0 0 0 0 0 0 0 0 0 0 0 0 0 0 0 0 0 0 0 0 0 0 0 0 0 0 0 0 0 0 0 0
0 0 0 0 0 0 0 0 0 0 0 0 0 0 0 0 0 0 0 0 0 0 0 0 0 0 0 0 0 0 0 0 0 0 0
0 0 0 0 0 0 0 0 0 0 0 0 0 0 0 0 0 0 0 0 0 0 0 0 0 0 0 0 0 0 0 0 0 0 0
0 0 0 0 0 0 0 0 0 0 0 0 0 0 0 0 0 0 0 0 0 0 0 0 0 0 0 0 0 0 0 0 0 0 0
0 0 0 0 0 0 0 0 0 0 0 0 0 0 0 0 0 0 0 0 0 0 0 0 0 0 0 0 0 0 0 0 0 0 0
0 0 0 0 0 0 0 0 0 0 0 0 0 0 0 0 0 0 0 0 0 0 0 0 0 0 0 0 0 0 0 0 0 0 0
0 0 0 0 0 0 0 0 0 0 0 0 0 0 0 0 0 0 0 0 0 0 0 0 0 0 0 0 0 0 0 0 0 0 0
0 0 0 0 0 0 0 0 0 0 0 0 0 0 0 0 0 0 0 0 0 0 0 0 0 0 0 0 0 0 0 0 0 0 0
0 0 0 0 0 0 0 0 0 0 0 0 0 0 0 0 0 0 0 0 0 0 0 0 0 0 0 0 0 0 0 0 0 0 0
0 0 0 0 0 0 0 0 0 0 0 0 0 0 0 0 0 0 0 0 0 0 0 0 0 0 0 0 0 0 0 0 0 0 0
0 0 0 0 0 0 0 0 0 0 0 0 0 0 0 0 0 0 0 0 0 0 0 0 0 0 0 0 0 0 0 0 0 0 0
0 0 0 0 0 0 0 0 0 0 0 0 0 0 0 0 0 0 0 0 0 0 0 0 0 0 0 0 0 0 0 0 0 0 0
0 0 0 0 0 0 0 0 0 0 0 0 0 0 0 0 0 0 0 0 0 0 0 0 0 0 0 0 0 0 0 0 0 0 0
0 0 0 0 0 0 0 0 0 0 0 0 0 0 0 0 0 0 0 0 0 0 0 0 0 0 0 0 0 0 0 0 0 0 0
0 0 0 0 0 0 0 0 0 0 0 0 0 0 0 0 0 0 0 0 0 0 0 255 26 255 255 27 255
255 26 255 255 24 255 255 23 255 255 21 255 255 19 255 239 17 238 219
16 222 199 15 207 178 14 189 154 13 170 139 11 155 126 10 140 111 9
122 93 7 101 70 6 75 37 3 37 0 0 0 0 0 0 0 0 0 0 0 0 0 0 0 0 0 0 0 0 0
0 0 0 0 0 0 0 0 0 0 0 0
0 0 0 0 0 0 0 0 0 0 0 0 0 0 0 0 0 0 0 0 0 0 0 0 0 0 0 0 0 0 0 0 0 0 0
0 0 0 0 0 0 0 0 0 0 0 0 0 0 0 0 0 0 0 0 0 0 0 0 0 0 0 0 0 0 0 0 0 0 0
0 0 0 0 0 0 0 0 0 0 0 0 0 0 0 0 0 0 0 0 0 0 0 0 0 0 0 0 0 0 0 0 0 0 0
0 0 0 0 0 0 0 0 0 0 0 0 0 0 0 0 0 0 0 0 0 0 0 0 0 0 0 0 0 0 0 0 0 0 0
0 0 0 0 0 0 0 0 0 0 0 0 0 0 0 0 0 0 0 0 0 0 0 0 0 0 0 0 0 0 0 0 0 0 0
0 0 0 0 0 0 0 0 0 0 0 0 0 0 0 0 0 0 0 0 0 0 0 0 0 0 0 0 0 0 0 0 0 0 0
0 0 0 0 0 0 0 0 0 0 0 0 0 0 0 0 0 0 0 0 0 0 0 0 0 0 0 0 0 0 0 0 0 0 0
0 0 0 0 0 0 0 0 0 0 0 0 0 0 0 0 0 0 0 0 0 0 0 0 0 0 0 0 0 0 0 0 0 0 0
0 0 0 0 0 0 0 0 0 0 0 0 0 0 0 0 0 0 0 0 0 0 0 0 0 0 0 0 0 0 0 0 0 0 0
0 0 0 0 0 0 0 0 0 0 0 0 0 0 0 0 0 0 0 0 0 0 0 0 0 0 0 0 0 0 0 0 0 0 0
0 0 0 0 0 0 0 0 0 0 0 0 0 0 0 0 0 0 0 0 0 0 0 0 0 0 0 0 0 0 0 0 0 0 0
0 0 0 0 0 0 0 0 0 0 0 0 0 0 0 0 0 0 0 0 0 0 0 0 0 0 0 0 0 0 0 0 0 0 0
0 0 0 0 0 0 0 0 0 0 0 0 0 0 0 0 0 0 0 0 0 0 0 0 0 0 0 0 0 0 0 0 0 0 0
0 0 0 0 0 0 0 0 0 0 0 0 0 0 0 0 0 0 0 0 0 0 0 0 0 0 0 0 0 0 0 0 0 0 0
0 0 0 0 0 0 0 0 0 0 0 0 0 0 0 0 0 0 0 0 0 0 0 0 0 0 255 24 255 255 24
255 255 23 255 255 22 255 255 20 255 255 18 251 226 16 225 206 15 209
186 14 193 163 13 176 140 11 156 128 10 142 113 9 125 95 8 104 73 6 78
38 3 38 0 0 0 0 0 0 0 0 0 0 0 0 0 0 0 0 0 0 0 0 0 0 0 0 0 0 0 0 0 0 0
0 0 0 0 0
0 0 0 0 0 0 0 0 0 0 0 0 0 0 0 0 0 0 0 0 0 0 0 0 0 0 0 0 0 0 0 0 0 0 0
0 0 0 0 0 0 0 0 0 0 0 0 0 0 0 0 0 0 0 0 0 0 0 0 0 0 0 0 0 0 0 0 0 0 0
0 0 0 0 0 0 0 0 0 0 0 0 0 0 0 0 0 0 0 0 0 0 0 0 0 0 0 0 0 0 0 0 0 0 0
0 0 0 0 0 0 0 0 0 0 0 0 0 0 0 0 0 0 0 0 0 0 0 0 0 0 0 0 0 0 0 0 0 0 0
0 0 0 0 0 0 0 0 0 0 0 0 0 0 0 0 0 0 0 0 0 0 0 0 0 0 0 0 0 0 0 0 0 0 0
0 0 0 0 0 0 0 0 0 0 0 0 0 0 0 0 0 0 0 0 0 0 0 0 0 0 0 0 0 0 0 0 0 0 0
0 0 0 0 0 0 0 0 0 0 0 0 0 0 0 0 0 0 0 0 0 0 0 0 0 0 0 0 0 0 0 0 0 0 0
0 0 0 0 0 0 0 0 0 0 0 0 0 0 0 0 0 0 0 0 0 0 0 0 0 0 0 0 0 0 0 0 0 0 0
0 0 0 0 0 0 0 0 0 0 0 0 0 0 0 0 0 0 0 0 0 0 0 0 0 0 0 0 0 0 0 0 0 0 0
0 0 0 0 0 0 0 0 0 0 0 0 0 0 0 0 0 0 0 0 0 0 0 0 0 0 0 0 0 0 0 0 0 0 0
0 0 0 0 0 0 0 0 0 0 0 0 0 0 0 0 0 0 0 0 0 0 0 0 0 0 0 0 0 0 0 0 0 0 0
0 0 0 0 0 0 0 0 0 0 0 0 0 0 0 0 0 0 0 0 0 0 0 0 0 0 0 0 0 0 0 0 0 0 0
0 0 0 0 0 0 0 0 0 0 0 0 0 0 0 0 0 0 0 0 0 0 0 0 0 0 0 0 0 0 0 0 0 0 0
0 0 0 0 0 0 0 0 0 0 0 0 0 0 0 0 0 0 0 0 0 0 0 0 0 0 0 0 0 0 0 0 0 0 0
0 0 0 0 0 0 0 0 0 0 0 0 0 0 0 0 0 0 0 0 0 0 0 0 0 0 0 0 0 255 20 255
255 21 255 255 20 255 255 19 254 236 17 231 207 15 206 185 14 189 165
13 173 142 11 154 124 10 137 109 9 120 91 7 100 67 5 71 0 0 0 0 0 0 0
0 0 0 0 0 0 0 0 0 0 0 0 0 0 0 0 0 0 0 0 0 0 0 0 0 0 0 0 0 0 0 0 0 0 0
0 0 0 0 0 0 0 0 0 0 0 0 0 0 0 0 0 0 0 0 0 0 0 0 0 0 0 0 0 0 0 0 0 0 0
0 0 0 0 0 0 0 0 0 0 0 0 0 0 0 0 0 0 0 0 0 0 0 0 0 0 0 0 0 0 0 0 0 0 0
0 0 0 0 0 0 0 0 0 0 0 0 0 0 0 0 0 0 0 0 0 0 0 0 0 0 0 0 0 0 0 0 0 0 0
0 0 0 0 0 0 0 0 0 0 0 0 0 0 0 0 0 0 0 0 0 0 0 0 0 0 0 0 0 0 0 0 0 0 0
0 0 0 0 0 0 0 0 0 0 0 0 0 0 0 0 0 0 0 0 0 0 0 0 0 0 0 0 0 0 0 0 0 0 0
0 0 0 0 0 0 0 0 0 0 0 0 0 0 0 0 0 44 28 24 91 68 54 108 87 67 76 69 51
0 0 0 0 0 0 0 0 0 0 0 0 0 0 0 0 0 0 0 0 0 0 0 0 0 0 0 0 0 0 0 0 0 0 0
0 0 0 0 0 0 0 0 0 0 0 0 0 0 0 0 0 0 0 0 0 0 0 0 0 0 0 0 0 0 0 0 0 0 0
0 0 0 0 0 0 0 0 0 0 0 0 0 0 0 0 0 0 0 0 0 0 0 0 0 0 0 0 0 0 0 0 0 0 0
0 0 0 0 0 0 0 0 0 0 0 0 0 0 0 0 0 0 0 0 0 0 0 0 0 0 0 0 0 0 0 0 0 0 0
0 0 0 0 0 0 0 0 0 0 0 0 0 0 0 0 0 0 0 0 0 0 0 0 0 0 0 0 0 0 0 0 0 0 0
0 0 0 0 0 0 0 0 0 0 0 0 0 0 0 0 0 0 0 0 0 0 0 0 0 0 0 0 0 0 0 0 0 0 0
0 0 0 0 0 0 0 0 0 0 0 0 0 0 0 0 0 0 0 0 0 0 0 0 0 0 0 0 0 0 0 0 0 0 0
0 0 0 0 0 0 0 0 0 0 0 0 0 0 0 0 0 0 0 0 0 0 0 0 0 0 0 0 0 0 0 0 0 0 0
0 0 0 0 0 0 0 0 0 0 0 0 0 0 0 0 0 0 0 0 0 0 0 0 0 0 0 0 0 0 0 0 0 0 0
0 0 0 0 0 0 230 16 216 224 16 214 202 14 197 174 13 173 152 11 155 131
10 139 109 9 120 94 8 102 71 6 76 0 0 0 0 0 0 0 0 0 0 0 0 0 0 0 0 0 0
0 0 0 0 0 0 0 0 0 0 0 0 0 0 0 0 0 0 0 0 0 0 0 0 0 0 0 0 0 0
0 0 0 0 0 0 0 0 0 0 0 0 0 0 0 0 0 0 0 0 0 0 0 0 0 0 0 0 0 0 0 0 0 0 0
0 0 0 0 0 0 0 0 0 0 0 0 0 0 0 0 0 0 0 0 0 0 0 0 0 0 0 0 0 0 0 0 0 0 0
0 0 0 0 0 0 0 0 0 0 0 0 0 0 0 0 0 0 0 0 0 0 0 0 0 0 0 0 0 0 0 0 0 0 0
0 0 0 0 0 0 0 0 0 0 0 0 0 0 0 0 0 0 0 0 0 0 0 0 0 0 0 0 0 0 0 0 0 0 0
0 0 0 0 0 0 0 0 0 0 0 0 0 0 0 0 0 0 0 0 0 0 0 0 0 0 0 0 0 0 0 0 0 0 0
0 0 0 0 0 0 0 0 0 0 0 37 21 18 97 61 52 143 98 81 182 132 106 205 155
123 212 168 131 195 162 124 0 0 0 0 0 0 0 0 0 0 0 0 0 0 0 0 0 0 0 0 0
0 0 0 0 0 0 0 0 0 0 0 0 0 0 0 0 0 0 0 0 0 0 0 0 0 0 0 0 0 0 0 0 0 0 0
0 0 0 0 0 0 0 0 0 0 0 0 0 0 0 0 0 0 0 0 0 0 0 0 0 0 0 0 0 0 0 0 0 0 0
0 0 0 0 0 0 0 0 0 0 0 0 0 0 0 0 0 0 0 0 0 0 0 0 0 0 0 0 0 0 0 0 0 0 0
0 0 0 0 0 0 0 0 0 0 0 0 0 0 0 0 0 0 0 0 0 0 0 0 0 0 0 0 0 0 0 0 0 0 0
0 0 0 0 0 0 0 0 0 0 0 0 0 0 0 0 0 0 0 0 0 0 0 0 0 0 0 0 0 0 0 0 0 0 0
0 0 0 0 0 0 0 0 0 0 0 0 0 0 0 0 0 0 0 0 0 0 0 0 0 0 0 0 0 0 0 0 0 0 0
0 0 0 0 0 0 0 0 0 0 0 0 0 0 0 0 0 0 0 0 0 0 0 0 0 0 0 0 0 0 0 0 0 0 0
0 0 0 0 0 0 0 0 0 0 0 0 0 0 0 0 0 0 0 0 0 0 0 0 0 0 0 0 0 0 0 0 0 0 0
0 0 0 0 0 0 0 0 0 0 0 0 0 0 0 0 0 0 0 0 0 0 0 0 0 0 0 0 0 0 0 0 0 0 0
0 0 0 0 0 0 0 0 0 0 0 0 0 0 0 0 0 0 0 0 0 0 0 0 0 0 0 0 0 0 0 0 0 0 0
0 0 0 0 0 0 0 0 0 0 0 0 0 0 0 0 0 0 0 0 0 0
0 0 0 0 0 0 0 0 0 0 0 0 0 0 0 0 0 0 0 0 0 0 0 0 0 0 0 0 0 0 0 0 0 0 0
0 0 0 0 0 0 0 0 0 0 0 0 0 0 0 0 0 0 0 0 0 0 0 0 0 0 0 0 0 0 0 0 0 0 0
0 0 0 0 0 0 0 0 0 0 0 0 0 0 0 0 0 0 0 0 0 0 0 0 0 0 0 0 0 0 0 0 0 0 0
0 0 0 0 0 0 0 0 0 0 0 0 0 0 0 0 0 0 0 0 0 0 0 0 0 0 0 0 0 0 0 0 0 0 0
0 0 0 0 0 0 0 0 0 0 0 0 0 0 0 0 0 0 0 0 0 0 0 0 0 0 0 0 0 0 0 0 0 0 0
0 0 0 0 0 0 0 0 30 17 14 103 65 55 146 94 79 192 131 108 229 164 133
254 189 151 255 205 162 255 211 164 233 196 149 0 0 0 0 0 0 0 0 0 0 0
0 0 0 0 0 0 0 0 0 0 0 0 0 0 0 0 0 0 0 0 0 0 0 0 0 0 0 0 0 0 0 0 0 0 0
0 0 0 0 0 0 0 0 0 0 0 0 0 0 0 0 0 0 0 0 0 0 0 0 0 0 0 0 0 0 0 0 0 0 0
0 0 0 0 0 0 0 0 0 0 0 0 0 0 0 0 0 0 0 0 0 0 0 0 0 0 0 0 0 0 0 0 0 0 0
0 0 0 0 0 0 0 0 0 0 0 0 0 0 0 0 0 0 0 0 0 0 0 0 0 0 0 0 0 0 0 0 0 0 0
0 0 0 0 0 0 0 0 0 0 0 0 0 0 0 0 0 0 0 0 0 0 0 0 0 0 0 0 0 0 0 0 0 0 0
0 0 0 0 0 0 0 0 0 0 0 0 0 0 0 0 0 0 0 0 0 0 0 0 0 0 0 0 0 0 0 0 0 0 0
0 0 0 0 0 0 0 0 0 0 0 0 0 0 0 0 0 0 0 0 0 0 0 0 0 0 0 0 0 0 0 0 0 0 0
0 0 0 0 0 0 0 0 0 0 0 0 0 0 0 0 0 0 0 0 0 0 0 0 0 0 0 0 0 0 0 0 0 0 0
0 0 0 0 0 0 0 0 0 0 0 0 0 0 0 0 0 0 0 0 0 0 0 0 0 0 0 0 0 0 0 0 0 0 0
0 0 0 0 0 0 0 0 0 0 0 0 0 0 0 0 0 0 0 0 0 0 0 0 0 0 0 0 0 0 0 0 0 0 0
0 0 0 0 0 0 0 0 0 0 0 0 0 0 0 0 0 0 0 0 0 0 0 0 0 0 0 0 0
0 0 0 0 0 0 0 0 0 0 0 0 0 0 0 0 0 0 0 0 0 0 0 0 0 0 0 0 0 0 0 0 0 0 0
0 0 0 0 0 0 0 0 0 0 0 0 0 0 0 0 0 0 0 0 0 0 0 0 0 0 0 0 0 0 0 0 0 0 0
0 0 0 0 0 0 0 0 0 0 0 0 0 0 0 0 0 0 0 0 0 0 0 0 0 0 0 0 0 0 0 0 0 0 0
0 0 0 0 0 0 0 0 0 0 0 0 0 0 0 0 0 0 0 0 0 0 0 0 0 0 0 0 0 0 0 0 0 0 0
0 0 0 0 0 0 0 0 0 0 0 0 0 0 0 0 0 0 0 0 0 0 0 0 0 0 0 0 0 0 0 0 0 0 0
0 0 0 0 0 0 0 0 78 47 40 137 87 74 175 113 96 219 149 124 255 182 148
255 207 166 255 225 179 255 234 184 255 229 177 220 192 145 0 0 0 0 0
0 0 0 0 0 0 0 0 0 0 0 0 0 0 0 0 0 0 0 0 0 0 0 0 0 0 0 0 0 0 0 0 0 0 0
0 0 0 0 0 0 0 0 0 0 0 0 0 0 0 0 0 0 0 0 0 0 0 0 0 0 0 0 0 0 0 0 0 0 0
0 0 0 0 0 0 0 0 0 0 0 0 0 0 0 0 0 0 0 0 0 0 0 0 0 0 0 0 0 0 0 0 0 0 0
0 0 0 0 0 0 0 0 0 0 0 0 0 0 0 0 0 0 0 0 0 0 0 0 0 0 0 0 0 0 0 0 0 0 0
0 0 0 0 0 0 0 0 0 0 0 0 0 0 0 0 0 0 0 0 0 0 0 0 0 0 0 0 0 0 0 0 0 0 0
0 0 0 0 0 0 0 0 0 0 0 0 0 0 0 0 0 0 0 0 0 0 0 0 0 0 0 0 0 0 0 0 0 0 0
0 0 0 0 0 0 0 0 0 0 0 0 0 0 0 0 0 0 0 0 0 0 0 0 0 0 0 0 0 0 0 0 0 0 0
0 0 0 0 0 0 0 0 0 0 0 0 0 0 0 0 0 0 0 0 0 0 0 0 0 0 0 0 0 0 0 0 0 0 0
0 0 0 0 0 0 0 0 0 0 0 0 0 0 0 0 0 0 0 0 0 0 0 0 0 0 0 0 0 0 0 0 0 0 0
0 0 0 0 0 0 0 0 0 0 0 0 0 0 0 0 0 0 0 0 0 0 0 0 0 0 0 0 0 0 0 0 0 0 0
0 0 0 0 0 0 0 0 0 0 0 0 0 0 0 0 0 0 0 0 0 0 0 0 0 0 0 0 0 0 0 0
0 0 0 0 0 0 0 0 0 0 0 0 0 0 0 0 0 0 0 0 0 0 0 0 0 0 0 0 0 0 0 0 0 0 0
0 0 0 0 0 0 0 0 0 0 0 0 0 0 0 0 0 0 0 0 0 0 0 0 0 0 0 0 0 0 0 0 0 0 0
0 0 0 0 0 0 0 0 0 0 0 0 0 0 0 0 0 0 0 0 0 0 0 0 0 0 0 0 0 0 0 0 0 0 0
0 0 0 0 0 0 0 0 0 0 0 0 0 0 0 0 0 0 0 0 0 0 0 0 0 0 0 0 0 0 0 0 0 0 0
0 0 0 0 0 0 0 0 0 0 0 0 0 0 0 0 0 0 0 0 0 0 0 0 0 0 0 0 0 0 0 0 0 0 0
0 0 0 0 0 0 0 0 100 62 53 154 99 84 191 124 105 232 157 131 255 189
155 255 215 173 255 234 186 255 244 193 255 243 189 255 218 167 0 0 0
0 0 0 0 0 0 0 0 0 0 0 0 0 0 0 0 0 0 0 0 0 0 0 0 0 0 0 0 0 0 0 0 0 0 0
0 0 0 0 0 0 0 0 0 0 0 0 0 0 0 0 0 0 0 0 0 0 0 0 0 0 0 0 0 0 0 0 0 0 0
0 0 0 0 0 0 0 0 0 0 0 0 0 0 0 0 0 0 0 0 0 0 0 0 0 0 0 0 0 0 0 0 0 0 0
0 0 0 0 0 0 0 0 0 0 0 0 0 0 0 0 0 0 0 0 0 0 0 0 0 0 0 0 0 0 0 0 0 0 0
0 0 0 0 0 0 0 0 0 0 0 0 0 0 0 0 0 0 0 0 0 0 0 0 0 0 0 0 0 0 0 0 0 0 0
0 0 0 0 0 0 0 0 0 0 0 0 0 0 0 0 0 0 0 0 0 0 0 0 0 0 0 0 0 0 0 0 0 0 0
0 0 0 0 0 0 0 0 0 0 0 0 0 0 0 0 0 0 0 0 0 0 0 0 0 0 0 0 0 0 0 0 0 0 0
0 0 0 0 0 0 0 0 0 0 0 0 0 0 0 0 0 0 0 0 0 0 0 0 0 0 0 0 0 0 0 0 0 0 0
0 0 0 0 0 0 0 0 0 0 0 0 0 0 0 0 0 0 0 0 0 0 0 0 0 0 0 0 0 0 0 0 0 0 0
0 0 0 0 0 0 0 0 0 0 0 0 0 0 0 0 0 0 0 0 0 0 0 0 0 0 0 0 0 0 0 0 0 0 0
0 0 0 0 0 0 0 0 0 0 0 0 0 0 0 0 0 0 0 0 0 0 0 0 0 0 0 0 0 0 0 0 0 0
0 0 0 0 0 0 0 0 0 0 0 0 0 0 0 0 0 0 0 0 0 0 0 0 0 0 0 0 0 0 0 0 0 0 0
0 0 0 0 0 0 0 0 0 0 0 0 0 0 0 0 0 0 0 0 0 0 0 0 0 0 0 0 0 0 0 0 0 0 0
0 0 0 0 0 0 0 0 0 0 0 0 0 0 0 0 0 0 0 0 0 0 0 0 0 0 0 0 0 0 0 0 0 0 0
0 0 0 0 0 0 0 0 0 0 0 0 0 0 0 0 0 0 0 0 0 0 0 0 0 0 0 0 0 0 0 0 0 0 0
0 0 0 0 0 0 0 0 0 0 0 0 0 0 0 0 0 0 0 0 0 0 0 0 0 0 0 0 0 0 0 0 0 0 0
0 0 0 0 0 12 9 7 105 66 56 160 103 87 196 128 108 232 156 130 255 188
154 255 213 173 255 232 186 255 243 192 255 243 189 255 222 170 0 0 0
0 0 0 0 0 0 0 0 0 0 0 0 0 0 0 0 0 0 0 0 0 0 0 0 0 0 0 0 0 0 0 0 0 0 0
0 0 0 0 0 0 0 0 0 0 0 0 0 0 0 0 0 0 0 0 0 0 0 0 0 0 0 0 0 0 0 0 0 0 0
0 0 0 0 0 0 0 0 0 0 0 0 0 0 0 0 0 0 0 0 0 0 0 0 0 0 0 0 0 0 0 0 0 0 0
0 0 0 0 0 0 0 0 0 0 0 0 0 0 0 0 0 0 0 0 0 0 0 0 0 0 0 0 0 0 0 0 0 0 0
0 0 0 0 0 0 0 0 0 0 0 0 0 0 0 0 0 0 0 0 0 0 0 0 0 0 0 0 0 0 0 0 0 0 0
0 0 0 0 0 0 0 0 0 0 0 0 0 0 0 0 0 0 0 0 0 0 0 0 0 0 0 0 0 0 0 0 0 0 0
0 0 0 0 0 0 0 0 0 0 0 0 0 0 0 0 0 0 0 0 0 0 0 0 0 0 0 0 0 0 0 0 0 0 0
0 0 0 0 0 0 0 0 0 0 0 0 0 0 0 0 0 0 0 0 0 0 0 0 0 0 0 0 0 0 0 0 0 0 0
0 0 0 0 0 0 0 0 0 0 0 0 0 0 0 0 0 0 0 0 0 0 0 0 0 0 0 0 0 0 0 0 0 0 0
0 0 0 0 0 0 0 0 0 0 0 0 0 0 0 0 0 0 0 0 0 0 0 0 0 0 0 0 0 0 0 0 0 0 0
0 0 0 0 0 0 0 0 0 0 0 0 0 0 0 0 0 0 0 0 0 0 0 0 0 0 0 0 0 0 0 0 0 0
0 0 0 0 0 0 0 0 0 0 0 0 0 0 0 0 0 0 0 0 0 0 0 0 0 0 0 0 0 0 0 0 0 0 0
0 0 0 0 0 0 0 0 0 0 0 0 0 0 0 0 0 0 0 0 0 0 0 0 0 0 0 0 0 0 0 0 0 0 0
0 0 0 0 0 0 0 0 0 0 0 0 0 0 0 0 0 0 0 0 0 0 0 0 0 0 0 0 0 0 0 0 0 0 0
0 0 0 0 0 0 0 0 0 0 0 0 0 0 0 0 0 0 0 0 0 0 0 0 0 0 0 0 0 0 0 0 0 0 0
0 0 0 0 0 0 0 0 0 0 0 0 0 0 0 0 0 0 0 0 0 0 0 0 0 0 0 0 0 0 0 0 0 0 0
0 0 0 0 0 0 0 0 96 61 52 153 100 84 191 126 106 220 146 123 255 178
147 255 203 166 255 222 178 255 232 184 255 231 181 248 208 160 0 0 0
0 0 0 0 0 0 0 0 0 0 0 0 0 0 0 0 0 0 0 0 0 0 0 0 0 0 0 0 0 0 0 0 0 0 0
0 0 0 0 0 0 0 0 0 0 0 0 0 0 0 0 0 0 0 0 0 0 0 0 0 0 0 0 0 0 0 0 0 0 0
0 0 0 0 0 0 0 0 0 0 0 0 0 0 0 0 0 0 0 0 0 0 0 0 0 0 0 0 0 0 0 0 0 0 0
0 0 0 0 0 0 0 0 0 0 0 0 0 0 0 0 0 0 0 0 0 0 0 0 0 0 0 0 0 0 0 0 0 0 0
0 0 0 0 0 0 0 0 0 0 0 0 0 0 0 0 0 0 0 0 0 0 0 0 0 0 0 0 0 0 0 0 0 0 0
0 0 0 0 0 0 0 0 0 0 0 0 0 0 0 0 0 0 0 0 0 0 0 0 0 0 0 0 0 0 0 0 0 0 0
0 0 0 0 0 0 0 0 0 0 0 0 0 0 0 0 0 0 0 0 0 0 0 0 0 0 0 0 0 0 0 0 0 0 0
0 0 0 0 0 0 0 0 0 0 0 0 0 0 0 0 0 0 0 0 0 0 0 0 0 0 0 0 0 0 0 0 0 0 0
0 0 0 0 0 0 0 0 0 0 0 0 0 0 0 0 0 0 0 0 0 0 0 0 0 0 0 0 0 0 0 0 0 0 0
0 0 0 0 0 0 0 0 0 0 0 0 0 0 0 0 0 0 0 0 0 0 0 0 0 0 0 0 0 0 0 0 0 0 0
0 0 0 0 0 0 0 0 0 0 0 0 0 0 0 0 0 0 0 0 0 0 0 0 0 0 0 0 0 0 0 0 0 0
0 0 0 0 0 0 0 0 0 0 0 0 0 0 0 0 0 0 0 0 0 0 0 0 0 0 0 0 0 0 0 0 0 0 0
0 0 0 0 0 0 0 0 0 0 0 0 0 0 0 0 0 0 0 0 0 0 0 0 0 0 0 0 0 0 0 0 0 0 0
0 0 0 0 0 0 0 0 0 0 0 0 0 0 0 0 0 0 0 0 0 0 0 0 0 0 0 0 0 0 0 0 0 0 0
0 0 0 0 0 0 0 0 0 0 0 0 0 0 0 0 0 0 0 0 0 0 0 0 0 0 0 0 0 0 0 0 0 0 0
0 0 0 0 0 0 0 0 0 0 0 0 0 0 0 0 0 0 0 0 0 0 0 0 0 0 0 0 0 0 0 0 0 0 0
0 0 0 0 0 0 0 0 67 42 36 133 88 74 175 116 98 202 135 114 232 160 133
255 185 151 255 202 163 255 211 168 255 206 162 204 174 134 0 0 0 0 0
0 0 0 0 0 0 0 0 0 0 0 0 0 0 0 0 0 0 0 0 0 0 0 0 0 0 0 0 0 0 0 0 0 0 0
0 0 0 0 0 0 0 0 0 0 0 0 0 0 0 0 0 0 0 0 0 0 0 0 0 0 0 0 0 0 0 0 0 0 0
0 0 0 0 0 0 0 0 0 0 0 0 0 0 0 0 0 0 0 0 0 0 0 0 0 0 0 0 0 0 0 0 0 0 0
0 0 0 0 0 0 0 0 0 0 0 0 0 0 0 0 0 0 0 0 0 0 0 0 0 0 0 0 0 0 0 0 0 0 0
0 0 0 0 0 0 0 0 0 0 0 0 0 0 0 0 0 0 0 0 0 0 0 0 0 0 0 0 0 0 0 0 0 0 0
0 0 0 0 0 0 0 0 0 0 0 0 0 0 0 0 0 0 0 0 0 0 0 0 0 0 0 0 0 0 0 0 0 0 0
0 0 0 0 0 0 0 0 0 0 0 0 0 0 0 0 0 0 0 0 0 0 0 0 0 0 0 0 0 0 0 0 0 0 0
0 0 0 0 0 0 0 0 0 0 0 0 0 0 0 0 0 0 0 0 0 0 0 0 0 0 0 0 0 0 0 0 0 0 0
0 0 0 0 0 0 0 0 0 0 0 0 0 0 0 0 0 0 0 0 0 0 0 0 0 0 0 0 0 0 0 0 0 0 0
0 0 0 0 0 0 0 0 0 0 0 0 0 0 0 0 0 0 0 0 0 0 0 0 0 0 0 0 0 0 0 0 0 0 0
0 0 0 0 0 0 0 0 0 0 0 0 0 0 0 0 0 0 0 0 0 0 0 0 0 0 0 0 0 0 0 0
0 0 0 0 0 0 0 0 0 0 0 0 0 0 0 0 0 0 0 0 0 0 0 0 0 0 0 0 0 0 0 0 0 0 0
0 0 0 0 0 0 0 0 0 0 0 0 0 0 0 0 0 0 0 0 0 0 0 0 0 0 0 0 0 0 0 0 0 0 0
0 0 0 0 0 0 0 0 0 0 0 0 0 0 0 0 0 0 0 0 0 0 0 0 0 0 0 0 0 0 0 0 0 0 0
0 0 0 0 0 0 0 0 0 0 0 0 0 0 0 0 0 0 0 0 0 0 0 0 0 0 0 0 0 0 0 0 0 0 0
0 0 0 0 0 0 0 0 0 0 0 0 0 0 0 0 0 0 0 0 0 0 0 0 0 0 0 0 0 0 0 0 0 0 0
0 0 0 0 0 0 0 0 0 0 0 95 63 53 144 97 81 175 118 99 193 132 111 218
156 128 232 172 139 229 177 141 203 164 129 0 0 0 0 0 0 0 0 0 0 0 0 0
0 0 0 0 0 0 0 0 0 0 0 0 0 0 0 0 0 0 0 0 0 0 0 0 0 0 0 0 0 0 0 0 0 0 0
0 0 0 0 0 0 0 0 0 0 0 0 0 0 0 0 0 0 0 0 0 0 0 0 0 0 0 0 0 0 0 0 0 0 0
0 0 0 0 0 0 0 0 0 0 0 0 0 0 0 0 0 0 0 0 0 0 0 0 0 0 0 0 0 0 0 0 0 0 0
0 0 0 0 0 0 0 0 0 0 0 0 0 0 0 0 0 0 0 0 0 0 0 0 0 0 0 0 0 0 0 0 0 0 0
0 0 0 0 0 0 0 0 0 0 0 0 0 0 0 0 0 0 0 0 0 0 0 0 0 0 0 0 0 0 0 0 0 0 0
0 0 0 0 0 0 0 0 0 0 0 0 0 0 0 0 0 0 0 0 0 0 0 0 0 0 0 0 0 0 0 0 0 0 0
0 0 0 0 0 0 0 0 0 0 0 0 0 0 0 0 0 0 0 0 0 0 0 0 0 0 0 0 0 0 0 0 0 0 0
0 0 0 0 0 0 0 0 0 0 0 0 0 0 0 0 0 0 0 0 0 0 0 0 0 0 0 0 0 0 0 0 0 0 0
0 0 0 0 0 0 0 0 0 0 0 0 0 0 0 0 0 0 0 0 0 0 0 0 0 0 0 0 0 0 0 0 0 0 0
0 0 0 0 0 0 0 0 0 0 0 0 0 0 0 0 0 0 0 0 0 0 0 0 0 0 0 0 0 0 0 0 0 0 0
0 0 0 0 0 0 0 0 0 0 0 0 0 0 0 0 0 0 0 0 0 0 0 0 0 0 0
0 0 0 0 0 0 0 0 0 0 0 0 0 0 0 0 0 0 0 0 0 0 0 0 0 0 0 0 0 0 0 0 0 0 0
0 0 0 0 0 0 0 0 0 0 0 0 0 0 0 0 0 0 0 0 0 0 0 0 0 0 0 0 0 0 0 0 0 0 0
0 0 0 0 0 0 0 0 0 0 0 0 0 0 0 0 0 0 0 0 0 0 0 0 0 0 0 0 0 0 0 0 0 0 0
0 0 0 0 0 0 0 0 0 0 0 0 0 0 0 0 0 0 0 0 0 0 0 0 0 0 0 0 0 0 0 0 0 0 0
0 0 0 0 0 0 0 0 0 0 0 0 0 0 0 0 0 0 0 0 0 0 0 0 0 0 0 0 0 0 0 0 0 0 0
0 0 0 0 0 0 0 0 0 0 0 0 0 0 88 61 51 128 89 74 150 105 87 158 112 93
167 124 101 153 121 97 66 60 46 0 0 0 0 0 0 0 0 0 0 0 0 0 0 0 0 0 0 0
0 0 0 0 0 0 0 0 0 0 0 0 0 0 0 0 0 0 0 0 0 0 0 0 0 0 0 0 0 0 0 0 0 0 0
0 0 0 0 0 0 0 0 0 0 0 0 0 0 0 0 0 0 0 0 0 0 0 0 0 0 0 0 0 0 0 0 0 0 0
0 0 0 0 0 0 0 0 0 0 0 0 0 0 0 0 0 0 0 0 0 0 0 0 0 0 0 0 0 0 0 0 0 0 0
0 0 0 0 0 0 0 0 0 0 0 0 0 0 0 0 0 0 0 0 0 0 0 0 0 0 0 0 0 0 0 0 0 0 0
0 0 0 0 0 0 0 0 0 0 0 0 0 0 0 0 0 0 0 0 0 0 0 0 0 0 0 0 0 0 0 0 0 0 0
0 0 0 0 0 0 0 0 0 0 0 0 0 0 0 0 0 0 0 0 0 0 0 0 0 0 0 0 0 0 0 0 0 0 0
0 0 0 0 0 0 0 0 0 0 0 0 0 0 0 0 0 121 134 145 114 127 138 105 118 128
95 107 116 83 95 104 77 89 96 74 84 91 0 0 0 0 0 0 0 0 0 0 0 0 0 0 0 0
0 0 0 0 0 0 0 0 0 0 0 0 0 0 0 0 0 0 0 0 0 0 0 0 0 0 0 0 0 0 0 0 0 0 0
0 0 0 0 0 0 0 0 0 0 0 0 0 0 0 0 0 0 0 0 0 0 0 0 0 0 0 0 0 0 0 0 0 0 0
0 0 0 0 0 0 0 0 0 0 0 0 0 0 0 0 0 0 0 0 0 0 0 0 0 0 0 0 0 0 0 0 0 0 0
0 0
0 0 0 0 0 0 0 0 0 0 0 0 0 0 0 0 0 0 0 0 0 0 0 0 0 0 0 0 0 0 0 0 0 0 0
0 0 0 0 0 0 0 0 0 0 0 0 0 0 0 0 0 0 0 0 0 0 0 0 0 0 0 0 0 0 0 0 0 0 0
0 0 0 0 0 0 0 0 0 0 0 0 0 0 0 0 0 0 0 0 0 0 0 0 0 0 0 0 0 0 0 0 0 0 0
0 0 0 0 0 0 0 0 0 0 0 0 0 0 0 0 0 0 0 0 0 0 0 0 0 0 0 0 0 0 0 0 0 0 0
0 0 0 0 0 0 0 0 0 0 0 0 0 0 0 0 0 0 0 0 0 0 0 0 0 0 0 0 0 0 0 0 0 0 0
0 0 0 0 0 0 0 0 0 0 0 0 0 0 0 0 0 0 0 0 61 47 39 71 55 45 42 37 29 0 0
0 0 0 0 0 0 0 0 0 0 0 0 0 0 0 0 0 0 0 0 0 0 0 0 0 0 0 0 0 0 0 0 0 0 0
0 0 0 0 0 0 0 0 0 0 0 0 0 0 0 0 0 0 0 0 0 0 0 0 0 0 0 0 0 0 0 0 0 0 0
0 0 0 0 0 0 0 0 0 0 0 0 0 0 0 0 0 0 0 0 0 0 0 0 0 0 0 0 0 0 0 0 0 0 0
0 0 0 0 0 0 0 0 0 0 0 0 0 0 0 0 0 0 0 0 0 0 0 0 0 0 0 0 0 0 0 0 0 0 0
0 0 0 0 0 0 0 0 0 0 0 0 0 0 0 0 0 0 0 0 0 0 0 0 0 0 0 0 0 0 0 0 0 0 0
0 0 0 0 0 0 0 0 0 0 0 0 0 0 0 0 0 0 0 0 0 0 0 0 0 0 0 0 0 0 0 0 0 0 0
0 0 0 0 0 0 0 0 0 0 0 0 0 0 0 0 0 0 0 0 0 0 0 0 0 0 0 0 0 0 0 0 0 0
149 163 177 142 157 172 134 149 164 125 140 154 115 130 143 104 118
131 98 113 124 91 107 117 87 101 111 82 94 103 75 85 92 74 84 91 0 0 0
0 0 0 0 0 0 0 0 0 0 0 0 0 0 0 0 0 0 0 0 0 0 0 0 0 0 0 0 0 0 0 0 0 0 0
0 0 0 0 0 0 0 0 0 0 0 0 0 0 0 0 0 0 0 0 0 0 0 0 0 0 0 0 0 0 0 0 0 0 0
0 0 0 0 0 0 0 0 0 0 0 0 0 0 0 0 0 0 0 0 0 0 0 0 0 0 0 0 0 0 0 0 0 0 0
0 0 0 0 0 0
0 0 0 0 0 0 0 0 0 0 0 0 0 0 0 0 0 0 0 0 0 0 0 0 0 0 0 0 0 0 0 0 0 0 0
0 0 0 0 0 0 0 0 0 0 0 0 0 0 0 0 0 0 0 0 0 0 0 0 0 0 0 0 0 0 0 0 0 0 0
0 0 0 0 0 0 0 0 0 0 0 0 0 0 0 0 0 67 21 76 72 23 83 102 31 115 133 40
148 0 0 0 0 0 0 0 0 0 0 0 0 0 0 0 0 0 0 0 0 0 0 0 0 0 0 0 0 0 0 0 0 0
0 0 0 0 0 0 0 0 0 0 0 0 0 0 0 0 0 0 0 0 0 0 0 0 0 0 0 0 0 0 0 0 0 0 0
0 0 0 0 0 0 0 0 0 0 0 0 0 0 0 0 0 0 0 0 0 0 0 0 0 0 0 0 0 0 0 0 0 0 0
0 0 0 0 0 0 0 0 0 0 0 0 0 0 0 0 0 0 0 0 0 0 0 0 0 0 0 0 0 0 0 0 0 0 0
0 0 0 0 0 0 0 0 0 0 0 0 0 0 0 0 0 0 0 0 0 0 0 0 0 0 0 0 0 0 0 0 0 0 0
0 0 0 0 0 0 0 0 0 0 0 0 0 0 0 0 0 0 0 0 0 0 0 0 0 0 0 0 0 0 0 0 0 0 0
0 0 0 0 0 0 0 0 0 0 0 0 0 0 0 0 0 0 0 0 0 0 0 0 0 0 0 0 0 0 0 0 0 0 0
0 0 0 0 0 0 0 0 0 0 0 0 0 0 0 0 0 0 0 0 0 0 0 0 0 0 0 0 0 0 0 0 0 0 0
0 0 0 0 0 0 0 0 0 0 0 0 0 0 0 0 0 0 0 0 0 0 0 0 0 0 0 0 0 0 0 0 0 0 0
0 0 0 0 0 0 0 0 0 0 0 0 0 0 0 0 0 0 0 0 0 0 0 0 0 0 0 0 0 0 0 0 167
182 197 165 180 197 158 174 191 150 167 183 141 158 174 132 148 163
121 137 152 114 130 144 107 125 138 99 118 130 96 114 125 91 108 118
86 100 110 79 91 99 74 84 91 0 0 0 0 0 0 0 0 0 0 0 0 0 0 0 0 0 0 0 0 0
0 0 0 0 0 0 0 0 0 0 0 0 0 0 0 0 0 0 0 0 0 0 0 0 0 0 0 0 0 0 0 0 0 0 0
0 0 0 0 0 0 0 0 0 0 0 0 0 0 0 0 0 0 0 0 0 0 0 0 0 0 0 0 0 0 0 0 0 0 0
0 0 0 0 0 0 0 0 0 0 0 0 0 0 0 0 0 0 0 0
35 24 50 35 24 50 35 24 50 35 24 50 35 24 50 35 24 50 35 24 50 35 24
50 35 24 50 35 24 50 35 24 50 35 24 50 35 24 50 35 24 50 35 24 50 35
24 50 35 24 50 35 24 50 35 24 50 35 24 50 35 24 50 35 24 50 35 24 50
35 24 50 35 24 50 35 24 50 67 21 76 67 21 76 73 22 83 86 27 102 97 32
118 107 35 130 118 39 146 149 48 178 181 57 211 217 66 244 35 24 50 35
24 50 35 24 50 35 24 50 35 24 50 35 24 50 35 24 50 35 24 50 35 24 50
35 24 50 35 24 50 35 24 50 35 24 50 35 24 50 35 24 50 35 24 50 35 24
50 35 24 50 35 24 50 35 24 50 35 24 50 35 24 50 35 24 50 35 24 50 35
24 50 35 24 50 35 24 50 35 24 50 35 24 50 35 24 50 35 24 50 35 24 50
35 24 50 35 24 50 35 24 50 35 24 50 35 24 50 35 24 50 35 24 50 35 24
50 35 24 50 35 24 50 35 24 50 35 24 50 35 24 50 35 24 50 35 24 50 35
24 50 35 24 50 35 24 50 35 24 50 35 24 50 35 24 50 35 24 50 35 24 50
35 24 50 35 24 50 35 24 50 35 24 50 35 24 50 35 24 50 35 24 50 35 24
50 35 24 50 35 24 50 35 24 50 35 24 50 35 24 50 35 24 50 35 24 50 35
24 50 35 24 50 248 146 10 246 147 11 203 123 9 94 58 4 35 24 50 35 24
50 35 24 50 35 24 50 35 24 50 35 24 50 35 24 50 35 24 50 35 24 50 35
24 50 35 24 50 35 24 50 35 24 50 35 24 50 35 24 50 35 24 50 35 24 50
35 24 50 35 24 50 35 24 50 35 24 50 35 24 50 35 24 50 35 24 50 35 24
50 35 24 50 35 24 50 35 24 50 35 24 50 35 24 50 35 24 50 35 24 50 35
24 50 35 24 50 35 24 50 180 195 212 177 194 212 171 188 207 163 181
199 155 173 190 146 163 181 136 153 170 127 144 161 121 140 155 114
134 148 106 128 140 103 123 135 99 117 129 94 111 121 88 103 112 80 92
101 74 84 91 35 24 50 35 24 50 35 24 50 35 24 50 35 24 50 35 24 50 35
24 50 35 24 50 35 24 50 35 24 50 35 24 50 35 24 50 35 24 50 35 24 50
35 24 50 35 24 50 35 24 50 35 24 50 35 24 50 35 24 50 35 24 50 35 24
50 35 24 50 35 24 50 35 24 50 35 24 50 35 24 50 35 24 50 35 24 50 35
24 50 35 24 50 35 24 50 35 24 50 35 24 50 35 24 50 35 24 50
37 26 53 37 26 53 37 26 53 37 26 53 37 26 53 37 26 53 37 26 53 37 26
53 37 26 53 37 26 53 37 26 53 37 26 53 37 26 53 37 26 53 37 26 53 37
26 53 37 26 53 37 26 53 37 26 53 37 26 53 37 26 53 37 26 53 37 26 53
37 26 53 37 26 53 67 21 76 67 21 76 75 23 87 90 29 107 102 33 124 113
37 139 122 41 152 130 43 163 139 47 175 168 55 206 200 64 238 235 73
255 38 26 54 38 26 54 38 26 54 38 26 54 38 26 54 38 26 54 38 26 54 38
26 54 37 26 53 37 26 53 37 26 53 37 26 53 37 26 53 37 26 53 37 26 53
37 26 53 37 26 53 37 26 53 37 26 53 37 26 53 37 26 53 37 26 53 37 26
53 37 26 53 37 26 53 37 26 53 37 26 53 37 26 53 37 26 53 37 26 53 37
26 53 37 26 53 37 26 53 37 26 53 37 26 53 37 26 53 37 26 53 37 26 53
37 26 53 37 26 53 37 26 53 37 26 53 37 26 53 37 26 53 37 26 53 37 26
53 38 27 54 38 27 54 38 27 54 38 27 54 38 27 54 38 27 54 38 27 54 38
27 54 38 27 54 38 27 54 38 27 54 38 27 54 38 27 54 37 26 53 37 26 53
37 26 53 37 26 53 37 26 53 37 26 53 37 26 53 38 27 54 38 27 54 38 27
54 38 27 54 255 171 12 255 186 13 255 181 13 255 160 12 198 121 9 89
54 4 38 27 54 38 27 54 38 27 54 38 27 54 38 26 54 38 26 54 38 26 54 38
26 54 38 26 54 38 26 54 38 26 54 38 26 54 38 26 54 38 26 54 38 26 54
38 26 54 38 26 54 38 26 54 38 26 54 38 26 54 38 26 54 38 26 54 38 26
54 38 26 54 38 26 54 38 26 54 38 26 54 38 26 54 38 26 54 38 26 54 38
26 54 38 26 54 38 26 54 188 204 220 187 205 223 182 200 219 175 193
213 167 185 205 158 177 196 149 167 186 139 157 175 132 152 169 126
147 163 119 141 156 112 135 148 108 130 143 104 125 137 100 119 130 94
111 122 87 102 112 79 91 99 74 84 91 38 26 54 38 26 54 37 26 52 37 26
52 37 26 52 37 26 52 37 26 52 37 26 52 37 26 52 37 26 52 37 26 52 37
26 52 37 26 52 37 26 52 37 26 52 37 26 52 37 26 52 37 26 52 37 26 52
37 25 52 37 25 52 37 25 52 37 25 52 37 25 52 37 25 52 37 25 52 37 25
52 37 25 52 37 25 52 37 25 52 37 25 52 37 25 52 37 25 52 37 25 52 37
25 52
40 28 56 40 28 56 40 28 56 40 28 56 40 28 57 40 28 57 40 28 57 40 28
57 40 28 57 40 28 57 40 28 57 40 28 57 40 28 57 40 28 57 40 28 57 40
28 57 40 28 57 40 28 57 40 28 57 40 28 57 40 28 57 40 28 57 40 28 57
40 28 57 67 21 76 67 21 76 72 22 83 88 28 104 101 33 123 113 37 139
124 41 154 133 45 167 141 48 179 148 50 188 158 54 201 188 62 232 221
71 255 255 81 255 41 28 58 41 28 58 41 28 58 41 28 58 41 28 58 41 28
58 41 28 58 41 28 58 39 28 56 39 28 56 39 28 56 39 28 56 39 28 56 39
28 56 39 28 56 39 28 56 39 28 56 39 28 56 39 28 56 39 28 56 39 28 56
39 28 56 39 28 56 39 28 56 39 28 56 39 28 56 39 28 56 39 28 56 39 28
56 39 28 57 39 28 57 39 28 57 39 28 57 39 28 57 39 28 57 39 28 57 39
28 57 39 28 57 39 28 57 39 28 57 39 28 57 39 28 57 39 28 57 39 28 57
41 29 59 41 29 59 41 29 59 41 29 59 41 29 59 41 29 59 41 29 59 41 29
59 41 29 59 41 29 59 41 29 59 41 29 59 41 29 59 41 29 59 41 29 59 41
29 59 40 28 56 40 28 56 40 28 56 40 28 56 40 28 56 41 29 59 41 29 59
41 29 59 249 141 10 255 188 14 255 255 172 255 190 14 255 170 12 224
135 10 126 80 6 41 29 59 41 29 59 41 29 59 41 29 59 41 29 59 41 29 59
41 29 59 41 29 59 41 29 59 41 29 59 41 29 59 41 29 59 41 29 59 41 29
59 41 29 59 41 29 59 41 29 58 41 29 58 41 29 58 41 29 58 41 29 58 41
29 58 41 29 58 41 29 58 41 29 58 41 29 58 41 29 58 41 29 58 41 29 58
41 29 58 41 28 58 41 28 58 41 28 58 195 212 231 193 211 232 185 204
224 177 196 217 169 188 209 160 179 199 150 170 189 142 162 180 137
158 175 130 153 169 123 147 163 116 141 155 113 136 150 109 131 144
104 125 137 99 118 129 93 109 120 85 99 108 75 86 93 40 28 57 40 28 57
39 27 55 39 27 55 39 27 55 39 27 55 39 27 55 39 27 55 39 27 55 39 27
55 39 27 55 39 27 55 39 27 55 39 27 55 39 27 55 39 27 55 39 27 55 39
27 55 39 27 55 39 27 55 39 27 55 39 27 55 39 27 55 39 27 55 39 27 55
39 27 54 39 27 54 39 27 54 39 27 54 39 27 54 38 27 54 38 27 54 38 27
54 38 27 54 38 27 54
42 29 60 42 29 60 42 29 60 42 29 60 42 29 60 42 30 60 42 30 60 42 30
60 42 30 60 43 30 60 43 30 60 43 30 61 43 30 61 43 30 61 43 30 61 43
30 61 43 30 61 43 30 61 43 30 61 43 30 61 43 30 61 43 30 61 43 30 61
67 21 76 67 21 76 67 21 76 82 26 96 96 31 116 109 36 134 121 40 151
132 44 165 141 48 179 150 51 190 157 53 200 163 55 208 177 60 226 209
69 255 244 79 255 255 91 255 44 30 62 44 30 62 44 30 62 44 30 62 44 30
62 44 31 62 44 31 62 44 31 62 41 29 60 41 29 60 41 29 60 41 29 60 41
30 60 41 30 60 41 30 60 41 30 60 41 30 60 41 30 60 41 30 60 41 30 60
41 30 60 41 30 60 41 30 60 41 30 60 41 30 60 41 30 60 41 30 60 41 30
60 41 30 60 41 30 60 41 30 60 41 30 60 41 30 60 41 30 60 41 30 60 41
30 60 41 30 60 41 30 60 41 30 60 41 30 60 41 30 60 41 30 61 45 31 64
45 31 64 45 31 64 45 31 64 45 31 64 45 31 64 45 31 64 45 31 64 45 31
64 45 31 64 45 31 64 45 31 64 45 31 64 45 31 64 45 31 64 45 31 64 45
31 64 45 31 64 45 31 64 45 31 64 45 31 64 45 31 64 45 31 64 45 31 64
45 31 64 255 165 55 255 207 61 255 219 68 255 244 120 255 235 85 250
154 55 164 107 50 45 31 64 45 31 64 45 31 64 45 31 64 45 31 64 45 31
64 45 31 63 45 31 63 45 31 63 45 31 63 45 31 63 45 31 63 45 31 63 45
31 63 45 31 63 45 31 63 44 31 63 44 31 63 44 31 63 44 31 63 44 31 63
44 31 63 44 31 63 44 31 63 44 31 63 44 31 63 44 31 63 44 31 63 44 31
63 44 31 63 44 31 63 44 31 63 199 215 234 203 219 241 206 221 247 186
206 227 179 198 220 170 190 211 161 181 201 151 171 191 146 167 186
140 162 181 133 157 174 126 152 168 119 145 160 116 141 155 112 136
149 108 130 142 103 123 135 97 114 125 89 105 115 81 93 101 74 84 91
43 30 62 41 28 58 41 28 58 41 28 58 41 28 58 41 28 58 41 28 58 41 28
58 41 28 58 41 28 58 41 28 58 41 28 58 41 28 58 41 28 58 41 28 57 41
28 57 41 28 57 41 28 57 41 28 57 41 28 57 41 28 57 41 28 57 41 28 57
41 28 57 41 28 57 41 28 57 41 28 57 41 28 57 40 28 57 40 28 57 40 28
57 40 28 57 40 28 57 40 28 57
45 31 64 45 31 64 45 31 64 45 31 64 45 31 64 45 31 64 45 31 64 45 31
64 45 31 64 45 32 64 45 32 64 45 32 64 45 32 64 45 32 65 46 32 65 46
32 65 46 32 65 46 32 65 46 32 65 46 32 65 46 32 65 46 32 65 46 32 65
67 21 76 67 21 76 72 22 82 88 28 105 102 33 125 115 38 142 127 42 159
138 46 173 147 50 187 156 53 199 163 55 209 169 58 217 174 59 224 198
67 251 231 76 255 255 125 255 255 95 255 47 33 66 47 33 67 47 33 67 47
33 67 47 33 67 47 33 67 47 33 67 47 33 67 47 33 67 43 31 63 43 31 63
43 31 63 43 31 63 43 32 64 43 32 64 43 32 64 43 32 64 43 32 64 43 32
64 43 32 64 43 32 64 43 32 64 43 32 64 43 32 64 43 32 64 43 32 64 43
32 64 43 32 64 43 32 64 44 32 64 44 32 64 44 32 64 44 32 64 44 32 64
44 32 64 44 32 64 44 32 64 44 32 65 44 32 65 44 32 65 48 34 69 48 34
69 48 34 69 48 34 69 49 34 69 49 34 69 49 34 69 49 34 69 49 34 69 49
34 69 49 34 69 49 34 69 49 34 69 49 34 69 49 34 69 49 34 69 49 34 69
49 34 69 49 34 69 49 34 69 49 34 69 49 34 69 49 34 69 49 34 69 49 34
69 49 34 69 255 155 96 255 242 171 255 255 212 255 255 205 255 228 173
255 177 138 190 126 100 48 34 69 48 34 69 48 34 69 48 34 69 48 34 69
48 34 69 48 34 69 48 34 69 48 34 69 48 34 68 48 34 68 48 34 68 48 34
68 48 34 68 48 34 68 48 34 68 48 33 68 48 33 68 48 33 68 48 33 68 48
33 68 48 33 68 48 33 68 48 33 68 48 33 68 48 33 68 48 33 68 48 33 68
48 33 68 48 33 67 47 33 67 47 33 67 202 219 239 245 252 255 198 216
239 192 208 231 179 199 221 170 190 212 161 181 202 153 173 194 148
170 190 142 166 184 136 161 178 129 155 171 122 149 164 119 145 159
115 139 153 110 133 147 105 126 139 99 118 130 93 109 120 84 98 107 74
84 91 46 32 66 44 30 61 44 30 61 44 30 61 43 30 61 43 30 61 43 30 61
43 30 61 43 30 61 43 30 61 43 30 61 43 30 60 43 30 60 43 30 60 43 30
60 43 30 60 43 30 60 43 30 60 43 30 60 43 30 60 43 30 60 43 30 60 43
29 60 43 29 60 43 29 60 43 29 60 43 29 60 43 29 60 43 29 60 42 29 60
42 29 60 42 29 59 42 29 59 42 29 59
48 33 67 48 33 68 48 33 68 48 33 68 48 33 68 48 33 68 48 33 68 48 33
68 48 33 68 48 34 68 48 34 68 48 34 68 48 34 69 48 34 69 48 34 69 49
34 69 49 34 69 49 34 69 49 34 69 49 34 69 49 34 69 49 34 69 49 34 69
67 21 76 67 21 76 77 24 89 92 30 111 107 35 130 119 39 148 131 44 164
142 48 179 151 51 192 160 54 204 168 57 215 174 59 224 179 61 230 189
65 244 220 74 255 255 84 255 255 92 255 50 35 71 50 35 71 50 35 71 50
35 71 51 35 72 51 35 72 51 35 72 51 35 72 51 35 72 51 35 72 45 33 67
45 33 67 45 34 67 45 34 67 46 34 68 46 34 68 46 34 68 46 34 68 46 34
68 46 34 68 46 34 68 46 34 68 46 34 68 46 34 68 46 34 68 46 34 68 46
34 68 46 34 68 46 34 68 46 34 68 46 34 68 46 34 69 46 34 69 46 34 69
46 34 69 46 34 69 46 34 69 46 34 69 46 34 69 52 36 74 52 36 74 52 37
74 52 37 74 52 37 74 52 37 74 52 37 74 53 37 74 53 37 74 53 37 74 53
37 74 53 37 74 53 37 74 53 37 75 53 37 75 53 37 75 53 37 75 53 37 75
53 37 75 53 37 75 53 37 75 53 37 75 53 37 75 53 37 75 53 37 75 53 37
75 53 37 74 53 37 74 255 190 152 255 222 178 255 217 177 255 190 162
236 155 138 52 37 74 52 37 74 52 37 74 52 37 74 52 36 74 52 36 74 52
36 74 52 36 74 52 36 74 52 36 74 52 36 74 52 36 74 52 36 74 52 36 74
52 36 74 52 36 74 52 36 74 52 36 73 52 36 73 52 36 73 52 36 73 52 36
73 52 36 73 51 36 73 51 36 73 51 36 73 51 36 73 51 36 73 51 36 73 51
36 73 51 36 72 51 36 72 51 36 72 203 220 240 217 231 255 206 216 242
221 217 249 179 199 221 170 190 212 161 181 202 154 176 197 149 172
192 143 168 187 137 163 181 130 157 174 124 152 167 121 147 162 117
142 156 112 136 150 107 129 142 101 121 133 95 112 123 87 101 111 76
87 95 46 32 64 46 32 64 46 32 64 46 32 64 46 32 64 46 32 64 46 31 64
46 31 64 46 31 64 46 31 64 46 31 64 45 31 64 45 31 63 45 31 63 45 31
63 45 31 63 45 31 63 45 31 63 45 31 63 45 31 63 45 31 63 45 31 63 45
31 63 45 31 63 45 31 63 45 31 63 45 31 62 45 31 62 45 31 62 45 31 62
45 31 62 44 31 62 44 31 62 44 31 62
50 35 71 50 35 71 51 35 72 51 35 72 51 35 72 51 35 72 51 35 72 51 35
72 51 36 72 51 36 72 51 36 73 51 36 73 51 36 73 51 36 73 52 36 73 52
36 73 52 36 73 52 36 73 52 36 73 52 36 74 52 36 74 52 36 74 67 21 76
67 21 76 67 21 76 79 25 92 95 31 114 109 36 133 122 40 151 133 45 167
144 48 182 154 52 196 162 55 208 170 58 218 184 65 235 183 63 236 186
64 240 210 71 255 243 80 255 255 90 255 54 37 76 54 38 76 54 38 76 54
38 77 54 38 77 54 38 77 54 38 77 54 38 77 55 38 77 55 38 77 55 38 77
55 38 77 48 36 72 48 36 72 48 36 72 48 36 72 48 36 72 48 36 72 48 36
72 48 36 72 48 36 72 48 36 72 48 36 72 48 36 72 49 36 73 49 36 73 49
36 73 49 36 73 49 36 73 49 36 73 49 36 73 49 36 73 49 37 73 49 37 73
49 37 73 49 37 73 49 37 73 56 39 80 56 39 80 57 39 80 57 39 80 57 39
80 57 39 80 57 39 80 57 40 80 57 40 80 57 40 80 57 40 80 57 40 80 57
40 80 57 40 80 57 40 80 57 40 80 57 40 80 57 40 81 57 40 81 57 40 81
57 40 81 57 40 81 57 40 81 57 40 81 57 40 81 57 40 80 57 40 80 57 40
80 57 40 80 57 40 80 57 40 80 213 133 130 236 150 145 201 134 132 57
40 80 57 39 80 57 39 80 57 39 80 57 39 80 56 39 80 56 39 80 56 39 80
56 39 80 56 39 80 56 39 80 56 39 80 56 39 80 56 39 79 56 39 79 56 39
79 56 39 79 56 39 79 56 39 79 56 39 79 56 39 79 56 39 79 56 39 79 55
39 79 55 39 78 55 39 78 55 39 78 55 38 78 55 38 78 55 38 78 55 38 78
55 38 78 55 38 78 196 211 229 201 219 239 198 217 239 203 215 240 200
209 236 177 197 219 168 189 211 159 180 201 156 178 200 160 181 205
145 171 190 137 164 182 130 158 175 125 153 169 122 149 164 118 144
158 114 138 151 108 131 144 103 123 135 96 114 125 88 103 113 78 89 97
74 84 91 49 33 68 49 33 67 48 33 67 48 33 67 48 33 67 48 33 67 48 33
67 48 33 67 48 33 67 48 33 67 48 33 67 48 33 67 48 33 66 48 33 66 48
33 66 48 33 66 47 33 66 47 33 66 47 33 66 47 32 66 47 32 66 47 32 66
47 32 66 47 32 65 47 32 65 47 32 65 47 32 65 47 32 65 47 32 65 47 32
65 47 32 65 47 32 65 46 32 65
53 37 75 53 37 76 54 37 76 54 37 76 54 37 76 54 37 76 54 38 76 54 38
76 54 38 77 54 38 77 54 38 77 54 38 77 55 38 77 55 38 77 55 38 77 55
38 78 55 38 78 55 38 78 55 38 78 55 38 78 55 39 78 56 39 79 67 21 76
67 21 76 67 21 76 80 25 93 95 31 115 110 36 134 122 41 152 134 45 168
145 49 183 155 52 197 163 55 209 171 58 220 212 85 255 188 66 242 186
64 240 200 69 255 233 78 255 255 87 255 58 40 81 58 40 82 58 40 82 58
40 82 58 40 82 58 40 82 58 41 82 58 41 82 58 41 83 59 41 83 59 41 83
59 41 83 59 41 83 59 41 83 51 38 76 51 38 76 51 38 76 51 38 77 51 38
77 51 38 77 51 38 77 51 39 77 51 39 77 51 39 77 51 39 77 51 39 77 51
39 77 52 39 78 52 39 78 52 39 78 52 39 78 52 39 78 52 39 78 52 39 78
52 39 78 61 42 86 61 42 86 61 42 86 61 42 86 61 43 86 61 43 86 61 43
86 61 43 86 61 43 86 61 43 87 61 43 87 61 43 87 61 43 87 61 43 87 61
43 87 61 43 87 61 43 87 61 43 87 61 43 87 61 43 87 61 43 87 61 43 87
61 43 87 61 43 87 61 43 87 61 43 87 61 43 87 61 43 87 61 43 87 61 43
87 61 43 87 61 43 87 61 43 87 61 43 87 61 43 87 61 43 87 61 43 87 61
43 86 61 43 86 61 43 86 61 43 86 61 42 86 61 42 86 61 42 86 61 42 86
61 42 86 61 42 86 61 42 86 60 42 86 60 42 85 60 42 85 60 42 85 60 42
85 60 42 85 60 42 85 60 42 85 60 42 85 60 42 85 60 42 84 60 42 84 59
42 84 59 41 84 59 41 84 59 41 84 59 41 84 59 41 84 59 41 83 59 41 83
59 41 83 193 208 225 198 216 236 195 213 235 190 209 231 183 202 225
174 195 217 166 186 208 159 180 202 163 184 208 209 216 255 153 177
200 137 165 182 130 159 175 126 154 170 122 150 165 119 144 159 114
138 152 109 131 144 103 123 136 96 114 125 88 103 113 78 89 97 74 84
91 51 35 71 51 35 71 51 35 71 51 35 71 51 35 71 51 35 70 51 35 70 51
35 70 51 35 70 50 35 70 50 35 70 50 35 70 50 34 70 50 34 70 50 34 69
50 34 69 50 34 69 50 34 69 50 34 69 50 34 69 50 34 69 49 34 69 49 34
69 49 34 68 49 34 68 49 34 68 49 34 68 49 34 68 49 34 68 49 34 68 49
33 68 49 33 68 49 33 68
56 39 80 57 39 80 57 39 80 57 39 80 57 40 80 57 40 81 57 40 81 57 40
81 57 40 81 58 40 81 58 40 81 58 40 82 58 40 82 58 40 82 58 40 82 58
41 82 58 41 82 59 41 83 59 41 83 59 41 83 59 41 83 59 41 83 59 41 84
67 21 76 67 21 76 78 25 91 94 30 113 109 36 133 121 40 151 133 45 167
144 48 182 154 52 196 163 55 208 170 58 218 177 60 228 182 62 234 185
63 239 193 66 249 223 75 255 255 84 255 62 43 87 62 43 87 62 43 87 62
43 88 62 43 88 62 43 88 62 43 88 63 44 88 63 44 88 63 44 89 63 44 89
63 44 89 63 44 89 63 44 89 63 44 89 64 44 90 64 44 90 54 41 81 54 41
81 54 41 82 54 41 82 54 41 82 54 41 82 54 41 82 54 41 82 54 41 82 55
41 82 55 41 83 55 42 83 55 42 83 55 42 83 55 42 83 65 45 92 65 46 92
65 46 92 66 46 93 66 46 93 66 46 93 66 46 93 66 46 93 66 46 93 66 46
93 66 46 93 66 46 93 66 46 93 66 46 93 66 46 93 66 46 93 66 46 94 66
46 94 66 46 94 66 46 94 66 46 94 66 46 94 66 46 94 66 46 94 66 46 94
66 46 94 66 46 94 66 46 94 66 46 94 66 46 94 66 46 94 66 46 94 66 46
94 66 46 94 66 46 94 66 46 93 66 46 93 66 46 93 66 46 93 66 46 93 66
46 93 66 46 93 66 46 93 66 46 93 66 46 93 66 46 93 65 46 93 65 46 92
65 46 92 65 46 92 65 45 92 65 45 92 65 45 92 65 45 92 65 45 92 65 45
91 65 45 91 64 45 91 64 45 91 64 45 91 64 45 91 64 45 91 64 45 90 64
45 90 64 44 90 64 44 90 63 44 90 63 44 90 63 44 89 63 44 89 63 44 89
63 44 89 63 44 89 194 211 231 191 209 231 186 205 227 179 198 221 171
191 213 163 183 205 158 179 200 154 177 198 152 176 198 143 169 188
136 164 181 129 158 174 126 154 170 122 149 165 118 144 159 114 138
152 109 131 144 103 123 135 96 114 125 88 102 112 77 88 96 54 37 75 54
37 75 54 37 75 54 37 74 54 37 74 54 37 74 53 37 74 53 37 74 53 36 74
53 36 74 53 36 73 53 36 73 53 36 73 53 36 73 53 36 73 53 36 73 52 36
73 52 36 72 52 36 72 52 36 72 52 36 72 52 36 72 52 36 72 52 35 72 52
35 72 52 35 71 51 35 71 51 35 71 51 35 71 51 35 71 51 35 71 51 35 71
51 35 71 51 35 70
60 41 84 60 42 84 60 42 84 60 42 85 60 42 85 60 42 85 60 42 85 61 42
85 61 42 86 61 42 86 61 42 86 61 43 86 61 43 87 61 43 87 62 43 87 62
43 87 62 43 87 62 43 88 62 43 88 62 43 88 63 44 88 63 44 88 63 44 89
67 21 76 67 21 76 75 23 86 91 29 109 106 35 129 119 39 147 131 44 164
142 48 179 151 51 192 160 54 204 168 57 215 174 59 224 179 61 230 182
62 234 186 64 240 213 72 255 250 80 255 66 46 93 66 46 93 66 46 93 66
46 93 66 46 94 67 46 94 67 46 94 67 47 94 67 47 95 67 47 95 67 47 95
68 47 95 68 47 95 68 47 96 68 47 96 68 47 96 68 48 96 68 48 97 69 48
97 69 48 97 69 48 97 69 48 97 57 44 87 57 44 87 58 44 88 58 44 88 58
44 88 58 44 88 70 49 99 70 49 99 70 49 99 70 49 99 70 49 99 70 49 99
71 49 99 71 49 100 71 49 100 71 49 100 71 49 100 71 49 100 71 50 100
71 50 100 71 50 100 71 50 101 71 50 101 71 50 101 71 50 101 71 50 101
71 50 101 72 50 101 72 50 101 72 50 101 72 50 101 72 50 101 72 50 101
72 50 101 72 50 101 72 50 101 72 50 101 72 50 101 72 50 101 72 50 101
72 50 101 71 50 101 71 50 101 71 50 101 71 50 101 71 50 101 71 50 101
71 50 101 71 50 100 71 50 100 71 50 100 71 50 100 71 49 100 71 49 100
71 49 100 71 49 100 70 49 100 70 49 99 70 49 99 70 49 99 70 49 99 70
49 99 70 49 99 70 49 99 70 49 98 69 49 98 69 48 98 69 48 98 69 48 98
69 48 97 69 48 97 69 48 97 68 48 97 68 48 97 68 48 96 68 48 96 68 47
96 68 47 96 68 47 96 67 47 95 67 47 95 67 47 95 67 47 95 188 204 224
186 203 225 181 199 221 175 194 215 167 186 208 159 179 200 155 177
198 151 175 195 146 171 190 140 167 185 134 162 179 128 157 173 125
153 168 121 148 163 117 143 157 113 137 150 108 129 142 101 121 133 94
112 122 86 100 109 74 84 91 57 39 79 57 39 78 57 39 78 57 39 78 57 39
78 56 39 78 56 38 78 56 38 77 56 38 77 56 38 77 56 38 77 56 38 77 55
38 77 55 38 76 55 38 76 55 38 76 55 38 76 55 38 76 55 37 76 55 37 75
55 37 75 54 37 75 54 37 75 54 37 75 54 37 75 54 37 75 54 37 74 54 37
74 54 37 74 53 37 74 53 37 74 53 36 74 53 36 74 53 36 73
63 44 89 63 44 89 63 44 89 63 44 89 64 44 90 64 44 90 64 44 90 64 44
90 64 45 90 64 45 91 65 45 91 65 45 91 65 45 91 65 45 92 65 45 92 65
45 92 66 46 92 66 46 93 66 46 93 66 46 93 66 46 94 67 46 94 67 46 94
67 21 76 67 21 76 68 21 77 86 27 101 101 33 122 114 38 141 126 42 158
137 46 173 147 50 186 156 53 198 163 55 209 169 58 217 173 59 223 175
60 226 178 61 229 204 68 254 70 49 99 70 49 99 70 49 99 71 49 99 71 49
100 71 49 100 71 50 100 71 50 101 72 50 101 72 50 101 72 50 101 72 50
102 72 50 102 73 50 102 73 51 102 73 51 103 73 51 103 73 51 103 73 51
103 74 51 104 74 51 104 74 52 104 74 52 104 74 52 105 74 52 105 75 52
105 75 52 105 75 52 106 75 52 106 75 52 106 75 53 106 75 53 106 76 53
107 76 53 107 76 53 107 76 53 107 76 53 107 76 53 107 76 53 108 76 53
108 77 53 108 77 53 108 77 54 108 77 54 108 77 54 108 77 54 108 77 54
109 77 54 109 77 54 109 77 54 109 77 54 109 77 54 109 77 54 109 77 54
109 77 54 109 77 54 109 77 54 109 77 54 109 77 54 109 77 54 109 77 54
109 77 54 109 77 54 109 77 54 109 77 54 109 77 54 109 77 54 109 77 54
109 77 54 109 77 54 108 77 54 108 77 54 108 77 54 108 76 53 108 76 53
108 76 53 108 76 53 108 76 53 107 76 53 107 76 53 107 76 53 107 76 53
107 75 53 107 75 53 106 75 53 106 75 52 106 75 52 106 75 52 106 74 52
105 74 52 105 74 52 105 74 52 105 74 52 104 74 52 104 73 51 104 73 51
104 73 51 103 73 51 103 73 51 103 73 51 103 72 51 102 72 51 102 72 50
102 72 50 102 72 50 101 59 46 91 179 194 212 180 196 216 175 193 214
169 187 209 162 181 202 156 175 196 152 174 194 148 171 191 143 168
187 137 164 182 131 159 175 126 154 170 123 151 166 120 146 161 116
140 154 111 134 147 106 127 139 99 118 130 92 108 118 82 96 104 74 84
91 60 41 83 60 41 82 60 41 82 60 41 82 59 41 82 59 41 82 59 40 81 59
40 81 59 40 81 59 40 81 58 40 81 58 40 80 58 40 80 58 40 80 58 40 80
58 40 80 58 39 79 57 39 79 57 39 79 57 39 79 57 39 79 57 39 78 57 39
78 57 39 78 57 39 78 56 39 78 56 38 78 56 38 77 56 38 77 56 38 77 56
38 77 56 38 77 55 38 77 55 38 76
66 46 93 66 46 94 67 46 94 67 46 94 67 47 94 67 47 95 67 47 95 68 47
95 68 47 95 68 47 96 68 47 96 68 48 96 69 48 97 69 48 97 69 48 97 69
48 98 70 48 98 70 48 98 70 49 98 70 49 99 70 49 99 71 49 99 71 49 100
71 49 100 67 21 76 67 21 76 77 24 90 93 30 112 107 35 131 120 40 148
131 44 164 140 47 177 149 50 189 156 53 199 162 55 207 165 56 211 166
56 212 168 57 214 197 64 236 75 52 105 75 52 105 75 52 106 75 52 106
76 53 106 76 53 107 76 53 107 76 53 107 77 53 108 77 53 108 77 54 108
77 54 109 77 54 109 78 54 109 78 54 110 78 54 110 78 55 110 79 55 111
79 55 111 79 55 111 79 55 111 79 55 112 80 55 112 80 56 112 80 56 113
80 56 113 80 56 113 81 56 113 81 56 114 81 56 114 81 57 114 81 57 114
81 57 115 82 57 115 82 57 115 82 57 115 82 57 115 82 57 116 82 57 116
82 57 116 83 58 116 83 58 116 83 58 117 83 58 117 83 58 117 83 58 117
83 58 117 83 58 117 83 58 117 83 58 117 83 58 117 83 58 117 83 58 118
83 58 118 83 58 118 83 58 118 83 58 118 83 58 118 83 58 118 83 58 118
83 58 118 83 58 118 83 58 117 83 58 117 83 58 117 83 58 117 83 58 117
83 58 117 83 58 117 83 58 117 83 58 117 83 58 117 82 58 116 82 58 116
82 58 116 82 57 116 82 57 116 82 57 115 82 57 115 81 57 115 81 57 115
81 57 115 81 57 114 81 57 114 81 56 114 80 56 114 80 56 113 80 56 113
80 56 113 80 56 113 79 56 112 79 56 112 79 55 112 79 55 112 79 55 111
78 55 111 78 55 111 78 55 110 78 54 110 78 54 110 77 54 109 77 54 109
63 49 97 63 49 97 63 49 96 63 49 96 63 48 96 171 186 205 168 184 204
163 180 200 156 174 194 151 170 190 148 169 189 143 167 186 139 164
182 133 160 177 127 155 171 124 151 166 121 147 162 117 142 157 113
137 150 108 130 143 103 123 135 96 114 125 88 103 112 77 88 96 71 50
101 63 43 87 63 43 86 63 43 86 63 43 86 62 43 86 62 43 86 62 42 85 62
42 85 62 42 85 62 42 85 61 42 84 61 42 84 61 42 84 61 42 84 61 41 83
60 41 83 60 41 83 60 41 83 60 41 83 60 41 82 60 41 82 59 41 82 59 41
82 59 40 81 59 40 81 59 40 81 59 40 81 59 40 81 58 40 80 58 40 80 58
40 80 58 40 80 58 40 80 58 39 79
70 48 98 70 49 98 70 49 99 70 49 99 71 49 99 71 49 100 71 49 100 71 50
100 72 50 101 72 50 101 72 50 101 72 50 102 73 50 102 73 51 102 73 51
103 73 51 103 74 51 103 74 51 104 74 51 104 74 52 104 75 52 105 75 52
105 75 52 105 75 52 106 76 52 106 67 21 76 67 21 76 82 26 96 97 31 117
110 36 135 121 40 150 131 44 164 139 47 175 146 49 184 150 51 191 152
51 193 149 50 190 154 52 191 79 55 111 80 55 112 80 56 112 80 56 113
80 56 113 81 56 113 81 56 114 81 57 114 82 57 115 82 57 115 82 57 115
82 57 116 83 57 116 83 58 117 83 58 117 83 58 117 84 58 118 84 58 118
84 59 118 85 59 119 85 59 119 85 59 119 85 59 120 85 60 120 86 60 120
86 60 121 86 60 121 86 60 121 87 60 122 87 61 122 87 61 122 87 61 123
87 61 123 88 61 123 88 61 124 88 61 124 88 62 124 88 62 124 89 62 125
89 62 125 89 62 125 89 62 125 89 62 125 89 62 126 89 62 126 89 62 126
90 63 126 90 63 126 90 63 126 90 63 126 90 63 127 90 63 127 90 63 127
90 63 127 90 63 127 90 63 127 90 63 127 90 63 127 90 63 127 90 63 127
90 63 127 90 63 127 90 63 127 90 63 127 90 63 127 90 63 126 90 63 126
89 63 126 89 63 126 89 63 126 89 62 126 89 62 126 89 62 125 89 62 125
89 62 125 88 62 125 88 62 125 88 62 124 88 62 124 88 61 124 88 61 124
87 61 123 87 61 123 87 61 123 87 61 122 86 61 122 86 60 122 86 60 122
86 60 121 86 60 121 85 60 121 85 60 120 85 59 120 85 59 120 84 59 119
84 59 119 84 59 119 84 59 118 83 58 118 83 58 117 67 52 103 67 52 103
67 52 103 67 52 103 66 52 102 66 52 102 66 51 102 66 51 101 157 170
186 158 173 192 154 170 189 148 165 184 145 163 182 142 163 181 138
161 179 133 158 175 128 154 170 122 150 165 120 146 161 117 142 157
114 138 151 109 132 145 104 125 137 98 117 128 91 107 117 82 95 103 74
84 91 75 53 107 75 53 107 66 45 91 66 45 90 66 45 90 65 45 90 65 45 90
65 44 89 65 44 89 65 44 89 64 44 88 64 44 88 64 44 88 64 44 88 64 43
87 63 43 87 63 43 87 63 43 87 63 43 86 63 43 86 62 43 86 62 43 86 62
42 85 62 42 85 62 42 85 62 42 85 61 42 84 61 42 84 61 42 84 61 42 84
61 41 84 61 41 83 60 41 83 60 41 83 60 41 83
73 51 103 74 51 103 74 51 104 74 51 104 74 52 104 75 52 105 75 52 105
75 52 106 75 52 106 76 53 106 76 53 107 76 53 107 77 53 107 77 53 108
77 53 108 77 54 109 78 54 109 78 54 109 78 54 110 79 55 110 79 55 111
79 55 111 79 55 112 80 55 112 80 56 112 80 56 113 81 56 113 67 21 76
80 25 93 94 30 113 106 35 130 116 38 144 124 41 155 129 43 162 132 44
165 128 43 160 84 58 118 84 58 118 85 59 119 85 59 119 85 59 119 86 59
120 86 60 120 86 60 121 86 60 121 87 60 122 87 61 122 87 61 123 88 61
123 88 61 124 88 61 124 89 62 125 89 62 125 89 62 125 90 62 126 90 63
126 90 63 127 91 63 127 91 63 128 91 63 128 92 64 128 92 64 129 92 64
129 92 64 130 93 65 130 93 65 130 93 65 131 93 65 131 94 65 132 94 65
132 94 66 132 94 66 133 95 66 133 95 66 133 95 66 134 95 66 134 95 67
134 96 67 134 96 67 135 96 67 135 96 67 135 96 67 135 96 67 136 97 67
136 97 68 136 97 68 136 97 68 136 97 68 136 97 68 137 97 68 137 97 68
137 97 68 137 97 68 137 97 68 137 97 68 137 97 68 137 97 68 137 97 68
137 97 68 137 97 68 137 97 68 137 97 68 137 97 68 136 97 68 136 97 68
136 96 68 136 96 68 136 96 67 136 96 67 135 96 67 135 96 67 135 95 67
135 95 67 135 95 67 134 95 67 134 95 66 134 94 66 133 94 66 133 94 66
133 94 66 132 93 66 132 93 65 132 93 65 131 93 65 131 92 65 131 92 65
130 92 64 130 92 64 129 91 64 129 91 64 129 91 64 128 90 63 128 90 63
127 90 63 127 89 63 127 72 56 111 71 56 110 71 56 110 71 56 110 71 56
109 71 55 109 70 55 109 70 55 108 70 55 108 70 55 108 69 54 107 69 54
107 144 156 172 144 157 175 139 154 171 137 154 172 134 154 171 131
153 169 126 150 166 121 146 161 118 143 158 115 140 154 112 136 150
109 131 144 104 125 137 99 118 129 92 109 119 84 97 106 74 84 91 80 56
113 80 56 113 79 56 112 69 47 95 69 47 95 69 47 94 69 47 94 68 47 94
68 47 93 68 46 93 68 46 93 67 46 92 67 46 92 67 46 92 67 46 92 67 45
91 66 45 91 66 45 91 66 45 90 66 45 90 65 45 90 65 45 89 65 44 89 65
44 89 65 44 89 64 44 88 64 44 88 64 44 88 64 44 88 64 43 87 63 43 87
63 43 87 63 43 87 63 43 86 63 43 86 62 43 86
77 53 108 77 54 109 78 54 109 78 54 109 78 54 110 79 54 110 79 55 111
79 55 111 79 55 111 80 55 112 80 56 112 80 56 113 81 56 113 81 56 114
81 56 114 82 57 115 82 57 115 82 57 115 83 57 116 83 58 116 83 58 117
84 58 117 84 58 118 84 59 118 85 59 119 85 59 119 86 59 120 86 60 120
86 60 121 87 60 121 76 24 88 87 28 104 92 30 111 88 61 123 88 61 124
89 62 124 89 62 125 90 62 125 90 62 126 90 63 127 91 63 127 91 63 128
91 63 128 92 64 129 92 64 129 93 64 130 93 65 130 93 65 131 94 65 131
94 65 132 95 66 132 95 66 133 95 66 134 96 66 134 96 67 135 96 67 135
97 67 136 97 68 136 97 68 137 98 68 137 98 68 138 99 69 138 99 69 139
99 69 139 100 69 140 100 70 140 100 70 141 101 70 141 101 70 141 101
71 142 101 71 142 102 71 143 102 71 143 102 71 144 102 72 144 103 72
144 103 72 145 103 72 145 103 72 145 104 72 146 104 73 146 104 73 146
104 73 146 104 73 147 104 73 147 104 73 147 105 73 147 105 73 147 105
73 147 105 73 148 105 73 148 105 74 148 105 74 148 105 74 148 105 74
148 105 74 148 105 74 148 105 74 148 105 73 148 105 73 148 105 73 147
104 73 147 104 73 147 104 73 147 104 73 147 104 73 147 104 73 146 104
73 146 103 73 146 103 72 146 103 72 145 103 72 145 102 72 145 102 72
144 102 72 144 102 71 144 101 71 143 101 71 143 101 71 142 101 71 142
100 70 142 100 70 141 100 70 141 99 70 140 99 70 140 99 69 139 98 69
139 98 69 138 98 69 138 97 68 137 97 68 137 96 68 136 96 68 136 96 67
135 76 60 118 76 60 118 75 60 117 75 59 117 75 59 116 75 59 116 74 59
115 74 58 115 74 58 115 74 58 114 92 64 130 91 64 129 91 64 129 90 64
128 126 137 152 126 139 154 126 141 157 125 143 158 122 142 157 118
140 155 113 137 151 112 135 148 109 132 145 106 128 140 102 122 134 97
116 127 91 107 118 83 96 105 74 84 91 85 59 120 84 59 119 84 59 119 84
59 119 83 58 118 72 49 99 72 49 99 72 49 98 72 49 98 71 49 98 71 48 97
71 48 97 70 48 96 70 48 96 70 48 96 70 48 95 69 47 95 69 47 95 69 47
94 69 47 94 68 47 94 68 47 93 68 46 93 68 46 93 68 46 93 67 46 92 67
46 92 67 46 92 67 45 91 66 45 91 66 45 91 66 45 90 66 45 90 66 45 90
65 45 90 65 44 89 65 44 89
81 56 113 81 56 114 82 56 114 82 57 115 82 57 115 83 57 116 83 57 116
83 58 117 84 58 117 84 58 118 84 58 118 85 59 119 85 59 119 85 59 120
86 59 120 86 60 121 87 60 121 87 60 122 87 60 122 88 61 123 88 61 123
88 61 124 89 62 124 89 62 125 90 62 125 90 62 126 91 63 127 91 63 127
91 63 128 92 64 128 92 64 129 93 64 130 93 64 130 93 65 131 94 65 131
94 65 132 95 66 133 95 66 133 96 66 134 96 67 134 97 67 135 97 67 136
97 68 136 98 68 137 98 68 138 99 69 138 99 69 139 100 69 139 100 70
140 101 70 141 101 70 141 101 70 142 102 71 143 102 71 143 103 71 144
103 72 144 104 72 145 104 72 146 105 73 146 105 73 147 105 73 148 106
74 148 106 74 149 107 74 149 107 75 150 107 75 150 108 75 151 108 75
152 108 76 152 109 76 153 109 76 153 109 76 154 110 77 154 110 77 155
110 77 155 111 77 155 111 78 156 111 78 156 112 78 157 112 78 157 112
78 157 112 79 158 112 79 158 113 79 158 113 79 158 113 79 159 113 79
159 113 79 159 113 79 159 113 79 159 113 79 159 113 79 159 113 80 160
113 80 160 113 80 160 113 80 160 113 80 159 113 79 159 113 79 159 113
79 159 113 79 159 113 79 159 113 79 159 112 79 158 112 79 158 112 79
158 112 79 158 112 78 157 111 78 157 111 78 157 111 78 156 110 78 156
110 78 156 110 77 155 110 77 155 109 77 154 109 77 154 108 76 153 108
76 153 108 76 152 107 76 152 107 75 151 107 75 151 106 75 150 106 74
150 105 74 149 105 74 148 105 74 148 104 73 147 104 73 147 103 73 146
103 72 146 102 72 145 102 72 144 102 71 144 101 71 143 101 71 142 100
71 142 100 70 141 99 70 141 99 70 140 98 69 139 98 69 139 98 69 138 97
68 138 97 68 137 96 68 136 96 67 136 95 67 135 95 67 134 109 121 134
110 126 140 109 127 140 106 126 139 105 125 138 103 124 136 101 120
132 98 116 127 93 110 120 87 102 111 78 89 97 90 63 127 90 63 127 89
63 126 89 62 126 88 62 125 88 62 125 88 62 124 87 61 124 75 52 103 75
51 103 75 51 102 74 51 102 74 51 101 74 50 101 74 50 101 73 50 100 73
50 100 73 50 99 72 49 99 72 49 99 72 49 98 72 49 98 71 49 98 71 48 97
71 48 97 71 48 96 70 48 96 70 48 96 70 48 95 69 47 95 69 47 95 69 47
94 69 47 94 69 47 94 68 47 93 68 46 93 68 46 93 68 46 93 77 54 109
62 39 82 62 39 82 63 39 82 63 39 83 86 60 121 87 60 121 87 60 122 88
61 122 88 61 123 88 61 123 89 61 124 89 62 125 90 62 125 90 62 126 90
62 126 91 63 127 91 63 127 92 63 128 92 64 129 93 64 129 93 64 130 93
65 131 94 65 131 94 65 132 95 66 132 95 66 133 96 66 134 96 67 134 97
67 135 97 67 136 98 68 136 98 68 137 99 68 138 99 69 138 100 69 139
100 69 140 101 70 141 101 70 141 102 70 142 102 71 143 103 71 143 103
71 144 104 72 145 104 72 146 105 73 146 105 73 147 106 73 148 106 74
149 107 74 149 107 74 150 108 75 151 108 75 151 109 76 152 109 76 153
110 76 154 110 77 154 111 77 155 111 78 156 112 78 157 113 78 157 113
79 158 113 79 159 114 79 159 114 80 160 115 80 161 115 80 161 116 81
162 116 81 163 117 81 163 117 82 164 118 82 165 118 82 165 118 83 166
119 83 166 119 83 167 119 83 167 120 84 168 120 84 168 120 84 169 121
84 169 121 85 170 121 85 170 121 85 170 122 85 171 122 85 171 122 85
171 122 86 172 122 86 172 122 86 172 122 86 172 122 86 172 122 86 172
122 86 172 122 86 172 122 86 172 122 86 172 122 86 172 122 86 172 122
86 172 122 86 172 122 86 172 122 86 171 121 85 171 121 85 171 121 85
171 121 85 170 120 85 170 120 85 169 120 84 169 119 84 169 119 84 168
119 84 168 118 83 167 118 83 167 118 83 166 117 83 166 117 82 165 116
82 164 116 82 164 115 81 163 115 81 163 114 81 162 114 80 161 114 80
161 113 80 160 113 79 159 112 79 159 112 79 158 111 78 157 111 78 156
110 78 156 73 45 95 73 45 95 72 44 95 72 44 95 72 44 95 107 75 151 106
75 151 106 75 150 105 74 149 105 74 149 104 74 148 104 73 147 103 73
146 103 72 146 102 72 145 102 72 144 101 71 144 101 71 143 100 71 142
100 70 141 99 70 141 85 99 108 90 105 115 91 107 117 90 105 115 87 102
111 82 95 104 74 84 91 96 67 135 95 67 135 95 67 134 94 66 133 94 66
133 93 66 132 93 65 132 92 65 131 92 65 130 92 64 130 91 64 129 78 54
107 78 53 107 78 53 106 77 53 106 77 53 105 77 52 105 76 52 104 76 52
104 76 52 103 75 51 103 75 51 103 75 51 102 74 51 102 74 51 101 74 50
101 74 50 101 73 50 100 73 50 100 73 50 99 72 49 99 72 49 99 72 49 98
72 49 98 71 49 98 71 48 97 71 48 97 81 57 115 81 57 115 81 57 114 80
56 114
64 40 84 65 40 85 65 40 85 65 40 85 65 40 85 65 40 86 66 40 86 66 40
86 66 41 86 66 41 87 66 41 87 94 65 131 94 65 131 95 65 132 95 66 133
96 66 133 96 66 134 97 67 135 97 67 135 98 67 136 98 68 137 99 68 137
99 68 138 100 69 139 100 69 140 101 70 140 101 70 141 102 70 142 102
71 143 103 71 143 103 71 144 104 72 145 104 72 146 105 73 146 106 73
147 106 73 148 107 74 149 107 74 150 108 75 150 108 75 151 109 75 152
110 76 153 110 76 154 111 77 155 111 77 155 112 78 156 113 78 157 113
79 158 114 79 159 115 79 160 115 80 161 116 80 161 116 81 162 117 81
163 118 82 164 118 82 165 119 82 166 119 83 167 120 83 168 121 84 168
121 84 169 122 85 170 122 85 171 123 86 172 123 86 172 124 86 173 124
87 174 125 87 175 126 88 176 126 88 176 127 88 177 127 89 178 127 89
178 128 89 179 128 90 180 129 90 180 129 90 181 129 91 182 130 91 182
130 91 183 130 91 183 131 92 183 131 92 184 131 92 184 131 92 185 132
92 185 132 93 185 132 93 185 132 93 186 132 93 186 132 93 186 132 93
186 132 93 186 132 93 186 132 93 186 132 93 186 132 93 186 132 93 186
132 93 186 131 93 185 131 93 185 131 92 185 131 92 184 130 92 184 130
92 184 130 92 183 129 91 183 129 91 182 129 91 182 128 91 181 128 90
181 127 90 180 127 90 179 126 89 179 126 89 178 126 89 177 125 88 177
124 88 176 124 88 175 123 87 175 123 87 174 122 86 173 122 86 172 121
86 171 78 47 101 77 47 101 77 47 100 77 47 100 77 47 100 76 47 100 76
46 99 76 46 99 76 46 99 75 46 99 75 46 99 75 46 98 75 46 98 75 46 98
74 46 97 112 79 158 111 78 157 110 78 156 110 77 156 109 77 155 109 77
154 108 76 153 108 76 152 107 75 152 106 75 151 106 75 150 105 74 149
105 74 148 104 73 148 104 73 147 103 73 146 103 72 145 102 72 145 101
71 144 101 71 143 100 71 142 100 70 142 99 70 141 99 70 140 98 69 139
98 69 139 97 69 138 97 68 137 96 68 137 96 68 136 95 67 135 95 67 135
95 67 134 81 55 110 81 55 110 80 55 109 80 55 109 79 54 108 79 54 108
79 54 108 78 54 107 78 53 107 78 53 106 77 53 106 77 53 105 77 52 105
76 52 104 76 52 104 76 52 103 75 51 103 75 51 103 75 51 102 75 51 102
86 60 122 86 60 121 85 60 121 85 60 120 85 59 120 84 59 119 84 59 119
84 59 119
67 41 87 67 41 87 67 41 88 67 41 88 68 41 88 68 41 88 68 41 89 68 42
89 69 42 89 69 42 89 69 42 90 69 42 90 70 42 90 70 42 90 70 42 91 70
43 91 71 43 91 102 70 141 102 70 142 103 71 143 103 71 144 104 72 145
104 72 145 105 72 146 106 73 147 106 73 148 107 74 149 107 74 149 108
74 150 109 75 151 109 75 152 110 76 153 110 76 154 111 77 155 112 77
156 112 78 156 113 78 157 114 79 158 114 79 159 115 80 160 116 80 161
116 80 162 117 81 163 118 81 164 119 82 165 119 82 166 120 83 167 121
83 168 121 84 169 122 85 170 123 85 171 123 86 172 124 86 173 125 87
174 126 87 175 126 88 176 127 88 177 128 89 178 128 89 179 129 90 180
130 90 181 130 91 182 131 91 183 132 92 184 132 92 185 133 93 186 134
93 187 134 94 188 135 94 189 136 95 189 136 95 190 137 95 191 137 96
192 138 96 193 138 97 193 139 97 194 139 97 195 140 98 196 140 98 196
140 98 197 141 99 197 141 99 198 141 99 198 142 99 199 142 100 199 142
100 200 142 100 200 142 100 200 143 100 200 143 100 201 143 100 201
143 101 201 143 101 201 143 101 201 143 101 201 142 100 201 142 100
200 142 100 200 142 100 200 142 100 200 141 100 199 141 100 199 141 99
199 140 99 198 140 99 198 140 99 197 139 98 196 139 98 196 138 98 195
138 97 195 137 97 194 137 97 193 136 96 192 135 96 192 135 95 191 134
95 190 134 95 189 133 94 188 132 94 187 132 93 186 131 93 185 82 49
106 82 49 106 81 49 105 81 49 105 81 49 105 81 49 105 80 49 104 80 48
104 80 48 104 80 48 103 79 48 103 79 48 103 79 48 103 78 48 102 78 48
102 78 48 102 119 84 169 119 84 168 118 83 167 117 83 166 117 82 165
116 82 164 115 81 163 115 81 162 114 80 162 113 80 161 113 79 160 112
79 159 111 79 158 111 78 157 110 78 156 109 77 155 109 77 154 108 76
154 108 76 153 107 75 152 106 75 151 106 75 150 105 74 149 105 74 149
104 73 148 104 73 147 103 73 146 103 72 145 102 72 145 101 71 144 101
71 143 100 71 142 100 70 142 99 70 141 99 70 140 98 69 139 98 69 139
97 69 138 83 57 113 83 56 113 82 56 112 82 56 112 81 56 111 81 55 111
81 55 110 80 55 110 80 55 109 80 54 109 79 54 108 92 65 130 91 64 130
91 64 129 91 64 129 90 63 128 90 63 127 89 63 127 89 63 126 89 62 126
88 62 125 88 62 125 88 61 124 87 61 124 87 61 123
69 42 90 69 42 90 69 42 90 70 42 90 70 42 91 70 43 91 71 43 91 71 43
92 71 43 92 71 43 92 72 43 93 72 43 93 72 44 93 72 44 93 73 44 94 73
44 94 73 44 94 74 44 95 74 44 95 74 44 95 74 45 96 75 45 96 110 76 153
110 76 154 111 77 154 112 77 155 112 77 156 113 78 157 114 78 158 115
79 159 115 79 160 116 80 161 117 80 162 117 81 163 118 81 164 119 82
165 120 83 166 120 83 167 121 84 168 122 84 169 123 85 170 123 85 172
124 86 173 125 86 174 126 87 175 127 87 176 127 88 177 128 89 178 129
89 179 130 90 181 131 90 182 132 91 183 132 92 184 133 92 185 134 93
186 135 93 188 136 94 189 136 95 190 137 95 191 138 96 192 139 96 193
140 97 195 140 98 196 141 98 197 142 99 198 143 99 199 143 100 200 144
100 201 145 101 202 146 102 203 146 102 204 147 103 205 148 103 206
148 104 207 149 104 208 149 104 209 150 105 210 150 105 210 151 106
211 151 106 212 152 106 213 152 107 213 152 107 214 153 107 214 153
108 215 153 108 215 153 108 216 154 108 216 154 108 216 154 108 216
154 108 216 154 109 216 154 109 216 154 109 216 154 108 216 153 108
216 153 108 216 153 108 216 153 108 215 152 108 215 152 108 214 152
107 214 151 107 213 151 107 213 150 106 212 150 106 212 149 106 211
149 105 210 148 105 209 147 104 208 147 104 208 146 104 207 145 103
206 145 103 205 144 102 204 143 102 203 143 101 202 142 101 201 141
100 200 140 99 199 86 51 111 86 51 110 85 51 110 85 51 110 85 51 109
84 51 109 84 51 109 84 50 109 84 50 108 83 50 108 83 50 108 83 50 107
82 50 107 129 91 183 128 91 182 128 90 181 127 90 180 126 89 179 125
88 177 124 88 176 124 87 175 123 87 174 122 86 173 121 86 172 121 85
171 120 85 170 119 84 169 118 84 168 118 83 167 117 83 166 116 82 165
116 82 164 115 81 163 114 81 162 114 80 161 113 80 160 112 79 159 112
79 158 111 78 157 110 78 156 110 77 156 109 77 155 108 76 154 108 76
153 107 76 152 107 75 151 106 75 150 105 74 150 105 74 149 104 73 148
104 73 147 103 73 146 103 72 146 102 72 145 101 71 144 101 71 143 100
71 143 100 70 142 99 70 141 99 70 140 98 69 140 98 69 139 97 69 138 97
68 138 96 68 137 96 68 136 96 67 136 95 67 135 95 67 134 94 66 134 94
66 133 93 66 132 93 65 132 92 65 131 92 65 131 92 64 130 91 64 130 91
64 129 90 64 128 90 63 128
71 43 92 72 43 93 72 43 93 72 44 93 72 44 94 73 44 94 73 44 94 73 44
95 74 44 95 74 44 95 74 45 96 75 45 96 75 45 96 75 45 97 76 45 97 76
45 97 76 45 98 76 46 98 77 46 98 77 46 99 77 46 99 78 46 99 78 46 100
79 47 100 79 47 101 118 81 163 118 81 164 119 82 165 120 82 166 121 83
167 121 84 168 122 84 170 123 85 171 124 85 172 125 86 173 126 86 174
126 87 175 127 88 176 128 88 178 129 89 179 130 89 180 131 90 181 132
91 183 133 91 184 133 92 185 134 93 186 135 93 188 136 94 189 137 95
190 138 95 192 139 96 193 140 97 194 141 97 196 142 98 197 143 99 198
144 99 200 145 100 201 146 101 202 147 101 204 147 102 205 148 103 206
149 104 208 150 104 209 151 105 210 152 106 211 153 106 213 154 107
214 155 108 215 155 108 216 156 109 218 157 109 219 158 110 220 158
111 221 159 111 222 160 112 223 160 112 224 161 113 225 162 113 226
162 114 227 163 114 228 163 115 229 164 115 229 164 115 230 164 116
231 165 116 231 165 116 231 165 116 232 165 117 232 165 117 232 166
117 233 166 117 233 166 117 233 165 117 233 165 117 233 165 117 233
165 117 232 165 117 232 164 116 232 164 116 231 164 116 231 163 116
230 163 115 230 162 115 229 162 115 228 161 114 227 160 114 227 160
113 226 159 113 225 158 112 224 158 112 223 157 111 222 156 111 221
155 110 220 154 109 218 154 109 217 153 108 216 152 108 215 151 107
214 150 106 212 149 106 211 148 105 210 147 104 209 146 104 207 145
103 206 144 102 205 144 102 203 143 101 202 142 100 201 141 100 199
140 99 198 139 98 197 138 98 196 137 97 194 136 96 193 135 96 192 134
95 191 133 94 189 133 94 188 132 93 187 131 93 186 130 92 184 129 91
183 128 91 182 127 90 181 127 90 180 126 89 178 125 88 177 124 88 176
123 87 175 123 87 174 122 86 173 121 85 172 120 85 171 119 84 170 119
84 169 118 83 167 117 83 166 117 82 165 116 82 164 115 81 163 114 81
162 114 80 161 113 80 161 112 79 160 112 79 159 111 78 158 110 78 157
110 77 156 109 77 155 109 77 154 108 76 153 107 76 152 107 75 152 106
75 151 106 74 150 105 74 149 104 74 148 104 73 148 103 73 147 103 72
146 102 72 145 102 72 144 101 71 144 101 71 143 100 71 142 100 70 142
99 70 141 99 69 140 98 69 139 98 69 139 97 68 138 97 68 137 96 68 137
96 67 136 95 67 136 95 67 135 95 67 134 94 66 134 94 66 133 93 66 132
74 44 95 74 45 95 74 45 96 75 45 96 75 45 96 75 45 97 76 45 97 76 45
97 76 46 98 77 46 98 77 46 99 77 46 99 78 46 99 78 46 100 78 47 100 79
47 100 79 47 101 79 47 101 80 47 102 80 47 102 81 48 102 81 48 103 81
48 103 82 48 104 82 48 104 83 48 105 124 85 172 125 86 173 126 87 174
127 87 176 128 88 177 129 88 178 130 89 179 131 90 181 131 90 182 132
91 183 133 92 184 134 92 186 135 93 187 136 94 188 137 94 190 138 95
191 139 96 193 140 96 194 141 97 195 142 98 197 143 99 198 144 99 200
145 100 201 146 101 203 148 102 204 149 102 206 150 103 207 151 104
209 152 105 210 153 106 212 154 106 213 155 107 215 156 108 216 157
109 218 158 109 219 159 110 221 160 111 222 161 112 224 162 113 225
163 113 227 164 114 228 165 115 230 166 116 231 167 116 233 168 117
234 169 118 235 170 118 236 171 119 238 171 120 239 172 120 240 173
121 241 173 121 242 174 122 243 175 122 244 175 123 245 176 123 246
176 124 247 176 124 247 177 124 248 177 125 248 177 125 249 177 125
249 178 125 249 178 125 250 178 125 250 178 125 250 177 125 250 177
125 249 177 125 249 177 125 249 176 125 249 176 125 248 176 124 248
175 124 247 175 124 246 174 123 245 173 123 245 173 122 244 172 122
243 171 121 242 170 121 241 169 120 240 169 120 238 168 119 237 167
118 236 166 118 235 165 117 233 164 116 232 163 116 231 162 115 229
161 114 228 160 114 226 159 113 225 158 112 224 157 111 222 156 111
221 155 110 219 154 109 218 153 108 216 152 107 215 150 107 213 149
106 212 148 105 210 147 104 209 146 104 207 145 103 206 144 102 204
143 101 203 142 101 202 141 100 200 140 99 199 139 99 197 138 98 196
137 97 195 136 96 193 135 96 192 134 95 191 133 94 189 133 94 188 132
93 187 131 92 186 130 92 184 129 91 183 128 91 182 127 90 181 126 89
179 126 89 178 125 88 177 124 88 176 123 87 175 122 86 174 122 86 173
121 85 171 120 85 170 119 84 169 119 84 168 118 83 167 117 83 166 116
82 165 116 82 164 115 81 163 114 81 162 114 80 161 113 80 160 112 79
159 112 79 159 111 78 158 110 78 157 110 77 156 109 77 155 108 76 154
108 76 153 107 76 152 107 75 152 106 75 151 106 74 150 105 74 149 104
74 148 104 73 148 103 73 147 103 72 146 102 72 145 102 72 145 101 71
144 101 71 143 100 71 142 100 70 142 99 70 141 99 70 140 98 69 140 98
69 139 97 69 138 97 68 138 96 68 137
76 46 98 77 46 98 77 46 99 77 46 99 78 46 99 78 46 100 78 47 100 79 47
101 79 47 101 79 47 101 80 47 102 80 47 102 81 48 103 81 48 103 81 48
103 82 48 104 82 48 104 83 49 105 83 49 105 83 49 106 84 49 106 84 49
106 85 49 107 85 50 107 86 50 108 86 50 108 130 89 180 131 90 181 132
91 183 133 91 184 134 92 185 135 93 187 136 93 188 137 94 189 138 95
191 139 95 192 140 96 194 141 97 195 143 98 197 144 98 198 145 99 200
146 100 201 147 101 203 148 102 204 149 102 206 150 103 207 152 104
209 153 105 211 154 106 212 155 106 214 156 107 216 157 108 217 159
109 219 160 110 221 161 111 222 162 112 224 163 113 226 165 113 228
166 114 229 167 115 231 168 116 233 169 117 234 171 118 236 172 119
238 173 120 239 174 120 241 175 121 243 176 122 244 177 123 246 178
124 248 179 125 249 180 125 251 181 126 252 182 127 253 183 128 255
184 128 255 185 129 255 185 130 255 186 130 255 187 131 255 187 131
255 188 132 255 188 132 255 189 133 255 189 133 255 189 133 255 190
133 255 190 134 255 190 134 255 190 134 255 190 134 255 190 134 255
190 134 255 189 134 255 189 134 255 189 133 255 188 133 255 188 133
255 187 133 255 187 132 255 186 132 255 185 131 255 184 131 255 184
130 255 183 130 255 182 129 255 181 128 255 180 128 254 179 127 253
178 126 251 177 126 250 176 125 248 175 124 247 173 123 245 172 122
244 171 122 242 170 121 241 169 120 239 168 119 237 166 118 236 165
117 234 164 116 232 163 116 231 162 115 229 160 114 227 159 113 226
158 112 224 157 111 222 156 111 221 155 110 219 153 109 218 152 108
216 151 107 214 150 106 213 149 106 211 148 105 210 147 104 208 146
103 207 145 102 205 144 102 204 142 101 202 141 100 201 140 99 199 139
99 198 138 98 196 137 97 195 136 97 194 135 96 192 134 95 191 134 95
190 133 94 188 132 93 187 131 93 186 130 92 185 129 91 183 128 91 182
127 90 181 126 89 180 126 89 178 125 88 177 124 88 176 123 87 175 122
86 174 122 86 173 121 85 172 120 85 171 119 84 170 119 84 169 118 83
168 117 83 167 116 82 166 45 73 36 46 70 40 43 66 38 41 62 37 39 59 35
38 56 34 36 53 33 35 51 32 34 50 32 110 78 156 109 77 155 109 77 154
108 76 154 108 76 153 107 75 152 106 75 151 106 75 150 105 74 150 105
74 149 104 73 148 104 73 147 103 73 147 103 72 146 102 72 145 102 72
144 101 71 144 101 71 143 100 70 142 100 70 142
79 47 101 79 47 101 80 47 102 80 47 102 80 48 102 81 48 103 81 48 103
82 48 104 82 48 104 82 48 104 83 49 105 83 49 105 84 49 106 84 49 106
84 49 107 85 50 107 85 50 108 86 50 108 86 50 109 87 50 109 87 51 110
88 51 110 133 91 183 134 91 184 135 92 185 136 93 187 137 93 188 138
94 190 139 95 191 140 95 192 141 96 194 142 97 195 143 98 197 144 98
198 145 99 200 146 100 201 148 101 203 149 102 205 150 102 206 151 103
208 152 104 209 153 105 211 155 106 213 156 107 215 157 107 216 158
108 218 160 109 220 161 110 222 162 111 223 164 112 225 165 113 227
166 114 229 168 115 231 169 116 233 170 117 235 172 118 236 173 119
238 174 120 240 176 121 242 177 122 244 178 123 246 180 124 248 181
125 250 182 126 252 183 127 253 185 127 255 186 128 255 187 129 255
188 130 255 189 131 255 191 132 255 192 133 255 193 134 255 194 135
255 195 135 255 196 136 255 196 137 255 197 138 255 198 138 255 199
139 255 199 139 255 200 140 255 200 140 255 201 141 255 201 141 255
201 141 255 202 142 255 202 142 255 202 142 255 202 142 255 202 142
255 202 142 255 201 142 255 201 142 255 201 142 255 200 142 255 200
141 255 199 141 255 198 140 255 198 140 255 197 139 255 196 139 255
195 138 255 194 138 255 193 137 255 192 136 255 191 136 255 190 135
255 189 134 255 187 133 255 186 132 255 185 131 255 184 131 255 183
130 255 181 129 255 180 128 255 179 127 253 177 126 251 176 125 249
175 124 247 173 123 246 172 122 244 171 121 242 169 120 240 168 119
238 167 118 236 165 117 235 164 117 233 163 116 231 162 115 229 160
114 227 159 113 226 158 112 224 157 111 222 155 110 221 154 109 219
153 109 217 152 108 216 151 107 214 150 106 212 148 105 211 147 104
209 146 104 208 145 103 206 144 102 205 143 101 203 142 101 202 141
100 200 140 99 199 139 98 197 138 98 196 137 97 194 136 96 193 135 95
192 134 95 190 133 94 189 132 93 188 131 93 187 130 92 185 130 92 184
129 91 183 128 90 182 127 90 180 126 89 179 59 93 50 55 85 46 51 79 44
48 73 41 45 68 39 43 64 37 41 60 36 38 56 34 36 52 33 34 49 31 33 46
30 31 43 29 29 40 28 28 38 27 27 36 26 26 34 25 25 33 25 24 32 24 24
31 24 23 30 24 22 29 23 22 29 23 22 29 23 22 29 23 109 77 155 108 76
154 108 76 153 107 75 152 106 75 151 106 75 151 105 74 150 105 74 149
104 74 148 104 73 148 103 73 147 103 72 146
82 48 104 82 48 104 82 48 104 83 49 105 83 49 105 84 49 106 84 49 106
84 49 107 85 50 107 85 50 108 86 50 108 86 50 109 87 50 109 87 51 110
131 89 180 132 90 181 133 90 182 133 91 184 134 92 185 135 92 186 136
93 188 137 94 189 138 94 190 140 95 192 141 96 193 142 96 195 143 97
196 144 98 198 145 99 199 146 99 201 147 100 202 148 101 204 150 102
205 151 103 207 152 103 209 153 104 210 155 105 212 156 106 214 157
107 216 158 108 217 160 109 219 161 110 221 162 111 223 164 112 225
165 112 227 167 113 228 168 114 230 169 115 232 171 116 234 172 117
236 174 118 238 175 119 240 177 121 242 178 122 244 180 123 246 181
124 248 182 125 250 184 126 253 185 127 255 187 128 255 188 129 255
190 130 255 191 131 255 192 132 255 194 133 255 195 134 255 197 135
255 198 136 255 199 137 255 200 138 255 202 139 255 203 140 255 204
141 255 205 142 255 206 143 255 207 144 255 208 144 255 209 145 255
209 146 255 210 146 255 211 147 255 211 148 255 212 148 255 212 148
255 213 149 255 213 149 255 213 149 255 213 150 255 213 150 255 213
150 255 213 150 255 213 150 255 212 150 255 212 149 255 211 149 255
211 149 255 210 148 255 210 148 255 209 148 255 208 147 255 207 146
255 206 146 255 205 145 255 204 144 255 203 144 255 202 143 255 200
142 255 199 141 255 198 140 255 196 139 255 195 138 255 194 138 255
192 137 255 191 136 255 190 135 255 188 134 255 187 133 255 185 132
255 184 131 255 182 129 255 181 128 255 180 127 254 178 126 252 177
125 250 175 124 248 174 123 246 172 122 244 171 121 242 170 120 241
168 119 239 167 118 237 166 117 235 164 117 233 163 116 231 162 115
229 160 114 228 159 113 226 158 112 224 157 111 222 155 110 221 154
109 219 153 108 217 152 108 216 151 107 214 150 106 212 148 105 211
147 104 209 146 103 208 145 103 206 144 102 205 143 101 203 142 100
202 141 100 200 140 99 199 139 98 197 138 98 196 137 97 195 136 96 193
135 95 192 134 95 191 65 103 54 60 93 50 56 86 47 52 80 44 49 74 42 46
69 40 44 64 38 41 60 36 39 56 34 37 52 33 35 49 31 33 45 30 31 42 29
29 39 27 28 37 26 27 35 26 26 33 25 25 32 24 24 31 24 23 29 23 22 28
23 21 27 22 20 25 22 20 24 21 19 23 21 18 22 21 18 22 20 17 21 20 17
20 20 16 20 19 16 19 19 16 20 19 17 22 20 109 77 155 109 77 154 108 76
154 108 76 153 107 75 152 106 75 151 106 75 151
123 84 170 124 85 171 125 85 172 126 86 173 56 52 46 62 59 52 67 65 58
72 70 62 76 74 66 79 78 69 82 81 72 129 136 116 134 143 122 140 149
127 144 154 131 149 159 135 244 212 204 139 94 191 140 95 192 141 96
193 142 96 195 143 97 196 144 98 198 145 99 199 146 99 201 148 100 202
149 101 204 150 102 206 151 103 207 152 103 209 154 104 210 155 105
212 156 106 214 158 107 216 159 108 217 160 109 219 162 110 221 163
110 223 164 111 225 166 112 227 167 113 229 169 114 231 170 115 232
172 116 234 173 117 236 175 118 239 176 119 241 178 120 243 179 122
245 181 123 247 182 124 249 184 125 251 185 126 253 187 127 255 188
128 255 190 129 255 192 130 255 193 132 255 195 133 255 196 134 255
198 135 255 199 136 255 201 137 255 202 138 255 204 139 255 205 140
255 207 142 255 208 143 255 209 144 255 211 145 255 212 146 255 213
147 255 214 148 255 216 149 255 217 149 255 218 150 255 218 151 255
219 152 255 220 152 255 221 153 255 221 154 255 222 154 255 222 155
255 223 155 255 223 156 255 223 156 255 223 156 255 224 156 255 223
156 255 223 156 255 223 156 255 223 156 255 222 156 255 222 156 255
221 156 255 221 155 255 220 155 255 219 154 255 218 154 255 217 153
255 216 153 255 215 152 255 214 151 255 213 150 255 211 149 255 210
149 255 209 148 255 207 147 255 206 146 255 205 145 255 203 144 255
202 143 255 200 142 255 199 141 255 197 140 255 196 139 255 194 138
255 193 137 255 191 135 255 190 134 255 188 133 255 186 132 255 185
131 255 183 130 255 182 129 255 180 128 255 179 127 254 177 126 251
176 125 249 175 124 247 173 123 245 172 122 243 170 121 242 169 120
240 168 119 238 166 118 236 165 117 234 163 116 232 162 115 230 161
114 228 160 113 227 158 112 225 157 111 223 156 110 221 155 110 220
153 109 218 152 108 216 151 107 215 150 106 213 149 105 212 148 105
210 147 104 208 146 103 207 145 102 205 143 102 204 142 101 203 76 127
58 68 109 56 63 99 52 58 91 49 55 84 46 51 78 43 48 72 41 46 67 39 43
63 37 41 58 35 38 54 34 36 51 32 34 47 31 32 44 29 30 40 28 29 37 27
28 36 26 26 34 25 25 32 25 24 31 24 23 29 23 22 28 23 21 26 22 21 25
22 20 24 21 19 23 21 18 21 20 17 20 20 17 19 19 16 18 19 15 17 18 15
16 18 14 15 18 14 15 18 14 14 17 13 14 17 13 14 17 13 14 17 14 14 17
14 15 18 111 78 157 110 78 157 109 77 156 109 77 155
56 52 46 56 52 46 61 58 51 66 64 56 71 69 61 75 74 65 79 78 69 83 82
73 86 86 77 89 89 80 92 92 83 133 140 121 139 147 126 144 153 132 149
159 137 154 165 141 159 171 146 229 208 183 238 215 189 246 221 194
148 100 202 149 101 203 150 101 205 151 102 207 152 103 208 154 104
210 155 105 212 156 105 213 157 106 215 159 107 217 160 108 218 161
109 220 163 110 222 164 111 224 166 112 226 167 113 228 168 114 230
170 115 232 171 116 234 173 117 236 174 118 238 176 119 240 178 120
242 179 121 244 181 122 246 182 123 248 184 124 250 186 125 253 187
126 255 189 127 255 190 129 255 192 130 255 194 131 255 195 132 255
197 133 255 199 134 255 200 136 255 202 137 255 204 138 255 205 139
255 207 140 255 209 142 255 210 143 255 212 144 255 213 145 255 215
146 255 216 147 255 218 148 255 219 149 255 220 150 255 222 151 255
223 152 255 224 153 255 225 154 255 226 155 255 227 156 255 228 157
255 229 158 255 230 158 255 230 159 255 231 159 255 231 160 255 232
160 255 232 161 255 232 161 255 233 162 255 233 162 255 233 162 255
232 162 255 232 162 255 232 162 255 231 162 255 231 161 255 230 161
255 230 161 255 229 160 255 228 160 255 227 159 255 226 159 255 225
158 255 224 158 255 223 157 255 222 156 255 220 155 255 219 154 255
218 153 255 216 153 255 215 152 255 213 151 255 212 150 255 210 148
255 209 147 255 207 146 255 205 145 255 204 144 255 202 143 255 201
142 255 199 141 255 197 140 255 196 139 255 194 138 255 193 136 255
191 135 255 189 134 255 188 133 255 186 132 255 185 131 255 183 130
255 182 129 255 180 128 255 179 127 253 177 126 251 176 125 249 174
124 247 173 123 245 172 122 243 170 121 241 169 120 239 167 119 238
166 118 236 165 117 234 163 116 232 162 115 230 161 114 228 160 113
227 158 112 225 157 111 223 156 110 222 155 110 220 154 109 218 152
108 217 151 107 215 150 106 213 149 105 212 75 121 61 68 108 56 63 98
52 59 90 49 55 84 46 52 78 43 49 72 41 46 67 39 43 62 37 41 58 35 38
54 34 36 50 32 34 46 30 32 43 29 30 40 28 29 37 27 28 35 26 26 34 25
25 32 25 24 30 24 23 29 23 22 27 23 21 26 22 20 24 21 19 23 21 19 22
20 18 20 20 17 19 19 16 18 19 15 17 18 15 16 18 14 15 17 13 13 17 13
13 17 13 12 17 12 12 16 12 12 16 12 12 16 12 12 16 12 12 16 12 12 16
12 12 16 12 12 17 12 12 17 12 12 17 112 79 159
61 57 51 66 63 56 71 68 61 75 73 65 79 78 69 83 82 73 87 86 77 90 90
80 93 94 84 124 129 112 129 136 118 135 142 123 141 149 129 146 155
134 151 161 139 157 167 144 216 199 176 225 207 183 234 215 190 243
222 196 251 229 202 255 235 207 155 105 212 157 106 214 158 106 215
159 107 217 161 108 219 162 109 221 163 110 222 165 111 224 166 112
226 168 113 228 169 114 230 171 115 232 172 116 234 174 117 236 175
118 238 177 119 240 178 120 242 180 121 244 181 122 246 183 123 248
185 124 251 186 125 253 188 126 255 190 127 255 191 128 255 193 130
255 195 131 255 197 132 255 198 133 255 200 134 255 202 136 255 204
137 255 205 138 255 207 139 255 209 140 255 210 142 255 212 143 255
214 144 255 216 145 255 217 146 255 219 148 255 220 149 255 222 150
255 223 151 255 225 152 255 226 153 255 228 154 255 229 155 255 230
156 255 232 157 255 233 158 255 234 159 255 235 160 255 236 161 255
237 162 255 237 162 255 238 163 255 239 164 255 239 164 255 240 165
255 240 165 255 240 165 255 240 166 255 240 166 255 240 166 255 240
166 255 240 166 255 240 166 255 239 166 255 239 166 255 238 166 255
237 165 255 237 165 255 236 164 255 235 164 255 234 163 255 233 163
255 232 162 255 230 161 255 229 161 255 228 160 255 227 159 255 225
158 255 224 157 255 222 156 255 221 155 255 219 154 255 218 153 255
216 152 255 214 151 255 213 150 255 211 149 255 210 148 255 208 147
255 206 146 255 205 145 255 203 143 255 201 142 255 200 141 255 198
140 255 196 139 255 195 138 255 193 137 255 192 136 255 190 134 255
188 133 255 187 132 255 185 131 255 184 130 255 182 129 255 181 128
255 179 127 254 178 126 252 176 125 250 175 124 248 174 123 246 172
122 244 171 121 243 169 120 241 168 119 239 167 118 237 165 117 235
164 116 233 163 115 231 162 114 230 160 114 228 159 113 226 158 112
225 157 111 223 156 110 221 77 123 62 69 110 56 64 100 52 60 92 49 56
85 46 52 79 44 49 73 41 46 68 39 44 63 37 41 59 35 39 54 34 37 50 32
34 47 31 32 43 29 31 40 28 29 37 27 28 36 26 27 34 25 26 32 25 25 30
24 23 29 23 22 27 23 21 25 22 20 24 21 20 23 21 19 21 20 18 20 20 17
19 19 16 17 19 15 16 18 14 15 18 14 14 17 13 13 17 12 12 16 12 12 16
12 12 16 12 12 16 12 12 16 12 12 16 12 12 16 12 12 16 12 12 16 12 12
16 12 12 16 12 12 16 12 12 16 12 12 17 12 12 17
68 66 59 73 71 63 77 76 67 81 80 72 85 84 75 89 89 79 92 92 83 113 117
103 119 124 108 125 130 114 130 137 119 136 143 125 142 149 130 147
156 135 225 191 196 233 199 202 242 207 209 250 214 216 255 222 222
238 220 195 247 228 201 255 235 207 255 242 213 255 248 218 163 110
222 165 111 224 166 111 226 168 112 228 169 113 230 171 114 231 172
115 233 174 116 235 175 117 237 177 118 239 178 119 241 180 120 243
181 121 246 183 122 248 185 123 250 186 125 252 188 126 254 190 127
255 191 128 255 193 129 255 195 130 255 197 131 255 198 132 255 200
134 255 202 135 255 204 136 255 206 137 255 207 138 255 209 140 255
211 141 255 213 142 255 215 143 255 216 145 255 218 146 255 220 147
255 222 148 255 223 149 255 225 151 255 227 152 255 228 153 255 230
154 255 231 155 255 233 156 255 234 157 255 235 158 255 237 159 255
238 160 255 239 161 255 240 162 255 241 163 255 242 164 255 243 165
255 244 165 255 244 166 255 245 167 255 246 167 255 246 168 255 246
168 255 246 168 255 247 169 255 247 169 255 247 169 255 246 169 255
246 169 255 246 169 255 245 169 255 245 169 255 244 169 255 244 169
255 243 168 255 242 168 255 241 167 255 240 167 255 239 166 255 238
166 255 237 165 255 236 164 255 234 164 255 233 163 255 232 162 255
230 161 255 229 160 255 227 159 255 226 158 255 224 157 255 223 156
255 221 155 255 219 154 255 218 153 255 216 152 255 214 151 255 213
150 255 211 149 255 209 148 255 208 146 255 206 145 255 204 144 255
203 143 255 201 142 255 200 141 255 198 140 255 196 139 255 195 138
255 193 136 255 192 135 255 190 134 255 188 133 255 187 132 255 185
131 255 184 130 255 182 129 255 181 128 255 179 127 255 178 126 253
177 125 251 175 124 249 174 123 247 172 122 245 171 121 243 170 120
241 168 119 239 167 118 238 166 117 236 165 116 234 163 116 232 162
115 230 80 128 64 72 113 58 66 103 54 61 94 50 57 87 47 54 80 45 50 75
42 47 69 40 45 64 38 42 60 36 40 55 34 37 51 32 35 47 31 33 44 29 31
40 28 30 38 27 28 36 26 27 34 25 26 32 25 25 31 24 24 29 23 23 27 23
22 26 22 21 24 21 20 23 21 19 21 20 18 20 20 17 18 19 16 17 18 15 16
18 14 14 17 14 13 17 13 12 17 13 12 16 12 12 16 12 12 16 12 12 16 12
12 16 12 12 16 12 12 16 12 12 16 12 12 16 12 12 16 12 12 16 12 12 16
12 12 16 12 12 16 12 12 16 12 12 16 12 12 16
74 72 64 78 77 69 82 81 73 86 86 76 90 90 80 102 104 92 108 111 98 114
118 103 120 124 109 125 130 115 131 137 120 136 143 125 174 165 147
182 172 153 190 180 160 229 197 201 239 205 211 249 213 219 255 221
225 255 227 227 255 235 234 250 233 206 255 240 212 255 247 218 255
253 223 255 255 255 172 115 232 173 116 234 175 117 236 176 118 238
178 118 240 179 119 242 181 120 244 182 122 246 184 123 248 186 124
251 187 125 253 189 126 255 191 127 255 193 128 255 194 129 255 196
130 255 198 131 255 200 133 255 201 134 255 203 135 255 205 136 255
207 137 255 209 138 255 210 140 255 212 141 255 214 142 255 216 143
255 218 144 255 220 146 255 221 147 255 223 148 255 225 149 255 227
151 255 228 152 255 230 153 255 232 154 255 233 155 255 235 156 255
236 157 255 238 158 255 239 160 255 241 161 255 242 162 255 243 163
255 244 163 255 245 164 255 246 165 255 247 166 255 248 167 255 249
167 255 250 168 255 250 169 255 251 169 255 251 170 255 251 170 255
252 170 255 252 171 255 252 171 255 252 171 255 251 171 255 251 171
255 251 171 255 250 171 255 250 171 255 249 171 255 249 171 255 248
171 255 247 170 255 246 170 255 245 169 255 244 169 255 243 168 255
242 168 255 241 167 255 240 166 255 238 166 255 237 165 255 235 164
255 234 163 255 233 162 255 231 161 255 230 160 255 228 159 255 226
158 255 225 157 255 223 156 255 222 155 255 220 154 255 218 153 255
217 152 255 215 151 255 213 150 255 212 149 255 210 148 255 209 147
255 207 146 255 205 145 255 204 143 255 202 142 255 200 141 255 199
140 255 197 139 255 196 138 255 194 137 255 193 136 255 191 135 255
189 134 255 188 133 255 186 132 255 185 131 255 183 130 255 182 129
255 181 128 255 179 127 254 178 126 253 176 125 251 175 124 249 174
123 247 172 122 245 171 121 243 170 120 241 168 119 240 82 135 62 75
119 60 69 107 56 64 98 52 59 90 49 55 83 46 52 77 43 49 71 41 46 66 39
43 61 37 41 57 35 38 53 33 36 49 31 34 45 30 32 41 28 30 39 27 29 37
27 28 35 26 27 33 25 25 31 24 24 29 24 23 28 23 22 26 22 21 24 21 20
23 21 19 21 20 18 20 20 17 18 19 16 17 19 15 16 18 15 14 17 14 13 17
13 13 17 13 12 17 12 12 16 12 12 16 12 12 16 12 12 16 12 12 16 12 12
16 12 12 16 12 12 16 12 12 16 12 12 16 12 12 16 12 12 16 12 12 16 12
12 16 12 12 16 12 12 16 12 12 16 12 12 16
79 77 69 83 82 73 86 86 77 91 91 81 97 98 87 103 104 93 108 111 98 114
117 104 120 124 109 125 130 115 131 137 120 161 155 138 169 162 145
177 170 151 186 177 158 194 185 165 255 211 241 255 219 250 255 227
255 255 234 255 255 241 255 254 233 209 255 238 211 255 255 249 255
251 222 255 255 227 255 255 255 178 119 240 180 119 242 181 120 244
183 121 247 185 122 249 186 124 251 188 125 253 190 126 255 191 127
255 193 128 255 195 129 255 196 130 255 198 131 255 200 132 255 202
133 255 204 134 255 205 136 255 207 137 255 209 138 255 211 139 255
213 140 255 215 142 255 216 143 255 218 144 255 220 145 255 222 146
255 224 148 255 226 149 255 227 150 255 229 151 255 231 152 255 233
153 255 234 155 255 236 156 255 238 157 255 239 158 255 241 159 255
242 160 255 243 161 255 245 162 255 246 163 255 247 164 255 248 165
255 249 166 255 250 167 255 251 167 255 252 168 255 253 169 255 254
169 255 254 170 255 255 170 255 255 171 255 255 171 255 255 172 255
255 172 255 255 172 255 255 172 255 255 173 255 255 173 255 255 173
255 254 173 255 254 173 255 253 172 255 253 172 255 252 172 255 251
172 255 250 171 255 249 171 255 248 170 255 247 170 255 246 169 255
245 169 255 244 168 255 242 167 255 241 167 255 240 166 255 238 165
255 237 164 255 236 164 255 234 163 255 233 162 255 231 161 255 230
160 255 228 159 255 226 158 255 225 157 255 223 156 255 222 155 255
220 154 255 218 153 255 217 152 255 215 151 255 214 150 255 212 149
255 210 148 255 209 147 255 207 146 255 206 145 255 204 143 255 202
142 255 201 141 255 199 140 255 198 139 255 196 138 255 195 137 255
193 136 255 192 135 255 190 134 255 189 133 255 187 132 255 186 131
255 184 130 255 183 129 255 181 128 255 180 127 255 179 126 254 177
125 252 176 124 250 175 123 248 173 123 247 80 128 64 72 114 58 68 104
56 63 95 51 58 87 47 54 80 44 51 74 42 48 69 40 45 64 38 42 59 36 40
55 34 37 50 32 35 46 31 33 43 29 31 40 28 30 38 27 29 36 26 27 34 25
26 32 25 25 30 24 24 28 23 23 27 22 22 25 22 21 23 21 20 22 20 19 20
20 18 19 19 17 17 19 16 16 18 15 15 18 14 14 17 14 13 17 13 13 17 13
12 16 12 12 16 12 12 16 12 12 16 12 12 16 12 12 16 12 12 16 12 12 16
12 12 16 12 12 16 12 12 16 12 12 16 12 12 16 12 12 16 12 12 16 12 12
16 12 12 16 12 12 16 12 12 16 12 12 16
82 81 73 86 86 77 90 90 80 94 94 84 97 98 88 103 104 93 108 111 99 114
117 104 119 123 109 141 138 123 149 145 130 157 152 136 165 160 143
173 167 149 181 175 156 189 182 162 197 189 169 205 197 175 214 204
182 255 241 255 241 222 201 255 245 236 255 255 255 255 251 230 255
248 220 255 255 228 255 255 230 255 255 255 185 122 248 186 123 250
188 124 252 189 125 254 191 126 255 193 127 255 195 128 255 196 129
255 198 130 255 200 132 255 202 133 255 203 134 255 205 135 255 207
136 255 209 137 255 211 138 255 212 140 255 214 141 255 216 142 255
218 143 255 220 144 255 222 145 255 224 147 255 225 148 255 227 149
255 229 150 255 231 151 255 233 152 255 234 154 255 236 155 255 238
156 255 239 157 255 241 158 255 242 159 255 244 160 255 245 161 255
247 162 255 248 163 255 249 164 255 250 165 255 252 166 255 253 167
255 253 167 255 254 168 255 255 169 255 255 169 255 255 170 255 255
171 255 255 171 255 255 172 255 255 172 255 255 172 255 255 173 255
255 173 255 255 173 255 255 173 255 255 173 255 255 173 255 255 173
255 255 173 255 255 173 255 255 173 255 255 173 255 254 173 255 253
172 255 252 172 255 251 171 255 250 171 255 249 171 255 248 170 255
247 169 255 246 169 255 245 168 255 243 168 255 242 167 255 241 166
255 239 165 255 238 165 255 236 164 255 235 163 255 233 162 255 232
161 255 230 160 255 229 159 255 227 158 255 226 157 255 224 156 255
223 155 255 221 154 255 220 153 255 218 152 255 216 151 255 215 150
255 213 149 255 212 148 255 210 147 255 209 146 255 207 145 255 205
144 255 204 143 255 202 142 255 201 141 255 199 140 255 198 139 255
196 138 255 195 137 255 193 136 255 192 135 255 190 134 255 189 133
255 188 132 255 186 131 255 185 130 255 183 129 255 182 129 255 181
128 255 179 127 255 85 142 64 77 122 62 78 115 65 86 114 77 65 95 54
57 84 46 53 78 44 50 72 41 47 67 39 44 62 37 41 57 35 39 53 33 36 48
31 34 44 30 32 41 28 31 39 27 29 37 27 28 35 26 27 33 25 26 31 24 25
29 23 23 27 23 22 26 22 21 24 21 20 22 21 19 21 20 18 19 19 17 18 19
16 16 18 15 15 18 15 14 17 14 13 17 14 13 17 13 13 17 13 12 16 12 12
16 12 12 16 12 12 16 12 12 16 12 12 16 12 12 16 12 12 16 12 12 16 12
12 16 12 12 16 12 12 16 12 12 16 12 12 16 12 12 16 12 12 16 12 12 16
12 12 16 12 12 16 12 12 16 12 12 16
85 85 76 89 89 80 93 93 83 96 97 87 100 101 90 103 105 94 108 110 98
122 120 108 129 128 114 137 135 121 145 142 127 153 150 134 160 157
140 168 164 147 176 172 153 184 179 160 192 186 166 200 194 172 208
201 179 217 208 185 226 216 192 255 230 212 255 255 255 255 255 255
255 255 255 255 252 224 255 255 228 255 255 233 255 255 255 191 126
255 192 127 255 194 128 255 196 129 255 197 130 255 199 131 255 201
132 255 203 133 255 204 134 255 206 135 255 208 136 255 210 137 255
212 138 255 213 140 255 215 141 255 217 142 255 219 143 255 221 144
255 223 145 255 224 146 255 226 148 255 228 149 255 230 150 255 232
151 255 233 152 255 235 153 255 237 154 255 238 155 255 240 156 255
242 158 255 243 159 255 245 160 255 246 161 255 248 162 255 249 163
255 250 163 255 251 164 255 253 165 255 254 166 255 255 167 255 255
168 255 255 168 255 255 169 255 255 170 255 255 170 255 255 171 255
255 171 255 255 172 255 255 172 255 255 172 255 255 173 255 255 173
255 255 173 255 255 173 255 255 173 255 255 173 255 255 173 255 255
173 255 255 173 255 255 173 255 255 173 255 255 173 255 255 173 255
254 172 255 253 172 255 253 172 255 252 171 255 250 171 255 249 170
255 248 170 255 247 169 255 246 168 255 245 168 255 243 167 255 242
167 255 241 166 255 239 165 255 238 164 255 237 164 255 235 163 255
234 162 255 232 161 255 231 160 255 229 159 255 228 158 255 226 158
255 225 157 255 223 156 255 222 155 255 220 154 255 219 153 255 217
152 255 216 151 255 214 150 255 213 149 255 211 148 255 210 147 255
208 146 255 207 145 255 205 144 255 204 143 255 202 142 255 201 141
255 199 140 255 198 139 255 196 138 255 195 137 255 193 136 255 192
135 255 191 134 255 189 133 255 188 133 255 186 132 255 185 131 255
184 130 255 85 136 67 76 119 61 124 145 120 128 142 127 68 95 58 56 83
46 52 76 43 49 70 40 46 65 38 43 60 36 40 55 34 38 51 32 36 47 31 33
43 29 32 40 28 30 38 27 29 36 26 28 34 25 27 32 25 25 30 24 24 28 23
23 27 22 22 25 22 21 23 21 20 22 20 19 20 20 18 19 19 17 17 19 16 16
18 15 14 17 15 14 17 14 13 17 14 13 17 13 13 17 13 12 16 12 12 16 12
12 16 12 12 16 12 12 16 12 12 16 12 12 16 12 12 16 12 12 16 12 12 16
12 12 16 12 12 16 12 12 16 12 12 16 12 12 16 12 12 16 12 12 16 12 12
16 12 12 16 12 12 16 12 12 16 12 12 16
88 88 79 92 92 82 95 96 86 99 100 89 102 104 93 106 107 96 112 112 101
118 118 106 125 125 112 133 132 119 141 139 125 148 147 131 156 154
138 164 161 144 171 168 150 179 176 157 187 183 163 195 190 170 203
197 176 211 205 182 219 212 189 229 220 196 255 235 215 255 255 255
255 255 255 255 255 255 255 255 225 255 255 230 255 255 234 195 128
255 196 129 255 198 130 255 200 131 255 201 132 255 203 133 255 205
134 255 207 135 255 208 136 255 210 137 255 212 138 255 214 139 255
216 140 255 217 142 255 219 143 255 221 144 255 223 145 255 225 146
255 226 147 255 228 148 255 230 149 255 232 150 255 233 151 255 235
153 255 237 154 255 238 155 255 240 156 255 242 157 255 243 158 255
245 159 255 246 160 255 248 161 255 249 162 255 250 163 255 252 163
255 253 164 255 254 165 255 255 166 255 255 167 255 255 167 255 255
168 255 255 169 255 255 169 255 255 170 255 255 170 255 255 171 255
255 171 255 255 172 255 255 172 255 255 172 255 255 173 255 255 173
255 255 173 255 255 173 255 255 173 255 255 173 255 255 173 255 255
173 255 255 173 255 255 173 255 255 173 255 255 173 255 255 172 255
255 172 255 254 172 255 253 171 255 252 171 255 251 171 255 250 170
255 249 170 255 248 169 255 247 169 255 246 168 255 244 167 255 243
167 255 242 166 255 240 165 255 239 165 255 238 164 255 236 163 255
235 162 255 234 162 255 232 161 255 231 160 255 229 159 255 228 158
255 227 158 255 225 157 255 224 156 255 222 155 255 221 154 255 219
153 255 218 152 255 216 151 255 215 150 255 213 149 255 212 148 255
211 148 255 209 147 255 208 146 255 206 145 255 205 144 255 203 143
255 202 142 255 200 141 255 199 140 255 198 139 255 196 138 255 195
137 255 193 136 255 192 135 255 191 134 255 189 134 255 188 133 255 83
132 66 78 119 63 181 184 187 144 152 146 69 95 59 58 83 48 52 75 43 48
69 40 45 63 38 42 58 35 40 54 34 37 49 32 35 45 30 33 42 29 32 40 28
30 37 27 29 35 26 28 33 25 26 31 24 25 29 24 24 28 23 23 26 22 22 24
22 21 23 21 20 21 20 19 19 20 18 18 19 17 16 18 16 15 18 15 14 17 15
14 17 14 13 17 14 13 17 13 13 17 13 12 16 12 12 16 12 12 16 12 12 16
12 12 16 12 12 16 12 12 16 12 12 16 12 12 16 12 12 16 12 12 16 12 12
16 12 12 16 12 12 16 12 12 16 12 12 16 12 12 16 12 12 16 12 12 16 12
12 16 12 12 16 12 12 16 12 12 16
90 91 81 94 95 85 98 98 88 101 102 92 104 106 95 108 110 98 111 113
101 116 117 105 121 122 110 129 129 116 136 136 122 144 144 129 151
151 135 159 158 141 167 165 148 174 172 154 182 179 160 190 187 166
198 194 173 206 201 179 214 208 185 222 215 191 230 223 198 251 238
217 255 255 255 255 255 255 255 255 235 255 255 227 255 255 231 255
255 255 200 131 255 202 132 255 203 133 255 205 134 255 207 135 255
208 136 255 210 137 255 212 138 255 214 139 255 215 140 255 217 141
255 219 142 255 221 143 255 222 144 255 224 145 255 226 146 255 228
147 255 229 148 255 231 150 255 233 151 255 234 152 255 236 153 255
238 154 255 239 155 255 241 156 255 242 157 255 244 158 255 245 159
255 247 160 255 248 161 255 250 161 255 251 162 255 252 163 255 253
164 255 254 165 255 255 165 255 255 166 255 255 167 255 255 168 255
255 168 255 255 169 255 255 169 255 255 170 255 255 170 255 255 171
255 255 171 255 255 171 255 255 172 255 255 172 255 255 172 255 255
172 255 255 173 255 255 173 255 255 173 255 255 173 255 255 173 255
255 173 255 255 173 255 255 172 255 255 172 255 255 172 255 255 172
255 255 172 255 254 171 255 253 171 255 252 171 255 251 170 255 250
170 255 249 169 255 248 169 255 247 168 255 246 168 255 245 167 255
244 167 255 242 166 255 241 166 255 240 165 255 239 164 255 237 164
255 236 163 255 235 162 255 234 161 255 232 161 255 231 160 255 229
159 255 228 158 255 227 158 255 225 157 255 224 156 255 223 155 255
221 154 255 220 153 255 218 152 255 217 152 255 216 151 255 214 150
255 213 149 255 211 148 255 210 147 255 208 146 255 207 145 255 206
144 255 204 144 255 203 143 255 202 142 255 200 141 255 199 140 255
197 139 255 196 138 255 195 137 255 193 136 255 192 135 255 82 130 65
78 117 64 156 166 158 115 131 112 77 100 68 68 90 59 55 76 46 48 67 40
45 62 37 42 57 35 39 52 33 37 48 31 34 44 30 33 41 29 31 39 28 30 37
27 29 35 26 27 33 25 26 31 24 25 29 23 24 27 23 23 25 22 21 24 21 20
22 21 19 20 20 18 19 19 17 17 19 16 16 18 16 15 18 15 14 17 15 14 17
14 13 17 14 13 17 13 13 17 13 12 16 12 12 16 12 12 16 12 12 16 12 12
16 12 12 16 12 12 16 12 12 16 12 12 16 12 12 16 12 12 16 12 12 16 12
12 16 12 12 16 12 12 16 12 12 16 12 12 16 12 12 16 12 12 16 12 12 16
12 12 16 12 12 16 12 12 16 12 12 16
92 93 83 96 97 86 99 100 90 103 104 93 106 108 97 109 111 100 112 115
103 116 118 106 119 122 110 124 126 114 132 133 120 139 140 126 147
147 132 154 154 138 162 162 145 169 169 151 177 176 157 185 183 163
192 190 169 200 197 176 208 204 182 216 211 188 224 218 194 232 226
201 248 238 215 255 255 245 255 255 236 255 252 224 255 255 228 255
255 255 255 255 255 205 133 255 206 134 255 208 135 255 210 136 255
211 137 255 213 138 255 215 139 255 216 140 255 218 141 255 220 142
255 221 143 255 223 144 255 225 145 255 227 146 255 228 147 255 230
148 255 232 149 255 233 150 255 235 151 255 236 152 255 238 153 255
240 154 255 241 155 255 243 156 255 244 157 255 245 158 255 247 159
255 248 160 255 249 161 255 251 162 255 252 162 255 253 163 255 254
164 255 255 165 255 255 165 255 255 166 255 255 167 255 255 167 255
255 168 255 255 168 255 255 169 255 255 169 255 255 170 255 255 170
255 255 171 255 255 171 255 255 171 255 255 171 255 255 172 255 255
172 255 255 172 255 255 172 255 255 172 255 255 172 255 255 172 255
255 172 255 255 172 255 255 172 255 255 172 255 255 172 255 255 171
255 255 171 255 254 171 255 253 171 255 252 170 255 251 170 255 250
170 255 249 169 255 248 169 255 247 168 255 246 168 255 245 167 255
244 167 255 243 166 255 242 166 255 241 165 255 239 164 255 238 164
255 237 163 255 236 163 255 234 162 255 233 161 255 232 161 255 231
160 255 229 159 255 228 158 255 227 158 255 225 157 255 224 156 255
223 155 255 221 154 255 220 154 255 219 153 255 217 152 255 216 151
255 215 150 255 213 149 255 212 148 255 211 148 255 209 147 255 208
146 255 207 145 255 205 144 255 204 143 255 202 142 255 201 141 255
200 141 255 198 140 255 197 139 255 196 138 255 82 129 64 75 115 60 99
125 91 89 112 80 105 120 98 94 108 87 60 79 52 48 67 40 44 61 37 41 56
35 39 51 33 36 47 31 34 43 29 33 41 28 31 39 27 30 36 27 28 34 26 27
32 25 26 30 24 25 28 23 24 27 23 22 25 22 21 23 21 20 21 20 19 20 20
18 18 19 17 17 18 16 15 18 16 15 18 15 14 17 15 14 17 14 14 17 14 13
17 13 13 17 13 12 16 12 12 16 12 12 16 12 12 16 12 12 16 12 12 16 12
12 16 12 12 16 12 12 16 12 12 16 12 12 16 12 12 16 12 12 16 12 12 16
12 12 16 12 12 16 12 12 16 12 12 16 12 12 16 12 12 16 12 12 16 12 12
16 12 12 16 12 12 16 12 12 16
94 95 85 98 98 88 101 102 92 104 106 95 108 110 98 111 113 101 114 117
105 117 120 108 120 123 111 123 126 114 128 130 117 135 137 123 142
144 129 149 151 135 157 158 142 164 165 148 172 172 154 179 179 160
187 186 166 195 193 172 202 200 178 210 207 184 255 255 201 226 221
196 234 228 202 244 236 211 253 244 218 255 248 220 255 253 224 255
255 228 255 255 255 207 135 255 209 136 255 210 136 255 212 137 255
214 138 255 215 139 255 217 140 255 219 141 255 220 142 255 222 143
255 223 144 255 225 145 255 227 146 255 228 147 255 230 148 255 232
149 255 233 150 255 235 151 255 236 152 255 238 153 255 239 154 255
241 155 255 242 156 255 243 157 255 245 158 255 246 158 255 247 159
255 249 160 255 250 161 255 251 162 255 252 162 255 253 163 255 254
164 255 255 164 255 255 165 255 255 166 255 255 166 255 255 167 255
255 167 255 255 168 255 255 168 255 255 169 255 255 169 255 255 169
255 255 170 255 255 170 255 255 170 255 255 171 255 255 171 255 255
171 255 255 171 255 255 171 255 255 171 255 255 171 255 255 171 255
255 171 255 255 171 255 255 171 255 255 171 255 255 171 255 255 171
255 254 171 255 253 170 255 252 170 255 252 170 255 251 169 255 250
169 255 249 169 255 248 168 255 247 168 255 246 168 255 245 167 255
244 167 255 243 166 255 242 166 255 241 165 255 240 165 255 239 164
255 238 164 255 236 163 255 235 162 255 234 162 255 233 161 255 232
160 255 230 160 255 229 159 255 228 158 255 227 158 255 226 157 255
224 156 255 223 155 255 222 155 255 220 154 255 219 153 255 218 152
255 216 151 255 215 151 255 214 150 255 213 149 255 211 148 255 210
147 255 209 146 255 207 146 255 206 145 255 205 144 255 203 143 255
202 142 255 201 141 255 199 140 255 82 129 65 73 113 58 73 106 60 81
107 71 145 150 141 132 136 129 70 86 62 49 67 40 44 60 36 41 55 34 38
51 32 36 46 31 34 43 29 33 41 28 31 38 27 30 36 26 28 34 26 27 32 25
26 30 24 25 28 23 23 26 22 22 24 22 21 23 21 20 21 20 19 19 20 18 18
19 17 16 18 16 15 18 16 15 18 15 14 17 15 14 17 14 14 17 14 13 17 13
13 17 13 12 16 12 12 16 12 12 16 12 12 16 12 12 16 12 12 16 12 12 16
12 12 16 12 12 16 12 12 16 12 12 16 12 12 16 12 12 16 12 12 16 12 12
16 12 12 16 12 12 16 12 12 16 12 12 16 12 12 16 12 12 16 12 12 16 12
12 16 12 12 16 12 12 16 12 12 16
96 96 86 99 100 90 102 104 93 106 107 96 109 111 99 112 114 103 115
118 106 118 121 109 121 124 112 124 128 115 127 131 117 131 134 121
137 140 126 145 147 132 152 154 138 159 161 144 167 168 151 174 175
157 182 182 163 189 189 169 197 196 175 204 203 181 212 209 187 220
216 192 255 240 255 235 230 204 243 236 210 255 255 252 255 248 220
255 254 224 255 255 255 209 136 255 211 137 255 212 137 255 214 138
255 215 139 255 217 140 255 219 141 255 220 142 255 222 143 255 223
144 255 225 145 255 226 146 255 228 147 255 230 148 255 231 149 255
233 150 255 234 151 255 235 151 255 237 152 255 238 153 255 240 154
255 241 155 255 242 156 255 244 157 255 245 158 255 246 158 255 247
159 255 248 160 255 249 161 255 250 161 255 251 162 255 252 163 255
253 163 255 254 164 255 255 165 255 255 165 255 255 166 255 255 166
255 255 167 255 255 167 255 255 168 255 255 168 255 255 168 255 255
169 255 255 169 255 255 169 255 255 169 255 255 170 255 255 170 255
255 170 255 255 170 255 255 170 255 255 170 255 255 170 255 255 170
255 255 170 255 255 170 255 255 170 255 255 170 255 254 170 255 254
170 255 253 170 255 252 170 255 252 170 255 251 169 255 250 169 255
249 169 255 249 169 255 248 168 255 247 168 255 246 168 255 245 167
255 244 167 255 243 166 255 242 166 255 241 165 255 240 165 255 239
164 255 238 164 255 237 163 255 236 163 255 235 162 255 234 162 255
233 161 255 232 160 255 230 160 255 229 159 255 228 158 255 227 158
255 226 157 255 224 156 255 223 156 255 222 155 255 221 154 255 219
153 255 218 153 255 217 152 255 216 151 255 214 150 255 213 149 255
212 149 255 211 148 255 209 147 255 208 146 255 207 145 255 205 145
255 204 144 255 203 143 255 83 131 65 74 113 58 68 102 54 78 104 67
164 164 161 162 158 160 79 92 72 49 67 41 44 60 36 41 54 34 38 50 32
36 45 30 34 43 29 33 40 28 31 38 27 30 36 26 28 34 26 27 32 25 26 30
24 24 28 23 23 26 22 22 24 22 21 22 21 20 21 20 19 19 19 18 17 19 17
16 18 16 15 18 16 15 18 15 15 18 15 14 17 14 14 17 14 13 17 13 13 17
13 12 16 12 12 16 12 12 16 12 12 16 12 12 16 12 12 16 12 12 16 12 12
16 12 12 16 12 12 16 12 12 16 12 12 16 12 12 16 12 12 16 12 12 16 12
12 16 12 12 16 12 12 16 12 12 16 12 12 16 12 12 16 12 12 16 12 12 16
12 12 16 12 12 16 12 12 16 12 12 16
97 97 87 100 101 91 103 105 94 107 109 97 110 112 101 113 116 104 116
119 107 119 122 110 122 125 113 125 129 116 128 132 118 130 135 121
133 138 124 140 144 129 147 150 135 154 157 141 161 164 147 169 171
153 176 178 159 184 185 165 191 191 171 198 198 177 206 205 183 213
212 188 221 218 194 229 225 200 236 231 205 244 237 210 251 243 215
255 255 255 255 255 255 255 255 255 212 137 255 214 138 255 215 139
255 217 140 255 218 141 255 220 142 255 221 143 255 223 144 255 224
145 255 226 145 255 227 146 255 229 147 255 230 148 255 232 149 255
233 150 255 234 151 255 236 152 255 237 152 255 238 153 255 240 154
255 241 155 255 242 156 255 243 156 255 244 157 255 245 158 255 247
159 255 248 159 255 248 160 255 249 161 255 250 161 255 251 162 255
252 163 255 253 163 255 253 164 255 254 164 255 254 165 255 255 165
255 255 166 255 255 166 255 255 167 255 255 167 255 255 167 255 255
168 255 255 168 255 255 168 255 255 169 255 255 169 255 255 169 255
255 169 255 255 169 255 255 169 255 255 170 255 255 170 255 255 170
255 255 170 255 255 170 255 254 170 255 254 170 255 253 170 255 253
170 255 252 169 255 252 169 255 251 169 255 250 169 255 250 169 255
249 169 255 248 168 255 247 168 255 247 168 255 246 167 255 245 167
255 244 167 255 243 166 255 242 166 255 241 166 255 241 165 255 240
165 255 239 164 255 238 164 255 237 163 255 236 163 255 235 162 255
234 162 255 232 161 255 231 161 255 230 160 255 229 159 255 228 159
255 227 158 255 226 157 255 225 157 255 223 156 255 222 155 255 221
155 255 220 154 255 219 153 255 217 152 255 216 152 255 215 151 255
214 150 255 212 149 255 211 148 255 210 148 255 209 147 255 207 146
255 206 145 255 85 134 66 74 115 58 68 102 53 71 99 59 141 146 136 159
156 158 82 94 75 50 67 42 44 59 36 41 54 34 38 49 32 36 45 30 34 43 29
33 40 28 31 38 27 30 36 26 28 34 25 27 31 25 26 29 24 24 28 23 23 26
22 22 24 22 21 22 21 20 20 20 19 19 19 18 17 19 17 16 18 16 16 18 16
15 18 15 15 18 15 14 17 14 14 17 14 13 17 13 13 17 13 12 16 12 12 16
12 12 16 12 12 16 12 12 16 12 12 16 12 12 16 12 12 16 12 12 16 12 12
16 12 12 16 12 12 16 12 12 16 12 12 16 12 12 16 12 12 16 12 12 16 12
12 16 12 12 16 12 12 16 12 12 16 12 12 16 12 12 16 12 12 16 12 12 16
12 12 16 12 12 16 12 12 16
98 99 88 101 102 92 104 106 95 108 109 98 111 113 101 114 116 104 117
120 108 120 123 110 123 126 113 125 129 116 128 132 119 131 135 122
134 138 124 136 141 127 142 146 132 149 153 138 156 160 143 163 167
149 171 173 155 178 180 161 185 187 167 193 194 173 200 200 179 207
207 184 215 213 190 222 220 195 229 226 201 237 232 206 244 238 211
255 255 255 255 255 255 255 255 255 213 138 255 215 139 255 216 140
255 218 141 255 219 141 255 221 142 255 222 143 255 223 144 255 225
145 255 226 146 255 228 147 255 229 147 255 230 148 255 232 149 255
233 150 255 234 151 255 235 152 255 237 152 255 238 153 255 239 154
255 240 155 255 241 155 255 242 156 255 243 157 255 244 158 255 245
158 255 246 159 255 247 160 255 248 160 255 249 161 255 250 161 255
250 162 255 251 162 255 252 163 255 252 164 255 253 164 255 253 164
255 253 165 255 254 165 255 254 166 255 254 166 255 255 166 255 255
167 255 255 167 255 255 167 255 255 168 255 255 168 255 255 168 255
255 168 255 255 168 255 255 169 255 254 169 255 254 169 255 254 169
255 254 169 255 253 169 255 253 169 255 252 169 255 252 169 255 252
169 255 251 169 255 251 169 255 250 169 255 249 169 255 249 168 255
248 168 255 248 168 255 247 168 255 246 168 255 246 167 255 245 167
255 244 167 255 243 167 255 242 166 255 242 166 255 241 166 255 240
165 255 239 165 255 238 164 255 237 164 255 236 163 255 235 163 255
234 162 255 233 162 255 232 161 255 231 161 255 230 160 255 229 160
255 228 159 255 227 158 255 226 158 255 225 157 255 224 156 255 223
156 255 221 155 255 220 154 255 219 154 255 218 153 255 217 152 255
216 151 255 214 151 255 213 150 255 212 149 255 211 148 255 209 147
255 86 140 64 76 117 59 68 103 54 65 95 52 99 115 91 127 132 123 78 91
71 52 67 42 44 59 36 41 54 34 38 49 32 36 45 30 34 43 29 33 40 28 31
38 27 30 36 26 28 33 25 27 31 25 26 29 24 24 27 23 23 25 22 22 24 21
21 22 21 20 20 20 19 18 19 18 17 19 17 16 18 16 16 18 16 15 18 15 15
18 15 14 17 14 14 17 14 13 17 13 13 17 13 12 16 12 12 16 12 12 16 12
12 16 12 12 16 12 12 16 12 12 16 12 12 16 12 12 16 12 12 16 12 12 16
12 12 16 12 12 16 12 12 16 12 12 16 12 12 16 12 12 16 12 12 16 12 12
16 12 12 16 12 12 16 12 12 16 12 12 16 12 12 16 12 12 16 12 12 16 12
12 16 12 12 16 12 12 16
98 99 89 102 103 92 105 107 96 108 110 99 111 114 102 114 117 105 117
120 108 120 124 111 123 127 114 126 130 117 129 133 119 131 136 122
134 139 125 136 141 127 139 144 130 144 149 134 151 156 140 159 164
148 168 171 155 174 177 159 255 191 255 187 189 169 194 195 174 201
202 180 208 208 185 215 215 191 223 221 196 230 227 201 255 251 243
255 255 255 255 255 255 255 255 255 214 138 255 216 139 255 217 140
255 218 141 255 220 142 255 221 143 255 222 143 255 224 144 255 225
145 255 226 146 255 228 147 255 229 147 255 230 148 255 231 149 255
233 150 255 234 151 255 235 151 255 236 152 255 237 153 255 238 154
255 239 154 255 240 155 255 241 156 255 242 156 255 243 157 255 244
158 255 245 158 255 246 159 255 247 159 255 247 160 255 248 161 255
249 161 255 249 162 255 250 162 255 250 163 255 251 163 255 251 164
255 252 164 255 252 164 255 252 165 255 252 165 255 253 166 255 253
166 255 253 166 255 253 166 255 253 167 255 253 167 255 253 167 255
253 167 255 253 168 255 253 168 255 253 168 255 253 168 255 252 168
255 252 168 255 252 168 255 252 168 255 251 168 255 251 169 255 251
169 255 250 169 255 250 168 255 249 168 255 249 168 255 248 168 255
248 168 255 247 168 255 247 168 255 246 168 255 245 167 255 245 167
255 244 167 255 243 167 255 243 167 255 242 166 255 241 166 255 240
166 255 240 165 255 239 165 255 238 164 255 237 164 255 236 164 255
235 163 255 234 163 255 233 162 255 232 162 255 231 161 255 230 161
255 229 160 255 228 159 255 227 159 255 226 158 255 225 158 255 224
157 255 223 156 255 222 156 255 221 155 255 220 154 255 218 154 255
217 153 255 216 152 255 215 151 255 214 151 255 213 150 255 211 149
255 77 120 60 69 105 54 64 94 50 71 94 60 90 104 82 72 85 62 58 69 46
49 60 39 42 54 34 38 49 32 36 45 30 34 43 29 33 40 28 31 38 27 30 36
26 28 33 25 27 31 25 26 29 24 24 27 23 23 25 22 22 23 21 21 22 21 20
20 20 19 18 19 18 17 19 17 16 18 17 16 18 16 15 18 16 15 18 15 14 17
14 14 17 14 13 17 14 13 17 13 12 16 13 12 16 12 12 16 12 12 16 12 12
16 12 12 16 12 12 16 12 12 16 12 12 16 12 12 16 12 12 16 12 12 16 12
12 16 12 12 16 12 12 16 12 12 16 12 12 16 12 12 16 12 12 16 12 12 16
12 12 16 12 12 16 12 12 16 12 12 16 12 12 16 12 12 16 12 12 16 12 12
16 12 12 16 12 12 16
99 100 90 102 104 93 106 107 96 109 111 99 112 114 102 115 118 105 118
121 108 121 124 111 124 127 114 126 130 117 129 133 120 132 136 122
134 139 125 137 142 127 139 144 130 142 147 132 149 154 141 173 173
166 197 191 192 188 186 178 177 180 163 181 184 165 255 255 255 195
197 176 202 203 181 209 209 186 216 215 191 246 237 228 255 255 255
255 255 255 255 255 255 255 255 255 215 139 255 216 140 255 217 140
255 218 141 255 220 142 255 221 143 255 222 143 255 224 144 255 225
145 255 226 146 255 227 147 255 228 147 255 230 148 255 231 149 255
232 150 255 233 150 255 234 151 255 235 152 255 236 152 255 237 153
255 238 154 255 239 154 255 240 155 255 241 156 255 242 156 255 243
157 255 243 158 255 244 158 255 245 159 255 245 159 255 246 160 255
247 160 255 247 161 255 248 161 255 248 162 255 249 162 255 249 163
255 250 163 255 250 164 255 250 164 255 250 164 255 251 165 255 251
165 255 251 165 255 251 166 255 251 166 255 251 166 255 251 166 255
251 167 255 251 167 255 251 167 255 251 167 255 251 167 255 251 168
255 251 168 255 250 168 255 250 168 255 250 168 255 250 168 255 249
168 255 249 168 255 249 168 255 248 168 255 248 168 255 248 168 255
247 168 255 247 168 255 246 168 255 246 168 255 245 168 255 245 167
255 244 167 255 243 167 255 243 167 255 242 167 255 241 166 255 241
166 255 240 166 255 239 165 255 239 165 255 238 165 255 237 164 255
236 164 255 235 164 255 234 163 255 233 163 255 233 162 255 232 162
255 231 161 255 230 161 255 229 160 255 228 159 255 227 159 255 226
158 255 225 158 255 224 157 255 222 156 255 221 156 255 220 155 255
219 154 255 218 153 255 217 153 255 216 152 255 215 151 255 80 125 62
71 107 55 64 95 51 61 88 49 66 87 56 67 80 54 77 74 56 68 66 50 47 56
37 39 49 32 36 46 30 35 43 29 33 40 28 31 38 27 30 36 26 29 33 25 27
31 25 26 29 24 25 27 23 23 25 22 22 23 21 21 22 21 20 20 20 19 18 19
18 17 19 17 16 18 17 16 18 16 15 18 16 15 18 15 14 17 15 14 17 14 13
17 14 13 17 13 13 17 13 12 16 12 12 16 12 12 16 12 12 16 12 12 16 12
12 16 12 12 16 12 12 16 12 12 16 12 12 16 12 12 16 12 12 16 12 12 16
12 12 16 12 12 16 12 12 16 12 12 16 12 12 16 12 12 16 12 12 16 12 12
16 12 12 16 12 12 16 12 12 16 12 12 16 12 12 16 12 12 16 12 12 16 12
12 16 12 12 16
99 100 90 103 104 93 106 108 96 109 111 100 112 114 103 115 118 106
118 121 109 121 124 112 124 127 114 126 130 117 129 133 120 132 136
122 134 139 125 137 142 127 139 144 130 142 148 133 159 160 152 223
207 227 255 249 255 228 214 228 178 180 166 175 179 161 235 249 236
188 192 171 195 198 176 202 204 181 238 230 227 255 255 255 255 255
255 255 255 255 255 255 255 255 255 255 215 139 255 216 140 255 217
140 255 218 141 255 220 142 255 221 143 255 222 143 255 223 144 255
224 145 255 225 146 255 227 146 255 228 147 255 229 148 255 230 148
255 231 149 255 232 150 255 233 151 255 234 151 255 235 152 255 236
153 255 237 153 255 238 154 255 238 154 255 239 155 255 240 156 255
241 156 255 242 157 255 242 157 255 243 158 255 244 158 255 244 159
255 245 159 255 245 160 255 246 160 255 246 161 255 247 161 255 247
162 255 247 162 255 248 163 255 248 163 255 248 163 255 249 164 255
249 164 255 249 164 255 249 165 255 249 165 255 249 165 255 250 166
255 250 166 255 250 166 255 250 166 255 250 167 255 250 167 255 249
167 255 249 167 255 249 167 255 249 168 255 249 168 255 249 168 255
248 168 255 248 168 255 248 168 255 248 168 255 247 168 255 247 168
255 247 168 255 246 168 255 246 168 255 245 168 255 245 168 255 244
168 255 244 168 255 243 167 255 243 167 255 242 167 255 242 167 255
241 167 255 241 166 255 240 166 255 239 166 255 238 166 255 238 165
255 237 165 255 236 165 255 235 164 255 235 164 255 234 163 255 233
163 255 232 162 255 231 162 255 230 161 255 229 161 255 228 160 255
227 160 255 226 159 255 225 158 255 224 158 255 223 157 255 222 156
255 221 156 255 220 155 255 219 154 255 218 153 255 83 133 61 73 111
57 65 97 51 60 87 48 58 81 46 60 76 48 96 80 67 113 80 76 69 62 50 42
50 34 37 46 31 35 43 29 33 41 28 32 38 27 30 36 26 29 33 26 27 31 25
26 29 24 25 27 23 23 25 22 22 23 21 21 21 21 20 20 20 19 18 19 18 17
19 17 16 18 17 16 18 16 15 18 16 15 18 15 14 17 15 14 17 14 14 17 14
13 17 13 13 17 13 12 16 12 12 16 12 12 16 12 12 16 12 12 16 12 12 16
12 12 16 12 12 16 12 12 16 12 12 16 12 12 16 12 12 16 12 12 16 12 12
16 12 12 16 12 12 16 12 12 16 12 12 16 12 12 16 12 12 16 12 12 16 12
12 16 12 12 16 12 12 16 12 12 16 12 12 16 12 12 16 12 12 16 12 12 16
12 12 16 12 12 16
100 101 90 103 104 93 106 108 97 109 111 100 112 115 103 115 118 106
118 121 109 121 124 112 124 127 114 126 130 117 129 133 120 132 136
122 134 139 125 136 142 127 139 144 130 143 148 134 162 162 156 229
210 234 255 245 255 215 204 216 170 173 160 169 174 156 175 180 161
182 186 166 206 204 196 249 236 252 255 255 255 255 255 255 255 255
255 255 255 255 255 255 255 255 255 255 215 139 255 216 140 255 217
140 255 218 141 255 219 142 255 220 143 255 221 143 255 222 144 255
224 145 255 225 145 255 226 146 255 227 147 255 228 147 255 229 148
255 230 149 255 231 149 255 232 150 255 233 151 255 233 151 255 234
152 255 235 153 255 236 153 255 237 154 255 238 154 255 238 155 255
239 156 255 240 156 255 240 157 255 241 157 255 242 158 255 242 158
255 243 159 255 243 159 255 244 160 255 244 160 255 245 161 255 245
161 255 245 161 255 246 162 255 246 162 255 246 163 255 247 163 255
247 163 255 247 164 255 247 164 255 248 164 255 248 165 255 248 165
255 248 165 255 248 166 255 248 166 255 248 166 255 248 166 255 248
167 255 248 167 255 248 167 255 248 167 255 248 167 255 248 167 255
247 168 255 247 168 255 247 168 255 247 168 255 247 168 255 246 168
255 246 168 255 246 168 255 246 168 255 245 168 255 245 168 255 244
168 255 244 168 255 244 168 255 243 168 255 243 168 255 242 168 255
242 167 255 241 167 255 240 167 255 240 167 255 239 166 255 239 166
255 238 166 255 237 165 255 236 165 255 236 165 255 235 164 255 234
164 255 233 163 255 232 163 255 232 163 255 231 162 255 230 161 255
229 161 255 228 160 255 227 160 255 226 159 255 225 158 255 224 158
255 223 157 255 222 156 255 220 156 255 219 155 255 76 116 59 67 100
52 61 89 48 56 81 45 55 74 43 89 78 63 156 94 101 114 76 76 54 54 41
38 47 31 35 44 30 33 41 29 32 38 28 30 36 27 29 34 26 27 31 25 26 29
24 25 27 23 23 25 22 22 23 21 21 21 21 20 20 20 19 18 19 18 17 19 17
17 19 17 16 18 16 16 18 16 15 18 15 15 18 15 14 17 14 14 17 14 13 17
13 13 17 13 12 16 12 12 16 12 12 16 12 12 16 12 12 16 12 12 16 12 12
16 12 12 16 12 12 16 12 12 16 12 12 16 12 12 16 12 12 16 12 12 16 12
12 16 12 12 16 12 12 16 12 12 16 12 12 16 12 12 16 12 12 16 12 12 16
12 12 16 12 12 16 12 12 16 12 12 16 12 12 16 12 12 16 12 12 16 12 12
16 12 12 16 12 12 16
100 101 90 103 104 93 106 108 97 109 111 100 112 114 103 115 118 106
118 121 109 121 124 111 123 127 114 126 130 117 129 133 120 131 136
122 134 139 125 136 141 127 138 144 129 141 147 132 191 226 173 174
171 170 185 180 182 166 168 160 157 164 148 162 169 151 169 175 156
219 212 224 255 244 255 255 255 255 255 255 255 255 255 255 255 255
255 255 255 255 255 255 255 255 255 255 214 139 255 215 140 255 217
140 255 218 141 255 219 142 255 220 142 255 221 143 255 222 144 255
223 144 255 224 145 255 225 146 255 226 146 255 227 147 255 228 148
255 228 148 255 229 149 255 230 150 255 231 150 255 232 151 255 233
151 255 234 152 255 234 153 255 235 153 255 236 154 255 237 154 255
237 155 255 238 155 255 239 156 255 239 156 255 240 157 255 240 157
255 241 158 255 241 158 255 242 159 255 242 159 255 243 160 255 243
160 255 244 161 255 244 161 255 244 162 255 245 162 255 245 162 255
245 163 255 245 163 255 246 163 255 246 164 255 246 164 255 246 164
255 246 165 255 246 165 255 247 165 255 247 166 255 247 166 255 247
166 255 247 166 255 247 167 255 247 167 255 247 167 255 247 167 255
247 167 255 247 168 255 246 168 255 246 168 255 246 168 255 246 168
255 246 168 255 246 168 255 245 168 255 245 168 255 245 168 255 244
168 255 244 168 255 244 168 255 243 168 255 243 168 255 243 168 255
242 168 255 242 168 255 241 168 255 241 168 255 240 167 255 239 167
255 239 167 255 238 167 255 238 166 255 237 166 255 236 166 255 235
165 255 235 165 255 234 164 255 233 164 255 232 163 255 231 163 255
230 162 255 229 162 255 228 161 255 227 161 255 227 160 255 225 159
255 224 159 255 223 158 255 222 157 255 81 125 62 69 104 54 63 92 49
57 82 45 53 74 42 64 72 48 140 90 92 156 89 101 77 61 55 42 48 34 36
44 30 34 41 29 32 39 28 31 36 27 29 34 26 28 32 25 26 29 24 25 27 23
24 25 22 22 23 21 21 22 21 20 20 20 19 18 19 18 17 19 18 17 19 17 16
18 17 16 18 16 15 18 15 15 18 15 14 17 14 14 17 14 13 17 13 13 17 13
12 16 12 12 16 12 12 16 12 12 16 12 12 16 12 12 16 12 12 16 12 12 16
12 12 16 12 12 16 12 12 16 12 12 16 12 12 16 12 12 16 12 12 16 12 12
16 12 12 16 12 12 16 12 12 16 12 12 16 12 12 16 12 12 16 12 12 16 12
12 16 12 12 16 12 12 16 12 12 16 12 12 16 12 12 16 12 12 16 12 12 16
12 12 16 12 12 16
100 101 90 103 104 93 106 108 96 109 111 99 112 114 102 115 117 105
118 121 108 120 124 111 123 127 114 126 130 116 128 132 119 131 135
122 133 138 124 136 141 126 152 162 140 173 197 155 189 225 168 197
239 176 149 154 141 149 154 140 172 173 171 194 194 206 243 227 255
255 248 255 255 255 255 255 255 255 255 255 255 255 255 255 255 255
255 255 255 255 255 255 255 255 255 255 214 139 255 215 140 255 216
140 255 217 141 255 218 142 255 219 142 255 220 143 255 221 143 255
222 144 255 223 145 255 224 145 255 225 146 255 225 147 255 226 147
255 227 148 255 228 148 255 229 149 255 230 150 255 230 150 255 231
151 255 232 151 255 233 152 255 233 153 255 234 153 255 235 154 255
235 154 255 236 155 255 237 155 255 237 156 255 238 156 255 238 157
255 239 157 255 240 158 255 240 158 255 240 159 255 241 159 255 241
160 255 242 160 255 242 160 255 242 161 255 243 161 255 243 162 255
243 162 255 244 162 255 244 163 255 244 163 255 244 164 255 245 164
255 245 164 255 245 165 255 245 165 255 245 165 255 245 166 255 246
166 255 246 166 255 246 166 255 246 167 255 246 167 255 246 167 255
246 167 255 246 168 255 246 168 255 246 168 255 246 168 255 246 168
255 245 168 255 245 169 255 245 169 255 245 169 255 245 169 255 245
169 255 244 169 255 244 169 255 244 169 255 243 169 255 243 169 255
243 169 255 242 169 255 242 169 255 241 168 255 241 168 255 240 168
255 240 168 255 239 168 255 239 167 255 238 167 255 237 167 255 237
166 255 236 166 255 235 166 255 234 165 255 234 165 255 233 164 255
232 164 255 231 163 255 230 163 255 229 162 255 228 161 255 227 161
255 226 160 255 225 159 255 224 159 255 73 110 56 64 95 50 59 84 46 54
76 43 52 69 41 85 74 60 141 86 92 98 68 67 49 51 38 37 45 30 34 42 29
32 39 28 31 37 27 29 34 26 28 32 25 26 30 24 25 28 23 24 25 22 23 24
22 21 22 21 20 20 20 19 18 19 18 17 19 18 17 19 17 16 18 17 16 18 16
15 18 16 15 18 15 14 17 15 14 17 14 13 17 14 13 17 13 12 17 13 12 16
12 12 16 12 12 16 12 12 16 12 12 16 12 12 16 12 12 16 12 12 16 12 12
16 12 12 16 12 12 16 12 12 16 12 12 16 12 12 16 12 12 16 12 12 16 12
12 16 12 12 16 12 12 16 12 12 16 12 12 16 12 12 16 12 12 16 12 12 16
12 12 16 12 12 16 12 12 16 12 12 16 12 12 16 12 12 16 12 12 16 12 12
16 12 12 16
99 100 90 102 104 93 106 107 96 109 111 99 111 114 102 114 117 105 117
120 108 120 123 111 123 126 113 125 129 116 128 132 118 130 135 121
133 137 123 135 140 126 149 157 136 161 177 143 172 197 153 177 206
157 180 176 186 191 182 200 240 221 255 255 238 255 255 241 255 255
243 255 255 247 255 255 251 255 255 255 255 255 255 255 255 255 255
255 255 255 255 255 255 255 255 255 213 139 255 214 139 255 215 140
255 216 141 255 217 141 255 218 142 255 219 143 255 220 143 255 221
144 255 222 144 255 223 145 255 223 146 255 224 146 255 225 147 255
226 147 255 227 148 255 227 149 255 228 149 255 229 150 255 230 150
255 230 151 255 231 151 255 232 152 255 233 152 255 233 153 255 234
153 255 234 154 255 235 155 255 236 155 255 236 156 255 237 156 255
237 157 255 238 157 255 238 157 255 239 158 255 239 158 255 240 159
255 240 159 255 240 160 255 241 160 255 241 161 255 241 161 255 242
161 255 242 162 255 242 162 255 243 163 255 243 163 255 243 163 255
244 164 255 244 164 255 244 165 255 244 165 255 244 165 255 244 166
255 245 166 255 245 166 255 245 167 255 245 167 255 245 167 255 245
167 255 245 168 255 245 168 255 245 168 255 245 168 255 245 169 255
245 169 255 245 169 255 245 169 255 245 169 255 245 169 255 245 169
255 245 170 255 244 170 255 244 170 255 244 170 255 244 170 255 243
170 255 243 170 255 243 169 255 242 169 255 242 169 255 241 169 255
241 169 255 240 169 255 240 168 255 239 168 255 239 168 255 238 168
255 237 167 255 237 167 255 236 166 255 235 166 255 234 166 255 234
165 255 233 165 255 232 164 255 231 163 255 230 163 255 229 162 255
228 162 255 227 161 255 78 121 60 67 100 52 60 87 47 55 78 43 51 70 40
54 65 42 87 70 60 92 67 63 55 53 41 38 46 31 35 42 29 33 40 28 31 37
27 30 34 26 28 32 25 27 30 24 25 28 23 24 26 22 23 24 22 22 22 21 20
20 20 19 18 19 19 17 19 18 17 19 17 16 19 17 16 18 16 15 18 16 15 18
15 14 18 15 14 17 14 14 17 14 13 17 13 13 17 13 12 16 12 12 16 12 12
16 12 12 16 12 12 16 12 12 16 12 12 16 12 12 16 12 12 16 12 12 16 12
12 16 12 12 16 12 12 16 12 12 16 12 12 16 12 12 16 12 12 16 12 12 16
12 12 16 12 12 16 12 12 16 12 12 16 12 12 16 12 12 16 12 12 16 12 12
16 12 12 16 12 12 16 12 12 16 12 12 16 12 12 16 12 12 16 12 12 16 12
12 16
99 100 89 102 103 93 105 107 96 108 110 99 111 113 102 114 116 104 116
119 107 119 122 110 122 125 113 124 128 115 127 131 118 129 134 120
132 136 122 134 139 125 140 146 129 150 161 136 157 172 142 155 169
141 249 226 255 254 230 255 253 227 255 253 227 255 255 230 255 255
233 255 255 237 255 255 241 255 255 246 255 255 250 255 255 253 255
255 255 255 255 255 255 255 251 255 213 139 255 214 139 255 214 140
255 215 140 255 216 141 255 217 142 255 218 142 255 219 143 255 220
143 255 221 144 255 221 145 255 222 145 255 223 146 255 224 146 255
225 147 255 225 147 255 226 148 255 227 149 255 228 149 255 228 150
255 229 150 255 230 151 255 230 151 255 231 152 255 232 152 255 232
153 255 233 153 255 233 154 255 234 154 255 234 155 255 235 155 255
236 156 255 236 156 255 237 157 255 237 157 255 237 158 255 238 158
255 238 159 255 239 159 255 239 160 255 240 160 255 240 161 255 240
161 255 241 161 255 241 162 255 241 162 255 242 163 255 242 163 255
242 163 255 243 164 255 243 164 255 243 165 255 243 165 255 243 165
255 244 166 255 244 166 255 244 166 255 244 167 255 244 167 255 245
167 255 245 168 255 245 168 255 245 168 255 245 169 255 245 169 255
245 169 255 245 169 255 245 169 255 245 170 255 245 170 255 245 170
255 245 170 255 245 170 255 244 170 255 244 170 255 244 170 255 244
170 255 244 170 255 243 170 255 243 170 255 243 170 255 242 170 255
242 170 255 241 170 255 241 170 255 240 169 255 240 169 255 239 169
255 239 169 255 238 168 255 237 168 255 237 167 255 236 167 255 235
167 255 234 166 255 233 166 255 233 165 255 232 164 255 231 164 255
230 163 255 229 163 255 71 106 55 63 91 49 57 81 44 52 72 41 48 65 38
53 61 40 65 60 47 54 53 41 40 47 32 35 43 30 33 40 28 32 37 27 30 35
26 28 33 25 27 30 24 26 28 23 24 26 23 23 24 22 22 22 21 20 20 20 19
18 19 19 18 19 18 17 19 18 17 19 17 16 18 16 16 18 16 15 18 15 15 18
15 14 17 14 14 17 14 13 17 13 13 17 13 12 16 12 12 16 12 12 16 12 12
16 12 12 16 12 12 16 12 12 16 12 12 16 12 12 16 12 12 16 12 12 16 12
12 16 12 12 16 12 12 16 12 12 16 12 12 16 12 12 16 12 12 16 12 12 16
12 12 16 12 12 16 12 12 16 12 12 16 12 12 16 12 12 16 12 12 16 12 12
16 12 12 16 12 12 16 12 12 16 12 12 16 12 12 16 12 12 16 12 12 16 12
12 16
98 99 89 101 103 92 104 106 95 107 109 98 110 112 101 113 115 104 116
119 106 118 121 109 121 124 112 124 127 114 143 142 141 155 151 156
157 156 161 148 148 146 136 142 127 230 209 255 238 215 255 241 217
255 242 218 255 243 218 255 244 219 255 245 219 255 247 221 255 251
225 255 254 229 255 255 233 255 255 237 255 255 241 255 255 244 255
255 247 255 255 247 255 211 138 255 212 139 255 213 139 255 214 140
255 215 140 255 215 141 255 216 141 255 217 142 255 218 143 255 219
143 255 219 144 255 220 144 255 221 145 255 222 145 255 222 146 255
223 146 255 224 147 255 225 148 255 225 148 255 226 149 255 227 149
255 227 150 255 228 150 255 229 151 255 229 151 255 230 152 255 231
152 255 231 153 255 232 153 255 232 154 255 233 154 255 233 155 255
234 155 255 234 156 255 235 156 255 235 157 255 236 157 255 236 158
255 237 158 255 237 159 255 238 159 255 238 160 255 239 160 255 239
161 255 239 161 255 240 161 255 240 162 255 240 162 255 241 163 255
241 163 255 241 164 255 242 164 255 242 164 255 242 165 255 243 165
255 243 166 255 243 166 255 243 166 255 244 167 255 244 167 255 244
167 255 244 168 255 244 168 255 244 168 255 245 169 255 245 169 255
245 169 255 245 170 255 245 170 255 245 170 255 245 170 255 245 170
255 245 171 255 245 171 255 245 171 255 245 171 255 245 171 255 244
171 255 244 171 255 244 171 255 244 171 255 244 171 255 243 171 255
243 171 255 242 171 255 242 171 255 242 171 255 241 170 255 241 170
255 240 170 255 239 169 255 239 169 255 238 169 255 237 168 255 237
168 255 236 167 255 235 167 255 234 166 255 233 166 255 232 165 255
232 165 255 77 121 56 66 97 51 59 84 46 53 74 42 49 67 39 46 60 36 47
55 37 47 52 36 40 47 32 36 44 30 34 41 29 32 38 27 30 35 26 29 33 25
27 31 25 26 28 24 25 26 23 23 24 22 22 22 21 21 20 20 20 18 20 19 18
19 18 17 19 18 17 19 17 16 18 17 16 18 16 15 18 15 15 18 15 14 17 14
14 17 14 13 17 13 13 17 13 12 17 13 12 16 12 12 16 12 12 16 12 12 16
12 12 16 12 12 16 12 12 16 12 12 16 12 12 16 12 12 16 12 12 16 12 12
16 12 12 16 12 12 16 12 12 16 12 12 16 12 12 16 12 12 16 12 12 16 12
12 16 12 12 16 12 12 16 12 12 16 12 12 16 12 12 16 12 12 16 12 12 16
12 12 16 12 12 16 12 12 16 12 12 16 12 12 16 12 12 16 12 12 16 12 12
16
98 99 88 101 102 91 104 105 94 107 108 97 109 111 100 131 127 129 140
135 140 149 141 150 146 138 142 164 153 169 171 159 177 204 185 229
213 193 242 220 198 250 225 202 255 228 205 255 231 207 255 234 209
255 236 211 255 237 212 255 239 214 255 240 215 255 241 215 255 244
218 255 247 222 255 250 225 255 254 229 255 255 233 255 255 236 255
255 238 255 255 236 255 210 138 255 211 138 255 212 139 255 213 139
255 214 140 255 214 141 255 215 141 255 216 142 255 217 142 255 218
143 255 218 143 255 219 144 255 220 144 255 221 145 255 221 145 255
222 146 255 223 147 255 223 147 255 224 148 255 225 148 255 225 149
255 226 149 255 227 150 255 227 150 255 228 151 255 228 151 255 229
152 255 230 152 255 230 153 255 231 153 255 231 154 255 232 154 255
232 155 255 233 155 255 233 156 255 234 156 255 234 157 255 235 157
255 235 158 255 236 158 255 236 159 255 237 159 255 237 160 255 238
160 255 238 161 255 238 161 255 239 162 255 239 162 255 240 162 255
240 163 255 240 163 255 241 164 255 241 164 255 241 165 255 242 165
255 242 165 255 242 166 255 243 166 255 243 167 255 243 167 255 243
168 255 244 168 255 244 168 255 244 169 255 244 169 255 244 169 255
245 170 255 245 170 255 245 170 255 245 170 255 245 171 255 245 171
255 245 171 255 245 171 255 245 172 255 245 172 255 245 172 255 245
172 255 245 172 255 245 172 255 245 172 255 244 172 255 244 172 255
244 172 255 243 172 255 243 172 255 243 172 255 242 172 255 242 171
255 241 171 255 241 171 255 240 170 255 239 170 255 239 170 255 238
169 255 237 169 255 237 168 255 236 168 255 235 167 255 234 167 255
233 166 255 70 105 54 61 89 47 55 78 43 50 69 40 46 61 37 43 55 34 42
51 34 39 48 32 36 44 30 34 41 29 32 39 28 31 36 27 29 34 26 28 31 25
26 29 24 25 27 23 24 25 22 22 23 21 21 21 20 20 19 20 19 18 19 18 17
19 18 17 19 17 16 19 17 16 18 16 15 18 16 15 18 15 14 18 15 14 17 14
13 17 14 13 17 13 13 17 13 12 16 12 12 16 12 12 16 12 12 16 12 12 16
12 12 16 12 12 16 12 12 16 12 12 16 12 12 16 12 12 16 12 12 16 12 12
16 12 12 16 12 12 16 12 12 16 12 12 16 12 12 16 12 12 16 12 12 16 12
12 16 12 12 16 12 12 16 12 12 16 12 12 16 12 12 16 12 12 16 12 12 16
12 12 16 12 12 16 12 12 16 12 12 16 12 12 16 12 12 16 12 12 16 12 12
16
133 123 138 140 129 147 147 135 157 155 142 166 163 148 177 171 155
187 179 162 197 186 168 207 193 174 216 199 179 224 205 184 231 210
188 237 214 192 241 218 195 246 221 198 249 224 201 252 227 203 254
229 205 255 232 207 255 233 208 255 235 210 255 236 211 255 237 211
255 237 212 255 241 215 255 243 218 255 246 221 255 249 224 255 253
227 255 255 227 255 251 220 255 210 138 255 210 138 255 211 139 255
212 139 255 213 140 255 213 140 255 214 141 255 215 141 255 216 142
255 216 142 255 217 143 255 218 143 255 219 144 255 219 145 255 220
145 255 221 146 255 221 146 255 222 147 255 223 147 255 223 148 255
224 148 255 225 149 255 225 149 255 226 150 255 226 150 255 227 151
255 228 151 255 228 152 255 229 152 255 229 153 255 230 153 255 230
154 255 231 154 255 232 155 255 232 155 255 233 156 255 233 156 255
234 157 255 234 157 255 235 158 255 235 158 255 235 159 255 236 159
255 236 160 255 237 160 255 237 161 255 238 161 255 238 162 255 239
162 255 239 163 255 239 163 255 240 164 255 240 164 255 240 164 255
241 165 255 241 165 255 242 166 255 242 166 255 242 167 255 243 167
255 243 168 255 243 168 255 243 168 255 244 169 255 244 169 255 244
170 255 244 170 255 245 170 255 245 171 255 245 171 255 245 171 255
245 171 255 245 172 255 246 172 255 246 172 255 246 172 255 246 173
255 246 173 255 246 173 255 245 173 255 245 173 255 245 173 255 245
173 255 245 173 255 244 173 255 244 173 255 244 173 255 243 173 255
243 172 255 242 172 255 242 172 255 241 172 255 241 171 255 240 171
255 240 171 255 239 170 255 238 170 255 237 169 255 237 169 255 236
168 255 235 168 255 65 95 50 58 82 45 52 72 41 48 64 38 44 57 35 41 52
33 39 49 32 37 45 30 35 42 29 33 39 28 31 37 27 30 34 26 28 32 25 27
29 24 25 27 23 24 25 22 23 23 21 21 21 21 20 19 20 19 18 19 19 18 19
18 17 19 18 17 19 17 16 18 16 16 18 16 15 18 15 15 18 15 14 17 14 14
17 14 13 17 13 13 17 13 12 16 12 12 16 12 12 16 12 12 16 12 12 16 12
12 16 12 12 16 12 12 16 12 12 16 12 12 16 12 12 16 12 12 16 12 12 16
12 12 16 12 12 16 12 12 16 12 12 16 12 12 16 12 12 16 12 12 16 12 12
16 12 12 16 12 12 16 12 12 16 12 12 16 12 12 16 12 12 16 12 12 16 12
12 16 12 12 16 12 12 16 12 12 16 12 12 16 12 12 16 12 12 16 12 12 16
12 12 16
156 138 171 161 143 178 167 148 184 172 153 191 178 158 197 183 162
204 188 167 210 193 171 216 197 175 221 202 179 226 206 183 230 209
186 234 213 189 238 216 192 242 219 195 245 222 197 247 224 200 250
226 202 252 228 203 254 230 205 255 231 206 255 232 207 255 233 208
255 233 208 255 234 209 255 237 212 255 239 214 255 240 216 255 242
217 255 243 216 255 208 137 255 209 137 255 210 138 255 210 138 255
211 139 255 212 139 255 213 140 255 213 140 255 214 141 255 215 142
255 215 142 255 216 143 255 217 143 255 217 144 255 218 144 255 219
145 255 219 145 255 220 146 255 221 146 255 221 147 255 222 147 255
223 148 255 223 148 255 224 149 255 225 149 255 225 150 255 226 150
255 226 151 255 227 151 255 227 152 255 228 152 255 229 153 255 229
153 255 230 154 255 230 154 255 231 155 255 231 155 255 232 156 255
232 156 255 233 157 255 233 157 255 234 158 255 234 158 255 235 159
255 235 159 255 236 160 255 236 160 255 237 161 255 237 161 255 237
162 255 238 162 255 238 163 255 239 163 255 239 164 255 240 164 255
240 165 255 240 165 255 241 166 255 241 166 255 242 167 255 242 167
255 242 168 255 243 168 255 243 169 255 243 169 255 244 169 255 244
170 255 244 170 255 245 171 255 245 171 255 245 171 255 245 172 255
245 172 255 246 172 255 246 173 255 246 173 255 246 173 255 246 173
255 246 173 255 246 174 255 246 174 255 246 174 255 246 174 255 246
174 255 246 174 255 245 174 255 245 174 255 245 174 255 244 174 255
244 174 255 244 173 255 243 173 255 243 173 255 242 173 255 242 172
255 241 172 255 240 172 255 240 171 255 239 171 255 238 170 255 237
170 255 73 111 55 61 88 47 54 76 42 49 67 39 45 59 36 42 54 34 40 50
32 37 46 31 35 43 30 34 40 28 32 37 27 30 35 26 29 32 25 27 30 24 26
28 23 24 25 22 23 23 22 22 21 21 20 19 20 20 18 20 19 18 19 18 17 19
18 17 19 17 16 18 17 16 18 16 15 18 15 15 18 15 14 17 14 14 17 14 13
17 13 13 17 13 12 17 12 12 16 12 12 16 12 12 16 12 12 16 12 12 16 12
12 16 12 12 16 12 12 16 12 12 16 12 12 16 12 12 16 12 12 16 12 12 16
12 12 16 12 12 16 12 12 16 12 12 16 12 12 16 12 12 16 12 12 16 12 12
16 12 12 16 12 12 16 12 12 16 12 12 16 12 12 16 12 12 16 12 12 16 12
12 16 12 12 16 12 12 16 12 12 16 12 12 16 12 12 16 12 12 16 12 12 16
12 12 16
164 142 182 168 147 187 173 151 193 177 155 198 182 159 203 186 163
208 190 167 212 194 171 217 198 174 221 201 178 225 205 181 229 208
184 232 211 187 235 214 190 238 216 192 241 219 194 244 221 196 246
223 198 248 225 200 250 226 201 251 228 203 252 229 203 253 229 204
254 229 204 254 229 203 253 230 205 254 232 207 255 233 208 255 232
207 255 227 200 247 207 137 255 208 137 255 209 138 255 209 138 255
210 139 255 211 139 255 212 140 255 212 140 255 213 141 255 214 141
255 214 142 255 215 142 255 216 143 255 216 143 255 217 144 255 218
144 255 218 145 255 219 145 255 220 146 255 220 146 255 221 147 255
221 147 255 222 148 255 223 148 255 223 149 255 224 149 255 224 150
255 225 150 255 226 151 255 226 151 255 227 152 255 227 152 255 228
153 255 228 153 255 229 154 255 229 154 255 230 155 255 231 155 255
231 156 255 232 156 255 232 157 255 233 158 255 233 158 255 234 159
255 234 159 255 235 160 255 235 160 255 236 161 255 236 161 255 237
162 255 237 162 255 237 163 255 238 163 255 238 164 255 239 164 255
239 165 255 240 165 255 240 166 255 241 166 255 241 167 255 241 167
255 242 168 255 242 168 255 243 169 255 243 169 255 243 170 255 244
170 255 244 170 255 244 171 255 245 171 255 245 172 255 245 172 255
246 172 255 246 173 255 246 173 255 246 173 255 246 174 255 246 174
255 246 174 255 247 174 255 247 174 255 247 175 255 247 175 255 246
175 255 246 175 255 246 175 255 246 175 255 246 175 255 245 175 255
245 175 255 245 174 255 244 174 255 244 174 255 243 174 255 243 174
255 242 173 255 242 173 255 241 172 255 240 172 255 239 171 255 239
171 255 66 97 50 57 81 44 51 70 40 47 62 37 43 55 34 40 51 33 38 48 31
36 44 30 34 41 29 32 38 28 31 36 27 29 33 25 28 31 25 26 28 24 25 26
23 23 24 22 22 22 21 21 20 20 20 19 20 19 18 19 19 17 19 18 17 19 17
16 19 17 16 18 16 15 18 16 15 18 15 14 18 15 14 17 14 13 17 14 13 17
13 13 17 13 12 16 12 12 16 12 12 16 12 12 16 12 12 16 12 12 16 12 12
16 12 12 16 12 12 16 12 12 16 12 12 16 12 12 16 12 12 16 12 12 16 12
12 16 12 12 16 12 12 16 12 12 16 12 12 16 12 12 16 12 12 16 12 12 16
12 12 16 12 12 16 12 12 16 12 12 16 12 12 16 12 12 16 12 12 16 12 12
16 12 12 16 12 12 16 12 12 16 12 12 16 12 12 16 12 12 16 12 12 16 12
12 16
167 144 186 171 148 191 175 152 195 179 155 200 183 159 204 186 163
208 190 166 212 193 170 216 197 173 220 200 176 223 203 179 227 206
182 230 209 184 233 211 187 235 214 189 238 216 191 240 218 193 242
220 195 244 222 197 246 223 198 247 224 199 248 225 199 249 225 200
249 225 199 249 224 198 249 223 197 247 225 199 248 225 199 248 221
195 244 206 136 255 207 136 255 207 137 255 208 137 255 209 138 255
209 138 255 210 139 255 211 139 255 211 140 255 212 140 255 213 141
255 213 141 255 214 142 255 215 142 255 215 143 255 216 143 255 217
144 255 217 144 255 218 145 255 218 145 255 219 146 255 220 146 255
220 147 255 221 147 255 221 148 255 222 148 255 223 149 255 223 149
255 224 150 255 224 150 255 225 151 255 225 151 255 226 152 255 227
153 255 227 153 255 228 154 255 228 154 255 229 155 255 229 155 255
230 156 255 230 156 255 231 157 255 231 157 255 232 158 255 233 158
255 233 159 255 234 159 255 234 160 255 235 160 255 235 161 255 236
161 255 236 162 255 237 162 255 237 163 255 238 164 255 238 164 255
239 165 255 239 165 255 240 166 255 240 166 255 241 167 255 241 167
255 241 168 255 242 168 255 242 169 255 243 169 255 243 170 255 244
170 255 244 171 255 244 171 255 245 172 255 245 172 255 245 172 255
246 173 255 246 173 255 246 173 255 246 174 255 247 174 255 247 174
255 247 175 255 247 175 255 247 175 255 247 175 255 247 175 255 247
176 255 247 176 255 247 176 255 247 176 255 247 176 255 246 176 255
246 176 255 246 175 255 245 175 255 245 175 255 244 175 255 244 175
255 243 174 255 243 174 255 242 174 255 241 173 255 241 173 255 240
172 255 61 89 47 54 75 42 49 65 38 44 57 35 42 53 33 39 49 32 37 46 30
35 42 29 33 39 28 31 36 27 30 34 26 28 31 25 26 29 24 25 26 23 24 24
22 22 22 21 21 20 20 20 19 20 19 18 20 19 18 19 18 17 19 18 17 19 17
16 18 16 16 18 16 15 18 15 15 18 15 14 17 14 14 17 14 13 17 13 13 17
13 12 16 12 12 16 12 12 16 12 12 16 12 12 16 12 12 16 12 12 16 12 12
16 12 12 16 12 12 16 12 12 16 12 12 16 12 12 16 12 12 16 12 12 16 12
12 16 12 12 16 12 12 16 12 12 16 12 12 16 12 12 16 12 12 16 12 12 16
12 12 16 12 12 16 12 12 16 12 12 16 12 12 16 12 12 16 12 12 16 12 12
16 12 12 16 12 12 16 12 12 16 12 12 16 12 12 16 12 12 16 12 12 16 12
12 16
168 143 188 172 147 192 175 151 196 179 154 200 182 158 204 186 161
208 189 165 211 192 168 215 195 171 218 198 174 221 201 177 224 204
179 227 207 182 230 209 184 233 211 186 235 213 188 237 215 190 239
217 192 241 218 193 242 220 194 243 220 195 244 221 195 245 221 195
245 221 195 244 220 193 243 218 191 241 217 190 240 183 177 210 204
135 255 205 136 255 206 136 255 207 137 255 207 137 255 208 138 255
209 138 255 209 139 255 210 139 255 210 140 255 211 140 255 212 141
255 212 141 255 213 142 255 214 142 255 214 143 255 215 143 255 216
144 255 216 144 255 217 145 255 217 145 255 218 146 255 219 146 255
219 147 255 220 147 255 220 148 255 221 148 255 221 149 255 222 149
255 223 150 255 223 150 255 224 151 255 224 151 255 225 152 255 225
152 255 226 153 255 227 153 255 227 154 255 228 154 255 228 155 255
229 155 255 229 156 255 230 156 255 230 157 255 231 157 255 232 158
255 232 158 255 233 159 255 233 160 255 234 160 255 234 161 255 235
161 255 235 162 255 236 162 255 236 163 255 237 163 255 237 164 255
238 164 255 238 165 255 239 166 255 239 166 255 240 167 255 240 167
255 241 168 255 241 168 255 242 169 255 242 169 255 243 170 255 243
170 255 244 171 255 244 171 255 244 172 255 245 172 255 245 173 255
246 173 255 246 173 255 246 174 255 246 174 255 247 175 255 247 175
255 247 175 255 247 175 255 247 176 255 247 176 255 248 176 255 248
176 255 248 176 255 247 176 255 247 176 255 247 177 255 247 176 255
247 176 255 246 176 255 246 176 255 246 176 255 245 176 255 245 176
255 244 175 255 244 175 255 243 175 255 243 174 255 242 174 255 241
173 255 58 82 44 51 70 39 46 61 36 43 55 34 40 51 32 38 47 31 36 44 30
34 40 28 32 37 27 30 35 26 29 32 25 27 30 24 25 27 23 24 25 22 23 23
21 21 21 21 20 19 20 20 18 20 19 18 19 18 17 19 18 17 19 17 16 19 17
16 18 16 15 18 16 15 18 15 14 18 14 14 17 14 13 17 13 13 17 13 12 17
12 12 16 12 12 16 12 12 16 12 12 16 12 12 16 12 12 16 12 12 16 12 12
16 12 12 16 12 12 16 12 12 16 12 12 16 12 12 16 12 12 16 12 12 16 12
12 16 12 12 16 12 12 16 12 12 16 12 12 16 12 12 16 12 12 16 12 12 16
12 12 16 12 12 16 12 12 16 12 12 16 12 12 16 12 12 16 12 12 16 12 12
16 12 12 16 12 12 16 12 12 16 12 12 16 12 12 16 12 12 16 12 12 16 12
12 16
168 143 188 171 146 192 175 150 196 178 153 199 182 156 203 185 160
206 188 163 210 191 166 213 194 169 216 197 171 219 199 174 222 202
177 225 204 179 227 206 181 230 209 183 232 210 185 234 212 187 236
214 188 237 215 189 238 216 190 239 217 191 240 217 191 240 217 190
240 216 189 239 214 187 238 211 184 235 133 109 215 203 135 255 204
135 255 204 135 255 205 136 255 206 136 255 206 137 255 207 137 255
208 138 255 208 138 255 209 139 255 210 139 255 210 140 255 211 140
255 211 141 255 212 141 255 213 142 255 213 142 255 214 143 255 214
143 255 215 144 255 216 144 255 216 145 255 217 145 255 217 146 255
218 146 255 219 147 255 219 147 255 220 148 255 220 148 255 221 149
255 222 149 255 222 150 255 223 150 255 223 151 255 224 151 255 224
152 255 225 152 255 226 153 255 226 153 255 227 154 255 227 154 255
228 155 255 228 155 255 229 156 255 229 157 255 230 157 255 231 158
255 231 158 255 232 159 255 232 159 255 233 160 255 233 160 255 234
161 255 234 162 255 235 162 255 236 163 255 236 163 255 237 164 255
237 164 255 238 165 255 238 165 255 239 166 255 239 167 255 240 167
255 240 168 255 241 168 255 241 169 255 242 169 255 242 170 255 243
170 255 243 171 255 244 171 255 244 172 255 245 172 255 245 173 255
245 173 255 246 174 255 246 174 255 246 175 255 247 175 255 247 175
255 247 176 255 247 176 255 248 176 255 248 176 255 248 177 255 248
177 255 248 177 255 248 177 255 248 177 255 248 177 255 248 177 255
247 177 255 247 177 255 247 177 255 247 177 255 246 177 255 246 176
255 245 176 255 245 176 255 244 176 255 244 175 255 243 175 255 65 97
49 54 76 42 48 65 37 44 57 35 41 53 33 39 49 31 37 45 30 35 42 29 33
39 28 31 36 27 29 33 25 28 30 24 26 28 23 25 26 23 23 23 22 22 21 21
21 19 20 20 19 20 19 18 19 19 18 19 18 17 19 17 16 19 17 16 18 16 15
18 16 15 18 15 14 18 15 14 17 14 13 17 14 13 17 13 13 17 13 12 16 12
12 16 12 12 16 12 12 16 12 12 16 12 12 16 12 12 16 12 12 16 12 12 16
12 12 16 12 12 16 12 12 16 12 12 16 12 12 16 12 12 16 12 12 16 12 12
16 12 12 16 12 12 16 12 12 16 12 12 16 12 12 16 12 12 16 12 12 16 12
12 16 12 12 16 12 12 16 12 12 16 12 12 16 12 12 16 12 12 16 12 12 16
12 12 16 12 12 16 12 12 16 12 12 16 12 12 16 12 12 16 12 12 16 12 12
16
121 113 132 146 136 170 149 139 173 177 151 198 180 154 202 183 157
205 186 160 208 189 163 211 192 166 214 194 169 217 197 171 219 199
174 222 201 176 224 204 178 226 206 180 229 207 182 230 209 183 232
210 184 233 211 185 234 212 186 235 212 186 236 212 186 236 212 185
235 180 172 207 153 148 164 201 133 255 202 134 255 202 134 255 203
135 255 204 135 255 204 136 255 205 136 255 206 137 255 206 137 255
207 138 255 207 138 255 208 139 255 209 139 255 209 140 255 210 140
255 211 140 255 211 141 255 212 141 255 212 142 255 213 142 255 214
143 255 214 143 255 215 144 255 215 144 255 216 145 255 216 145 255
217 146 255 218 146 255 218 147 255 219 147 255 219 148 255 220 148
255 220 149 255 221 149 255 222 150 255 222 150 255 223 151 255 223
151 255 224 152 255 224 152 255 225 153 255 226 154 255 226 154 255
227 155 255 227 155 255 228 156 255 228 156 255 229 157 255 230 157
255 230 158 255 231 158 255 231 159 255 232 160 255 232 160 255 233
161 255 234 161 255 234 162 255 235 162 255 235 163 255 236 164 255
236 164 255 237 165 255 238 165 255 238 166 255 239 166 255 239 167
255 240 168 255 240 168 255 241 169 255 241 169 255 242 170 255 242
170 255 243 171 255 243 171 255 244 172 255 244 172 255 245 173 255
245 173 255 246 174 255 246 174 255 246 175 255 247 175 255 247 176
255 247 176 255 248 176 255 248 176 255 248 177 255 248 177 255 248
177 255 248 177 255 248 178 255 248 178 255 248 178 255 248 178 255
248 178 255 248 178 255 247 178 255 247 178 255 247 177 255 246 177
255 246 177 255 246 177 255 245 176 255 244 176 255 244 176 255 60 87
45 51 70 39 46 60 36 43 55 34 40 50 32 38 47 31 36 43 29 33 40 28 32
37 27 30 34 26 28 31 25 27 29 24 25 26 23 24 24 22 22 22 21 21 20 20
20 19 20 19 18 20 19 18 19 18 17 19 18 17 19 17 16 19 16 16 18 16 15
18 15 15 18 15 14 17 14 14 17 14 13 17 13 13 17 13 12 17 12 12 16 12
12 16 12 12 16 12 12 16 12 12 16 12 12 16 12 12 16 12 12 16 12 12 16
12 12 16 12 12 16 12 12 16 12 12 16 12 12 16 12 12 16 12 12 16 12 12
16 12 12 16 12 12 16 12 12 16 12 12 16 12 12 16 12 12 16 12 12 16 12
12 16 12 12 16 12 12 16 12 12 16 12 12 16 12 12 16 12 12 16 12 12 16
12 12 16 12 12 16 12 12 16 12 12 16 12 12 16 12 12 16 12 12 16 12 12
16
119 111 130 122 114 133 125 117 136 128 120 139 130 123 141 155 146
180 158 148 183 160 151 185 162 154 188 165 156 190 194 168 217 196
171 219 199 173 221 200 175 223 202 176 225 204 178 227 205 179 228
177 170 204 178 170 205 178 171 205 178 170 205 177 170 204 151 146
163 132 108 213 200 133 255 201 133 255 201 134 255 202 134 255 202
135 255 203 135 255 204 136 255 204 136 255 205 136 255 205 137 255
206 137 255 207 138 255 207 138 255 208 139 255 208 139 255 209 140
255 210 140 255 210 141 255 211 141 255 211 142 255 212 142 255 213
143 255 213 143 255 214 144 255 214 144 255 215 144 255 215 145 255
216 145 255 217 146 255 217 146 255 218 147 255 218 147 255 219 148
255 219 148 255 220 149 255 221 149 255 221 150 255 222 151 255 222
151 255 223 152 255 223 152 255 224 153 255 225 153 255 225 154 255
226 154 255 226 155 255 227 155 255 228 156 255 228 156 255 229 157
255 229 158 255 230 158 255 230 159 255 231 159 255 232 160 255 232
160 255 233 161 255 233 162 255 234 162 255 235 163 255 235 163 255
236 164 255 236 165 255 237 165 255 238 166 255 238 166 255 239 167
255 239 167 255 240 168 255 240 169 255 241 169 255 241 170 255 242
170 255 243 171 255 243 171 255 244 172 255 244 172 255 245 173 255
245 173 255 245 174 255 246 174 255 246 175 255 247 175 255 247 176
255 247 176 255 247 176 255 248 177 255 248 177 255 248 177 255 248
178 255 248 178 255 248 178 255 248 178 255 248 178 255 248 178 255
248 178 255 248 178 255 248 178 255 248 178 255 247 178 255 247 178
255 247 178 255 246 177 255 246 177 255 245 177 255 245 176 255 56 80
42 49 65 37 44 58 35 41 53 33 39 48 31 37 45 30 34 41 29 32 38 27 31
35 26 29 32 25 27 30 24 26 27 23 24 25 22 23 22 21 21 20 20 20 19 20
20 19 20 19 18 19 18 17 19 18 17 19 17 16 19 17 16 18 16 15 18 16 15
18 15 14 18 15 14 17 14 13 17 13 13 17 13 12 17 13 12 16 12 12 16 12
12 16 12 12 16 12 12 16 12 12 16 12 12 16 12 12 16 12 12 16 12 12 16
12 12 16 12 12 16 12 12 16 12 12 16 12 12 16 12 12 16 12 12 16 12 12
16 12 12 16 12 12 16 12 12 16 12 12 16 12 12 16 12 12 16 12 12 16 12
12 16 12 12 16 12 12 16 12 12 16 12 12 16 12 12 16 12 12 16 12 12 16
12 12 16 12 12 16 12 12 16 12 12 16 12 12 16 12 12 16 12 12 16 12 12
16
117 109 127 120 112 130 123 115 133 125 118 136 128 120 139 130 123
141 133 126 144 135 128 146 137 130 148 139 133 150 141 135 152 143
137 154 167 159 193 169 161 195 170 162 197 148 143 160 149 143 160
149 144 161 149 144 161 149 144 161 149 143 160 132 108 212 198 132
255 199 132 255 199 133 255 200 133 255 201 134 255 201 134 255 202
134 255 202 135 255 203 135 255 204 136 255 204 136 255 205 137 255
205 137 255 206 138 255 206 138 255 207 139 255 208 139 255 208 139
255 209 140 255 209 140 255 210 141 255 211 141 255 211 142 255 212
142 255 212 143 255 213 143 255 213 144 255 214 144 255 215 145 255
215 145 255 216 146 255 216 146 255 217 147 255 217 147 255 218 148
255 219 148 255 219 149 255 220 149 255 220 150 255 221 150 255 221
151 255 222 151 255 223 152 255 223 152 255 224 153 255 224 153 255
225 154 255 225 154 255 226 155 255 227 156 255 227 156 255 228 157
255 228 157 255 229 158 255 230 158 255 230 159 255 231 160 255 231
160 255 232 161 255 233 161 255 233 162 255 234 163 255 234 163 255
235 164 255 236 164 255 236 165 255 237 166 255 237 166 255 238 167
255 239 167 255 239 168 255 240 168 255 240 169 255 241 170 255 241
170 255 242 171 255 243 171 255 243 172 255 244 172 255 244 173 255
245 173 255 245 174 255 245 174 255 246 175 255 246 175 255 247 176
255 247 176 255 247 177 255 248 177 255 248 177 255 248 177 255 248
178 255 248 178 255 248 178 255 249 178 255 249 178 255 249 179 255
248 179 255 248 179 255 248 179 255 248 179 255 248 178 255 247 178
255 247 178 255 247 178 255 246 178 255 246 177 255 245 177 255 53 74
40 46 61 36 43 55 34 40 51 32 38 46 31 35 43 29 33 39 28 31 36 27 30
33 26 28 31 25 26 28 24 25 26 23 23 23 22 22 21 21 21 20 20 20 19 20
19 18 20 19 18 19 18 17 19 18 17 19 17 16 18 16 16 18 16 15 18 15 14
18 15 14 17 14 14 17 14 13 17 13 13 17 13 12 17 12 12 16 12 12 16 12
12 16 12 12 16 12 12 16 12 12 16 12 12 16 12 12 16 12 12 16 12 12 16
12 12 16 12 12 16 12 12 16 12 12 16 12 12 16 12 12 16 12 12 16 12 12
16 12 12 16 12 12 16 12 12 16 12 12 16 12 12 16 12 12 16 12 12 16 12
12 16 12 12 16 12 12 16 12 12 16 12 12 16 12 12 16 12 12 16 12 12 16
12 12 16 12 12 16 12 12 16 12 12 16 12 12 16 12 12 16 12 12 16 12 12
16
114 106 125 117 109 128 120 112 130 122 115 133 125 117 136 127 120
138 130 122 140 132 125 143 134 127 145 136 129 147 137 131 149 139
133 150 140 134 152 142 136 153 143 137 154 144 138 155 144 139 156
145 139 156 77 59 124 77 60 124 131 107 212 197 131 255 198 132 255
198 132 255 199 132 255 199 133 255 200 133 255 201 134 255 201 134
255 202 135 255 202 135 255 203 136 255 203 136 255 204 136 255 205
137 255 205 137 255 206 138 255 206 138 255 207 139 255 207 139 255
208 140 255 209 140 255 209 141 255 210 141 255 210 141 255 211 142
255 211 142 255 212 143 255 213 143 255 213 144 255 214 144 255 214
145 255 215 145 255 215 146 255 216 146 255 216 147 255 217 147 255
218 148 255 218 148 255 219 149 255 219 149 255 220 150 255 220 150
255 221 151 255 222 151 255 222 152 255 223 153 255 223 153 255 224
154 255 225 154 255 225 155 255 226 155 255 226 156 255 227 156 255
228 157 255 228 158 255 229 158 255 229 159 255 230 159 255 231 160
255 231 160 255 232 161 255 232 162 255 233 162 255 234 163 255 234
163 255 235 164 255 235 165 255 236 165 255 237 166 255 237 166 255
238 167 255 239 168 255 239 168 255 240 169 255 240 169 255 241 170
255 241 171 255 242 171 255 243 172 255 243 172 255 244 173 255 244
173 255 245 174 255 245 174 255 246 175 255 246 175 255 246 176 255
247 176 255 247 176 255 247 177 255 248 177 255 248 178 255 248 178
255 248 178 255 248 178 255 248 178 255 248 179 255 249 179 255 248
179 255 248 179 255 248 179 255 248 179 255 248 179 255 248 179 255
247 178 255 247 178 255 246 178 255 246 178 255 246 177 255 50 69 38
45 59 35 42 53 33 39 49 31 37 45 30 34 41 28 32 38 27 30 35 26 29 32
25 27 29 24 25 26 23 24 24 22 22 22 21 21 20 20 20 19 20 20 19 20 19
18 19 18 17 19 18 17 19 17 16 19 17 16 18 16 15 18 15 15 18 15 14 18
14 14 17 14 13 17 13 13 17 13 12 17 12 12 16 12 12 16 12 12 16 12 12
16 12 12 16 12 12 16 12 12 16 12 12 16 12 12 16 12 12 16 12 12 16 12
12 16 12 12 16 12 12 16 12 12 16 12 12 16 12 12 16 12 12 16 12 12 16
12 12 16 12 12 16 12 12 16 12 12 16 12 12 16 12 12 16 12 12 16 12 12
16 12 12 16 12 12 16 12 12 16 12 12 16 12 12 16 12 12 16 12 12 16 12
12 16 12 12 16 12 12 16 12 12 16 12 12 16 12 12 16 12 12 16 12 12 16
