P3
400 200
255
14 8 13 14 8 13 14 8 13 14 8 13 14 8 13 14 8 13 14 8 13 14 8 13 14 8
13 14 8 13 14 8 13 14 8 13 14 8 13 14 8 13 14 8 13 14 8 13 14 8 13 14
8 13 14 8 13 14 8 13 14 8 13 14 8 13 14 8 13 14 8 13 14 8 13 14 8 13
14 8 13 14 8 13 14 8 13 14 8 13 14 8 13 14 8 13 14 8 13 14 8 13 14 8
13 14 8 13 14 8 13 14 8 13 14 8 13 14 8 13 14 8 13 14 8 13 14 8 13 14
8 13 14 8 13 14 8 13 14 8 13 14 8 13 14 8 13 14 8 13 25 13 15 26 13 15
26 13 15 26 13 15 26 13 15 26 13 15 26 13 15 26 13 15 26 13 15 26 13
15 26 13 15 26 13 15 26 13 15 26 13 15 26 13 15 26 13 15 26 13 15 26
13 15 26 13 15 26 13 15 26 13 15 26 13 15 26 13 15 26 13 16 26 13 16
26 13 16 26 13 16 26 13 16 26 13 16 26 13 16 26 13 16 26 13 16 26 13
16 26 13 16 26 13 16 26 13 16 26 13 16 26 13 16 26 13 16 26 13 16 26
13 16 26 13 16 26 13 16 26 13 16 26 13 16 26 13 16 26 13 16 26 13 16
26 13 16 26 13 16 26 13 16 26 13 16 26 13 16 26 13 16 26 13 16 26 13
16 22 13 25 17 11 22 17 11 22 17 11 22 17 11 22 17 11 22 17 11 22 17
11 22 17 11 22 17 11 22 17 11 22 17 11 22 17 11 22 17 11 22 17 11 22
17 11 22 17 11 22 17 11 22 17 11 22 17 11 22 17 11 22 17 11 22 17 11
22 17 11 22 17 11 22 17 11 22 17 11 22 17 11 22 17 11 22 17 11 22 17
11 22 17 11 22 17 11 22 17 11 22 17 11 22 17 11 22 17 11 23 18 11 25
18 12 27 18 12 29 18 13 31 18 13 32 19 13 34 19 14 36 19 14 38 19 14
40 20 15 42 20 15 44 20 16 46 20 16 48 21 16 50 21 17 52 21 17 54 21
17 56 21 18 57 22 18 59 22 18 61 22 19 63 22 19 65 23 19 66 23 20 68
23 20 70 24 21 72 28 23 74 31 25 77 36 27 80 40 30 82 45 32 85 53 37
88 71 46 95 79 50 98 73 47 96 88 54 101 27 14 16 27 14 16 27 14 16 27
14 16 27 14 16 27 14 16 27 14 16 27 14 16 27 14 16 27 14 16 27 14 16
27 14 16 27 14 16 27 14 16 27 14 16 27 14 16 27 14 16 27 14 16 27 14
16 27 14 16 27 14 16 27 14 16 27 14 16 27 14 16 27 14 16 27 14 16 27
14 16 27 14 16 27 14 16 27 14 16 27 14 16 27 14 16 27 14 16 27 14 16
27 14 16 27 14 16 27 14 16 27 14 16 27 14 16 27 14 16 27 14 16 27 14
16 27 14 16 27 14 16 27 14 16 27 14 16 27 14 16 27 14 16 27 14 16 27
14 16 27 14 16 27 14 16 27 14 16 27 14 16 27 14 16 27 14 16 27 14 16
27 14 16 27 14 16 27 14 16 27 14 16 27 14 16 27 14 16 27 14 16 27 14
16 27 14 16 27 14 16 27 14 16 27 14 16 27 14 16 27 14 16 27 14 16 27
14 16 27 14 16 27 14 16 27 14 16 27 14 16 27 14 16 27 14 16 27 14 16
27 14 16 27 14 16 27 14 16 27 14 16 27 14 16 27 14 16 27 14 16 27 14
16 27 14 16 27 14 16 27 14 16 27 14 16 27 14 16 27 14 16 27 14 16 27
14 16 27 14 16 27 14 16 27 14 16 27 14 16 27 14 16 27 14 16 27 14 16
27 14 16 27 14 16 27 14 16 27 14 16 27 14 16 27 14 16 27 13 16 27 13
16 27 13 16 27 13 16 27 13 16 27 13 16 27 13 16 27 13 16 27 13 16 27
13 16 27 13 16 26 13 16 26 13 16 26 13 16 26 13 16 26 13 16 26 13 16
26 13 16 26 13 16 26 13 16 26 13 16 26 13 16 26 13 16 26 13 16 26 13
16 26 13 16 26 13 16 26 13 16 26 13 16 26 13 16 26 13 16 26 13 16 26
13 16 26 13 16 26 13 16 26 13 16 26 13 16 26 13 16 26 13 16 26 13 16
26 13 16 26 13 16 26 13 16 26 13 16 26 13 16 26 13 16 26 13 16 26 13
16 26 13 16 26 13 16 26 13 16 26 13 16 26 13 16 26 13 16 26 13 16 26
13 16 26 13 16 26 13 16 26 13 16 26 13 16 26 13 16 26 13 16 26 13 16
26 13 15 26 13 15 26 13 15 25 13 15 25 13 15 25 13 15 25 13 15 25 13
15 25 13 15 25 13 15 25 13 15 25 13 15 25 13 15 25 13 15 25 13 15 25
13 15 25 13 15 25 13 15 25 13 15 25 13 15 25 13 15 25 13 15 25 13 15
25 13 15 25 13 15 25 13 15 25 13 15 25 13 15 25 13 15 25 13 15 25 13
15 25 13 15 25 13 15 25 13 15 25 13 15 25 13 15 25 13 15 25 13 15 25
13 15 25 13 15 25 13 15 25 13 15 25 13 15 25 13 15 25 13 15 25 13 15
25 13 15 25 13 15 25 13 15
14 8 13 14 8 13 14 8 13 14 8 13 14 8 13 14 8 13 14 8 13 14 8 13 14 8
13 14 8 13 14 8 13 14 8 13 14 8 13 14 8 13 14 8 13 14 8 13 14 8 13 14
8 13 14 8 13 14 8 13 14 8 13 14 8 13 14 8 13 14 8 13 14 8 13 14 8 13
14 8 13 14 8 13 14 8 13 14 8 13 14 8 13 14 8 13 14 8 13 14 8 13 14 8
13 14 8 13 14 8 13 14 8 13 14 8 13 14 8 13 14 8 13 14 8 13 14 8 13 14
8 13 14 8 13 14 8 13 14 8 13 14 8 13 14 8 13 14 8 13 14 8 13 26 13 15
26 13 15 26 13 15 26 13 15 26 13 16 26 13 16 26 13 16 26 13 16 26 13
16 26 13 16 26 13 16 26 13 16 26 13 16 26 13 16 26 13 16 26 13 16 26
13 16 26 13 16 26 13 16 26 13 16 26 13 16 26 13 16 26 13 16 26 13 16
26 13 16 26 13 16 26 13 16 26 13 16 26 13 16 26 13 16 26 13 16 26 13
16 26 13 16 27 13 16 27 13 16 27 13 16 27 13 16 27 13 16 27 13 16 27
13 16 27 13 16 27 13 16 27 13 16 27 13 16 27 13 16 27 13 16 27 14 16
27 14 16 27 14 16 27 14 16 27 14 16 27 14 16 27 14 16 27 14 16 27 14
16 20 13 24 17 11 22 17 11 22 17 11 22 17 11 22 17 11 22 17 11 22 17
11 22 17 11 22 17 11 22 17 11 22 17 11 22 17 11 22 17 11 22 17 11 22
17 11 22 17 11 22 17 11 22 17 11 22 17 11 22 17 11 22 17 11 22 17 11
22 17 11 22 17 11 22 17 11 22 17 11 22 17 11 22 17 11 22 17 11 22 17
11 22 17 11 22 17 11 22 17 11 22 17 11 22 17 11 22 17 11 24 18 12 26
18 12 28 18 12 30 18 13 32 19 13 34 19 14 36 19 14 38 19 14 40 20 15
42 20 15 44 20 15 46 20 16 48 21 16 50 21 17 51 21 17 53 21 17 55 21
18 57 22 18 59 22 18 61 22 19 63 22 19 65 23 19 66 23 20 68 23 20 70
23 20 72 23 21 73 27 23 76 31 25 79 35 27 81 39 29 84 44 32 87 51 36
90 72 47 97 92 57 104 76 49 99 84 53 102 28 14 16 28 14 16 28 14 16 28
14 16 28 14 16 28 14 16 28 14 16 28 14 16 28 14 16 28 14 16 28 14 16
28 14 16 28 14 16 28 14 16 28 14 16 28 14 16 28 14 16 28 14 16 28 14
16 28 14 16 28 14 16 28 14 16 28 14 16 28 14 16 28 14 16 28 14 16 28
14 16 28 14 16 28 14 16 28 14 16 28 14 16 28 14 16 28 14 16 28 14 16
28 14 16 28 14 16 28 14 16 28 14 16 28 14 16 28 14 16 28 14 16 28 14
16 28 14 16 28 14 16 28 14 16 28 14 16 28 14 16 28 14 16 28 14 16 28
14 16 28 14 16 28 14 16 28 14 16 28 14 16 28 14 16 28 14 16 28 14 16
28 14 16 28 14 16 28 14 16 28 14 16 28 14 16 28 14 16 28 14 16 28 14
16 28 14 16 28 14 16 28 14 16 28 14 16 28 14 16 28 14 16 28 14 16 28
14 16 28 14 16 28 14 16 27 14 16 27 14 16 27 14 16 27 14 16 27 14 16
27 14 16 27 14 16 27 14 16 27 14 16 27 14 16 27 14 16 27 14 16 27 14
16 27 14 16 27 14 16 27 14 16 27 14 16 27 14 16 27 14 16 27 14 16 27
14 16 27 14 16 27 14 16 27 14 16 27 14 16 27 14 16 27 14 16 27 14 16
27 14 16 27 14 16 27 14 16 27 14 16 27 14 16 27 14 16 27 14 16 27 14
16 27 14 16 27 14 16 27 14 16 27 14 16 27 14 16 27 14 16 27 14 16 27
14 16 27 14 16 27 14 16 27 14 16 27 14 16 27 14 16 27 14 16 27 14 16
27 14 16 27 14 16 27 14 16 27 14 16 27 14 16 27 14 16 27 14 16 27 13
16 27 13 16 27 13 16 27 13 16 27 13 16 27 13 16 27 13 16 27 13 16 27
13 16 26 13 16 26 13 16 26 13 16 26 13 16 26 13 16 26 13 16 26 13 16
26 13 16 26 13 16 26 13 16 26 13 16 26 13 16 26 13 16 26 13 16 26 13
16 26 13 16 26 13 16 26 13 16 26 13 16 26 13 16 26 13 16 26 13 16 26
13 16 26 13 16 26 13 16 26 13 16 26 13 16 26 13 16 26 13 16 26 13 16
26 13 16 26 13 16 26 13 16 26 13 16 26 13 16 26 13 16 26 13 16 26 13
16 26 13 16 26 13 16 26 13 16 26 13 16 26 13 16 26 13 16 26 13 16 26
13 16 26 13 16 26 13 16 26 13 15 26 13 15 25 13 15 25 13 15 25 13 15
25 13 15 25 13 15 25 13 15 25 13 15 25 13 15 25 13 15 25 13 15 25 13
15 25 13 15 25 13 15 25 13 15 25 13 15 25 13 15 25 13 15 25 13 15 25
13 15 25 13 15 25 13 15 25 13 15 25 13 15 25 13 15 25 13 15 25 13 15
25 13 15 25 13 15 25 13 15
14 8 13 14 8 13 14 8 13 14 8 13 14 8 13 14 8 13 14 8 13 14 8 13 14 8
13 14 8 13 14 8 13 14 8 13 14 8 13 14 8 13 14 8 13 14 8 13 14 8 13 14
8 13 14 8 13 14 8 13 14 8 13 14 8 13 14 8 13 14 8 13 14 8 13 14 8 13
14 8 13 14 8 13 14 8 13 14 8 13 14 8 13 14 8 13 14 8 13 14 8 13 14 8
13 14 8 13 14 8 13 14 8 13 14 8 13 14 8 13 14 8 13 14 8 13 14 8 13 14
8 13 14 8 13 14 8 13 14 8 13 14 8 13 14 8 13 14 8 13 14 8 13 14 8 13
26 13 16 26 13 16 26 13 16 26 13 16 26 13 16 26 13 16 26 13 16 26 13
16 26 13 16 26 13 16 26 13 16 26 13 16 26 13 16 26 13 16 27 13 16 27
13 16 27 13 16 27 13 16 27 13 16 27 13 16 27 13 16 27 13 16 27 13 16
27 13 16 27 13 16 27 14 16 27 14 16 27 14 16 27 14 16 27 14 16 27 14
16 27 14 16 27 14 16 27 14 16 27 14 16 27 14 16 27 14 16 27 14 16 27
14 16 27 14 16 27 14 16 27 14 16 27 14 16 27 14 16 27 14 16 27 14 16
27 14 16 27 14 16 27 14 16 27 14 16 27 14 16 27 14 16 27 14 16 27 14
16 20 13 24 17 11 22 17 11 22 17 11 22 17 11 22 17 11 22 17 11 22 17
11 22 17 11 22 17 11 22 17 11 22 17 11 22 17 11 22 17 11 22 17 11 22
17 11 22 17 11 22 17 11 22 17 11 22 17 11 22 17 11 22 17 11 22 17 11
22 17 11 22 17 11 22 17 11 22 17 11 22 17 11 22 17 11 22 17 11 22 17
11 22 17 11 22 17 11 22 17 11 22 17 11 22 17 11 23 18 12 25 18 12 27
18 12 29 18 13 31 19 13 33 19 14 35 19 14 37 19 14 39 20 15 41 20 15
43 20 15 45 20 16 47 20 16 49 21 16 51 21 17 53 21 17 55 21 18 57 22
18 59 22 18 61 22 19 63 22 19 64 23 19 66 23 20 68 23 20 70 23 20 72
23 21 73 24 21 75 26 23 77 30 25 80 34 27 83 38 29 85 43 32 88 49 35
91 69 45 98 102 63 109 85 54 104 78 50 102 101 61 107 28 14 16 28 14
16 28 14 16 28 14 16 28 14 16 28 14 16 28 14 16 28 14 16 28 14 16 28
14 17 28 14 17 28 14 17 28 14 17 28 14 17 28 14 17 28 14 17 28 14 17
28 14 17 28 14 17 28 14 17 28 14 17 28 14 17 28 14 17 28 14 17 28 14
17 28 14 17 28 14 17 28 14 17 28 14 17 28 14 17 28 14 17 28 14 17 28
14 17 28 14 17 28 14 17 28 14 17 28 14 17 28 14 17 28 14 17 28 14 17
28 14 17 28 14 17 28 14 17 28 14 17 28 14 17 28 14 17 28 14 17 28 14
17 28 14 17 28 14 17 28 14 17 28 14 17 28 14 17 28 14 17 28 14 17 28
14 17 28 14 16 28 14 16 28 14 16 28 14 16 28 14 16 28 14 16 28 14 16
28 14 16 28 14 16 28 14 16 28 14 16 28 14 16 28 14 16 28 14 16 28 14
16 28 14 16 28 14 16 28 14 16 28 14 16 28 14 16 28 14 16 28 14 16 28
14 16 28 14 16 28 14 16 28 14 16 28 14 16 28 14 16 28 14 16 28 14 16
28 14 16 28 14 16 28 14 16 28 14 16 28 14 16 28 14 16 28 14 16 28 14
16 28 14 16 28 14 16 28 14 16 28 14 16 28 14 16 28 14 16 28 14 16 28
14 16 28 14 16 28 14 16 28 14 16 27 14 16 27 14 16 27 14 16 27 14 16
27 14 16 27 14 16 27 14 16 27 14 16 27 14 16 27 14 16 27 14 16 27 14
16 27 14 16 27 14 16 27 14 16 27 14 16 27 14 16 27 14 16 27 14 16 27
14 16 27 14 16 27 14 16 27 14 16 27 14 16 27 14 16 27 14 16 27 14 16
27 14 16 27 14 16 27 14 16 27 14 16 27 14 16 27 14 16 27 14 16 27 14
16 27 14 16 27 14 16 27 14 16 27 14 16 27 14 16 27 14 16 27 14 16 27
14 16 27 14 16 27 14 16 27 14 16 27 14 16 27 13 16 27 13 16 27 13 16
27 13 16 27 13 16 27 13 16 27 13 16 27 13 16 26 13 16 26 13 16 26 13
16 26 13 16 26 13 16 26 13 16 26 13 16 26 13 16 26 13 16 26 13 16 26
13 16 26 13 16 26 13 16 26 13 16 26 13 16 26 13 16 26 13 16 26 13 16
26 13 16 26 13 16 26 13 16 26 13 16 26 13 16 26 13 16 26 13 16 26 13
16 26 13 16 26 13 16 26 13 16 26 13 16 26 13 16 26 13 16 26 13 16 26
13 16 26 13 16 26 13 16 26 13 16 26 13 16 26 13 16 26 13 16 26 13 16
26 13 16 26 13 16 26 13 16 26 13 16 26 13 16 26 13 15 25 13 15 25 13
15 25 13 15 25 13 15 25 13 15 25 13 15 25 13 15 25 13 15 25 13 15 25
13 15 25 13 15 25 13 15 25 13 15
14 8 13 14 8 13 14 8 13 14 8 13 14 8 13 14 8 13 14 8 13 14 8 13 14 8
13 14 8 13 14 8 13 14 8 13 14 8 13 14 8 13 14 8 13 14 8 13 14 8 13 14
8 13 14 8 13 14 8 13 14 8 13 14 8 13 14 8 13 14 8 13 14 8 13 14 8 13
14 8 13 14 8 13 14 8 13 14 8 13 14 8 13 14 8 13 14 8 13 14 8 13 14 8
13 14 8 13 14 8 13 14 8 13 14 8 13 14 8 13 14 8 13 14 8 14 14 8 14 14
8 14 14 8 14 14 8 14 14 8 14 14 8 14 14 8 14 14 8 14 14 8 14 14 8 14
14 8 14 27 13 16 27 13 16 27 13 16 27 13 16 27 13 16 27 13 16 27 14 16
27 14 16 27 14 16 27 14 16 27 14 16 27 14 16 27 14 16 27 14 16 27 14
16 27 14 16 27 14 16 27 14 16 27 14 16 27 14 16 27 14 16 27 14 16 27
14 16 27 14 16 27 14 16 27 14 16 27 14 16 27 14 16 27 14 16 27 14 16
27 14 16 27 14 16 27 14 16 27 14 16 27 14 16 27 14 16 27 14 16 27 14
16 27 14 16 27 14 16 27 14 16 27 14 16 27 14 16 27 14 16 28 14 16 28
14 16 28 14 16 28 14 16 28 14 16 28 14 16 28 14 16 28 14 16 28 14 16
20 13 24 17 11 22 17 11 22 17 11 22 17 11 22 17 11 22 17 11 22 17 11
22 17 11 22 17 11 22 17 11 22 17 11 22 17 11 22 17 11 22 17 11 22 17
11 22 17 11 22 17 11 22 17 11 22 17 11 22 17 11 22 17 11 22 17 11 22
17 11 22 17 11 22 17 11 22 17 11 22 17 11 22 17 11 22 17 11 22 17 11
22 17 11 22 17 11 22 17 11 22 17 11 22 17 11 25 18 12 27 18 12 29 18
13 31 18 13 33 19 13 35 19 14 37 19 14 39 19 15 41 20 15 43 20 15 45
20 16 47 20 16 49 21 16 51 21 17 53 21 17 55 21 18 56 22 18 58 22 18
60 22 19 62 22 19 64 23 19 66 23 20 68 23 20 70 23 20 72 23 21 73 24
21 75 24 21 77 26 22 79 29 25 82 33 27 84 37 29 87 42 31 90 48 35 93
64 43 99 103 64 111 99 62 111 76 49 104 94 58 109 29 14 17 29 14 17 29
14 17 29 14 17 29 14 17 29 14 17 29 14 17 29 14 17 29 14 17 29 14 17
29 14 17 29 14 17 29 14 17 29 14 17 29 14 17 29 14 17 29 14 17 29 14
17 29 14 17 29 14 17 29 14 17 29 14 17 29 14 17 29 14 17 29 14 17 29
14 17 29 14 17 29 14 17 29 14 17 29 14 17 29 14 17 29 14 17 29 14 17
29 14 17 29 14 17 29 14 17 29 14 17 29 14 17 29 14 17 29 14 17 29 14
17 29 14 17 29 14 17 29 14 17 29 14 17 29 14 17 29 14 17 29 14 17 29
14 17 29 14 17 29 14 17 29 14 17 29 14 17 29 14 17 29 14 17 28 14 17
28 14 17 28 14 17 28 14 17 28 14 17 28 14 17 28 14 17 28 14 17 28 14
17 28 14 17 28 14 17 28 14 17 28 14 17 28 14 17 28 14 17 28 14 17 28
14 17 28 14 17 28 14 17 28 14 17 28 14 17 28 14 17 28 14 17 28 14 17
28 14 17 28 14 17 28 14 17 28 14 17 28 14 17 28 14 17 28 14 17 28 14
17 28 14 17 28 14 17 28 14 17 28 14 17 28 14 17 28 14 17 28 14 17 28
14 17 28 14 17 28 14 17 28 14 17 28 14 17 28 14 17 28 14 17 28 14 17
28 14 16 28 14 16 28 14 16 28 14 16 28 14 16 28 14 16 28 14 16 28 14
16 28 14 16 28 14 16 28 14 16 28 14 16 28 14 16 28 14 16 28 14 16 28
14 16 28 14 16 28 14 16 28 14 16 28 14 16 28 14 16 28 14 16 28 14 16
28 14 16 28 14 16 28 14 16 27 14 16 27 14 16 27 14 16 27 14 16 27 14
16 27 14 16 27 14 16 27 14 16 27 14 16 27 14 16 27 14 16 27 14 16 27
14 16 27 14 16 27 14 16 27 14 16 27 14 16 27 14 16 27 14 16 27 14 16
27 14 16 27 14 16 27 14 16 27 14 16 27 14 16 27 14 16 27 14 16 27 14
16 27 14 16 27 14 16 27 14 16 27 14 16 27 14 16 27 14 16 27 14 16 27
14 16 27 14 16 27 14 16 27 14 16 27 14 16 27 14 16 27 14 16 27 13 16
27 13 16 27 13 16 27 13 16 27 13 16 27 13 16 27 13 16 26 13 16 26 13
16 26 13 16 26 13 16 26 13 16 26 13 16 26 13 16 26 13 16 26 13 16 26
13 16 26 13 16 26 13 16 26 13 16 26 13 16 26 13 16 26 13 16 26 13 16
26 13 16 26 13 16 26 13 16 26 13 16 26 13 16 26 13 16 26 13 16 26 13
16 26 13 16 26 13 16 26 13 16 26 13 16 26 13 16 26 13 16 26 13 16 26
13 16 26 13 16 26 13 16 26 13 16 26 13 16 26 13 16 26 13 16 26 13 16
26 13 16 26 13 16 26 13 16
14 8 13 14 8 13 14 8 13 14 8 13 14 8 13 14 8 13 14 8 13 14 8 13 14 8
13 14 8 13 14 8 13 14 8 13 14 8 13 14 8 13 14 8 13 14 8 13 14 8 13 14
8 13 14 8 13 14 8 13 14 8 13 14 8 13 14 8 13 14 8 13 14 8 13 14 8 13
14 8 14 14 8 14 14 8 14 14 8 14 14 8 14 14 8 14 14 8 14 14 8 14 14 8
14 14 8 14 14 8 14 14 8 14 14 8 14 14 8 14 14 8 14 14 8 14 14 8 14 14
8 14 14 8 14 14 8 14 14 8 14 14 8 14 14 8 14 14 8 14 14 8 14 14 8 14
14 8 14 27 14 16 27 14 16 27 14 16 27 14 16 27 14 16 27 14 16 27 14 16
27 14 16 27 14 16 27 14 16 27 14 16 27 14 16 27 14 16 27 14 16 27 14
16 27 14 16 27 14 16 27 14 16 27 14 16 27 14 16 27 14 16 27 14 16 27
14 16 27 14 16 27 14 16 28 14 16 28 14 16 28 14 16 28 14 16 28 14 16
28 14 16 28 14 16 28 14 16 28 14 16 28 14 16 28 14 16 28 14 16 28 14
16 28 14 16 28 14 16 28 14 16 28 14 16 28 14 16 28 14 16 28 14 16 28
14 16 28 14 16 28 14 16 28 14 16 28 14 16 28 14 16 28 14 16 28 14 16
20 13 24 17 11 22 17 11 22 17 11 22 17 11 22 17 11 22 17 11 22 17 11
22 17 11 22 17 11 22 17 11 22 17 11 22 17 11 22 17 11 22 17 11 22 17
11 22 17 11 22 17 11 22 17 11 22 17 11 22 17 11 22 17 11 22 17 11 22
17 11 22 17 11 22 17 11 22 17 11 22 17 11 22 17 11 22 17 11 22 17 11
22 17 11 22 17 11 22 17 11 22 17 11 24 18 12 26 18 12 28 18 12 30 18
13 32 19 13 34 19 14 36 19 14 38 19 14 40 20 15 42 20 15 44 20 16 46
20 16 48 21 16 50 21 17 52 21 17 54 21 17 56 22 18 58 22 18 60 22 19
62 22 19 64 23 19 66 23 20 68 23 20 70 23 20 71 23 21 73 24 21 75 24
21 77 24 22 79 25 22 81 29 24 83 32 27 86 36 29 89 41 31 91 46 34 94
59 41 99 95 60 111 109 67 116 80 52 108 90 57 111 29 15 17 29 15 17 29
15 17 29 15 17 29 15 17 29 15 17 29 15 17 29 15 17 29 15 17 29 15 17
29 15 17 29 15 17 29 15 17 29 15 17 29 15 17 29 15 17 29 15 17 29 15
17 29 15 17 29 15 17 29 15 17 29 15 17 29 15 17 29 15 17 29 15 17 29
15 17 29 15 17 29 15 17 29 15 17 29 15 17 29 15 17 29 15 17 29 15 17
29 15 17 29 15 17 29 15 17 29 15 17 29 15 17 29 15 17 29 15 17 29 15
17 29 15 17 29 15 17 29 15 17 29 15 17 29 15 17 29 15 17 29 15 17 29
15 17 29 15 17 29 15 17 29 15 17 29 15 17 29 15 17 29 15 17 29 15 17
29 15 17 29 15 17 29 15 17 29 15 17 29 15 17 29 15 17 29 15 17 29 15
17 29 15 17 29 15 17 29 15 17 29 15 17 29 15 17 29 15 17 29 15 17 29
14 17 29 14 17 29 14 17 29 14 17 29 14 17 29 14 17 29 14 17 29 14 17
29 14 17 29 14 17 29 14 17 29 14 17 29 14 17 29 14 17 29 14 17 29 14
17 29 14 17 29 14 17 29 14 17 29 14 17 29 14 17 29 14 17 28 14 17 28
14 17 28 14 17 28 14 17 28 14 17 28 14 17 28 14 17 28 14 17 28 14 17
28 14 17 28 14 17 28 14 17 28 14 17 28 14 17 28 14 17 28 14 17 28 14
17 28 14 17 28 14 17 28 14 17 28 14 17 28 14 17 28 14 17 28 14 17 28
14 17 28 14 17 28 14 17 28 14 17 28 14 17 28 14 17 28 14 17 28 14 17
28 14 17 28 14 17 28 14 17 28 14 16 28 14 16 28 14 16 28 14 16 28 14
16 28 14 16 28 14 16 28 14 16 28 14 16 28 14 16 28 14 16 28 14 16 28
14 16 28 14 16 28 14 16 28 14 16 28 14 16 28 14 16 28 14 16 27 14 16
27 14 16 27 14 16 27 14 16 27 14 16 27 14 16 27 14 16 27 14 16 27 14
16 27 14 16 27 14 16 27 14 16 27 14 16 27 14 16 27 14 16 27 14 16 27
14 16 27 14 16 27 14 16 27 14 16 27 14 16 27 14 16 27 14 16 27 14 16
27 14 16 27 14 16 27 14 16 27 14 16 27 14 16 27 14 16 27 14 16 27 14
16 27 14 16 27 14 16 27 14 16 27 14 16 27 14 16 27 14 16 27 14 16 27
13 16 27 13 16 27 13 16 27 13 16 27 13 16 27 13 16 26 13 16 26 13 16
26 13 16 26 13 16 26 13 16 26 13 16 26 13 16 26 13 16 26 13 16 26 13
16 26 13 16 26 13 16 26 13 16 26 13 16 26 13 16 26 13 16 26 13 16 26
13 16 26 13 16 26 13 16 26 13 16 26 13 16 26 13 16 26 13 16 26 13 16
26 13 16 26 13 16 26 13 16
14 8 13 14 8 13 14 8 13 14 8 13 14 8 13 14 8 13 14 8 13 14 8 13 14 8
13 14 8 13 14 8 13 14 8 13 14 8 13 14 8 14 14 8 14 14 8 14 14 8 14 14
8 14 14 8 14 14 8 14 14 8 14 14 8 14 14 8 14 14 8 14 14 8 14 14 8 14
14 8 14 14 8 14 14 8 14 14 8 14 14 8 14 14 8 14 14 8 14 14 8 14 14 8
14 14 8 14 14 8 14 14 8 14 14 8 14 14 8 14 14 8 14 14 8 14 14 8 14 14
8 14 14 8 14 14 8 14 14 8 14 14 8 14 14 8 14 14 8 14 14 8 14 14 8 14
14 8 14 14 8 14 27 14 16 27 14 16 27 14 16 27 14 16 27 14 16 27 14 16
27 14 16 27 14 16 28 14 16 28 14 16 28 14 16 28 14 16 28 14 16 28 14
16 28 14 16 28 14 16 28 14 16 28 14 16 28 14 16 28 14 16 28 14 16 28
14 16 28 14 16 28 14 16 28 14 16 28 14 16 28 14 16 28 14 16 28 14 16
28 14 16 28 14 16 28 14 16 28 14 16 28 14 16 28 14 16 28 14 16 28 14
16 28 14 16 28 14 16 28 14 16 28 14 16 28 14 16 28 14 16 28 14 16 28
14 17 28 14 17 28 14 17 28 14 17 28 14 17 28 14 17 28 14 17 28 14 17
20 13 24 17 11 22 17 11 22 17 11 22 17 11 22 17 11 22 17 11 22 17 11
22 17 11 22 17 11 22 17 11 22 17 11 22 17 11 22 17 11 22 17 11 22 17
11 22 17 11 22 17 11 22 17 11 22 17 11 22 17 11 22 17 11 22 17 11 22
17 11 22 17 11 22 17 11 22 17 11 22 17 11 22 17 11 22 17 11 22 17 11
22 17 11 22 17 11 22 17 11 23 18 12 25 18 12 27 18 12 29 18 13 31 19
13 33 19 14 35 19 14 37 19 14 39 20 15 41 20 15 43 20 15 45 20 16 47
21 16 50 21 17 52 21 17 54 21 17 56 22 18 57 22 18 59 22 18 61 22 19
63 22 19 65 23 20 67 23 20 69 23 20 71 23 21 73 24 21 75 24 21 77 24
22 79 24 22 80 24 22 82 28 24 85 32 26 87 36 29 90 40 31 93 45 34 96
54 39 100 83 54 109 108 67 117 82 53 111 87 56 112 29 15 17 29 15 17
29 15 17 29 15 17 29 15 17 29 15 17 29 15 17 29 15 17 29 15 17 29 15
17 29 15 17 29 15 17 29 15 17 29 15 17 29 15 17 29 15 17 29 15 17 29
15 17 29 15 17 29 15 17 29 15 17 29 15 17 29 15 17 29 15 17 29 15 17
29 15 17 29 15 17 29 15 17 29 15 17 29 15 17 29 15 17 29 15 17 29 15
17 29 15 17 29 15 17 29 15 17 29 15 17 29 15 17 29 15 17 29 15 17 29
15 17 29 15 17 29 15 17 29 15 17 29 15 17 29 15 17 29 15 17 29 15 17
29 15 17 29 15 17 29 15 17 29 15 17 29 15 17 29 15 17 29 15 17 29 15
17 29 15 17 29 15 17 29 15 17 29 15 17 29 15 17 29 15 17 29 15 17 29
15 17 29 15 17 29 15 17 29 15 17 29 15 17 29 15 17 29 15 17 29 15 17
29 15 17 29 15 17 29 15 17 29 15 17 29 15 17 29 15 17 29 15 17 29 15
17 29 15 17 29 15 17 29 15 17 29 15 17 29 15 17 29 15 17 29 15 17 29
15 17 29 15 17 29 15 17 29 15 17 29 15 17 29 15 17 29 15 17 29 15 17
29 15 17 29 15 17 29 15 17 29 15 17 29 15 17 29 15 17 29 15 17 29 15
17 29 14 17 29 14 17 29 14 17 29 14 17 29 14 17 29 14 17 29 14 17 29
14 17 29 14 17 29 14 17 29 14 17 29 14 17 29 14 17 29 14 17 29 14 17
29 14 17 28 14 17 28 14 17 28 14 17 28 14 17 28 14 17 28 14 17 28 14
17 28 14 17 28 14 17 28 14 17 28 14 17 28 14 17 28 14 17 28 14 17 28
14 17 28 14 17 28 14 17 28 14 17 28 14 17 28 14 17 28 14 17 28 14 17
28 14 17 28 14 17 28 14 17 28 14 17 28 14 17 28 14 17 28 14 17 28 14
17 28 14 17 28 14 16 28 14 16 28 14 16 28 14 16 28 14 16 28 14 16 28
14 16 28 14 16 28 14 16 28 14 16 28 14 16 28 14 16 28 14 16 28 14 16
28 14 16 27 14 16 27 14 16 27 14 16 27 14 16 27 14 16 27 14 16 27 14
16 27 14 16 27 14 16 27 14 16 27 14 16 27 14 16 27 14 16 27 14 16 27
14 16 27 14 16 27 14 16 27 14 16 27 14 16 27 14 16 27 14 16 27 14 16
27 14 16 27 14 16 27 14 16 27 14 16 27 14 16 27 14 16 27 14 16 27 14
16 27 14 16 27 14 16 27 14 16 27 14 16 27 14 16 27 14 16 27 13 16 27
13 16 27 13 16 27 13 16 27 13 16 27 13 16 26 13 16 26 13 16 26 13 16
26 13 16 26 13 16 26 13 16 26 13 16 26 13 16 26 13 16 26 13 16 26 13
16 26 13 16 26 13 16 26 13 16
14 8 14 14 8 14 14 8 14 14 8 14 14 8 14 14 8 14 14 8 14 14 8 14 14 8
14 14 8 14 14 8 14 14 8 14 14 8 14 14 8 14 14 8 14 14 8 14 14 8 14 14
8 14 14 8 14 14 8 14 14 8 14 14 8 14 14 8 14 14 8 14 14 8 14 14 8 14
14 8 14 14 8 14 14 8 14 14 8 14 14 8 14 14 8 14 14 8 14 14 8 14 14 8
14 14 8 14 14 8 14 14 8 14 14 8 14 14 8 14 14 8 14 14 8 14 14 8 14 14
8 14 14 8 14 14 8 14 14 8 14 14 8 14 14 8 14 14 8 14 14 8 14 14 8 14
14 8 14 14 8 14 14 8 14 28 14 16 28 14 16 28 14 16 28 14 16 28 14 16
28 14 16 28 14 16 28 14 16 28 14 16 28 14 16 28 14 16 28 14 16 28 14
16 28 14 16 28 14 16 28 14 16 28 14 16 28 14 16 28 14 16 28 14 16 28
14 16 28 14 16 28 14 16 28 14 16 28 14 16 28 14 16 28 14 17 28 14 17
28 14 17 28 14 17 28 14 17 28 14 17 28 14 17 28 14 17 29 14 17 29 14
17 29 14 17 29 14 17 29 14 17 29 14 17 29 14 17 29 14 17 29 14 17 29
14 17 29 14 17 29 14 17 29 14 17 29 14 17 29 14 17 29 14 17 29 15 17
20 13 24 17 11 22 17 11 22 17 11 22 17 11 22 17 11 22 17 11 22 17 11
22 17 11 22 17 11 22 17 11 22 17 11 22 17 11 22 17 11 22 17 11 22 17
11 22 17 11 22 17 11 22 17 11 22 17 11 22 17 11 22 17 11 22 17 11 22
17 11 22 17 11 22 17 11 22 17 11 22 17 11 22 17 11 22 17 11 22 17 11
22 17 11 22 17 11 22 17 11 24 18 12 26 18 12 28 18 13 30 18 13 32 19
13 35 19 14 37 19 14 39 19 15 41 20 15 43 20 15 45 20 16 47 20 16 49
21 16 51 21 17 53 21 17 55 21 18 57 22 18 59 22 18 61 22 19 63 22 19
65 23 20 67 23 20 69 23 20 71 23 21 73 24 21 75 24 21 77 24 22 78 24
22 80 24 22 82 25 23 84 27 24 86 31 26 89 35 29 92 39 31 94 44 34 97
51 37 101 71 48 108 98 62 116 83 54 114 85 55 114 30 15 17 30 15 17 30
15 17 30 15 17 30 15 17 30 15 17 30 15 17 30 15 17 30 15 17 30 15 17
30 15 17 30 15 17 30 15 17 30 15 17 30 15 17 30 15 17 30 15 17 30 15
17 30 15 17 30 15 17 30 15 17 30 15 17 30 15 17 30 15 17 30 15 17 30
15 17 30 15 17 30 15 17 30 15 17 30 15 17 30 15 17 30 15 17 30 15 17
30 15 17 30 15 17 30 15 17 30 15 17 30 15 17 30 15 17 30 15 17 30 15
17 30 15 17 30 15 17 30 15 17 30 15 17 30 15 17 30 15 17 30 15 17 30
15 17 30 15 17 30 15 17 30 15 17 30 15 17 30 15 17 30 15 17 30 15 17
30 15 17 30 15 17 30 15 17 30 15 17 30 15 17 30 15 17 30 15 17 30 15
17 30 15 17 30 15 17 30 15 17 30 15 17 30 15 17 30 15 17 30 15 17 30
15 17 30 15 17 30 15 17 30 15 17 30 15 17 30 15 17 30 15 17 30 15 17
30 15 17 30 15 17 30 15 17 30 15 17 29 15 17 29 15 17 29 15 17 29 15
17 29 15 17 29 15 17 29 15 17 29 15 17 29 15 17 29 15 17 29 15 17 29
15 17 29 15 17 29 15 17 29 15 17 29 15 17 29 15 17 29 15 17 29 15 17
29 15 17 29 15 17 29 15 17 29 15 17 29 15 17 29 15 17 29 15 17 29 15
17 29 15 17 29 15 17 29 15 17 29 15 17 29 15 17 29 15 17 29 15 17 29
15 17 29 15 17 29 15 17 29 15 17 29 15 17 29 15 17 29 15 17 29 15 17
29 14 17 29 14 17 29 14 17 29 14 17 29 14 17 29 14 17 29 14 17 29 14
17 29 14 17 29 14 17 29 14 17 29 14 17 28 14 17 28 14 17 28 14 17 28
14 17 3 50 29 3 48 28 3 46 28 3 45 28 3 44 28 3 43 28 3 42 27 3 42 27
3 42 27 3 42 27 3 42 27 3 42 27 3 42 27 3 42 27 3 42 27 3 42 27 3 42
27 3 42 27 3 42 27 28 14 17 28 14 17 28 14 17 28 14 17 28 14 17 28 14
17 28 14 16 28 14 16 28 14 16 28 14 16 28 14 16 28 14 16 28 14 16 28
14 16 28 14 16 28 14 16 28 14 16 28 14 16 28 14 16 27 14 16 27 14 16
27 14 16 27 14 16 27 14 16 27 14 16 27 14 16 27 14 16 27 14 16 27 14
16 27 14 16 27 14 16 27 14 16 27 14 16 27 14 16 27 14 16 27 14 16 27
14 16 27 14 16 27 14 16 27 14 16 27 14 16 27 14 16 27 14 16 27 14 16
27 14 16 27 14 16 27 14 16 27 14 16 27 14 16 27 14 16 27 14 16 27 14
16 27 14 16 27 14 16 27 13 16 27 13 16 27 13 16 27 13 16 27 13 16 27
13 16
14 8 14 14 8 14 14 8 14 14 8 14 14 8 14 14 8 14 14 8 14 14 8 14 14 8
14 14 8 14 14 8 14 14 8 14 14 8 14 14 8 14 14 8 14 14 8 14 14 8 14 14
8 14 14 8 14 14 8 14 14 8 14 14 8 14 14 8 14 14 8 14 14 8 14 14 8 14
14 8 14 14 8 14 14 8 14 14 8 14 14 8 14 14 8 14 14 8 14 14 8 14 14 8
14 14 8 14 14 8 14 14 8 14 14 8 14 14 8 14 14 8 14 14 8 14 14 8 14 14
8 14 14 8 14 14 8 14 14 8 14 14 8 14 14 8 14 14 8 14 14 8 14 14 8 14
14 8 14 14 8 14 14 8 14 28 14 16 28 14 16 28 14 16 28 14 16 28 14 16
28 14 16 28 14 16 28 14 16 28 14 16 28 14 16 28 14 16 28 14 17 28 14
17 28 14 17 28 14 17 28 14 17 28 14 17 29 14 17 29 14 17 29 14 17 29
14 17 29 14 17 29 14 17 29 14 17 29 14 17 29 14 17 29 14 17 29 14 17
29 14 17 29 14 17 29 14 17 29 14 17 29 15 17 29 15 17 29 15 17 29 15
17 29 15 17 29 15 17 29 15 17 29 15 17 29 15 17 29 15 17 29 15 17 29
15 17 29 15 17 29 15 17 29 15 17 29 15 17 29 15 17 29 15 17 29 15 17
20 13 24 21 13 24 17 11 22 17 11 22 17 11 22 17 11 22 17 11 22 17 11
22 17 11 22 17 11 22 17 11 22 17 11 22 17 11 22 17 11 22 17 11 22 17
11 22 17 11 22 17 11 22 17 11 22 17 11 22 17 11 22 17 11 22 17 11 22
17 11 22 17 11 22 17 11 22 17 11 22 17 11 22 17 11 22 17 11 22 17 11
22 17 11 22 17 11 23 18 12 25 18 12 27 18 12 30 18 13 32 19 13 34 19
14 36 19 14 38 19 14 40 20 15 42 20 15 44 20 16 46 20 16 48 21 16 50
21 17 52 21 17 54 21 18 56 22 18 58 22 18 60 22 19 62 22 19 64 23 19
66 23 20 68 23 20 70 23 21 72 24 21 74 24 21 76 24 22 78 24 22 80 24
22 82 25 23 84 25 23 85 27 24 88 30 26 90 34 28 93 39 31 96 43 33 99
49 37 102 62 44 107 88 57 117 82 54 116 83 54 116 103 64 119 30 15 17
30 15 17 30 15 17 30 15 17 30 15 17 30 15 17 30 15 17 30 15 17 30 15
17 30 15 17 30 15 17 30 15 17 30 15 17 30 15 17 30 15 17 30 15 17 30
15 17 30 15 17 30 15 17 30 15 17 30 15 17 30 15 17 30 15 17 30 15 17
30 15 17 30 15 17 30 15 17 30 15 17 30 15 17 30 15 17 30 15 17 30 15
17 30 15 17 30 15 17 30 15 17 30 15 17 30 15 17 30 15 17 30 15 17 30
15 17 30 15 17 30 15 17 30 15 17 30 15 17 30 15 17 30 15 17 30 15 17
30 15 17 30 15 17 30 15 17 30 15 17 30 15 17 30 15 17 30 15 17 30 15
17 30 15 17 30 15 17 30 15 17 30 15 17 30 15 17 30 15 17 30 15 17 30
15 17 30 15 17 30 15 17 30 15 17 30 15 17 30 15 17 30 15 17 30 15 17
30 15 17 30 15 17 30 15 17 30 15 17 30 15 17 30 15 17 30 15 17 30 15
17 30 15 17 30 15 17 30 15 17 30 15 17 30 15 17 30 15 17 30 15 17 30
15 17 30 15 17 30 15 17 30 15 17 30 15 17 30 15 17 30 15 17 30 15 17
30 15 17 30 15 17 30 15 17 30 15 17 30 15 17 30 15 17 30 15 17 30 15
17 30 15 17 30 15 17 30 15 17 30 15 17 30 15 17 30 15 17 30 15 17 29
15 17 29 15 17 29 15 17 29 15 17 29 15 17 29 15 17 29 15 17 29 15 17
29 15 17 29 15 17 29 15 17 29 15 17 29 15 17 29 15 17 29 15 17 29 15
17 29 15 17 29 15 17 29 15 17 29 15 17 29 15 17 29 15 17 29 15 17 29
15 17 29 15 17 29 15 17 29 15 17 3 52 29 3 50 29 3 48 29 3 47 28 3 46
28 3 45 28 3 44 28 3 43 27 3 42 27 3 42 27 3 42 27 3 42 27 3 42 27 3
42 27 3 42 27 3 42 27 3 42 27 3 42 27 3 42 27 3 42 27 3 42 27 3 42 27
3 42 27 3 42 27 3 42 27 3 42 27 3 42 27 3 42 27 3 42 27 28 14 17 28 14
17 28 14 17 28 14 17 28 14 17 28 14 17 28 14 17 28 14 17 28 14 17 28
14 17 28 14 17 28 14 17 28 14 17 28 14 17 28 14 17 28 14 17 28 14 17
28 14 16 28 14 16 28 14 16 28 14 16 28 14 16 28 14 16 28 14 16 28 14
16 28 14 16 28 14 16 28 14 16 28 14 16 27 14 16 27 14 16 27 14 16 27
14 16 27 14 16 27 14 16 27 14 16 27 14 16 27 14 16 27 14 16 27 14 16
27 14 16 27 14 16 27 14 16 27 14 16 27 14 16 27 14 16 27 14 16 27 14
16 27 14 16 27 14 16 27 14 16 27 14 16 27 14 16 27 14 16 27 14 16
14 8 14 14 8 14 14 8 14 14 8 14 14 8 14 14 8 14 14 8 14 14 8 14 14 8
14 14 8 14 14 8 14 14 8 14 14 8 14 14 8 14 14 8 14 14 8 14 14 8 14 14
8 14 14 8 14 14 8 14 14 8 14 14 8 14 14 8 14 14 8 14 14 8 14 14 8 14
14 8 14 14 8 14 14 8 14 14 8 14 14 8 14 14 8 14 14 8 14 14 8 14 14 8
14 14 8 14 14 8 14 14 8 14 14 8 14 14 8 14 14 8 14 14 8 14 14 8 14 14
8 14 14 8 14 14 8 14 14 8 14 14 8 14 14 8 14 14 8 14 14 8 14 14 8 14
14 8 14 14 8 14 14 8 14 14 8 14 28 14 17 29 14 17 29 14 17 29 14 17 29
14 17 29 14 17 29 14 17 29 14 17 29 14 17 29 14 17 29 14 17 29 14 17
29 14 17 29 14 17 29 14 17 29 15 17 29 15 17 29 15 17 29 15 17 29 15
17 29 15 17 29 15 17 29 15 17 29 15 17 29 15 17 29 15 17 29 15 17 29
15 17 29 15 17 29 15 17 29 15 17 29 15 17 29 15 17 29 15 17 29 15 17
29 15 17 29 15 17 29 15 17 29 15 17 29 15 17 29 15 17 29 15 17 30 15
17 30 15 17 30 15 17 30 15 17 30 15 17 30 15 17 30 15 17 30 15 17 20
13 24 21 13 24 20 13 24 17 11 22 17 11 22 17 11 22 17 11 22 17 11 22
17 11 22 17 11 22 17 11 22 17 11 22 17 11 22 17 11 22 17 11 22 17 11
22 17 11 22 17 11 22 17 11 22 17 11 22 17 11 22 17 11 22 17 11 22 17
11 22 17 11 22 17 11 22 17 11 22 17 11 22 17 11 22 17 11 22 17 11 22
17 11 22 17 11 24 18 12 27 18 12 29 18 13 31 19 13 33 19 13 35 19 14
37 19 14 39 20 15 41 20 15 43 20 15 45 20 16 47 21 16 50 21 17 52 21
17 54 21 17 56 22 18 58 22 18 60 22 19 62 22 19 64 23 19 66 23 20 68
23 20 70 23 20 72 24 21 74 24 21 76 24 22 78 24 22 80 24 22 82 25 23
84 25 23 85 25 23 87 26 24 89 30 26 92 34 28 95 38 31 97 42 33 100 48
36 103 60 43 110 77 51 115 79 52 117 82 54 118 99 62 120 31 15 18 31
15 18 31 15 18 31 15 18 31 15 18 31 15 18 31 15 18 31 15 18 31 15 18
31 15 18 31 15 18 31 15 18 31 15 18 31 15 18 31 15 18 31 15 18 31 15
18 31 15 18 31 15 18 31 15 18 31 15 18 31 15 18 31 15 18 31 15 18 31
15 18 31 15 18 31 15 18 31 15 18 31 15 18 31 15 18 31 15 18 31 15 18
31 15 18 31 15 18 31 15 18 31 15 18 31 15 18 31 15 18 31 15 18 31 15
18 31 15 18 31 15 18 31 15 18 31 15 18 31 15 18 31 15 18 31 15 18 31
15 18 31 15 18 31 15 18 31 15 18 31 15 18 31 15 18 31 15 18 31 15 18
31 15 18 31 15 18 31 15 18 31 15 18 31 15 18 31 15 18 31 15 18 31 15
18 31 15 18 31 15 18 31 15 18 31 15 18 31 15 18 31 15 18 31 15 18 31
15 18 31 15 18 31 15 18 31 15 18 30 15 18 30 15 18 30 15 18 30 15 18
30 15 18 30 15 18 30 15 18 30 15 18 30 15 18 30 15 18 30 15 18 30 15
18 30 15 18 30 15 17 30 15 17 30 15 17 30 15 17 30 15 17 30 15 17 30
15 17 30 15 17 30 15 17 30 15 17 30 15 17 30 15 17 30 15 17 30 15 17
30 15 17 30 15 17 30 15 17 30 15 17 30 15 17 30 15 17 30 15 17 30 15
17 30 15 17 30 15 17 30 15 17 30 15 17 30 15 17 30 15 17 30 15 17 30
15 17 30 15 17 30 15 17 30 15 17 30 15 17 30 15 17 30 15 17 30 15 17
30 15 17 30 15 17 30 15 17 29 15 17 29 15 17 29 15 17 29 15 17 4 56 30
4 53 29 3 51 29 3 49 29 3 47 28 3 46 28 3 45 28 3 44 28 3 43 28 3 42
27 3 42 27 3 42 27 3 42 27 3 42 27 3 42 27 3 42 27 3 42 27 3 42 27 3
42 27 3 42 27 3 42 27 3 42 27 3 42 27 3 42 27 3 42 27 3 42 27 3 42 27
3 42 27 3 42 27 3 42 27 3 42 27 3 42 27 3 42 27 3 42 27 3 42 27 3 42
27 29 14 17 28 14 17 28 14 17 28 14 17 28 14 17 28 14 17 28 14 17 28
14 17 28 14 17 28 14 17 28 14 17 28 14 17 28 14 17 28 14 17 28 14 17
28 14 17 28 14 17 28 14 17 28 14 17 28 14 17 28 14 17 28 14 17 28 14
17 28 14 17 28 14 17 28 14 17 28 14 17 28 14 17 28 14 17 28 14 16 28
14 16 28 14 16 28 14 16 28 14 16 28 14 16 28 14 16 28 14 16 28 14 16
28 14 16 27 14 16 27 14 16 27 14 16 27 14 16 27 14 16 27 14 16 27 14
16 27 14 16 27 14 16 27 14 16 27 14 16 27 14 16 27 14 16
14 8 14 14 8 14 14 8 14 14 8 14 14 8 14 14 8 14 14 8 14 14 8 14 14 8
14 14 8 14 14 8 14 14 8 14 14 8 14 14 8 14 14 8 14 14 8 14 14 8 14 14
8 14 14 8 14 14 8 14 14 8 14 14 8 14 14 8 14 14 8 14 14 8 14 14 8 14
14 8 14 14 8 14 14 8 14 14 8 14 14 8 14 14 8 14 14 8 14 14 8 14 14 8
14 14 8 14 14 8 14 14 8 14 14 8 14 14 8 14 14 8 14 14 8 14 14 8 14 14
8 14 14 8 14 14 8 14 14 8 14 14 8 14 14 8 14 14 8 14 14 8 14 14 8 14
14 8 14 14 8 14 14 8 14 14 8 14 29 15 17 29 15 17 29 15 17 29 15 17 29
15 17 29 15 17 29 15 17 29 15 17 29 15 17 29 15 17 29 15 17 29 15 17
29 15 17 29 15 17 29 15 17 29 15 17 29 15 17 29 15 17 29 15 17 29 15
17 29 15 17 29 15 17 29 15 17 29 15 17 29 15 17 30 15 17 30 15 17 30
15 17 30 15 17 30 15 17 30 15 17 30 15 17 30 15 17 30 15 17 30 15 17
30 15 17 30 15 17 30 15 17 30 15 17 30 15 17 30 15 17 30 15 17 30 15
17 30 15 17 30 15 17 30 15 17 30 15 17 30 15 17 30 15 17 30 15 17 20
13 25 22 13 25 21 13 24 20 13 24 17 11 22 17 11 22 17 11 22 17 11 22
17 11 22 17 11 22 17 11 22 17 11 22 17 11 22 17 11 22 17 11 22 17 11
22 17 11 22 17 11 22 17 11 22 17 11 22 17 11 22 17 11 22 17 11 22 17
11 22 17 11 22 17 11 22 17 11 22 17 11 22 17 11 22 17 11 22 17 11 22
17 11 24 18 12 26 18 12 28 18 12 30 18 13 32 19 13 34 19 14 36 19 14
38 19 14 40 20 15 43 20 15 45 20 16 47 20 16 49 21 16 51 21 17 53 21
17 55 21 18 57 22 18 59 22 18 61 22 19 63 22 19 65 23 20 67 23 20 69
23 20 71 23 21 73 24 21 75 24 21 77 24 22 79 24 22 81 25 23 83 25 23
85 25 23 87 25 24 89 26 24 91 29 26 93 33 28 96 37 31 99 42 33 102 50
38 107 58 42 111 69 48 115 75 51 118 81 53 119 96 61 122 31 16 18 31
16 18 31 16 18 31 16 18 31 16 18 31 16 18 31 16 18 31 16 18 31 16 18
31 16 18 31 16 18 31 16 18 31 16 18 31 16 18 31 16 18 31 16 18 31 16
18 31 16 18 31 16 18 31 16 18 31 16 18 31 16 18 31 16 18 31 16 18 31
16 18 31 16 18 31 16 18 31 16 18 31 16 18 31 16 18 31 16 18 31 16 18
31 16 18 31 16 18 31 16 18 31 16 18 31 16 18 31 16 18 31 16 18 31 16
18 31 16 18 31 16 18 31 16 18 31 16 18 31 16 18 31 16 18 31 16 18 31
16 18 31 16 18 31 16 18 31 16 18 31 16 18 31 16 18 31 16 18 31 16 18
31 16 18 31 16 18 31 16 18 31 16 18 31 16 18 31 16 18 31 16 18 31 16
18 31 16 18 31 16 18 31 16 18 31 16 18 31 16 18 31 16 18 31 16 18 31
16 18 31 16 18 31 16 18 31 16 18 31 16 18 31 16 18 31 16 18 31 16 18
31 15 18 31 15 18 31 15 18 31 15 18 31 15 18 31 15 18 31 15 18 31 15
18 31 15 18 31 15 18 31 15 18 31 15 18 31 15 18 31 15 18 31 15 18 31
15 18 31 15 18 31 15 18 31 15 18 31 15 18 31 15 18 31 15 18 30 15 18
30 15 18 30 15 18 30 15 18 30 15 18 30 15 18 30 15 18 30 15 18 30 15
18 30 15 18 30 15 18 30 15 18 30 15 18 30 15 18 30 15 17 30 15 17 30
15 17 30 15 17 30 15 17 30 15 17 30 15 17 30 15 17 30 15 17 30 15 17
30 15 17 30 15 17 30 15 17 30 15 17 4 58 30 4 54 30 4 52 29 4 50 29 3
49 29 3 47 28 3 46 28 3 45 28 3 44 28 3 43 27 3 42 27 3 42 27 3 42 27
3 42 27 3 42 27 3 42 27 3 42 27 3 42 27 3 42 27 3 42 27 3 42 27 3 42
27 3 42 27 3 42 27 3 42 27 3 42 27 3 42 27 3 42 27 3 42 27 3 42 27 3
42 27 3 42 27 3 42 27 3 42 27 3 42 27 3 42 27 3 42 27 3 42 27 3 42 27
3 42 27 3 42 27 3 42 27 29 15 17 29 15 17 29 15 17 29 14 17 29 14 17
29 14 17 29 14 17 29 14 17 29 14 17 29 14 17 29 14 17 29 14 17 28 14
17 28 14 17 28 14 17 28 14 17 28 14 17 28 14 17 28 14 17 28 14 17 28
14 17 28 14 17 28 14 17 28 14 17 28 14 17 28 14 17 28 14 17 28 14 17
28 14 17 28 14 17 28 14 17 28 14 17 28 14 17 28 14 17 28 14 17 28 14
17 28 14 17 28 14 17 28 14 17 28 14 17 28 14 16 28 14 16 28 14 16 28
14 16 28 14 16 28 14 16 28 14 16 28 14 16 27 14 16
14 8 14 14 8 14 14 8 14 14 8 14 14 8 14 14 8 14 14 8 14 14 8 14 14 8
14 14 8 14 14 8 14 14 8 14 14 8 14 14 8 14 14 8 14 14 8 14 14 8 14 14
8 14 14 8 14 14 8 14 14 8 14 14 8 14 14 8 14 14 8 14 14 8 14 14 8 14
14 8 14 14 8 14 14 8 14 14 8 14 14 8 14 14 8 14 14 8 14 14 8 14 14 8
14 14 8 14 14 8 14 14 8 14 14 8 14 14 8 14 14 8 14 14 8 14 14 8 14 14
8 14 14 8 14 14 8 14 14 8 14 14 8 14 14 8 14 14 8 14 14 8 14 14 8 14
14 8 14 14 8 14 14 8 14 14 8 14 14 8 14 29 15 17 29 15 17 29 15 17 29
15 17 29 15 17 29 15 17 29 15 17 29 15 17 29 15 17 30 15 17 30 15 17
30 15 17 30 15 17 30 15 17 30 15 17 30 15 17 30 15 17 30 15 17 30 15
17 30 15 17 30 15 17 30 15 17 30 15 17 30 15 17 30 15 17 30 15 17 30
15 17 30 15 17 30 15 17 30 15 17 30 15 17 30 15 17 30 15 17 30 15 17
30 15 17 30 15 17 30 15 17 30 15 17 30 15 17 30 15 17 30 15 17 30 15
17 30 15 17 30 15 17 30 15 17 32 56 110 25 54 107 25 59 110 25 63 114
20 13 25 22 13 25 22 13 24 21 13 24 20 13 24 17 11 22 17 11 22 17 11
22 17 11 22 17 11 22 17 11 22 17 11 22 17 11 22 17 11 22 17 11 22 17
11 22 17 11 22 17 11 22 17 11 22 17 11 22 17 11 22 17 11 22 17 11 22
17 11 22 17 11 22 17 11 22 17 11 22 17 11 22 17 11 22 17 11 22 17 11
23 18 11 25 18 12 27 18 12 29 18 13 31 19 13 33 19 14 35 19 14 37 19
14 40 20 15 42 20 15 44 20 16 46 20 16 48 21 16 50 21 17 52 21 17 54
21 18 56 22 18 58 22 18 61 22 19 63 22 19 65 23 19 67 23 20 69 23 20
71 23 21 73 24 21 75 24 21 77 24 22 79 24 22 81 25 23 83 25 23 85 25
23 87 25 24 89 26 24 90 26 24 92 29 26 95 33 28 98 40 32 103 45 35 106
50 38 109 57 41 112 65 46 116 72 49 119 80 53 121 94 60 124 32 16 18
32 16 18 32 16 18 32 16 18 32 16 18 32 16 18 32 16 18 32 16 18 32 16
18 32 16 18 32 16 18 32 16 18 32 16 18 32 16 18 32 16 18 32 16 18 32
16 18 32 16 18 32 16 18 32 16 18 32 16 18 32 16 18 32 16 18 32 16 18
32 16 18 32 16 18 32 16 18 32 16 18 32 16 18 32 16 18 32 16 18 32 16
18 32 16 18 32 16 18 32 16 18 32 16 18 32 16 18 32 16 18 32 16 18 32
16 18 32 16 18 32 16 18 32 16 18 32 16 18 32 16 18 32 16 18 32 16 18
32 16 18 32 16 18 32 16 18 32 16 18 32 16 18 32 16 18 32 16 18 32 16
18 32 16 18 32 16 18 32 16 18 32 16 18 32 16 18 32 16 18 32 16 18 32
16 18 32 16 18 32 16 18 32 16 18 32 16 18 31 16 18 31 16 18 31 16 18
31 16 18 31 16 18 31 16 18 31 16 18 31 16 18 31 16 18 31 16 18 31 16
18 31 16 18 31 16 18 31 16 18 31 16 18 31 16 18 31 16 18 31 16 18 31
16 18 31 16 18 31 16 18 31 16 18 31 16 18 31 16 18 31 16 18 31 16 18
31 16 18 31 16 18 31 16 18 31 16 18 31 16 18 31 16 18 31 16 18 31 16
18 31 16 18 31 16 18 31 15 18 31 15 18 31 15 18 31 15 18 31 15 18 31
15 18 31 15 18 31 15 18 31 15 18 31 15 18 31 15 18 31 15 18 31 15 18
31 15 18 31 15 18 31 15 18 31 15 18 30 15 18 30 15 18 30 15 18 30 15
18 30 15 18 30 15 18 4 57 30 4 54 30 4 52 29 4 50 29 4 49 29 3 47 28 3
46 28 3 45 28 3 44 28 3 43 27 3 42 27 3 42 27 3 42 27 3 42 27 3 42 27
3 42 27 3 42 27 3 42 27 3 42 27 3 42 27 3 42 27 3 42 27 3 42 27 3 42
27 3 42 27 3 42 27 3 42 27 3 42 27 3 42 27 3 42 27 3 42 27 3 42 27 3
42 27 3 42 27 3 42 27 3 42 27 3 42 27 3 42 27 3 42 27 3 42 27 3 42 27
3 42 27 3 42 27 3 42 27 3 42 27 3 42 27 29 15 17 29 15 17 29 15 17 29
15 17 29 15 17 29 15 17 29 15 17 29 15 17 29 15 17 29 15 17 29 15 17
29 15 17 29 15 17 29 15 17 29 14 17 29 14 17 29 14 17 29 14 17 29 14
17 29 14 17 29 14 17 29 14 17 29 14 17 28 14 17 28 14 17 28 14 17 28
14 17 28 14 17 28 14 17 28 14 17 28 14 17 28 14 17 28 14 17 28 14 17
28 14 17 28 14 17 28 14 17 28 14 17 28 14 17 28 14 17 28 14 17 28 14
17 28 14 17 28 14 17 28 14 17 28 14 17 28 14 17
14 8 14 14 8 14 14 8 14 14 8 14 14 8 14 14 8 14 14 8 14 14 8 14 14 8
14 14 8 14 14 8 14 14 8 14 14 8 14 14 8 14 14 8 14 14 8 14 14 8 14 14
8 14 14 8 14 14 8 14 14 8 14 14 8 14 14 8 14 14 8 14 14 8 14 14 8 14
14 8 14 14 8 14 14 8 14 14 8 14 14 8 14 14 8 14 14 8 14 14 8 14 14 8
14 14 8 14 14 8 14 14 8 14 14 8 14 14 8 14 14 8 14 14 8 14 14 8 14 14
8 14 14 8 14 14 8 14 14 8 14 14 8 14 14 8 14 14 8 14 14 8 14 14 8 14
14 8 14 14 8 14 14 8 14 14 8 14 14 8 14 14 8 14 30 15 17 30 15 17 30
15 17 30 15 17 30 15 17 30 15 17 30 15 17 30 15 17 30 15 17 30 15 17
30 15 17 30 15 17 30 15 17 30 15 17 30 15 17 30 15 17 30 15 17 30 15
17 30 15 17 30 15 17 30 15 17 30 15 17 30 15 17 30 15 17 30 15 17 30
15 17 30 15 17 30 15 17 30 15 17 30 15 17 31 15 17 31 15 17 31 15 17
31 15 17 31 15 17 31 15 17 31 15 17 31 15 17 31 15 17 31 15 18 31 15
18 37 58 113 26 52 106 26 53 106 25 56 109 26 61 112 26 65 115 26 69
118 20 13 25 23 14 25 22 13 25 22 13 25 21 13 24 21 13 24 20 13 24 17
11 22 17 11 22 17 11 22 17 11 22 17 11 22 17 11 22 17 11 22 17 11 22
17 11 22 17 11 22 17 11 22 17 11 22 17 11 22 17 11 22 17 11 22 17 11
22 17 11 22 17 11 22 17 11 22 17 11 22 17 11 22 17 11 22 17 11 22 17
11 24 18 12 26 18 12 28 18 13 30 18 13 32 19 13 34 19 14 37 19 14 39
19 15 41 20 15 43 20 15 45 20 16 47 21 16 49 21 17 51 21 17 54 21 17
56 22 18 58 22 18 60 22 19 62 22 19 64 23 19 66 23 20 68 23 20 70 23
33 79 24 21 74 24 21 76 24 22 78 24 22 80 25 22 82 25 23 84 25 23 86
25 24 88 25 24 90 26 24 92 29 26 96 32 28 99 36 30 102 40 33 105 45 35
108 50 38 111 56 41 114 63 45 117 71 49 120 79 53 123 92 60 125 32 16
18 32 16 18 32 16 18 32 16 18 32 16 18 32 16 18 32 16 18 32 16 18 32
16 18 32 16 18 32 16 18 32 16 18 32 16 18 32 16 18 32 16 18 32 16 18
32 16 18 32 16 18 32 16 18 32 16 18 32 16 18 32 16 18 32 16 18 32 16
18 32 16 18 32 16 18 32 16 18 32 16 18 32 16 18 32 16 18 32 16 18 32
16 18 32 16 18 32 16 18 32 16 18 32 16 18 32 16 18 32 16 18 32 16 18
32 16 18 32 16 18 32 16 18 32 16 18 32 16 18 32 16 18 32 16 18 32 16
18 32 16 18 32 16 18 32 16 18 32 16 18 32 16 18 32 16 18 32 16 18 32
16 18 32 16 18 32 16 18 32 16 18 32 16 18 32 16 18 32 16 18 32 16 18
32 16 18 32 16 18 32 16 18 32 16 18 32 16 18 32 16 18 32 16 18 32 16
18 32 16 18 32 16 18 32 16 18 32 16 18 32 16 18 32 16 18 32 16 18 32
16 18 32 16 18 32 16 18 32 16 18 32 16 18 32 16 18 32 16 18 32 16 18
32 16 18 32 16 18 32 16 18 32 16 18 32 16 18 32 16 18 32 16 18 32 16
18 32 16 18 32 16 18 31 16 18 31 16 18 31 16 18 31 16 18 31 16 18 31
16 18 31 16 18 31 16 18 31 16 18 31 16 18 31 16 18 31 16 18 31 16 18
31 16 18 31 16 18 31 16 18 31 16 18 31 16 18 31 16 18 31 16 18 31 16
18 31 16 18 31 16 18 31 16 18 31 16 18 31 16 18 31 16 18 31 16 18 31
15 18 4 57 30 4 54 30 4 52 29 4 51 29 4 49 29 4 48 28 4 46 28 3 45 28
3 44 28 3 43 28 3 43 27 3 43 27 3 43 27 3 43 27 3 43 27 3 43 27 3 42
27 3 42 27 3 42 27 3 42 27 3 42 27 3 42 27 3 42 27 3 42 27 3 42 27 3
42 27 3 42 27 3 42 27 3 42 27 3 42 27 3 42 27 3 42 27 3 42 27 3 42 27
3 42 27 3 42 27 3 42 27 3 42 27 3 42 27 3 42 27 3 42 27 3 42 27 3 42
27 3 42 27 3 42 27 3 42 27 3 42 27 3 42 27 3 42 27 3 42 27 29 15 17 29
15 17 29 15 17 29 15 17 29 15 17 29 15 17 29 15 17 29 15 17 29 15 17
29 15 17 29 15 17 29 15 17 29 15 17 29 15 17 29 15 17 29 15 17 29 15
17 29 15 17 29 15 17 29 15 17 29 15 17 29 15 17 29 15 17 29 15 17 29
15 17 29 14 17 29 14 17 29 14 17 29 14 17 29 14 17 29 14 17 29 14 17
29 14 17 28 14 17 28 14 17 28 14 17 28 14 17 28 14 17 28 14 17 28 14
17 28 14 17 28 14 17 28 14 17 28 14 17 28 14 17
14 8 14 14 8 14 14 8 14 14 8 14 14 8 14 14 8 14 14 8 14 14 8 14 14 8
14 14 8 14 14 8 14 14 8 14 14 8 14 14 8 14 14 8 14 14 8 14 14 8 14 14
8 14 14 8 14 14 8 14 14 8 14 14 8 14 14 8 14 14 8 14 14 8 14 14 8 14
14 8 14 14 8 14 14 8 14 14 8 14 14 8 14 14 8 14 14 8 14 14 8 14 14 8
14 14 8 14 14 8 14 14 8 14 14 8 14 14 8 14 14 8 14 14 8 14 14 8 14 14
8 14 14 8 14 14 8 14 14 8 14 14 8 14 14 8 14 14 8 14 14 8 14 14 8 14
14 8 14 14 8 14 14 8 14 14 8 14 14 8 14 14 8 14 30 15 17 30 15 17 30
15 17 30 15 17 30 15 17 30 15 17 30 15 17 30 15 17 30 15 17 30 15 17
30 15 17 30 15 17 30 15 17 30 15 17 30 15 17 30 15 17 31 15 17 31 15
17 31 15 17 31 15 17 31 15 17 31 15 17 31 15 17 31 15 17 31 15 17 31
15 18 31 15 18 31 15 18 31 15 18 31 15 18 31 15 18 31 15 18 31 16 18
31 16 18 31 16 18 31 16 18 31 16 18 31 16 18 31 16 18 31 16 18 26 53
106 26 53 106 25 52 106 26 56 109 26 60 112 26 64 115 26 68 117 26 72
120 20 13 25 23 14 25 23 14 25 22 14 25 22 13 25 22 13 25 20 13 24 20
13 24 20 13 24 17 11 22 17 11 22 17 11 22 17 11 22 17 11 22 17 11 22
17 11 22 17 11 22 17 11 22 17 11 22 17 11 22 17 11 22 17 11 22 17 11
22 17 11 22 17 11 22 17 11 22 17 11 22 17 11 22 17 11 22 17 11 23 18
12 25 18 12 27 18 12 29 18 13 31 19 13 33 19 14 36 19 14 38 19 14 40
20 15 42 20 15 44 20 16 46 20 16 48 21 16 51 21 17 53 21 17 55 21 18
57 22 18 59 22 18 61 22 19 63 22 19 65 23 20 67 23 31 76 23 35 78 24
37 81 24 39 83 24 39 85 24 22 80 24 22 82 25 23 84 25 23 86 25 23 88
29 26 92 29 26 94 30 27 96 30 27 98 32 28 101 36 31 104 41 33 107 45
36 110 50 38 113 56 41 116 63 45 119 70 49 122 79 53 124 91 59 127 33
16 18 33 16 18 33 16 18 33 16 18 33 16 18 33 16 18 33 16 18 33 16 18
33 16 18 33 16 18 33 16 18 33 16 18 33 16 18 33 16 18 33 16 18 33 16
18 33 16 18 33 16 18 33 16 18 33 16 18 33 16 18 33 16 18 33 16 18 33
16 18 33 16 18 33 16 18 33 16 18 33 16 18 33 16 18 33 16 18 33 16 18
33 16 18 33 16 18 33 16 18 33 16 18 33 16 18 33 16 18 33 16 18 33 16
18 33 16 18 33 16 18 33 16 18 33 16 18 33 16 18 33 16 18 33 16 18 33
16 18 33 16 18 33 16 18 33 16 18 33 16 18 33 16 18 33 16 18 33 16 18
33 16 18 33 16 18 33 16 18 33 16 18 33 16 18 33 16 18 33 16 18 33 16
18 32 16 18 32 16 18 32 16 18 32 16 18 32 16 18 32 16 18 32 16 18 32
16 18 32 16 18 32 16 18 32 16 18 32 16 18 32 16 18 32 16 18 32 16 18
32 16 18 32 16 18 32 16 18 32 16 18 32 16 18 32 16 18 32 16 18 32 16
18 32 16 18 32 16 18 32 16 18 32 16 18 32 16 18 32 16 18 32 16 18 32
16 18 32 16 18 32 16 18 32 16 18 32 16 18 32 16 18 32 16 18 32 16 18
32 16 18 32 16 18 32 16 18 32 16 18 32 16 18 32 16 18 32 16 18 32 16
18 32 16 18 32 16 18 32 16 18 32 16 18 32 16 18 32 16 18 32 16 18 31
16 18 31 16 18 31 16 18 31 16 18 31 16 18 31 16 18 31 16 18 4 58 30 4
55 30 4 53 29 4 51 29 4 50 29 4 48 29 4 47 28 4 46 28 4 44 28 3 43 28
3 43 27 3 43 27 3 43 27 3 43 27 3 43 27 3 43 27 3 43 27 3 43 27 3 43
27 3 43 27 3 43 27 3 43 27 3 43 27 3 43 27 3 43 27 3 43 27 3 43 27 3
43 27 3 43 27 3 43 27 3 43 27 3 43 27 3 43 27 3 42 27 3 42 27 3 42 27
3 42 27 3 42 27 3 42 27 3 42 27 3 42 27 3 42 27 3 42 27 3 42 27 3 42
27 3 42 27 3 42 27 3 42 27 3 42 27 3 42 27 3 42 27 3 42 27 3 42 27 3
42 27 30 15 17 30 15 17 30 15 17 30 15 17 30 15 17 30 15 17 30 15 17
30 15 17 30 15 17 30 15 17 29 15 17 29 15 17 29 15 17 29 15 17 29 15
17 29 15 17 29 15 17 29 15 17 29 15 17 29 15 17 29 15 17 29 15 17 29
15 17 29 15 17 29 15 17 29 15 17 29 15 17 29 15 17 29 15 17 29 15 17
29 15 17 29 15 17 29 15 17 29 15 17 29 15 17 29 14 17 29 14 17 29 14
17 29 14 17 29 14 17 29 14 17 29 14 17 29 14 17
14 8 14 14 8 14 14 8 14 14 8 14 14 8 14 14 8 14 14 8 14 14 8 14 14 8
14 14 8 14 14 8 14 14 8 14 14 8 14 14 8 14 14 8 14 14 8 14 14 8 14 14
8 14 14 8 14 14 8 14 14 8 14 14 8 14 14 8 14 14 8 14 14 8 14 14 8 14
14 8 14 14 8 14 14 8 14 14 8 14 14 8 14 14 8 14 14 8 14 14 8 14 14 8
14 14 8 14 14 8 14 14 8 14 14 8 14 14 8 14 14 8 14 14 8 14 14 8 14 14
8 14 14 8 14 14 8 14 14 8 14 14 8 14 14 8 14 14 8 14 14 8 14 14 8 14
14 8 14 14 8 14 14 8 14 14 8 14 14 8 14 14 8 14 30 15 17 30 15 17 31
15 17 31 15 17 31 15 17 31 15 17 31 15 17 31 15 17 31 15 17 31 15 17
31 15 17 31 15 18 31 15 18 31 15 18 31 15 18 31 15 18 31 15 18 31 15
18 31 16 18 31 16 18 31 16 18 31 16 18 31 16 18 31 16 18 31 16 18 31
16 18 31 16 18 31 16 18 31 16 18 31 16 18 31 16 18 31 16 18 31 16 18
31 16 18 31 16 18 31 16 18 32 16 18 32 16 18 27 53 106 26 53 106 25 52
106 24 52 106 26 55 108 26 59 111 26 63 114 26 67 116 26 70 119 26 74
121 20 13 25 24 14 25 23 14 25 23 14 25 23 14 25 22 14 25 20 13 24 20
13 24 20 13 24 20 13 24 20 13 24 20 13 24 20 13 24 20 13 24 17 11 22
17 11 22 17 11 22 17 11 22 17 11 22 17 11 22 17 11 22 17 11 22 17 11
22 17 11 22 17 11 22 17 11 22 17 11 22 17 11 22 17 11 22 17 11 24 18
12 26 18 12 28 18 13 30 18 13 32 19 13 35 19 14 37 19 14 39 20 15 41
20 15 43 20 15 45 20 16 48 21 16 50 21 17 52 21 17 54 21 17 56 22 18
58 22 18 60 22 19 62 22 19 65 23 19 67 23 29 75 23 33 78 24 37 80 24
39 83 24 41 85 25 42 87 25 41 89 28 25 86 29 25 88 29 26 90 30 26 92
30 26 94 31 27 96 31 27 99 32 28 101 33 29 103 37 31 106 41 33 109 46
36 112 51 39 115 56 42 118 62 45 120 70 49 123 78 53 126 91 59 128 33
17 19 33 17 19 33 17 19 33 17 19 33 17 19 33 17 19 33 17 19 33 17 19
33 17 19 33 17 19 33 17 19 33 17 19 33 17 19 33 17 19 33 17 19 33 17
19 33 17 19 33 17 19 33 17 19 33 17 19 33 17 19 33 17 19 33 17 19 33
17 19 33 17 19 33 17 19 33 17 19 33 17 19 33 17 19 33 17 19 33 17 19
33 17 19 33 17 19 33 17 19 33 17 19 33 17 19 33 17 19 33 17 19 33 17
19 33 17 19 33 17 19 33 17 19 33 17 19 33 17 19 33 17 19 33 17 19 33
17 19 33 17 19 33 17 19 33 17 19 33 17 19 33 17 19 33 17 19 33 17 19
33 17 19 33 17 19 33 17 19 33 17 19 33 17 19 33 17 19 33 16 19 33 16
19 33 16 19 33 16 19 33 16 19 33 16 19 33 16 19 33 16 19 33 16 19 33
16 19 33 16 19 33 16 19 33 16 19 33 16 19 33 16 19 33 16 19 33 16 19
33 16 19 33 16 19 33 16 19 33 16 19 33 16 19 33 16 19 33 16 19 33 16
18 33 16 18 33 16 18 33 16 18 33 16 18 33 16 18 33 16 18 32 16 18 32
16 18 32 16 18 32 16 18 32 16 18 32 16 18 32 16 18 32 16 18 32 16 18
32 16 18 32 16 18 32 16 18 32 16 18 32 16 18 32 16 18 32 16 18 32 16
18 32 16 18 32 16 18 32 16 18 32 16 18 32 16 18 32 16 18 32 16 18 32
16 18 32 16 18 32 16 18 32 16 18 32 16 18 4 59 31 4 56 30 4 54 30 4 52
29 4 50 29 4 49 29 4 47 28 4 46 28 4 45 28 4 44 28 4 43 28 4 43 28 4
43 28 4 43 28 4 43 28 4 43 28 4 43 28 4 43 28 3 43 28 3 43 28 3 43 28
3 43 28 3 43 28 3 43 28 3 43 28 3 43 27 3 43 27 3 43 27 3 43 27 3 43
27 3 43 27 3 43 27 3 43 27 3 43 27 3 43 27 3 43 27 3 43 27 3 43 27 3
43 27 3 43 27 3 43 27 3 43 27 3 43 27 3 43 27 3 43 27 3 43 27 3 43 27
3 43 27 3 43 27 3 42 27 3 42 27 3 42 27 3 42 27 3 42 27 3 42 27 3 42
27 3 42 27 3 42 27 30 15 18 30 15 18 30 15 18 30 15 17 30 15 17 30 15
17 30 15 17 30 15 17 30 15 17 30 15 17 30 15 17 30 15 17 30 15 17 30
15 17 30 15 17 30 15 17 30 15 17 30 15 17 30 15 17 29 15 17 29 15 17
29 15 17 29 15 17 29 15 17 29 15 17 29 15 17 29 15 17 29 15 17 29 15
17 29 15 17 29 15 17 29 15 17 29 15 17 29 15 17 29 15 17 29 15 17 29
15 17 29 15 17 29 15 17 29 15 17 29 15 17
14 8 14 14 8 14 14 8 14 14 8 14 14 8 14 14 8 14 14 8 14 14 8 14 14 8
14 14 8 14 14 8 14 14 8 14 14 8 14 14 8 14 14 8 14 14 8 14 14 8 14 14
8 14 14 8 14 14 8 14 14 8 14 14 8 14 14 8 14 14 8 14 14 8 14 14 8 14
14 8 14 14 8 14 14 8 14 14 8 14 14 8 14 14 8 14 14 8 14 14 8 14 14 8
14 14 8 14 14 8 14 14 8 14 14 8 14 14 8 14 14 8 14 14 8 14 14 8 14 14
8 14 14 8 14 14 8 14 14 8 15 14 8 15 15 8 15 15 8 15 15 8 15 15 8 15
15 8 15 15 8 15 15 8 15 15 8 15 15 8 15 15 8 15 15 8 15 31 15 18 31 15
18 31 15 18 31 15 18 31 16 18 31 16 18 31 16 18 31 16 18 31 16 18 31
16 18 31 16 18 31 16 18 31 16 18 31 16 18 31 16 18 31 16 18 31 16 18
31 16 18 31 16 18 31 16 18 31 16 18 32 16 18 32 16 18 32 16 18 32 16
18 32 16 18 32 16 18 32 16 18 32 16 18 32 16 18 32 16 18 32 16 18 32
16 18 32 16 18 32 16 18 32 16 18 26 53 106 25 52 106 25 52 106 24 52
106 23 52 106 26 56 109 26 60 112 26 64 115 25 68 117 25 72 120 25 75
122 20 13 25 24 14 26 24 14 25 24 14 25 23 14 25 23 14 25 20 13 25 20
13 25 20 13 25 20 13 24 20 13 24 20 13 24 20 13 24 20 13 24 20 13 24
20 13 24 20 13 24 20 13 24 20 13 24 20 13 24 20 13 24 17 11 22 17 11
22 17 11 22 17 11 22 17 11 22 17 11 22 17 11 22 17 11 23 18 11 25 18
12 27 18 12 29 18 13 31 19 13 34 19 14 36 19 14 38 19 14 40 20 15 42
20 15 44 20 16 47 20 16 49 21 16 51 21 17 53 21 17 55 21 18 57 22 18
59 22 19 62 26 21 66 26 21 68 26 22 71 24 31 77 24 35 79 24 38 82 25
40 84 25 42 87 25 43 89 25 43 91 30 25 88 30 26 90 31 26 92 31 27 94
31 27 96 32 28 99 32 28 101 33 29 103 34 29 105 38 32 108 42 34 111 46
36 114 51 39 116 56 42 119 63 45 122 69 49 125 78 53 128 90 59 130 34
17 19 34 17 19 34 17 19 34 17 19 34 17 19 34 17 19 34 17 19 34 17 19
34 17 19 34 17 19 34 17 19 34 17 19 34 17 19 34 17 19 34 17 19 34 17
19 34 17 19 34 17 19 34 17 19 34 17 19 34 17 19 34 17 19 34 17 19 34
17 19 34 17 19 34 17 19 34 17 19 34 17 19 34 17 19 34 17 19 34 17 19
34 17 19 34 17 19 34 17 19 34 17 19 34 17 19 34 17 19 34 17 19 34 17
19 34 17 19 34 17 19 34 17 19 34 17 19 34 17 19 34 17 19 34 17 19 34
17 19 34 17 19 34 17 19 34 17 19 34 17 19 34 17 19 34 17 19 34 17 19
34 17 19 34 17 19 34 17 19 34 17 19 34 17 19 34 17 19 33 17 19 33 17
19 33 17 19 33 17 19 33 17 19 33 17 19 33 17 19 33 17 19 33 17 19 33
17 19 33 17 19 33 17 19 33 17 19 33 17 19 33 17 19 33 17 19 33 17 19
33 17 19 33 17 19 33 17 19 33 17 19 33 17 19 33 17 19 33 17 19 33 17
19 33 17 19 33 17 19 33 17 19 33 17 19 33 17 19 33 16 19 33 16 19 33
16 19 33 16 19 33 16 19 33 16 19 33 16 19 33 16 19 33 16 19 33 16 19
33 16 19 33 16 19 33 16 19 33 16 19 33 16 19 33 16 19 33 16 19 33 16
19 33 16 19 33 16 19 33 16 18 32 16 18 32 16 18 32 16 18 32 16 18 32
16 18 32 16 18 32 16 18 4 61 31 4 58 30 4 55 30 4 53 30 4 51 29 4 50
29 4 48 29 4 47 28 4 46 28 4 44 28 4 43 28 4 43 28 4 43 28 4 43 28 4
43 28 4 43 28 4 43 28 4 43 28 4 43 28 4 43 28 4 43 28 4 43 28 4 43 28
4 43 28 4 43 28 4 43 28 4 43 28 4 43 28 4 43 28 4 43 28 4 43 28 4 43
28 4 43 28 4 43 28 3 43 28 3 43 28 3 43 28 3 43 28 3 43 28 3 43 28 3
43 28 3 43 28 3 43 27 3 43 27 3 43 27 3 43 27 3 43 27 3 43 27 3 43 27
3 43 27 3 43 27 3 43 27 3 43 27 3 43 27 3 43 27 3 43 27 3 43 27 3 43
27 3 43 27 3 43 27 3 43 27 3 43 27 30 15 18 30 15 18 30 15 18 30 15 18
30 15 18 30 15 18 30 15 18 30 15 18 30 15 18 30 15 18 30 15 18 30 15
18 30 15 18 30 15 18 30 15 17 30 15 17 30 15 17 30 15 17 30 15 17 30
15 17 30 15 17 30 15 17 30 15 17 30 15 17 30 15 17 30 15 17 30 15 17
30 15 17 30 15 17 29 15 17 29 15 17 29 15 17 29 15 17 29 15 17 29 15
17 29 15 17 29 15 17 29 15 17 29 15 17
14 8 14 14 8 14 14 8 14 14 8 14 14 8 14 14 8 14 14 8 14 14 8 14 14 8
14 14 8 14 14 8 14 14 8 14 14 8 14 14 8 14 14 8 14 14 8 14 14 8 14 14
8 14 14 8 14 14 8 14 14 8 14 14 8 14 14 8 14 14 8 14 14 8 14 14 8 14
14 8 14 14 8 14 14 8 14 14 8 14 14 8 14 14 8 14 14 8 14 14 8 14 14 8
14 14 8 15 14 8 15 15 8 15 15 8 15 15 8 15 15 8 15 15 8 15 15 8 15 15
8 15 15 8 15 15 8 15 15 8 15 15 8 15 15 8 15 15 8 15 15 8 15 15 8 15
15 8 15 15 8 15 15 8 15 15 8 15 15 8 15 15 8 15 15 8 15 31 16 18 31 16
18 31 16 18 31 16 18 31 16 18 31 16 18 31 16 18 31 16 18 32 16 18 32
16 18 32 16 18 32 16 18 32 16 18 32 16 18 32 16 18 32 16 18 32 16 18
32 16 18 32 16 18 32 16 18 32 16 18 32 16 18 32 16 18 32 16 18 32 16
18 32 16 18 32 16 18 32 16 18 32 16 18 32 16 18 32 16 18 32 16 18 32
16 18 32 16 18 32 16 18 26 52 106 25 52 106 24 52 106 23 52 106 23 51
106 23 52 107 25 58 110 25 61 113 25 65 115 25 69 118 25 72 120 24 77
128 21 13 25 25 15 26 24 15 26 24 14 26 24 14 26 24 14 25 20 13 25 20
13 25 20 13 25 20 13 25 20 13 25 20 13 25 20 13 25 20 13 25 20 13 24
20 13 24 20 13 24 20 13 24 20 13 24 20 13 24 20 13 24 20 13 24 21 13
24 21 13 24 21 13 24 21 13 24 21 13 24 21 13 24 21 13 26 21 14 28 22
14 31 22 15 33 22 15 35 22 15 37 23 16 39 23 16 42 23 17 44 24 17 46
24 17 48 24 18 50 25 18 53 24 18 55 24 19 57 25 19 59 25 20 61 25 20
63 25 21 66 26 21 68 26 21 70 28 22 72 24 31 78 24 35 81 24 38 83 25
41 86 26 43 89 25 44 91 26 44 93 31 26 90 32 27 92 32 27 94 32 28 96
33 28 99 33 29 101 34 29 103 34 30 105 35 30 107 38 32 110 42 34 112
47 37 115 52 39 118 57 42 121 63 45 124 70 49 127 78 53 129 90 59 131
34 17 19 34 17 19 34 17 19 34 17 19 34 17 19 34 17 19 34 17 19 34 17
19 34 17 19 34 17 19 34 17 19 34 17 19 34 17 19 34 17 19 34 17 19 34
17 19 34 17 19 34 17 19 34 17 19 34 17 19 34 17 19 34 17 19 34 17 19
34 17 19 34 17 19 34 17 19 34 17 19 34 17 19 34 17 19 34 17 19 34 17
19 34 17 19 34 17 19 34 17 19 34 17 19 34 17 19 34 17 19 34 17 19 34
17 19 34 17 19 34 17 19 34 17 19 34 17 19 34 17 19 34 17 19 34 17 19
34 17 19 34 17 19 34 17 19 34 17 19 34 17 19 34 17 19 34 17 19 34 17
19 34 17 19 34 17 19 34 17 19 34 17 19 34 17 19 34 17 19 34 17 19 34
17 19 34 17 19 34 17 19 34 17 19 34 17 19 34 17 19 34 17 19 34 17 19
34 17 19 34 17 19 34 17 19 34 17 19 34 17 19 34 17 19 34 17 19 34 17
19 34 17 19 34 17 19 34 17 19 34 17 19 34 17 19 34 17 19 34 17 19 34
17 19 34 17 19 34 17 19 34 17 19 33 17 19 33 17 19 33 17 19 33 17 19
33 17 19 33 17 19 33 17 19 33 17 19 33 17 19 33 17 19 33 17 19 33 17
19 33 17 19 33 17 19 33 17 19 33 17 19 33 17 19 33 17 19 33 17 19 33
17 19 33 17 19 33 17 19 33 16 19 33 16 19 33 16 19 33 16 19 33 16 19
33 16 19 4 64 32 4 60 31 4 57 30 4 55 30 4 53 29 4 51 29 4 49 29 4 48
29 4 47 28 4 45 28 4 44 28 4 43 28 4 43 28 4 43 28 4 43 28 4 43 28 4
43 28 4 43 28 4 43 28 4 43 28 4 43 28 4 43 28 4 43 28 4 43 28 4 43 28
4 43 28 4 43 28 4 43 28 4 43 28 4 43 28 4 43 28 4 43 28 4 43 28 4 43
28 4 43 28 4 43 28 4 43 28 4 43 28 4 43 28 4 43 28 4 43 28 4 43 28 4
43 28 4 43 28 4 43 28 4 43 28 4 43 28 4 43 28 4 43 28 3 43 28 3 43 28
3 43 28 3 43 28 3 43 28 3 43 28 3 43 28 3 43 28 3 43 28 3 43 27 3 43
27 3 43 27 3 43 27 3 43 27 3 43 27 3 43 27 31 15 18 31 15 18 31 15 18
31 15 18 31 15 18 31 15 18 31 15 18 31 15 18 30 15 18 30 15 18 30 15
18 30 15 18 30 15 18 30 15 18 30 15 18 30 15 18 30 15 18 30 15 18 30
15 18 30 15 18 30 15 18 30 15 18 30 15 18 30 15 18 30 15 18 30 15 17
30 15 17 30 15 17 30 15 17 30 15 17 30 15 17 30 15 17 30 15 17 30 15
17 30 15 17 30 15 17 30 15 17 30 15 17
14 8 14 14 8 14 14 8 14 14 8 14 14 8 14 14 8 14 14 8 14 14 8 14 14 8
14 14 8 14 14 8 14 14 8 14 14 8 14 14 8 14 14 8 14 14 8 14 14 8 14 14
8 14 14 8 14 14 8 14 14 8 14 14 8 14 14 8 14 14 8 14 14 8 14 14 8 15
14 8 15 15 8 15 15 8 15 15 8 15 15 8 15 15 8 15 15 8 15 15 8 15 15 8
15 15 8 15 15 8 15 15 8 15 15 8 15 15 8 15 15 8 15 15 8 15 15 8 15 15
8 15 15 8 15 15 8 15 15 8 15 15 8 15 15 8 15 15 8 15 15 8 15 15 8 15
15 8 15 15 9 15 15 9 15 15 9 15 15 9 15 15 9 15 15 9 15 32 16 18 32 16
18 32 16 18 32 16 18 32 16 18 32 16 18 32 16 18 32 16 18 32 16 18 32
16 18 32 16 18 32 16 18 32 16 18 32 16 18 32 16 18 32 16 18 32 16 18
32 16 18 32 16 18 32 16 18 32 16 18 32 16 18 32 16 18 32 16 18 32 16
18 32 16 18 33 16 18 33 16 18 33 16 18 33 16 18 33 16 18 33 16 18 33
16 18 33 16 18 25 52 106 25 52 106 24 52 106 23 51 106 23 51 106 22 51
106 22 53 107 24 58 110 24 62 113 24 66 116 24 69 118 24 74 126 24 79
136 22 23 46 25 15 26 25 15 26 25 15 26 21 13 25 24 15 26 20 13 25 20
13 25 20 13 25 20 13 25 20 13 25 20 13 25 20 13 25 20 13 25 20 13 25
20 13 25 20 13 25 20 13 25 20 13 25 20 13 25 20 13 25 20 13 25 20 13
25 22 14 25 22 14 25 22 14 25 22 14 25 22 14 26 23 14 28 23 15 30 23
15 32 23 15 35 24 16 37 24 16 39 24 17 41 25 17 43 25 17 46 25 18 48
25 18 50 26 19 52 26 19 54 24 19 56 25 19 58 25 20 61 25 20 63 25 20
65 26 21 67 26 21 70 26 22 72 26 22 74 24 32 79 24 36 82 25 38 85 25
41 87 25 43 90 26 44 92 26 45 96 33 27 92 33 28 94 33 28 97 34 29 99
34 29 101 35 30 103 35 30 105 36 30 107 36 31 109 39 33 111 43 35 114
47 37 117 52 40 120 57 43 123 63 46 126 70 49 128 78 53 131 90 60 132
35 17 19 35 17 19 35 17 19 35 17 19 35 17 19 35 17 19 35 17 19 35 17
19 35 17 19 35 17 19 35 17 19 35 17 19 35 17 19 35 17 19 35 17 19 35
17 19 35 17 19 35 17 19 35 17 19 35 17 19 35 17 19 35 17 19 35 17 19
35 17 19 35 17 19 35 17 19 35 17 19 35 17 19 35 17 19 35 17 19 35 17
19 35 17 19 35 17 19 35 17 19 35 17 19 35 17 19 35 17 19 35 17 19 35
17 19 35 17 19 35 17 19 35 17 19 35 17 19 35 17 19 35 17 19 35 17 19
35 17 19 35 17 19 35 17 19 35 17 19 35 17 19 35 17 19 35 17 19 35 17
19 35 17 19 35 17 19 35 17 19 35 17 19 35 17 19 34 17 19 34 17 19 34
17 19 34 17 19 34 17 19 34 17 19 34 17 19 34 17 19 34 17 19 34 17 19
34 17 19 34 17 19 34 17 19 34 17 19 34 17 19 34 17 19 34 17 19 34 17
19 34 17 19 34 17 19 34 17 19 34 17 19 34 17 19 34 17 19 34 17 19 34
17 19 34 17 19 34 17 19 34 17 19 34 17 19 34 17 19 34 17 19 34 17 19
34 17 19 34 17 19 34 17 19 34 17 19 34 17 19 34 17 19 34 17 19 34 17
19 34 17 19 34 17 19 34 17 19 34 17 19 34 17 19 34 17 19 34 17 19 34
17 19 33 17 19 33 17 19 33 17 19 33 17 19 33 17 19 33 17 19 33 17 19 4
62 31 4 59 31 4 56 30 4 54 30 4 52 29 4 50 29 4 49 29 4 48 28 4 46 28
4 45 28 4 44 28 4 43 28 4 43 28 4 43 28 4 43 28 4 43 28 4 43 28 4 43
28 4 43 28 4 43 28 4 43 28 4 43 28 4 43 28 4 43 28 4 43 28 4 43 28 4
43 28 4 43 28 4 43 28 4 43 28 4 43 28 4 43 28 4 43 28 4 43 28 4 43 28
4 43 28 4 43 28 4 43 28 4 43 28 4 43 28 4 43 28 4 43 28 4 43 28 4 43
28 4 43 28 4 43 28 4 43 28 4 43 28 4 43 28 4 43 28 4 43 28 4 43 28 4
43 28 4 43 28 4 43 28 4 43 28 4 43 28 4 43 28 4 43 28 4 43 28 4 43 28
4 43 28 3 43 28 3 43 28 3 43 28 3 43 28 3 43 28 3 43 28 31 16 18 31 16
18 31 16 18 31 16 18 31 16 18 31 16 18 31 16 18 31 16 18 31 15 18 31
15 18 31 15 18 31 15 18 31 15 18 31 15 18 31 15 18 31 15 18 31 15 18
30 15 18 30 15 18 30 15 18 30 15 18 30 15 18 30 15 18 30 15 18 30 15
18 30 15 18 30 15 18 30 15 18 30 15 18 30 15 18 30 15 18 30 15 18 30
15 18 30 15 18 30 15 18 30 15 17
14 8 14 14 8 14 14 8 14 14 8 14 14 8 14 14 8 14 14 8 14 14 8 14 14 8
14 14 8 14 14 8 14 14 8 14 14 8 14 14 8 14 14 8 14 14 8 15 14 8 15 15
8 15 15 8 15 15 8 15 15 8 15 15 8 15 15 8 15 15 8 15 15 8 15 15 8 15
15 8 15 15 8 15 15 8 15 15 8 15 15 8 15 15 8 15 15 8 15 15 8 15 15 8
15 15 8 15 15 8 15 15 8 15 15 8 15 15 8 15 15 8 15 15 8 15 15 9 15 15
9 15 15 9 15 15 9 15 15 9 15 15 9 15 15 9 15 15 9 15 15 9 15 15 9 15
15 9 15 15 9 15 15 9 15 15 9 15 15 9 15 15 9 15 15 9 15 15 9 15 32 16
18 32 16 18 32 16 18 32 16 18 32 16 18 32 16 18 32 16 18 32 16 18 32
16 18 32 16 18 32 16 18 32 16 18 33 16 18 33 16 18 33 16 18 33 16 18
33 16 18 33 16 18 33 16 18 33 16 18 33 16 18 33 16 18 33 16 18 33 16
18 33 16 18 33 16 18 33 16 18 33 16 18 33 16 18 33 16 18 33 17 18 33
17 18 25 52 106 25 52 106 23 52 106 23 51 105 22 51 105 22 51 105 21
51 105 21 54 107 21 58 110 23 62 113 23 66 116 23 71 123 23 75 134 23
80 144 23 85 154 25 15 26 25 15 26 21 13 25 21 13 25 21 13 25 21 13 25
21 13 25 21 13 25 21 13 25 21 13 25 21 13 25 21 13 25 21 13 25 20 13
25 20 13 25 20 13 25 20 13 25 20 13 25 20 13 25 20 13 25 20 13 25 20
13 25 24 14 25 24 14 25 24 14 25 24 14 25 24 14 27 24 15 29 24 15 32
25 16 34 25 16 36 25 17 38 25 17 41 26 17 43 26 18 45 26 18 47 27 19
50 27 19 52 27 20 54 28 20 56 24 19 58 25 20 60 25 20 62 25 20 65 26
21 67 26 21 69 26 22 71 26 22 73 27 23 76 24 31 81 25 35 83 25 38 86
25 40 89 26 42 91 26 44 95 26 45 99 34 28 94 34 29 97 35 29 99 35 30
101 36 30 103 36 30 105 37 31 107 37 31 109 37 32 111 40 33 113 44 35
116 48 38 119 53 40 122 58 43 125 63 46 128 70 50 130 78 54 132 91 60
133 35 17 19 35 18 19 35 18 19 35 18 19 35 18 19 35 18 19 35 18 19 35
18 19 35 18 19 35 18 19 35 18 19 35 18 19 35 18 19 35 18 19 35 18 19
35 18 19 35 18 19 35 18 19 35 18 19 35 18 19 35 18 19 35 18 19 35 18
19 35 18 19 35 18 19 35 18 20 35 18 20 35 18 20 35 18 20 35 18 20 35
18 20 35 18 20 35 18 20 35 18 20 35 18 20 35 18 20 35 18 20 35 18 20
35 18 20 35 18 20 35 18 20 35 18 20 35 18 20 35 18 20 35 18 20 35 18
20 35 18 19 35 18 19 35 17 19 35 17 19 35 17 19 35 17 19 35 17 19 35
17 19 35 17 19 35 17 19 35 17 19 35 17 19 35 17 19 35 17 19 35 17 19
35 17 19 35 17 19 35 17 19 35 17 19 35 17 19 35 17 19 35 17 19 35 17
19 35 17 19 35 17 19 35 17 19 35 17 19 35 17 19 35 17 19 35 17 19 35
17 19 35 17 19 35 17 19 35 17 19 35 17 19 35 17 19 35 17 19 35 17 19
35 17 19 35 17 19 35 17 19 34 17 19 34 17 19 34 17 19 34 17 19 34 17
19 34 17 19 34 17 19 34 17 19 34 17 19 34 17 19 34 17 19 34 17 19 34
17 19 34 17 19 34 17 19 34 17 19 34 17 19 34 17 19 34 17 19 34 17 19
34 17 19 34 17 19 34 17 19 34 17 19 34 17 19 34 17 19 4 66 32 4 61 31
4 58 30 4 56 30 4 54 30 4 52 29 4 50 29 4 49 29 4 47 28 4 46 28 4 45
28 4 44 28 4 43 28 4 43 28 4 43 28 4 43 28 4 43 28 4 43 28 4 43 28 4
43 28 4 43 28 4 43 28 4 43 28 4 43 28 4 43 28 4 43 28 4 43 28 4 43 28
4 43 28 4 43 28 4 43 28 4 43 28 4 43 28 4 43 28 4 43 28 4 43 28 4 43
28 4 43 28 4 43 28 4 43 28 4 43 28 4 43 28 4 43 28 4 43 28 4 43 28 4
43 28 4 43 28 4 43 28 4 43 28 4 43 28 4 43 28 4 43 28 4 43 28 4 43 28
4 43 28 4 43 28 4 43 28 4 43 28 4 43 28 4 43 28 4 43 28 4 43 28 4 43
28 4 43 28 4 43 28 4 43 28 4 43 28 4 43 28 4 43 28 4 43 28 4 43 28 31
16 18 31 16 18 31 16 18 31 16 18 31 16 18 31 16 18 31 16 18 31 16 18
31 16 18 31 16 18 31 16 18 31 16 18 31 16 18 31 16 18 31 16 18 31 16
18 31 16 18 31 16 18 31 15 18 31 15 18 31 15 18 31 15 18 31 15 18 31
15 18 31 15 18 31 15 18 31 15 18 30 15 18 30 15 18 30 15 18 30 15 18
30 15 18 30 15 18 30 15 18 30 15 18
14 8 14 14 8 14 14 8 14 14 8 14 14 8 14 14 8 15 14 8 15 15 8 15 15 8
15 15 8 15 15 8 15 15 8 15 15 8 15 15 8 15 15 8 15 15 8 15 15 8 15 15
8 15 15 8 15 15 8 15 15 8 15 15 8 15 15 8 15 15 8 15 15 8 15 15 8 15
15 8 15 15 8 15 15 8 15 15 8 15 15 8 15 15 8 15 15 9 15 15 9 15 15 9
15 15 9 15 15 9 15 15 9 15 15 9 15 15 9 15 15 9 15 15 9 15 15 9 15 15
9 15 15 9 15 15 9 15 15 9 15 15 9 15 15 9 15 15 9 15 15 9 15 15 9 15
15 9 15 15 9 15 15 9 15 15 9 15 15 9 15 15 9 15 15 9 15 15 9 15 33 16
18 33 16 18 33 16 18 33 16 18 33 16 18 33 16 18 33 16 18 33 16 18 33
16 18 33 16 18 33 16 18 33 16 18 33 16 18 33 16 18 33 16 18 33 16 18
33 16 18 33 17 18 33 17 18 33 17 18 33 17 19 33 17 19 33 17 19 33 17
19 33 17 19 33 17 19 33 17 19 33 17 19 33 17 19 34 17 19 34 17 19 26
53 107 23 51 105 23 51 105 22 51 105 22 51 105 21 51 105 21 50 105 21
50 105 20 50 105 20 50 105 20 50 105 22 52 109 22 53 117 22 54 125 22
81 151 22 86 160 26 15 26 26 15 26 21 13 25 21 13 25 21 13 25 21 13 25
20 13 24 21 13 25 21 13 25 21 13 25 21 13 25 21 13 25 21 13 25 21 13
25 21 13 25 21 13 25 21 13 25 21 13 25 21 13 25 21 13 25 21 13 25 21
13 25 25 15 26 25 15 26 25 15 26 25 15 26 25 15 29 25 16 31 26 16 33
26 17 35 26 17 38 26 17 40 27 18 42 27 18 45 27 19 47 28 19 49 28 20
51 28 20 54 29 21 56 29 21 58 29 21 60 25 20 62 25 20 64 26 21 66 26
21 68 26 22 71 26 22 73 27 22 75 27 23 77 25 31 82 25 34 85 25 37 87
26 40 90 26 42 94 26 44 98 26 43 103 36 29 97 36 30 99 36 30 102 37 31
104 37 31 106 38 31 108 38 32 109 38 32 111 39 33 113 40 34 115 44 36
118 49 38 121 53 41 124 58 44 127 64 47 129 70 50 132 78 54 134 36 18
20 36 18 20 36 18 20 36 18 20 36 18 20 36 18 20 36 18 20 36 18 20 36
18 20 36 18 20 36 18 20 36 18 20 36 18 20 36 18 20 36 18 20 36 18 20
36 18 20 36 18 20 36 18 20 36 18 20 36 18 20 36 18 20 36 18 20 36 18
20 36 18 20 36 18 20 36 18 20 36 18 20 36 18 20 36 18 20 36 18 20 36
18 20 36 18 20 36 18 20 36 18 20 36 18 20 36 18 20 36 18 20 36 18 20
36 18 20 36 18 20 36 18 20 36 18 20 36 18 20 36 18 20 36 18 20 36 18
20 36 18 20 36 18 20 36 18 20 36 18 20 36 18 20 36 18 20 36 18 20 36
18 20 36 18 20 36 18 20 36 18 20 36 18 20 36 18 20 36 18 20 35 18 20
35 18 20 35 18 20 35 18 20 35 18 20 35 18 20 35 18 20 35 18 20 35 18
20 35 18 20 35 18 20 35 18 20 35 18 20 35 18 20 35 18 20 35 18 20 35
18 20 35 18 20 35 18 20 35 18 20 35 18 20 35 18 20 35 17 20 35 17 20
35 17 20 35 17 20 35 17 20 35 17 20 35 17 20 35 17 20 35 17 19 35 17
19 35 17 19 35 17 19 35 17 19 35 17 19 35 17 19 35 17 19 35 17 19 35
17 19 35 17 19 35 17 19 35 17 19 35 17 19 35 17 19 35 17 19 34 17 19
34 17 19 34 17 19 34 17 19 34 17 19 34 17 19 4 64 32 4 60 31 4 58 30 4
55 30 4 53 30 4 52 29 4 50 29 4 48 29 4 47 28 4 46 28 4 44 28 4 43 28
4 43 28 4 43 28 4 43 28 4 43 28 4 43 28 4 43 28 4 43 28 4 43 28 4 43
28 4 43 28 4 43 28 4 43 28 4 43 28 4 43 28 4 43 28 4 43 28 4 43 28 4
43 28 4 43 28 4 43 28 4 43 28 4 43 28 4 43 28 4 43 28 4 43 28 4 43 28
4 43 28 4 43 28 4 43 28 4 43 28 4 43 28 4 43 28 4 43 28 4 43 28 4 43
28 4 43 28 4 43 28 4 43 28 4 43 28 4 43 28 4 43 28 4 43 28 4 43 28 4
43 28 4 43 28 4 43 28 4 43 28 4 43 28 4 43 28 4 43 28 4 43 28 4 43 28
4 43 28 4 43 28 4 43 28 4 43 28 4 43 28 4 43 28 4 43 28 4 43 28 4 43
28 32 16 18 32 16 18 32 16 18 32 16 18 32 16 18 32 16 18 32 16 18 32
16 18 31 16 18 31 16 18 31 16 18 31 16 18 31 16 18 31 16 18 31 16 18
31 16 18 31 16 18 31 16 18 31 16 18 31 16 18 31 16 18 31 16 18 31 16
18 31 16 18 31 16 18 31 16 18 31 16 18 31 15 18 31 15 18 31 15 18 31
15 18 31 15 18 31 15 18 31 15 18
15 8 15 15 8 15 15 8 15 15 8 15 15 8 15 15 8 15 15 8 15 15 8 15 15 8
15 15 8 15 15 8 15 15 8 15 15 8 15 15 8 15 15 8 15 15 8 15 15 8 15 15
8 15 15 8 15 15 8 15 15 8 15 15 8 15 15 9 15 15 9 15 15 9 15 15 9 15
15 9 15 15 9 15 15 9 15 15 9 15 15 9 15 15 9 15 15 9 15 15 9 15 15 9
15 15 9 15 15 9 15 15 9 15 15 9 15 15 9 15 15 9 15 15 9 15 15 9 15 15
9 15 15 9 15 15 9 15 15 9 15 15 9 15 15 9 15 15 9 15 15 9 15 15 9 15
15 9 15 15 9 15 15 9 15 15 9 15 15 9 15 15 9 15 15 9 15 15 9 15 33 16
18 33 16 18 33 16 18 33 16 18 33 16 18 33 17 18 33 17 18 33 17 18 33
17 18 33 17 19 33 17 19 33 17 19 33 17 19 33 17 19 33 17 19 33 17 19
34 17 19 34 17 19 34 17 19 34 17 19 34 17 19 34 17 19 34 17 19 34 17
19 34 17 19 34 17 19 34 17 19 34 17 19 34 17 19 34 17 19 34 17 19 24
52 105 23 51 105 22 51 105 21 51 105 21 50 105 21 50 105 20 50 105 20
50 105 20 50 104 20 50 104 19 50 106 19 51 114 19 52 123 21 55 131 21
56 139 21 57 146 26 15 26 26 15 26 26 15 27 21 13 25 21 13 25 21 13 25
20 13 24 20 13 24 21 13 25 21 13 25 21 13 25 21 13 25 21 13 25 21 13
25 21 13 25 21 13 25 21 13 26 21 13 26 21 13 26 21 13 26 21 13 26 21
13 26 26 15 26 26 15 26 26 15 26 26 16 28 26 16 30 27 16 32 27 17 35
27 17 37 27 18 39 28 18 42 28 19 44 28 19 46 29 20 48 29 20 51 29 20
53 30 21 55 30 21 58 30 22 60 31 22 62 31 23 64 26 21 66 26 21 68 26
22 70 26 22 72 27 22 75 27 23 77 27 23 79 34 27 83 25 32 85 26 36 88
26 39 92 26 41 96 26 42 101 37 30 97 37 30 100 38 31 103 38 32 106 39
32 109 39 32 109 39 32 110 39 33 112 40 33 113 40 34 115 41 34 117 45
37 120 49 39 123 54 41 126 69 46 129 64 47 131 71 50 133 79 54 135 36
18 20 36 18 20 36 18 20 36 18 20 36 18 20 36 18 20 36 18 20 36 18 20
36 18 20 36 18 20 36 18 20 36 18 20 36 18 20 36 18 20 36 18 20 36 18
20 36 18 20 36 18 20 36 18 20 36 18 20 36 18 20 36 18 20 36 18 20 36
18 20 36 18 20 36 18 20 36 18 20 36 18 20 36 18 20 36 18 20 36 18 20
36 18 20 36 18 20 36 18 20 36 18 20 36 18 20 36 18 20 36 18 20 36 18
20 36 18 20 36 18 20 36 18 20 36 18 20 36 18 20 36 18 20 36 18 20 36
18 20 36 18 20 36 18 20 36 18 20 36 18 20 36 18 20 36 18 20 36 18 20
36 18 20 36 18 20 36 18 20 36 18 20 36 18 20 36 18 20 36 18 20 36 18
20 36 18 20 36 18 20 36 18 20 36 18 20 36 18 20 36 18 20 36 18 20 36
18 20 36 18 20 36 18 20 36 18 20 36 18 20 36 18 20 36 18 20 36 18 20
36 18 20 36 18 20 36 18 20 36 18 20 36 18 20 36 18 20 36 18 20 36 18
20 36 18 20 36 18 20 35 18 20 35 18 20 35 18 20 35 18 20 35 18 20 35
18 20 35 18 20 35 18 20 35 18 20 35 18 20 35 18 20 35 18 20 35 18 20
35 18 20 35 18 20 35 18 20 35 17 20 35 17 20 35 17 20 35 17 20 35 17
20 35 17 20 35 17 20 35 17 20 35 17 20 4 64 32 4 60 31 4 57 30 4 55 30
4 53 30 4 51 29 4 50 29 4 48 29 4 47 28 4 46 28 4 44 28 4 43 28 4 43
28 4 43 28 4 43 28 4 43 28 4 43 28 4 43 28 4 43 28 4 43 28 4 43 28 4
43 28 4 43 28 4 43 28 4 43 28 4 43 28 4 43 28 4 43 28 4 43 28 4 43 28
4 43 28 4 43 28 4 43 28 4 43 28 4 43 28 4 43 28 4 43 28 4 43 28 4 43
28 4 43 28 4 43 28 4 43 28 4 43 28 4 43 28 4 43 28 4 43 28 4 43 28 4
43 28 4 43 28 4 43 28 4 43 28 4 43 28 4 43 28 4 43 28 4 43 28 4 43 28
4 43 28 4 43 28 4 43 28 4 43 28 4 43 28 4 43 28 4 43 28 4 43 28 4 43
28 4 43 28 4 43 28 4 43 28 4 43 28 4 43 28 4 43 28 4 43 28 4 43 28 4
43 28 4 43 28 32 16 18 32 16 18 32 16 18 32 16 18 32 16 18 32 16 18 32
16 18 32 16 18 32 16 18 32 16 18 32 16 18 32 16 18 32 16 18 32 16 18
32 16 18 32 16 18 32 16 18 32 16 18 31 16 18 31 16 18 31 16 18 31 16
18 31 16 18 31 16 18 31 16 18 31 16 18 31 16 18 31 16 18 31 16 18 31
16 18 31 16 18 31 16 18 31 16 18
15 8 15 15 8 15 15 8 15 15 8 15 15 8 15 15 8 15 15 8 15 15 8 15 15 8
15 15 8 15 15 8 15 15 8 15 15 8 15 15 9 15 15 9 15 15 9 15 15 9 15 15
9 15 15 9 15 15 9 15 15 9 15 15 9 15 15 9 15 15 9 15 15 9 15 15 9 15
15 9 15 15 9 15 15 9 15 15 9 15 15 9 15 15 9 15 15 9 15 15 9 15 15 9
15 15 9 15 15 9 15 15 9 15 15 9 15 15 9 15 15 9 15 15 9 15 15 9 15 15
9 15 15 9 15 15 9 15 15 9 15 15 9 15 15 9 15 15 9 15 15 9 15 15 9 15
15 9 15 15 9 15 15 9 15 15 9 15 15 9 15 15 9 15 15 9 15 15 9 15 33 17
19 33 17 19 33 17 19 33 17 19 33 17 19 34 17 19 34 17 19 34 17 19 34
17 19 34 17 19 34 17 19 34 17 19 34 17 19 34 17 19 34 17 19 34 17 19
34 17 19 34 17 19 34 17 19 34 17 19 34 17 19 34 17 19 34 17 19 34 17
19 34 17 19 34 17 19 34 17 19 34 17 19 34 17 19 34 17 19 27 53 109 22
51 105 22 51 105 21 50 105 21 50 105 20 50 104 20 50 104 20 50 104 19
50 104 19 50 104 19 49 104 19 51 111 19 52 120 18 53 128 18 54 136 20
56 144 20 57 151 21 22 45 27 16 27 27 16 27 21 13 26 21 13 26 21 13 26
20 13 24 20 13 24 20 13 24 21 13 26 21 13 26 21 13 26 21 13 26 21 13
26 21 13 26 21 13 26 21 13 26 21 13 26 21 13 26 21 13 26 21 13 26 21
13 26 21 13 26 27 16 27 27 16 27 27 16 29 28 17 32 28 17 34 28 18 36
28 18 39 29 18 41 29 19 43 29 19 46 30 20 48 30 20 50 30 21 52 31 21
55 31 22 57 31 22 59 32 23 62 32 23 64 33 24 66 33 24 69 26 21 70 26
22 72 27 22 74 27 23 77 27 23 79 27 24 81 36 28 85 36 28 87 36 28 90
26 36 96 37 30 94 38 30 97 38 31 100 39 32 105 40 33 110 41 34 115 41
34 116 41 34 114 41 34 113 41 34 114 41 34 116 41 34 117 42 35 119 46
37 122 50 39 125 68 46 135 71 47 130 65 47 132 71 51 134 79 55 136 37
18 20 37 18 20 37 18 20 37 18 20 37 18 20 37 18 20 37 18 20 37 18 20
37 18 20 37 18 20 37 18 20 37 18 20 37 18 20 37 18 20 37 18 20 37 18
20 37 18 20 37 18 20 37 18 20 37 18 20 37 18 20 37 18 20 37 18 20 37
18 20 37 18 20 37 18 20 37 18 20 37 18 20 37 18 20 37 18 20 37 18 20
37 18 20 37 18 20 37 18 20 37 18 20 37 18 20 37 18 20 37 18 20 37 18
20 37 18 20 37 18 20 37 18 20 37 18 20 37 18 20 37 18 20 37 18 20 37
18 20 37 18 20 37 18 20 37 18 20 37 18 20 37 18 20 37 18 20 37 18 20
37 18 20 37 18 20 37 18 20 37 18 20 37 18 20 37 18 20 37 18 20 37 18
20 37 18 20 37 18 20 36 18 20 36 18 20 36 18 20 36 18 20 36 18 20 36
18 20 36 18 20 36 18 20 36 18 20 36 18 20 36 18 20 36 18 20 36 18 20
36 18 20 36 18 20 36 18 20 36 18 20 36 18 20 36 18 20 36 18 20 36 18
20 36 18 20 36 18 20 36 18 20 36 18 20 36 18 20 36 18 20 36 18 20 36
18 20 36 18 20 36 18 20 36 18 20 36 18 20 36 18 20 36 18 20 36 18 20
36 18 20 36 18 20 36 18 20 36 18 20 36 18 20 36 18 20 35 18 20 35 18
20 35 18 20 35 18 20 35 18 20 4 63 32 4 60 31 4 57 30 4 55 30 4 53 30
4 51 29 4 50 29 4 48 29 4 47 28 4 46 28 4 44 28 4 43 28 4 43 28 4 43
28 4 43 28 4 43 28 4 43 28 4 43 28 4 43 28 4 43 28 4 43 28 4 43 28 4
43 28 4 43 28 4 43 28 4 43 28 4 43 28 4 43 28 4 43 28 4 43 28 4 43 28
4 43 28 4 43 28 4 43 28 4 43 28 4 43 28 4 43 28 4 43 28 4 43 28 4 43
28 4 43 28 4 43 28 4 43 28 4 43 28 4 43 28 4 43 28 4 43 28 4 43 28 4
43 28 4 43 28 4 43 28 4 43 28 4 43 28 4 43 28 4 43 28 4 43 28 4 43 28
4 43 28 4 43 28 4 43 28 4 43 28 4 43 28 4 43 28 4 43 28 4 43 28 4 43
28 4 43 28 4 43 28 4 43 28 4 43 28 4 43 28 4 43 28 4 43 28 4 43 28 4
43 28 4 43 28 4 43 28 33 16 19 32 16 19 32 16 19 32 16 19 32 16 19 32
16 19 32 16 19 32 16 19 32 16 19 32 16 18 32 16 18 32 16 18 32 16 18
32 16 18 32 16 18 32 16 18 32 16 18 32 16 18 32 16 18 32 16 18 32 16
18 32 16 18 32 16 18 32 16 18 32 16 18 32 16 18 31 16 18 31 16 18 31
16 18 31 16 18 31 16 18 31 16 18
15 8 15 15 8 15 15 8 15 15 8 15 15 9 15 15 9 15 15 9 15 15 9 15 15 9
15 15 9 15 15 9 15 15 9 15 15 9 15 15 9 15 15 9 15 15 9 15 15 9 15 15
9 15 15 9 15 15 9 15 15 9 15 15 9 15 15 9 15 15 9 15 15 9 15 15 9 15
15 9 15 15 9 15 15 9 15 15 9 15 15 9 15 15 9 15 15 9 15 15 9 15 15 9
15 15 9 15 15 9 15 15 9 15 15 9 15 15 9 15 15 9 15 15 9 15 15 9 15 15
9 15 15 9 15 15 9 15 15 9 15 15 9 15 15 9 15 15 9 15 15 9 15 15 9 15
15 9 15 15 9 15 15 9 15 15 9 15 15 9 15 15 9 15 15 9 15 15 9 15 34 17
19 34 17 19 34 17 19 34 17 19 34 17 19 34 17 19 34 17 19 34 17 19 34
17 19 34 17 19 34 17 19 34 17 19 34 17 19 34 17 19 34 17 19 34 17 19
34 17 19 34 17 19 34 17 19 34 17 19 35 17 19 35 17 19 35 17 19 35 17
19 35 17 19 35 17 19 35 17 19 35 17 19 35 17 19 35 17 19 22 51 105 21
50 104 21 50 104 20 50 104 20 50 104 19 50 104 19 50 104 19 49 104 19
49 104 18 49 104 18 50 108 18 51 116 18 52 125 18 54 133 18 55 141 18
56 149 19 58 157 19 59 164 27 16 27 27 16 27 21 13 26 21 13 26 21 13
26 21 13 26 20 13 24 20 13 24 21 13 26 21 13 26 21 13 26 21 13 26 21
13 26 21 13 26 21 13 26 21 13 26 21 13 26 21 13 26 21 13 26 21 13 26
21 13 26 21 13 26 28 16 27 28 16 28 28 17 31 29 17 33 29 18 35 29 18
38 30 19 40 30 19 42 30 20 45 31 20 47 31 21 49 31 21 52 32 22 54 32
22 56 32 23 59 33 23 61 33 23 63 34 24 66 34 24 68 34 25 71 35 25 73
27 22 74 27 23 76 27 23 78 27 24 81 37 28 85 37 28 87 38 29 89 38 29
92 38 30 94 39 31 97 39 31 100 40 32 105 41 34 113 43 36 122 43 37 127
43 37 126 43 35 121 42 35 117 42 35 117 43 35 118 43 35 120 43 36 121
47 38 124 51 40 127 72 47 137 68 46 131 65 48 134 71 51 136 80 55 137
37 18 20 37 18 20 37 18 20 37 19 20 37 19 20 37 19 20 37 19 20 37 19
20 37 19 20 37 19 20 37 19 20 37 19 20 37 19 20 37 19 20 37 19 20 37
19 20 37 19 20 37 19 20 37 19 20 37 19 20 37 19 20 37 19 20 37 19 20
37 19 20 37 19 20 37 19 20 37 19 20 37 19 20 37 19 20 37 19 20 37 19
20 37 19 20 37 19 20 37 19 20 37 19 20 37 19 20 37 19 20 37 19 20 37
19 20 37 19 20 37 19 20 37 19 20 37 19 20 37 19 20 37 19 20 37 19 20
37 19 20 37 19 20 37 19 20 37 18 20 37 18 20 37 18 20 37 18 20 37 18
20 37 18 20 37 18 20 37 18 20 37 18 20 37 18 20 37 18 20 37 18 20 37
18 20 37 18 20 37 18 20 37 18 20 37 18 20 37 18 20 37 18 20 37 18 20
37 18 20 37 18 20 37 18 20 37 18 20 37 18 20 37 18 20 37 18 20 37 18
20 37 18 20 37 18 20 37 18 20 37 18 20 37 18 20 37 18 20 37 18 20 37
18 20 37 18 20 37 18 20 37 18 20 36 18 20 36 18 20 36 18 20 36 18 20
36 18 20 36 18 20 36 18 20 36 18 20 36 18 20 36 18 20 36 18 20 36 18
20 36 18 20 36 18 20 36 18 20 36 18 20 36 18 20 36 18 20 36 18 20 36
18 20 36 18 20 4 70 33 4 63 32 4 60 31 4 57 30 4 55 30 4 53 30 4 51 29
4 50 29 4 48 29 4 47 28 4 45 28 4 44 28 4 43 28 4 43 28 4 43 28 4 43
28 4 43 28 4 43 28 4 43 28 4 43 28 4 43 28 4 43 28 4 43 28 4 43 28 4
43 28 4 43 28 4 43 28 4 43 28 4 43 28 4 43 28 4 43 28 4 43 28 4 43 28
4 43 28 4 43 28 4 43 28 4 43 28 4 43 28 4 43 28 4 43 28 4 43 28 4 43
28 4 43 28 4 43 28 4 43 28 4 43 28 4 43 28 4 43 28 4 43 28 4 43 28 4
43 28 4 43 28 4 43 28 4 43 28 4 43 28 4 43 28 4 43 28 4 43 28 4 43 28
4 43 28 4 43 28 4 43 28 4 43 28 4 43 28 4 43 28 4 43 28 4 43 28 4 43
28 4 43 28 4 43 28 4 43 28 4 43 28 4 43 28 4 43 28 4 43 28 4 43 28 4
43 28 4 43 28 4 43 28 4 43 28 33 16 19 33 16 19 33 16 19 33 16 19 33
16 19 33 16 19 33 16 19 33 16 19 33 16 19 33 16 19 32 16 19 32 16 19
32 16 19 32 16 19 32 16 19 32 16 19 32 16 19 32 16 19 32 16 19 32 16
18 32 16 18 32 16 18 32 16 18 32 16 18 32 16 18 32 16 18 32 16 18 32
16 18 32 16 18 32 16 18 32 16 18
15 9 15 15 9 15 15 9 15 15 9 15 15 9 15 15 9 15 15 9 15 15 9 15 15 9
15 15 9 15 15 9 15 15 9 15 15 9 15 15 9 15 15 9 15 15 9 15 15 9 15 15
9 15 15 9 15 15 9 15 15 9 15 15 9 15 15 9 15 15 9 15 15 9 15 15 9 15
15 9 15 15 9 15 15 9 15 15 9 15 15 9 15 15 9 15 15 9 15 15 9 15 15 9
15 15 9 15 15 9 15 15 9 15 15 9 15 15 9 15 15 9 15 15 9 15 15 9 15 15
9 15 15 9 15 15 9 15 15 9 15 15 9 15 15 9 15 15 9 15 15 9 15 15 9 15
15 9 15 15 9 15 15 9 15 15 9 15 15 9 15 15 9 15 15 9 15 15 9 15 34 17
19 34 17 19 34 17 19 34 17 19 34 17 19 34 17 19 34 17 19 34 17 19 34
17 19 35 17 19 35 17 19 35 17 19 35 17 19 35 17 19 35 17 19 35 17 19
35 17 19 35 17 19 35 17 19 35 17 19 35 17 19 35 17 19 35 17 19 35 17
19 35 17 19 35 17 19 35 17 19 35 18 19 35 18 19 30 55 112 20 50 104 19
50 104 20 50 104 19 50 104 19 49 104 19 49 104 18 49 104 18 49 103 18
49 103 18 49 103 18 50 112 18 52 121 17 53 130 17 54 138 17 56 146 17
57 154 17 58 161 18 59 169 27 16 27 28 16 27 21 13 26 21 13 26 21 13
26 21 13 26 20 13 24 20 13 24 20 13 24 21 13 26 21 13 26 21 13 26 21
13 26 21 13 26 21 13 26 21 13 26 21 13 26 21 13 26 21 13 26 21 13 26
21 13 26 21 13 26 29 17 28 29 17 30 29 18 32 30 18 34 30 18 37 30 19
39 31 19 42 31 20 44 32 20 46 32 21 49 32 21 51 33 22 53 33 22 56 33
23 58 34 23 61 34 24 63 35 24 65 35 25 68 35 25 70 36 26 72 36 26 75
37 27 77 37 27 80 37 28 82 38 28 84 38 29 87 39 29 89 39 30 92 40 30
94 40 31 97 41 32 100 41 33 104 42 34 112 44 37 126 46 40 139 47 41
145 46 39 138 45 37 127 44 36 120 44 36 119 44 36 120 44 36 122 44 36
123 48 38 126 55 42 142 73 48 137 60 45 133 66 48 135 72 51 137 81 56
136 38 19 20 38 19 21 38 19 21 38 19 21 38 19 21 38 19 21 38 19 21 38
19 21 38 19 21 38 19 21 38 19 21 38 19 21 38 19 21 38 19 21 38 19 21
38 19 21 38 19 21 38 19 21 38 19 21 38 19 21 38 19 21 38 19 21 38 19
21 38 19 21 38 19 21 38 19 21 38 19 21 38 19 21 38 19 21 38 19 21 38
19 21 38 19 21 38 19 21 38 19 21 38 19 21 38 19 21 38 19 21 38 19 21
38 19 21 38 19 21 38 19 21 38 19 21 38 19 21 38 19 21 38 19 21 38 19
21 38 19 21 38 19 21 38 19 21 38 19 21 38 19 21 38 19 21 38 19 21 38
19 21 38 19 21 38 19 21 38 19 21 38 19 21 38 19 21 38 19 21 38 19 21
38 19 21 38 19 21 38 19 21 38 19 21 38 19 21 38 19 21 38 19 21 37 19
21 37 19 21 37 19 21 37 19 21 37 19 21 37 19 21 37 19 21 37 19 20 37
19 20 37 19 20 37 19 20 37 19 20 37 19 20 37 18 20 37 18 20 37 18 20
37 18 20 37 18 20 37 18 20 37 18 20 37 18 20 37 18 20 37 18 20 37 18
20 37 18 20 37 18 20 37 18 20 37 18 20 37 18 20 37 18 20 37 18 20 37
18 20 37 18 20 37 18 20 37 18 20 37 18 20 37 18 20 37 18 20 36 18 20
36 18 20 4 69 33 4 63 32 4 60 31 4 57 30 4 55 30 4 53 30 4 51 29 4 50
29 4 48 29 4 47 28 4 46 28 4 44 28 4 43 28 4 43 28 4 43 28 4 43 28 4
43 28 4 43 28 4 43 28 4 43 28 4 43 28 4 43 28 4 43 28 4 43 28 4 43 28
4 43 28 4 43 28 4 43 28 4 43 28 4 43 28 4 43 28 4 43 28 4 43 28 4 43
28 4 43 28 4 43 28 4 43 28 4 43 28 4 43 28 4 43 28 4 43 28 4 43 28 4
43 28 4 43 28 4 43 28 4 43 28 4 43 28 4 43 28 4 43 28 4 43 28 4 43 28
4 43 28 4 43 28 4 43 28 4 43 28 4 43 28 4 43 28 4 43 28 4 43 28 4 43
28 4 43 28 4 43 28 4 43 28 4 43 28 4 43 28 4 43 28 4 43 28 4 43 28 4
43 28 4 43 28 4 43 28 4 43 28 4 43 28 4 43 28 4 43 28 4 43 28 4 43 28
4 43 28 4 43 28 4 43 28 4 43 28 4 43 28 33 17 19 33 17 19 33 17 19 33
17 19 33 17 19 33 17 19 33 17 19 33 17 19 33 16 19 33 16 19 33 16 19
33 16 19 33 16 19 33 16 19 33 16 19 33 16 19 33 16 19 33 16 19 32 16
19 32 16 19 32 16 19 32 16 19 32 16 19 32 16 19 32 16 19 32 16 19 32
16 19 32 16 19 32 16 18 32 16 18
15 9 15 15 9 15 15 9 15 15 9 15 15 9 15 15 9 15 15 9 15 15 9 15 15 9
15 15 9 15 15 9 15 15 9 15 15 9 15 15 9 15 15 9 15 15 9 15 15 9 15 15
9 15 15 9 15 15 9 15 15 9 15 15 9 15 15 9 15 15 9 15 15 9 15 15 9 15
15 9 15 15 9 15 15 9 15 15 9 15 15 9 15 15 9 15 15 9 15 15 9 15 15 9
15 15 9 15 15 9 15 15 9 15 15 9 15 15 9 15 15 9 15 15 9 15 15 9 15 15
9 15 15 9 15 15 9 15 15 9 15 15 9 15 15 9 15 15 9 15 15 9 15 15 9 15
15 9 15 15 9 15 15 9 15 15 9 15 15 9 15 15 9 15 15 9 15 35 17 19 35 17
19 35 17 19 35 17 19 35 17 19 35 17 19 35 17 19 35 17 19 35 17 19 35
17 19 35 17 19 35 17 19 35 17 19 35 17 19 35 17 19 35 17 19 35 18 19
35 18 19 35 18 19 35 18 19 35 18 19 35 18 19 35 18 19 36 18 19 36 18
19 36 18 19 36 18 19 36 18 19 36 18 20 36 18 20 24 52 107 19 49 103 18
49 103 19 49 104 19 49 103 18 49 103 18 49 103 18 49 103 17 49 103 17
49 103 17 49 108 17 51 117 17 52 126 17 54 134 17 55 143 17 56 151 17
57 158 16 58 166 17 60 173 21 23 53 28 16 27 21 13 26 21 13 26 21 13
26 21 13 26 20 13 24 20 13 24 20 13 24 20 13 24 21 13 26 21 13 26 21
13 26 21 13 26 21 13 26 21 13 26 21 13 26 21 13 26 21 13 27 21 13 27
21 13 27 21 13 27 30 17 28 30 18 31 30 18 33 31 19 36 31 19 38 32 20
41 32 20 43 32 21 45 33 21 48 33 22 50 33 22 53 34 23 55 34 23 57 35
24 60 35 24 62 35 25 65 36 25 67 36 26 69 37 26 72 37 27 74 37 27 77
38 28 79 38 28 82 39 29 84 39 29 87 40 30 89 40 30 92 41 31 94 41 31
97 42 32 99 42 33 103 43 34 110 45 37 122 47 40 141 50 44 158 50 44
161 48 42 147 46 38 131 45 37 122 45 37 121 45 37 122 46 37 124 46 37
125 49 39 128 60 44 144 68 45 134 61 46 134 66 48 136 72 52 138 38 19
21 38 19 21 38 19 21 38 19 21 38 19 21 38 19 21 38 19 21 38 19 21 38
19 21 38 19 21 38 19 21 38 19 21 38 19 21 38 19 21 38 19 21 38 19 21
38 19 21 38 19 21 38 19 21 38 19 21 38 19 21 38 19 21 38 19 21 38 19
21 38 19 21 38 19 21 38 19 21 38 19 21 38 19 21 38 19 21 38 19 21 38
19 21 38 19 21 38 19 21 38 19 21 38 19 21 38 19 21 38 19 21 38 19 21
38 19 21 38 19 21 38 19 21 38 19 21 38 19 21 38 19 21 38 19 21 38 19
21 38 19 21 38 19 21 38 19 21 38 19 21 38 19 21 38 19 21 38 19 21 38
19 21 38 19 21 38 19 21 38 19 21 38 19 21 38 19 21 38 19 21 38 19 21
38 19 21 38 19 21 38 19 21 38 19 21 38 19 21 38 19 21 38 19 21 38 19
21 38 19 21 38 19 21 38 19 21 38 19 21 38 19 21 38 19 21 38 19 21 38
19 21 38 19 21 38 19 21 38 19 21 38 19 21 38 19 21 38 19 21 38 19 21
38 19 21 38 19 21 38 19 21 38 19 21 38 19 21 38 19 21 37 19 21 37 19
21 37 19 21 37 19 21 37 19 21 37 19 21 37 19 21 37 19 21 37 19 21 37
19 21 37 18 21 37 18 20 37 18 20 37 18 20 37 18 20 37 18 20 37 18 20 5
69 33 4 63 32 4 60 31 4 57 30 4 55 30 4 53 30 4 51 29 4 50 29 4 48 29
4 47 28 4 46 28 4 44 28 4 43 28 4 43 28 4 43 28 4 43 28 4 43 28 4 43
28 4 43 28 4 43 28 4 43 28 4 43 28 4 43 28 4 43 28 4 43 28 4 43 28 4
43 28 4 43 28 4 43 28 4 43 28 4 43 28 4 43 28 4 43 28 4 43 28 4 43 28
4 43 28 4 43 28 4 43 28 4 43 28 4 43 28 4 43 28 4 43 28 4 43 28 4 43
28 4 43 28 4 43 28 4 43 28 4 43 28 4 43 28 4 43 28 4 43 28 4 43 28 4
43 28 4 43 28 4 43 28 4 43 28 4 43 28 4 43 28 4 43 28 4 43 28 4 43 28
4 43 28 4 43 28 4 43 28 4 43 28 4 43 28 4 43 28 4 43 28 4 43 28 4 43
28 4 43 28 4 43 28 4 43 28 4 43 28 4 43 28 4 43 28 4 43 28 4 43 28 4
43 28 4 43 28 4 43 28 4 43 28 4 43 28 4 43 28 34 17 19 34 17 19 33 17
19 33 17 19 33 17 19 33 17 19 33 17 19 33 17 19 33 17 19 33 17 19 33
17 19 33 17 19 33 17 19 33 17 19 33 17 19 33 17 19 33 17 19 33 16 19
33 16 19 33 16 19 33 16 19 33 16 19 33 16 19 33 16 19 33 16 19 33 16
19 32 16 19 32 16 19 32 16 19
15 9 15 15 9 15 15 9 15 15 9 15 15 9 15 15 9 15 15 9 15 15 9 15 15 9
15 15 9 15 15 9 15 15 9 15 15 9 15 15 9 15 15 9 15 15 9 15 15 9 15 15
9 15 15 9 15 15 9 15 15 9 15 15 9 15 15 9 15 15 9 15 15 9 15 15 9 15
15 9 15 15 9 15 15 9 15 15 9 15 15 9 15 15 9 15 15 9 15 15 9 15 15 9
15 15 9 15 15 9 15 15 9 15 15 9 15 15 9 15 15 9 15 15 9 15 15 9 15 15
9 15 15 9 15 15 9 15 15 9 15 15 9 15 15 9 15 15 9 15 15 9 15 15 9 15
15 9 15 15 9 16 15 9 16 15 9 16 15 9 16 15 9 16 15 9 16 35 17 19 35 17
19 35 17 19 35 17 19 35 17 19 35 17 19 35 18 19 35 18 19 35 18 19 35
18 19 35 18 19 35 18 19 36 18 19 36 18 19 36 18 19 36 18 19 36 18 19
36 18 20 36 18 20 36 18 20 36 18 20 36 18 20 36 18 20 36 18 20 36 18
20 36 18 20 36 18 20 36 18 20 36 18 20 36 18 20 22 51 107 18 49 103 17
52 105 17 52 104 17 51 104 17 49 103 17 49 103 17 48 103 17 48 103 17
48 103 17 50 112 16 51 121 16 53 130 16 54 138 16 55 147 16 56 155 16
58 163 16 59 170 16 60 178 16 61 185 28 16 27 29 16 27 21 13 26 21 13
26 21 13 26 20 13 24 20 13 24 20 13 24 20 13 24 21 13 26 21 13 26 21
13 26 21 13 26 21 13 27 21 13 27 21 13 27 21 13 27 21 13 27 21 13 27
21 13 27 21 13 27 31 18 30 31 18 32 32 19 35 32 19 37 32 20 39 33 20
42 33 21 44 33 21 47 34 22 49 34 22 52 35 23 54 35 23 57 35 24 59 36
24 61 36 25 64 37 25 66 37 26 69 37 26 71 38 27 74 38 27 76 39 28 79
39 29 81 40 29 84 40 30 86 41 30 89 41 31 91 42 31 94 42 32 96 43 32
99 43 33 102 44 34 107 45 36 116 47 39 133 50 44 156 52 47 172 52 46
168 50 43 149 48 39 131 47 38 124 47 37 123 47 38 124 47 38 126 47 38
127 36 34 127 59 43 140 59 42 131 62 46 136 67 49 137 73 52 138 39 19
21 39 19 21 39 19 21 39 19 21 39 19 21 39 19 21 39 19 21 39 19 21 39
19 21 39 19 21 39 19 21 39 19 21 39 19 21 39 19 21 39 19 21 39 19 21
39 19 21 39 19 21 39 19 21 39 19 21 39 19 21 39 19 21 39 19 21 39 19
21 39 19 21 39 19 21 39 19 21 39 19 21 39 19 21 39 19 21 39 19 21 39
19 21 39 19 21 39 19 21 39 19 21 39 19 21 39 19 21 39 19 21 39 19 21
39 19 21 39 19 21 39 19 21 39 19 21 39 19 21 39 19 21 39 19 21 39 19
21 39 19 21 39 19 21 39 19 21 39 19 21 39 19 21 39 19 21 39 19 21 39
19 21 39 19 21 39 19 21 39 19 21 39 19 21 39 19 21 39 19 21 39 19 21
39 19 21 39 19 21 39 19 21 39 19 21 39 19 21 39 19 21 39 19 21 39 19
21 39 19 21 39 19 21 39 19 21 38 19 21 38 19 21 38 19 21 38 19 21 38
19 21 38 19 21 38 19 21 38 19 21 38 19 21 38 19 21 38 19 21 38 19 21
38 19 21 38 19 21 38 19 21 38 19 21 38 19 21 38 19 21 38 19 21 38 19
21 38 19 21 38 19 21 38 19 21 38 19 21 38 19 21 38 19 21 38 19 21 38
19 21 38 19 21 38 19 21 38 19 21 38 19 21 38 19 21 38 19 21 5 70 33 4
64 32 4 60 31 4 58 31 4 55 30 4 53 30 4 52 29 4 50 29 4 48 29 4 47 29
4 46 28 4 44 28 4 43 28 4 43 28 4 43 28 4 43 28 4 43 28 4 43 28 4 43
28 4 43 28 4 43 28 4 43 28 4 43 28 4 43 28 4 43 28 4 43 28 4 43 28 4
43 28 4 43 28 4 43 28 4 43 28 4 43 28 4 43 28 4 43 28 4 43 28 4 43 28
4 43 28 4 43 28 4 43 28 4 43 28 4 43 28 4 43 28 4 43 28 4 43 28 4 43
28 4 43 28 4 43 28 4 43 28 4 43 28 4 43 28 4 43 28 4 43 28 4 43 28 4
43 28 4 43 28 4 43 28 4 43 28 4 43 28 4 43 28 4 43 28 4 43 28 4 43 28
4 43 28 4 43 28 4 43 28 4 43 28 4 43 28 4 43 28 4 43 28 4 43 28 4 43
28 4 43 28 4 43 28 4 43 28 4 43 28 4 43 28 4 43 28 4 43 28 4 43 28 4
43 28 4 43 28 4 43 28 4 43 28 4 43 28 4 43 28 4 43 28 34 17 19 34 17
19 34 17 19 34 17 19 34 17 19 34 17 19 34 17 19 34 17 19 34 17 19 34
17 19 34 17 19 33 17 19 33 17 19 33 17 19 33 17 19 33 17 19 33 17 19
33 17 19 33 17 19 33 17 19 33 17 19 33 17 19 33 17 19 33 17 19 33 17
19 33 16 19 33 16 19 33 16 19
15 9 15 15 9 15 15 9 15 15 9 15 15 9 15 15 9 15 15 9 15 15 9 15 15 9
15 15 9 15 15 9 15 15 9 15 15 9 15 15 9 15 15 9 15 15 9 15 15 9 15 15
9 15 15 9 15 15 9 15 15 9 15 15 9 15 15 9 15 15 9 15 15 9 15 15 9 15
15 9 15 15 9 15 15 9 15 15 9 15 15 9 15 15 9 15 15 9 15 15 9 15 15 9
15 15 9 15 15 9 15 15 9 15 15 9 15 15 9 15 15 9 15 15 9 15 15 9 15 15
9 15 15 9 16 15 9 16 15 9 16 15 9 16 15 9 16 15 9 16 15 9 16 15 9 16
15 9 16 15 9 16 15 9 16 15 9 16 15 9 16 15 9 16 15 9 16 35 18 19 35 18
19 36 18 19 36 18 19 36 18 19 36 18 19 36 18 19 36 18 20 36 18 20 36
18 20 36 18 20 36 18 20 36 18 20 36 18 20 36 18 20 36 18 20 36 18 20
36 18 20 36 18 20 36 18 20 36 18 20 36 18 20 36 18 20 36 18 20 36 18
20 37 18 20 37 18 20 37 18 20 37 18 20 30 55 112 21 51 107 17 51 104
16 52 104 16 52 104 16 52 104 15 51 104 15 51 104 15 48 102 15 47 102
15 48 105 15 49 115 15 51 124 15 52 133 15 54 141 15 55 150 14 56 158
14 58 166 14 59 173 14 60 181 14 61 188 20 22 48 29 17 27 21 13 26 21
13 26 21 13 26 21 13 26 20 13 24 20 13 24 20 13 24 20 13 24 21 13 27
21 13 27 21 13 27 21 13 27 21 13 27 21 13 27 21 13 27 21 13 27 21 13
27 21 13 27 21 13 27 21 14 29 32 19 33 32 19 36 33 20 38 33 20 41 34
21 43 34 21 46 34 22 48 35 22 51 35 23 53 36 23 56 36 24 58 37 24 60
37 25 63 37 26 65 38 26 68 38 27 70 39 27 73 39 28 76 40 28 78 40 29
81 41 29 83 41 30 86 42 31 88 42 31 91 43 32 94 43 32 96 44 33 99 44
34 102 45 34 105 46 35 111 47 38 121 50 41 140 52 46 162 54 48 173 53
46 164 50 42 144 49 39 129 48 38 125 48 38 125 48 39 126 48 39 128 33
32 126 36 34 128 53 40 135 58 44 135 62 47 137 67 49 138 74 52 137 39
20 21 39 20 21 40 20 21 40 20 21 40 20 21 40 20 21 40 20 21 40 20 21
40 20 21 40 20 21 40 20 21 40 20 21 40 20 21 40 20 21 40 20 21 40 20
21 40 20 21 40 20 21 40 20 21 40 20 21 40 20 21 40 20 21 40 20 21 40
20 21 40 20 21 40 20 21 40 20 21 40 20 21 40 20 21 40 20 21 40 20 21
40 20 21 40 20 21 40 20 21 40 20 21 40 20 21 40 20 21 40 20 21 40 20
21 40 20 21 40 20 21 40 20 21 40 20 21 40 20 21 40 20 21 40 20 21 40
20 21 40 20 21 39 20 21 39 20 21 39 20 21 39 20 21 39 20 21 39 20 21
39 20 21 39 20 21 39 20 21 39 20 21 39 19 21 39 19 21 39 19 21 39 19
21 39 19 21 39 19 21 39 19 21 39 19 21 39 19 21 39 19 21 39 19 21 39
19 21 39 19 21 39 19 21 39 19 21 39 19 21 39 19 21 39 19 21 39 19 21
39 19 21 39 19 21 39 19 21 39 19 21 39 19 21 39 19 21 39 19 21 39 19
21 39 19 21 39 19 21 39 19 21 39 19 21 39 19 21 39 19 21 39 19 21 39
19 21 38 19 21 38 19 21 38 19 21 38 19 21 38 19 21 38 19 21 38 19 21
38 19 21 38 19 21 38 19 21 38 19 21 38 19 21 38 19 21 5 72 33 5 64 32
4 61 31 4 58 31 4 56 30 4 54 30 4 52 29 4 50 29 4 49 29 4 47 29 4 46
28 4 45 28 4 43 28 4 43 28 4 43 28 4 43 28 4 43 28 4 43 28 4 43 28 4
43 28 4 43 28 4 43 28 4 43 28 4 43 28 4 43 28 4 43 28 4 43 28 4 43 28
4 43 28 4 43 28 4 43 28 4 43 28 4 43 28 4 43 28 4 43 28 4 43 28 4 43
28 4 43 28 4 43 28 4 43 28 4 43 28 4 43 28 4 43 28 4 43 28 4 43 28 4
43 28 4 43 28 4 43 28 4 43 28 4 43 28 4 43 28 4 43 28 4 43 28 4 43 28
4 43 28 4 43 28 4 43 28 4 43 28 4 43 28 4 43 28 4 43 28 4 43 28 4 43
28 4 43 28 4 43 28 4 43 28 4 43 28 4 43 28 4 43 28 4 43 28 4 43 28 4
43 28 4 43 28 4 43 28 4 43 28 4 43 28 4 43 28 4 43 28 4 43 28 4 43 28
4 43 28 4 43 28 4 43 28 4 43 28 4 43 28 4 43 28 4 43 28 4 43 28 34 17
19 34 17 19 34 17 19 34 17 19 34 17 19 34 17 19 34 17 19 34 17 19 34
17 19 34 17 19 34 17 19 34 17 19 34 17 19 34 17 19 34 17 19 34 17 19
34 17 19 34 17 19 33 17 19 33 17 19 33 17 19 33 17 19 33 17 19 33 17
19 33 17 19 33 17 19 33 17 19
15 9 15 15 9 15 15 9 15 15 9 15 15 9 15 15 9 15 15 9 15 15 9 15 15 9
15 15 9 15 15 9 15 15 9 15 15 9 15 15 9 15 15 9 15 15 9 15 15 9 15 15
9 15 15 9 15 15 9 15 15 9 15 15 9 15 15 9 15 15 9 15 15 9 15 15 9 15
15 9 15 15 9 15 15 9 15 15 9 15 15 9 15 15 9 15 15 9 15 15 9 15 15 9
15 15 9 15 15 9 16 15 9 16 15 9 16 15 9 16 15 9 16 15 9 16 15 9 16 15
9 16 15 9 16 15 9 16 15 9 16 15 9 16 15 9 16 15 9 16 15 9 16 15 9 16
15 9 16 15 9 16 15 9 16 15 9 16 15 9 16 15 9 16 36 18 20 36 18 20 36
18 20 36 18 20 36 18 20 36 18 20 36 18 20 36 18 20 36 18 20 36 18 20
36 18 20 36 18 20 36 18 20 36 18 20 36 18 20 36 18 20 37 18 20 37 18
20 37 18 20 37 18 20 37 18 20 37 18 20 37 18 20 37 18 20 37 18 20 37
18 20 37 18 20 37 18 20 37 18 20 37 18 20 23 52 110 19 50 106 18 50
108 15 53 104 15 53 104 15 52 104 15 52 104 14 51 104 17 49 106 17 49
106 17 50 112 17 52 121 17 53 130 17 54 139 17 56 148 15 56 156 14 57
162 14 58 170 13 59 177 13 60 185 13 61 192 19 66 206 29 16 27 29 17
28 21 13 26 21 13 26 21 13 26 20 13 24 20 13 24 20 13 24 20 13 24 20
13 24 21 13 27 21 13 27 21 13 27 21 13 27 21 13 27 21 13 27 21 13 27
21 13 27 21 13 27 21 13 27 21 14 30 33 19 34 33 20 37 34 20 39 34 21
42 35 21 44 35 22 47 35 22 49 36 23 52 36 24 54 37 24 57 37 25 59 38
25 62 38 26 65 38 26 67 39 27 70 39 27 72 40 28 75 40 28 77 41 29 80
41 30 83 42 30 85 42 31 88 43 31 91 43 32 93 44 33 96 45 33 99 45 34
102 46 35 105 46 35 108 47 37 114 49 39 125 51 42 142 53 45 158 54 46
162 52 44 151 51 41 136 50 39 128 49 39 126 49 39 127 49 39 128 49 39
130 33 33 128 36 34 130 40 36 132 58 45 136 63 47 138 67 49 138 40 20
21 40 20 21 40 20 21 40 20 21 40 20 21 40 20 21 40 20 21 40 20 21 40
20 21 40 20 21 40 20 21 40 20 21 40 20 21 40 20 21 40 20 21 40 20 22
40 20 22 40 20 22 40 20 22 40 20 22 40 20 22 40 20 22 40 20 22 40 20
22 40 20 22 40 20 22 40 20 22 40 20 22 40 20 22 40 20 22 40 20 22 40
20 22 40 20 22 40 20 22 40 20 22 40 20 22 40 20 22 40 20 22 40 20 22
40 20 22 40 20 22 40 20 22 40 20 22 40 20 22 40 20 22 40 20 22 40 20
22 40 20 22 40 20 22 40 20 22 40 20 22 40 20 22 40 20 22 40 20 22 40
20 22 40 20 22 40 20 22 40 20 22 40 20 22 40 20 22 40 20 22 40 20 22
40 20 22 40 20 22 40 20 22 40 20 22 40 20 21 40 20 21 40 20 21 40 20
21 40 20 21 40 20 21 40 20 21 40 20 21 40 20 21 40 20 21 40 20 21 40
20 21 39 20 21 39 20 21 39 20 21 39 20 21 39 20 21 39 20 21 39 20 21
39 19 21 39 19 21 39 19 21 39 19 21 39 19 21 39 19 21 39 19 21 39 19
21 39 19 21 39 19 21 39 19 21 39 19 21 39 19 21 39 19 21 39 19 21 39
19 21 39 19 21 39 19 21 39 19 21 39 19 21 39 19 21 39 19 21 5 65 32 5
61 31 5 59 31 4 56 30 4 54 30 4 52 30 4 50 29 4 49 29 4 47 29 4 46 28
4 45 28 4 43 28 4 43 28 4 43 28 4 43 28 4 43 28 4 43 28 4 43 28 4 43
28 4 43 28 4 43 28 4 43 28 4 43 28 4 43 28 4 43 28 4 43 28 4 43 28 4
43 28 4 43 28 4 43 28 4 43 28 4 43 28 4 43 28 4 43 28 4 43 28 4 43 28
4 43 28 4 43 28 4 43 28 4 43 28 4 43 28 4 43 28 4 43 28 4 43 28 4 43
28 4 43 28 4 43 28 4 43 28 4 43 28 4 43 28 4 43 28 4 43 28 4 43 28 4
43 28 4 43 28 4 43 28 4 43 28 4 43 28 4 43 28 4 43 28 4 43 28 4 43 28
4 43 28 4 43 28 4 43 28 4 43 28 4 43 28 4 43 28 4 43 28 4 43 28 4 43
28 4 43 28 4 43 28 4 43 28 4 43 28 4 43 28 4 43 28 4 43 28 4 43 28 4
43 28 4 43 28 4 43 28 4 43 28 4 43 28 4 43 28 4 43 28 4 43 28 4 43 28
4 43 28 35 17 20 35 17 20 35 17 20 35 17 20 34 17 20 34 17 20 34 17 20
34 17 20 34 17 19 34 17 19 34 17 19 34 17 19 34 17 19 34 17 19 34 17
19 34 17 19 34 17 19 34 17 19 34 17 19 34 17 19 34 17 19 34 17 19 34
17 19 34 17 19 34 17 19 34 17 19
15 9 15 15 9 15 15 9 15 15 9 15 15 9 15 15 9 15 15 9 15 15 9 15 15 9
15 15 9 15 15 9 15 15 9 15 15 9 15 15 9 15 15 9 15 15 9 15 15 9 15 15
9 15 15 9 15 15 9 15 15 9 15 15 9 15 15 9 15 15 9 15 15 9 15 15 9 15
15 9 15 15 9 16 15 9 16 15 9 16 15 9 16 15 9 16 15 9 16 15 9 16 15 9
16 15 9 16 15 9 16 15 9 16 15 9 16 15 9 16 15 9 16 15 9 16 15 9 16 15
9 16 15 9 16 15 9 16 15 9 16 15 9 16 15 9 16 15 9 16 15 9 16 15 9 16
15 9 16 15 9 16 15 9 16 15 9 16 15 9 16 36 18 20 36 18 20 36 18 20 36
18 20 36 18 20 36 18 20 36 18 20 37 18 20 37 18 20 37 18 20 37 18 20
37 18 20 37 18 20 37 18 20 37 18 20 37 18 20 37 18 20 37 18 20 37 18
20 37 18 20 37 18 20 37 18 20 37 18 20 37 18 20 37 18 20 37 19 20 37
19 20 37 19 20 38 19 20 38 19 20 38 19 20 22 52 109 23 52 108 18 49
107 17 49 108 17 49 107 17 49 107 17 49 107 17 49 106 17 49 105 17 49
105 17 50 115 16 52 124 16 53 133 16 55 142 16 56 151 16 57 159 16 58
167 15 59 175 13 59 180 12 60 188 12 61 195 18 66 209 21 23 53 30 17
28 21 13 26 21 13 26 21 13 26 21 13 27 20 13 24 20 13 24 20 13 24 20
13 24 20 13 24 21 13 27 21 13 27 21 13 27 21 13 27 21 13 27 21 13 27
21 13 27 21 14 27 21 14 28 21 14 31 34 20 36 34 20 38 35 21 41 35 21
43 36 22 46 36 22 48 36 23 51 37 24 53 37 24 56 38 25 58 38 25 61 39
26 63 39 26 66 40 27 69 40 27 71 41 28 74 41 29 76 42 29 79 42 30 82
43 30 84 43 31 87 44 32 90 44 32 93 45 33 96 45 34 98 46 34 101 47 35
104 47 36 107 48 36 111 49 38 117 50 39 126 52 42 137 53 44 147 53 44
146 52 42 138 51 41 131 51 40 128 51 40 128 51 40 129 50 40 130 50 40
131 34 33 129 36 34 131 55 43 135 59 45 137 63 47 138 68 50 138 41 20
22 41 20 22 41 20 22 41 20 22 41 20 22 41 20 22 41 20 22 41 20 22 41
20 22 41 20 22 41 20 22 41 20 22 41 20 22 41 20 22 41 20 22 41 20 22
41 20 22 41 20 22 41 20 22 41 20 22 41 20 22 41 20 22 41 20 22 41 20
22 41 20 22 41 20 22 41 20 22 41 20 22 41 20 22 41 20 22 41 20 22 41
20 22 41 20 22 41 20 22 41 20 22 41 20 22 41 20 22 41 20 22 41 20 22
41 20 22 41 20 22 41 20 22 41 20 22 41 20 22 41 20 22 41 20 22 41 20
22 41 20 22 41 20 22 41 20 22 41 20 22 41 20 22 41 20 22 41 20 22 41
20 22 41 20 22 41 20 22 41 20 22 41 20 22 40 20 22 40 20 22 40 20 22
40 20 22 40 20 22 40 20 22 40 20 22 40 20 22 40 20 22 40 20 22 40 20
22 40 20 22 40 20 22 40 20 22 40 20 22 40 20 22 40 20 22 40 20 22 40
20 22 40 20 22 40 20 22 40 20 22 40 20 22 40 20 22 40 20 22 40 20 22
40 20 22 40 20 22 40 20 22 40 20 22 40 20 22 40 20 22 40 20 22 40 20
22 40 20 22 40 20 22 40 20 21 39 20 21 39 20 21 39 20 21 39 20 21 39
20 21 39 20 21 39 19 21 39 19 21 39 19 21 39 19 21 5 66 32 5 62 31 5
59 31 5 57 30 4 54 30 4 52 30 4 51 29 4 49 29 4 48 29 4 46 28 4 45 28
4 44 28 4 43 28 4 43 28 4 43 28 4 43 28 4 43 28 4 43 28 4 43 28 4 43
28 4 43 28 4 43 28 4 43 28 4 43 28 4 43 28 4 43 28 4 43 28 4 43 28 4
43 28 4 43 28 4 43 28 4 43 28 4 43 28 4 43 28 4 43 28 4 43 28 4 43 28
4 43 28 4 43 28 4 43 28 4 43 28 4 43 28 4 43 28 4 43 28 4 43 28 4 43
28 4 43 28 4 43 28 4 43 28 4 43 28 4 43 28 4 43 28 4 43 28 4 43 28 4
43 28 4 43 28 4 43 28 4 43 28 4 43 28 4 43 28 4 43 28 4 43 28 4 43 28
4 43 28 4 43 28 4 43 28 4 43 28 4 43 28 4 43 28 4 43 28 4 43 28 4 43
28 4 43 28 4 43 28 4 43 28 4 43 28 4 43 28 4 43 28 4 43 28 4 43 28 4
43 28 4 43 28 4 43 28 4 43 28 4 43 28 4 43 28 4 43 28 4 43 28 4 43 28
4 43 28 4 43 28 35 18 20 35 17 20 35 17 20 35 17 20 35 17 20 35 17 20
35 17 20 35 17 20 35 17 20 35 17 20 35 17 20 35 17 20 34 17 20 34 17
20 34 17 20 34 17 20 34 17 19 34 17 19 34 17 19 34 17 19 34 17 19 34
17 19 34 17 19 34 17 19 34 17 19
34 17 19 34 17 19 15 9 15 15 9 15 15 9 15 15 9 15 15 9 15 15 9 15 15 9
15 15 9 15 15 9 15 15 9 15 15 9 15 15 9 15 15 9 15 15 9 15 15 9 15 15
9 15 15 9 15 15 9 16 15 9 16 15 9 16 15 9 16 15 9 16 15 9 16 15 9 16
15 9 16 15 9 16 15 9 16 15 9 16 15 9 16 15 9 16 15 9 16 15 9 16 15 9
16 15 9 16 15 9 16 15 9 16 15 9 16 15 9 16 15 9 16 15 9 16 15 9 16 15
9 16 15 9 16 15 9 16 15 9 16 15 9 16 15 9 16 15 9 16 15 9 16 15 9 16
15 9 16 15 9 16 15 9 16 15 9 16 37 18 20 37 18 20 37 18 20 37 18 20 37
18 20 37 18 20 37 18 20 37 18 20 37 18 20 37 18 20 37 18 20 37 18 20
37 18 20 37 18 20 37 18 20 37 18 20 37 19 20 37 19 20 37 19 20 38 19
20 38 19 20 38 19 20 38 19 20 38 19 20 38 19 20 38 19 20 38 19 20 38
19 20 38 19 20 38 19 20 38 19 20 38 19 20 20 51 108 23 52 108 16 49
105 16 49 106 16 49 106 16 49 105 16 49 105 16 48 104 16 48 104 16 49
107 16 50 117 16 52 127 15 53 136 16 55 145 15 56 154 15 57 162 15 58
170 14 60 178 14 60 185 11 60 191 11 61 198 17 66 213 18 68 220 29 17
28 30 17 28 21 13 26 21 13 27 21 13 27 20 13 24 20 13 24 20 13 24 20
13 24 20 13 24 21 13 27 21 13 27 21 13 27 21 13 27 21 13 27 21 14 27
21 14 28 21 14 28 21 14 29 22 14 32 35 20 37 35 21 39 36 21 42 36 22
44 36 22 47 37 23 49 37 24 52 38 24 54 38 25 57 39 25 60 39 26 62 40
26 65 40 27 67 41 28 70 41 28 73 42 29 75 42 29 78 43 30 81 43 31 83
44 31 86 44 32 89 45 32 92 45 33 95 46 34 98 47 34 101 47 35 104 48 36
107 49 37 110 49 37 114 50 39 118 51 40 125 52 41 132 53 42 136 53 42
135 52 41 131 52 41 129 52 41 129 52 41 130 52 41 131 51 41 132 51 41
132 34 33 130 36 34 132 55 43 136 59 45 138 63 47 138 41 20 22 41 20
22 41 20 22 41 20 22 41 20 22 41 20 22 41 20 22 41 20 22 41 20 22 41
20 22 41 20 22 41 20 22 41 20 22 41 20 22 41 20 22 41 20 22 41 20 22
41 20 22 41 20 22 41 20 22 41 20 22 41 20 22 41 20 22 41 20 22 41 20
22 41 20 22 41 20 22 41 20 22 41 20 22 41 20 22 41 20 22 41 20 22 41
20 22 41 20 22 41 20 22 41 20 22 41 20 22 41 20 22 41 20 22 41 20 22
41 20 22 41 20 22 41 20 22 41 20 22 41 20 22 41 20 22 41 20 22 41 20
22 41 20 22 41 20 22 41 20 22 41 20 22 41 20 22 41 20 22 41 20 22 41
20 22 41 20 22 41 20 22 41 20 22 41 20 22 41 20 22 41 20 22 41 20 22
41 20 22 41 20 22 41 20 22 41 20 22 41 20 22 41 20 22 41 20 22 41 20
22 41 20 22 41 20 22 41 20 22 41 20 22 41 20 22 41 20 22 41 20 22 41
20 22 41 20 22 41 20 22 41 20 22 41 20 22 41 20 22 40 20 22 40 20 22
40 20 22 40 20 22 40 20 22 40 20 22 40 20 22 40 20 22 40 20 22 40 20
22 40 20 22 40 20 22 40 20 22 40 20 22 40 20 22 40 20 22 40 20 22 40
20 22 40 20 22 40 20 22 40 20 22 40 20 22 5 67 32 5 63 32 6 60 31 6 58
31 5 55 30 4 53 30 4 51 29 4 49 29 4 48 29 4 47 29 4 45 28 4 44 28 4
43 28 4 43 28 4 43 28 4 43 28 4 43 28 4 43 28 4 43 28 4 43 28 4 43 28
4 43 28 4 43 28 4 43 28 4 43 28 4 43 28 4 43 28 4 43 28 4 43 28 4 43
28 4 43 28 4 43 28 4 43 28 4 43 28 4 43 28 4 43 28 4 43 28 4 43 28 4
43 28 4 43 28 4 43 28 4 43 28 4 43 28 4 43 28 4 43 28 4 43 28 4 43 28
4 43 28 4 43 28 4 43 28 4 43 28 4 43 28 4 43 28 4 43 28 4 43 28 4 43
28 4 43 28 4 43 28 4 43 28 4 43 28 4 43 28 4 43 28 4 43 28 4 43 28 4
43 28 4 43 28 4 43 28 4 43 28 4 43 28 4 43 28 4 43 28 4 43 28 4 43 28
4 43 28 4 43 28 4 43 28 4 43 28 4 43 28 4 43 28 4 43 28 4 43 28 4 43
28 4 43 28 4 43 28 4 43 28 4 43 28 4 43 28 4 43 28 4 43 28 4 43 28 4
43 28 4 43 28 35 18 20 35 18 20 35 18 20 35 18 20 35 18 20 35 18 20 35
18 20 35 18 20 35 18 20 35 18 20 35 17 20 35 17 20 35 17 20 35 17 20
35 17 20 35 17 20 35 17 20 35 17 20 35 17 20 35 17 20 34 17 20 34 17
20 34 17 20 34 17 20 34 17 20
34 17 19 34 17 19 34 17 19 34 17 19 34 17 19 34 17 19 15 9 15 15 9 15
15 9 15 15 9 15 15 9 15 15 9 16 15 9 16 15 9 16 15 9 16 15 9 16 15 9
16 15 9 16 15 9 16 15 9 16 15 9 16 15 9 16 15 9 16 15 9 16 15 9 16 15
9 16 15 9 16 15 9 16 15 9 16 15 9 16 15 9 16 15 9 16 15 9 16 15 9 16
15 9 16 15 9 16 15 9 16 15 9 16 15 9 16 15 9 16 15 9 16 15 9 16 15 9
16 15 9 16 15 9 16 15 9 16 15 9 16 15 9 16 15 9 16 15 9 16 15 9 16 15
9 16 15 9 16 15 9 16 15 9 16 37 18 20 37 18 20 37 18 20 37 18 20 37 18
20 37 18 20 37 18 20 37 18 20 37 19 20 37 19 20 37 19 20 38 19 20 38
19 20 38 19 20 38 19 20 38 19 20 38 19 20 38 19 20 38 19 20 38 19 20
38 19 20 38 19 20 38 19 20 38 19 20 38 19 20 38 19 21 38 19 21 38 19
21 38 19 21 38 19 21 38 19 21 39 19 21 39 19 21 18 50 107 23 52 108 20
51 107 15 48 104 15 48 104 15 48 104 15 48 103 15 48 103 15 48 103 15
49 110 15 50 120 15 52 129 15 53 138 15 55 148 15 56 156 15 59 168 13
59 175 13 59 181 14 61 189 13 62 196 11 62 201 17 67 216 18 69 224 22
25 63 30 17 28 21 13 26 21 13 27 21 13 27 32 18 29 20 13 24 20 13 24
20 13 24 20 13 24 20 13 24 21 13 27 21 13 27 21 14 27 21 14 28 21 14
28 21 14 28 21 14 28 21 14 30 35 20 35 35 21 38 36 21 40 36 22 43 37
22 45 37 23 48 38 24 51 38 24 53 39 25 56 39 25 58 40 26 61 40 26 63
41 27 66 41 28 69 42 28 71 42 29 74 43 29 77 43 30 79 44 31 82 44 31
85 45 32 88 45 33 91 46 33 94 47 34 97 47 35 100 48 35 103 49 36 106
49 37 109 50 38 112 51 38 116 51 39 120 52 40 124 53 41 128 53 41 130
53 41 130 53 41 130 53 41 130 53 41 130 53 41 131 53 41 132 52 41 133
52 41 134 34 33 131 53 42 135 56 43 137 59 45 138 63 47 138 42 21 22
42 21 22 42 21 22 42 21 22 42 21 22 42 21 22 42 21 22 42 21 22 42 21
22 42 21 22 42 21 22 42 21 22 42 21 22 42 21 22 42 21 22 42 21 22 42
21 22 42 21 22 42 21 22 42 21 22 42 21 22 42 21 22 42 21 22 42 21 22
42 21 22 42 21 22 42 21 22 42 21 22 42 21 22 42 21 22 42 21 22 42 21
22 42 21 22 42 21 22 42 21 22 42 21 22 42 21 22 42 21 22 42 21 22 42
21 22 42 21 22 42 21 22 42 21 22 42 21 22 42 21 22 42 21 22 42 21 22
42 21 22 42 21 22 42 21 22 42 21 22 42 21 22 42 21 22 42 21 22 42 21
22 42 21 22 42 21 22 42 21 22 42 21 22 42 21 22 42 21 22 42 21 22 42
21 22 42 21 22 42 21 22 42 21 22 42 21 22 42 21 22 41 21 22 41 21 22
41 20 22 41 20 22 41 20 22 41 20 22 41 20 22 41 20 22 41 20 22 41 20
22 41 20 22 41 20 22 41 20 22 41 20 22 41 20 22 41 20 22 41 20 22 41
20 22 41 20 22 41 20 22 41 20 22 41 20 22 41 20 22 41 20 22 41 20 22
41 20 22 41 20 22 41 20 22 41 20 22 41 20 22 41 20 22 41 20 22 40 20
22 40 20 22 40 20 22 40 20 22 40 20 22 5 69 33 5 64 32 7 61 32 8 59 32
5 56 30 5 53 30 4 52 29 4 50 29 4 48 29 4 47 29 4 45 28 4 44 28 4 43
28 4 43 28 4 43 28 4 43 28 4 43 28 4 43 28 4 43 28 4 43 28 4 43 28 4
43 28 4 43 28 4 43 28 4 43 28 4 43 28 4 43 28 4 43 28 4 43 28 4 43 28
4 43 28 4 43 28 4 43 28 4 43 28 4 43 28 4 43 28 4 43 28 4 43 28 4 43
28 4 43 28 4 43 28 4 43 28 4 43 28 4 43 28 4 43 28 4 43 28 4 43 28 4
43 28 4 43 28 4 43 28 4 43 28 4 43 28 4 43 28 4 43 28 4 43 28 4 43 28
4 43 28 4 43 28 4 43 28 4 43 28 4 43 28 4 43 28 4 43 28 4 43 28 4 43
28 4 43 28 4 43 28 4 43 28 4 43 28 4 43 28 4 43 28 4 43 28 4 43 28 4
43 28 4 43 28 4 43 28 4 43 28 4 43 28 4 43 28 4 43 28 4 43 28 4 43 28
4 43 28 4 43 28 4 43 28 4 43 28 4 43 28 4 43 28 4 43 28 4 43 28 4 43
28 4 43 28 4 43 28 4 43 28 36 18 20 36 18 20 36 18 20 36 18 20 36 18
20 36 18 20 35 18 20 35 18 20 35 18 20 35 18 20 35 18 20 35 18 20 35
18 20 35 18 20 35 18 20 35 18 20 35 18 20 35 17 20 35 17 20 35 17 20
35 17 20 35 17 20 35 17 20 35 17 20
35 17 19 35 17 19 35 17 19 35 17 19 35 17 19 35 17 19 35 17 19 35 17
19 35 17 19 35 17 19 35 17 19 15 9 16 15 9 16 15 9 16 15 9 16 15 9 16
15 9 16 15 9 16 15 9 16 15 9 16 15 9 16 15 9 16 15 9 16 15 9 16 15 9
16 15 9 16 15 9 16 15 9 16 15 9 16 15 9 16 15 9 16 15 9 16 15 9 16 15
9 16 15 9 16 15 9 16 15 9 16 15 9 16 15 9 16 15 9 16 15 9 16 15 9 16
15 9 16 15 9 16 15 9 16 15 9 16 15 9 16 15 9 16 15 9 16 15 9 16 15 9
16 15 9 16 15 9 16 37 18 20 37 19 20 37 19 20 37 19 20 38 19 20 38 19
20 38 19 20 38 19 20 38 19 20 38 19 20 38 19 20 38 19 20 38 19 20 38
19 20 38 19 20 38 19 20 38 19 20 38 19 20 38 19 21 38 19 21 38 19 21
38 19 21 38 19 21 39 19 21 39 19 21 39 19 21 39 19 21 39 19 21 39 19
21 39 19 21 39 19 21 39 19 21 39 19 21 39 19 21 39 19 21 23 52 108 22
52 108 21 51 107 18 50 107 14 47 103 14 47 103 14 47 103 14 47 103 15
48 103 14 49 112 14 51 122 14 52 132 14 54 141 14 55 150 14 56 159 13
58 168 13 59 176 12 60 183 12 61 191 13 62 199 13 63 206 11 63 211 20
70 228 18 70 234 22 27 52 31 18 28 21 13 27 21 13 27 33 18 29 33 19 29
20 13 24 20 13 24 20 13 24 20 13 24 20 13 24 21 14 27 21 14 28 21 14
28 21 14 28 21 14 28 21 14 28 21 14 31 36 21 36 36 21 38 37 22 41 37
22 44 38 23 46 38 23 49 39 24 52 39 25 54 40 25 57 40 26 59 40 26 62
41 27 65 42 28 67 42 28 70 43 29 73 43 29 75 44 30 78 44 31 81 45 31
84 45 32 87 46 33 89 47 33 92 47 34 95 48 35 98 48 35 101 49 36 105 50
37 108 50 38 111 51 38 115 52 39 118 52 40 121 53 41 124 54 41 127 54
42 129 54 42 129 54 42 130 54 42 131 54 42 131 54 42 132 53 42 133 53
42 134 52 41 134 52 41 135 53 42 136 56 44 137 59 45 138 42 21 22 42
21 22 42 21 22 42 21 22 42 21 22 42 21 22 42 21 22 42 21 22 42 21 22
42 21 22 43 21 22 43 21 22 43 21 22 43 21 22 43 21 22 43 21 22 43 21
22 43 21 22 43 21 22 43 21 22 43 21 22 43 21 22 43 21 23 43 21 23 43
21 23 43 21 23 43 21 23 43 21 23 43 21 23 43 21 23 43 21 23 43 21 23
43 21 23 43 21 23 43 21 23 43 21 23 43 21 23 43 21 23 43 21 23 43 21
23 43 21 23 43 21 23 43 21 23 43 21 23 43 21 23 43 21 23 43 21 23 42
21 23 42 21 23 42 21 23 42 21 23 42 21 23 42 21 23 42 21 23 42 21 23
42 21 23 42 21 23 42 21 23 42 21 23 42 21 23 42 21 23 42 21 23 42 21
23 42 21 23 42 21 23 42 21 23 42 21 22 42 21 22 42 21 22 42 21 22 42
21 22 42 21 22 42 21 22 42 21 22 42 21 22 42 21 22 42 21 22 42 21 22
42 21 22 42 21 22 42 21 22 42 21 22 42 21 22 42 21 22 42 21 22 42 21
22 42 21 22 42 21 22 42 21 22 41 21 22 41 21 22 41 21 22 41 20 22 41
20 22 41 20 22 41 20 22 41 20 22 41 20 22 41 20 22 41 20 22 41 20 22
41 20 22 41 20 22 41 20 22 41 20 22 5 72 33 5 65 32 7 62 32 13 63 33 6
57 31 5 54 30 5 52 30 4 50 29 4 49 29 4 47 29 4 46 28 4 44 28 4 43 28
4 43 28 4 43 28 4 43 28 4 43 28 4 43 28 4 43 28 4 43 28 4 43 28 4 43
28 4 43 28 4 43 28 4 43 28 4 43 28 4 43 28 4 43 28 4 43 28 4 43 28 4
43 28 4 43 28 4 43 28 4 43 28 4 43 28 4 43 28 4 43 28 4 43 28 4 43 28
4 43 28 4 43 28 4 43 28 4 43 28 4 43 28 4 43 28 4 43 28 4 43 28 4 43
28 4 43 28 4 43 28 4 43 28 4 43 28 4 43 28 4 43 28 4 43 28 4 43 28 4
43 28 4 43 28 4 43 28 4 43 28 4 43 28 4 43 28 4 43 28 4 43 28 4 43 28
4 43 28 4 43 28 4 43 28 4 43 28 4 43 28 4 43 28 4 43 28 4 43 28 4 43
28 4 43 28 4 43 28 4 43 28 4 43 28 4 43 28 4 43 28 4 43 28 4 43 28 4
43 28 4 43 28 4 43 28 4 43 28 4 43 28 4 43 28 4 43 28 4 43 28 4 43 28
4 43 28 4 43 28 4 43 28 4 43 28 36 18 20 36 18 20 36 18 20 36 18 20 36
18 20 36 18 20 36 18 20 36 18 20 36 18 20 36 18 20 36 18 20 36 18 20
36 18 20 36 18 20 36 18 20 35 18 20 35 18 20 35 18 20 35 18 20 35 18
20 35 18 20 35 18 20 35 18 20 35 18 20
35 17 19 35 17 19 35 17 19 35 17 19 35 17 19 35 17 19 35 18 19 35 18
19 35 18 19 35 18 19 35 18 19 36 18 19 36 18 19 36 18 19 36 18 19 36
18 19 15 9 16 15 9 16 15 9 16 15 9 16 15 9 16 15 9 16 15 9 16 15 9 16
15 9 16 15 9 16 15 9 16 15 9 16 15 9 16 15 9 16 15 9 16 15 9 16 15 9
16 15 9 16 15 9 16 15 9 16 15 9 16 15 9 16 15 9 16 15 9 16 15 9 16 15
9 16 15 9 16 15 9 16 15 9 16 15 9 16 15 9 16 15 9 16 15 9 16 15 9 16
38 19 20 38 19 20 38 19 20 38 19 20 38 19 20 38 19 20 38 19 20 38 19
20 38 19 20 38 19 20 38 19 20 38 19 20 38 19 20 38 19 21 38 19 21 38
19 21 38 19 21 39 19 21 39 19 21 39 19 21 39 19 21 39 19 21 39 19 21
39 19 21 39 19 21 39 19 21 39 19 21 39 19 21 39 19 21 39 19 21 39 19
21 39 19 21 39 19 21 39 19 21 39 19 21 39 19 21 40 20 21 40 20 21 22
51 107 22 51 108 21 51 107 17 49 106 17 49 106 18 49 106 13 47 102 13
47 102 13 47 103 13 49 113 14 50 124 13 52 133 13 53 143 13 55 152 13
56 161 13 58 169 12 58 177 12 60 186 12 61 194 12 62 201 12 64 209 10
64 214 10 65 221 22 72 238 23 74 245 31 17 28 32 18 29 21 13 27 33 19
29 33 19 29 34 19 29 20 13 24 20 13 24 20 13 24 20 13 24 20 13 24 21
14 28 21 14 28 21 14 28 21 14 28 21 14 29 22 14 31 36 21 37 37 22 39
37 22 42 38 23 45 38 23 47 39 24 50 39 25 53 40 25 55 40 26 58 41 26
61 41 27 63 42 27 66 42 28 69 43 29 71 43 29 74 44 30 77 45 30 79 45
31 82 46 32 85 46 32 88 47 33 91 48 34 94 48 35 97 49 35 100 49 36 103
50 37 106 51 38 110 52 38 113 52 39 116 53 40 119 53 41 122 54 41 125
54 42 127 55 42 129 55 42 130 55 42 131 55 42 131 55 42 132 54 42 133
54 42 134 53 42 134 53 42 135 52 41 136 53 42 136 56 43 137 59 45 137
43 21 23 43 21 23 43 21 23 43 21 23 43 21 23 43 21 23 43 21 23 43 21
23 43 21 23 43 21 23 43 21 23 43 21 23 43 21 23 43 21 23 43 21 23 43
21 23 43 21 23 43 21 23 43 21 23 43 21 23 43 21 23 43 21 23 43 21 23
43 21 23 43 21 23 43 21 23 43 21 23 43 21 23 43 21 23 43 21 23 43 21
23 43 21 23 43 21 23 43 21 23 43 21 23 43 21 23 43 21 23 43 21 23 43
21 23 43 21 23 43 21 23 43 21 23 43 21 23 43 21 23 43 21 23 43 21 23
43 21 23 43 21 23 43 21 23 43 21 23 43 21 23 43 21 23 43 21 23 43 21
23 43 21 23 43 21 23 43 21 23 43 21 23 43 21 23 43 21 23 43 21 23 43
21 23 43 21 23 43 21 23 43 21 23 43 21 23 43 21 23 43 21 23 43 21 23
43 21 23 43 21 23 43 21 23 43 21 23 43 21 23 43 21 23 43 21 23 42 21
23 42 21 23 42 21 23 42 21 23 42 21 23 42 21 23 42 21 23 42 21 23 42
21 23 42 21 23 42 21 23 42 21 23 42 21 23 42 21 23 42 21 23 42 21 23
42 21 23 42 21 23 42 21 23 42 21 22 42 21 22 42 21 22 42 21 22 42 21
22 42 21 22 42 21 22 42 21 22 42 21 22 41 21 22 5 66 32 6 63 32 20 67
35 11 60 32 5 55 30 5 53 30 5 51 29 5 49 29 4 48 29 4 46 28 4 45 28 4
43 28 4 43 28 4 43 28 4 43 28 4 43 28 4 43 28 4 43 28 4 43 28 4 43 28
4 43 28 4 43 28 4 43 28 4 43 28 4 43 28 4 43 28 4 43 28 4 43 28 4 43
28 4 43 28 4 43 28 4 43 28 4 43 28 4 43 28 4 43 28 4 43 28 4 43 28 4
43 28 4 43 28 4 43 28 4 43 28 4 43 28 4 43 28 4 43 28 4 43 28 4 43 28
4 43 28 4 43 28 4 43 28 4 43 28 4 43 28 4 43 28 4 43 28 4 43 28 4 43
28 4 43 28 4 43 28 4 43 28 4 43 28 4 43 28 4 43 28 4 43 28 4 43 28 4
43 28 4 43 28 4 43 28 4 43 28 4 43 28 4 43 28 4 43 28 4 43 28 4 43 28
4 43 28 4 43 28 4 43 28 4 43 28 4 43 28 4 43 28 4 43 28 4 43 28 4 43
28 4 43 28 4 43 28 4 43 28 4 43 28 4 43 28 4 43 28 4 43 28 4 43 28 4
43 28 4 43 28 4 43 28 4 43 28 4 43 28 4 43 28 4 43 28 37 18 21 37 18
21 36 18 20 36 18 20 36 18 20 36 18 20 36 18 20 36 18 20 36 18 20 36
18 20 36 18 20 36 18 20 36 18 20 36 18 20 36 18 20 36 18 20 36 18 20
36 18 20 36 18 20 36 18 20 36 18 20 35 18 20 35 18 20
35 18 19 35 18 19 35 18 19 36 18 19 36 18 19 36 18 19 36 18 19 36 18
19 36 18 19 36 18 20 36 18 20 36 18 20 36 18 20 36 18 20 36 18 20 36
18 20 36 18 20 36 18 20 36 18 20 36 18 20 36 18 20 36 18 20 37 18 20
15 9 16 15 9 16 15 9 16 15 9 16 15 9 16 15 9 16 15 9 16 15 9 16 15 9
16 15 9 16 15 9 16 15 9 16 15 9 16 15 9 16 15 9 16 15 9 16 15 9 16 15
9 16 15 9 16 15 9 16 15 9 16 15 9 16 15 9 16 38 19 20 38 19 20 38 19
20 38 19 20 38 19 20 38 19 20 38 19 20 38 19 20 38 19 21 38 19 21 38
19 21 38 19 21 38 19 21 39 19 21 39 19 21 39 19 21 39 19 21 39 19 21
39 19 21 39 19 21 39 19 21 39 19 21 39 19 21 39 19 21 39 19 21 39 19
21 39 19 21 39 19 21 39 19 21 39 19 21 39 19 21 40 20 21 40 20 21 40
20 21 40 20 21 40 20 21 40 20 21 40 20 21 40 20 21 40 20 21 40 20 21
40 20 21 40 20 21 22 51 108 16 49 106 16 49 107 16 49 106 16 49 106 17
49 106 17 49 106 17 49 108 17 51 118 16 52 128 12 52 135 12 53 144 12
54 153 12 56 162 12 58 171 11 58 179 11 60 187 12 61 196 12 62 203 12
64 211 11 65 218 10 65 223 10 66 230 22 74 248 24 27 69 31 18 28 32 18
29 21 13 27 34 19 29 34 19 30 34 18 26 20 13 24 20 13 24 20 13 24 20
13 24 20 13 24 20 13 24 21 14 28 21 14 28 21 14 29 22 14 32 37 21 37
38 22 40 38 23 43 39 23 46 39 24 48 40 24 51 40 25 54 41 26 56 41 26
59 42 27 62 42 27 64 43 28 67 43 29 70 44 29 72 44 30 75 45 30 78 45
31 81 46 32 83 47 32 86 47 33 89 48 34 92 48 34 95 49 35 98 50 36 101
50 37 104 51 37 108 52 38 111 52 39 114 53 40 117 54 40 120 54 41 123
55 41 125 55 42 127 55 42 129 55 42 130 55 42 131 55 42 132 55 42 133
55 42 134 54 42 134 54 42 135 53 42 135 51 41 136 53 42 136 55 43 136
44 21 23 44 21 23 44 21 23 44 21 23 44 21 23 44 21 23 44 21 23 44 22
23 44 22 23 44 22 23 44 22 23 44 22 23 44 22 23 44 22 23 44 22 23 44
22 23 44 22 23 44 22 23 44 22 23 44 22 23 44 22 23 44 22 23 44 22 23
44 22 23 44 22 23 44 22 23 44 22 23 44 22 23 44 22 23 44 22 23 44 22
23 44 22 23 44 22 23 44 22 23 44 22 23 44 22 23 44 22 23 44 22 23 44
22 23 44 22 23 44 22 23 44 22 23 44 22 23 44 22 23 44 22 23 44 22 23
44 22 23 44 22 23 44 22 23 44 22 23 44 22 23 44 22 23 44 22 23 44 22
23 44 22 23 44 22 23 44 22 23 44 21 23 44 21 23 44 21 23 44 21 23 44
21 23 43 21 23 43 21 23 43 21 23 43 21 23 43 21 23 43 21 23 43 21 23
43 21 23 43 21 23 43 21 23 43 21 23 43 21 23 43 21 23 43 21 23 43 21
23 43 21 23 43 21 23 43 21 23 43 21 23 43 21 23 43 21 23 43 21 23 43
21 23 43 21 23 43 21 23 43 21 23 43 21 23 43 21 23 43 21 23 43 21 23
43 21 23 43 21 23 43 21 23 42 21 23 42 21 23 42 21 23 42 21 23 42 21
23 42 21 23 42 21 23 42 21 23 42 21 23 42 21 23 5 68 33 5 64 32 21 69
36 22 67 36 6 56 31 5 53 30 5 51 29 5 50 29 5 48 29 5 47 29 4 45 28 4
44 28 4 43 28 4 43 28 4 43 28 4 43 28 4 43 28 4 43 28 4 43 28 4 43 28
4 43 28 4 43 28 4 43 28 4 43 28 4 43 28 4 43 28 4 43 28 4 43 28 4 43
28 4 43 28 4 43 28 4 43 28 4 43 28 4 43 28 4 43 28 4 43 28 4 43 28 4
43 28 4 43 28 4 43 28 4 43 28 4 43 28 4 43 28 4 43 28 4 43 28 4 43 28
4 43 28 4 43 28 4 43 28 4 43 28 4 43 28 4 43 28 4 43 28 4 43 28 4 43
28 4 43 28 4 43 28 4 43 28 4 43 28 4 43 28 4 43 28 4 43 28 4 43 28 4
43 28 4 43 28 4 43 28 4 43 28 4 43 28 4 43 28 4 43 28 4 43 28 4 43 28
4 43 28 4 43 28 4 43 28 4 43 28 4 43 28 4 43 28 4 43 28 4 43 28 4 43
28 4 43 28 4 43 28 4 43 28 4 43 28 4 43 28 4 43 28 4 43 28 4 43 28 4
43 28 4 43 28 4 43 28 4 43 28 4 43 28 4 43 28 4 43 28 4 43 28 4 43 28
37 18 21 37 18 21 37 18 21 37 18 21 37 18 21 37 18 21 37 18 21 37 18
21 37 18 21 36 18 21 36 18 20 36 18 20 36 18 20 36 18 20 36 18 20 36
18 20 36 18 20 36 18 20 36 18 20 36 18 20 36 18 20 36 18 20
36 18 19 36 18 19 36 18 20 36 18 20 36 18 20 36 18 20 36 18 20 36 18
20 36 18 20 36 18 20 36 18 20 36 18 20 36 18 20 36 18 20 36 18 20 37
18 20 37 18 20 37 18 20 37 18 20 37 18 20 37 18 20 37 18 20 37 18 20
37 18 20 37 18 20 37 18 20 37 18 20 37 18 20 37 18 20 37 18 20 37 18
20 37 19 20 37 19 20 38 19 20 38 19 20 38 19 20 38 19 20 38 19 20 38
19 20 38 19 20 38 19 20 38 19 20 38 19 20 38 19 20 38 19 20 38 19 20
38 19 20 38 19 21 38 19 21 38 19 21 38 19 21 39 19 21 39 19 21 39 19
21 39 19 21 39 19 21 39 19 21 39 19 21 39 19 21 39 19 21 39 19 21 39
19 21 39 19 21 39 19 21 39 19 21 39 19 21 39 19 21 39 19 21 40 20 21
40 20 21 40 20 21 40 20 21 40 20 21 40 20 21 40 20 21 40 20 21 40 20
21 40 20 21 40 20 21 40 20 21 40 20 21 40 20 21 40 20 21 40 20 21 40
20 21 40 20 21 41 20 21 41 20 21 41 20 21 21 51 107 14 48 106 14 48
106 15 48 106 15 48 106 15 48 106 15 49 106 15 49 109 15 51 120 15 52
130 15 54 140 15 57 155 18 60 165 18 61 173 19 62 179 18 62 186 18 64
194 19 65 202 19 67 210 19 68 218 19 69 225 14 68 230 14 69 237 14 70
244 14 71 250 25 26 60 32 18 29 33 19 29 34 19 29 34 19 30 35 19 30 34
19 26 20 13 24 20 13 24 23 22 41 23 22 41 23 22 42 23 22 43 21 14 28
21 14 30 37 21 35 38 22 38 38 22 41 39 23 44 39 24 46 40 24 49 40 25
52 41 25 54 41 26 57 42 27 60 42 27 63 43 28 65 43 28 68 44 29 71 45
30 73 45 30 76 46 31 79 46 32 82 47 32 85 47 33 87 48 34 90 49 34 93
49 35 96 50 36 99 51 36 102 51 37 105 52 38 109 53 39 112 53 39 115 54
40 118 55 41 121 55 41 123 55 42 126 56 42 127 56 42 129 56 43 130 56
43 131 56 43 132 56 43 133 55 43 134 55 42 135 54 42 135 53 42 136 51
41 135 52 42 136 54 42 134 44 22 23 44 22 23 44 22 23 44 22 23 44 22
23 44 22 23 44 22 23 44 22 23 44 22 23 44 22 23 44 22 23 44 22 23 44
22 23 44 22 23 44 22 23 44 22 23 44 22 23 44 22 23 44 22 23 44 22 23
44 22 23 44 22 23 44 22 23 44 22 23 44 22 23 44 22 23 44 22 23 44 22
23 44 22 23 44 22 23 44 22 23 44 22 23 44 22 23 44 22 23 44 22 23 44
22 23 44 22 23 44 22 23 44 22 23 44 22 23 44 22 23 44 22 23 44 22 23
44 22 23 44 22 23 44 22 23 44 22 23 44 22 23 44 22 23 44 22 23 44 22
23 44 22 23 44 22 23 44 22 23 44 22 23 44 22 23 44 22 23 44 22 23 44
22 23 44 22 23 44 22 23 44 22 23 44 22 23 44 22 23 44 22 23 44 22 23
44 22 23 44 22 23 44 22 23 44 22 23 44 22 23 44 22 23 44 22 23 44 22
23 44 22 23 44 22 23 44 22 23 44 22 23 44 22 23 44 22 23 44 22 23 44
22 23 44 21 23 44 21 23 43 21 23 43 21 23 43 21 23 43 21 23 43 21 23
43 21 23 43 21 23 43 21 23 43 21 23 43 21 23 43 21 23 43 21 23 43 21
23 43 21 23 43 21 23 43 21 23 43 21 23 43 21 23 43 21 23 43 21 23 5 72
33 5 65 32 14 66 34 39 76 41 11 59 32 5 54 30 5 52 30 5 50 29 5 49 29
5 47 29 5 46 28 5 44 28 5 43 28 5 43 28 4 43 28 4 43 28 4 43 28 4 43
28 4 43 28 4 43 28 4 43 28 4 43 28 4 43 28 4 43 28 4 43 28 4 43 28 4
43 28 4 43 28 4 43 28 4 43 28 4 43 28 4 43 28 4 43 28 4 43 28 4 43 28
4 43 28 4 43 28 4 43 28 4 43 28 4 43 28 4 43 28 4 43 28 4 43 28 4 43
28 4 43 28 4 43 28 4 43 28 4 43 28 4 43 28 4 43 28 4 43 28 4 43 28 4
43 28 4 43 28 4 43 28 4 43 28 4 43 28 4 43 28 4 43 28 4 43 28 4 43 28
4 43 28 4 43 28 4 43 28 4 43 28 4 43 28 4 43 28 4 43 28 4 43 28 4 43
28 4 43 28 4 43 28 4 43 28 4 43 28 4 43 28 4 43 28 4 43 28 4 43 28 4
43 28 4 43 28 4 43 28 4 43 28 4 43 28 4 43 28 4 43 28 4 43 28 4 43 28
4 43 28 4 43 28 4 43 28 4 43 28 4 43 28 4 43 28 4 43 28 4 43 28 4 43
28 4 43 28 4 43 28 4 43 28 37 19 21 37 19 21 37 19 21 37 19 21 37 19
21 37 19 21 37 18 21 37 18 21 37 18 21 37 18 21 37 18 21 37 18 21 37
18 21 37 18 21 37 18 21 37 18 21 36 18 21 36 18 21 36 18 20 36 18 20
36 18 20 36 18 20
36 18 20 36 18 20 36 18 20 36 18 20 36 18 20 36 18 20 36 18 20 36 18
20 37 18 20 37 18 20 37 18 20 37 18 20 37 18 20 37 18 20 37 18 20 37
18 20 37 18 20 37 18 20 37 18 20 37 18 20 37 18 20 37 18 20 37 18 20
37 19 20 37 19 20 37 19 20 38 19 20 38 19 20 38 19 20 38 19 20 38 19
20 38 19 20 38 19 20 38 19 20 38 19 20 38 19 20 38 19 20 38 19 20 38
19 20 38 19 21 38 19 21 38 19 21 38 19 21 39 19 21 39 19 21 39 19 21
39 19 21 39 19 21 39 19 21 39 19 21 39 19 21 39 19 21 39 19 21 39 19
21 39 19 21 39 19 21 39 19 21 39 19 21 39 19 21 39 19 21 40 20 21 40
20 21 40 20 21 40 20 21 40 20 21 40 20 21 40 20 21 40 20 21 40 20 21
40 20 21 40 20 21 40 20 21 40 20 21 40 20 21 40 20 21 40 20 21 40 20
21 41 20 21 41 20 21 41 20 21 41 20 21 41 20 21 41 20 22 41 20 22 41
20 22 41 20 22 41 20 22 41 20 22 41 20 22 19 50 105 9 45 103 13 47 106
13 47 104 13 47 104 14 48 106 14 48 106 14 49 111 14 50 121 14 52 131
14 54 142 13 57 157 20 62 167 21 63 176 22 64 183 22 64 189 22 66 197
23 67 206 23 69 214 23 70 221 23 71 229 22 72 235 14 69 240 14 70 247
14 72 254 14 114 255 31 18 28 33 18 29 34 19 29 34 19 30 35 19 30 35
20 30 35 19 27 35 19 27 23 22 41 23 22 42 23 23 47 23 24 49 23 24 51
28 27 55 22 15 33 38 22 39 39 23 42 39 23 44 40 24 47 40 25 50 41 25
53 41 26 55 42 26 58 43 27 61 43 28 63 44 28 66 44 29 69 45 29 72 45
30 74 46 31 77 46 31 80 47 32 83 48 33 86 48 33 88 49 34 91 49 35 94
50 35 97 51 36 100 51 37 103 52 38 106 53 38 109 53 39 112 54 40 115
55 40 118 55 41 121 56 41 123 56 42 125 56 42 127 56 43 129 57 43 130
56 43 131 56 43 132 56 43 133 55 43 134 55 42 135 54 42 135 52 41 135
50 40 135 51 41 134 45 22 23 45 22 23 45 22 23 45 22 23 45 22 23 45 22
23 45 22 23 45 22 23 45 22 23 45 22 23 45 22 23 45 22 23 45 22 23 45
22 23 45 22 23 45 22 23 45 22 23 45 22 23 45 22 23 45 22 23 45 22 24
45 22 24 45 22 24 45 22 24 45 22 24 45 22 24 45 22 24 45 22 24 45 22
24 45 22 24 45 22 24 45 22 24 45 22 24 45 22 24 45 22 24 45 22 24 45
22 24 45 22 24 45 22 24 45 22 24 45 22 24 45 22 24 45 22 24 45 22 24
45 22 24 45 22 24 45 22 24 45 22 24 45 22 24 45 22 24 45 22 24 45 22
24 45 22 24 45 22 24 45 22 24 45 22 24 45 22 24 45 22 24 45 22 24 45
22 24 45 22 24 45 22 24 45 22 24 45 22 24 45 22 24 45 22 24 45 22 24
45 22 24 45 22 24 45 22 24 45 22 24 45 22 24 45 22 24 44 22 24 44 22
23 44 22 23 44 22 23 44 22 23 44 22 23 44 22 23 44 22 23 44 22 23 44
22 23 44 22 23 44 22 23 44 22 23 44 22 23 44 22 23 44 22 23 44 22 23
44 22 23 44 22 23 44 22 23 44 22 23 44 22 23 44 22 23 44 22 23 44 22
23 44 22 23 44 22 23 43 21 23 43 21 23 43 21 23 43 21 23 43 21 23 5 67
32 7 64 32 45 80 43 23 66 36 6 55 30 5 53 30 5 51 29 5 49 29 5 47 29 5
46 29 5 45 28 5 43 28 5 43 28 5 43 28 5 43 28 5 43 28 5 43 28 5 43 28
5 43 28 5 43 28 5 43 28 5 43 28 5 43 28 5 43 28 5 43 28 4 43 28 4 43
28 4 43 28 4 43 28 4 43 28 4 43 28 4 43 28 4 43 28 4 43 28 4 43 28 4
43 28 4 43 28 4 43 28 4 43 28 4 43 28 4 43 28 4 43 28 4 43 28 4 43 28
4 43 28 4 43 28 4 43 28 4 43 28 4 43 28 4 43 28 4 43 28 4 43 28 4 43
28 4 43 28 4 43 28 4 43 28 4 43 28 4 43 28 4 43 28 4 43 28 4 43 28 4
43 28 4 43 28 4 43 28 4 43 28 4 43 28 4 43 28 4 43 28 4 43 28 4 43 28
4 43 28 4 43 28 4 43 28 4 43 28 4 43 28 4 43 28 4 43 28 4 43 28 4 43
28 4 43 28 4 43 28 4 43 28 4 43 28 4 43 28 4 43 28 4 43 28 4 43 28 4
43 28 4 43 28 4 43 28 4 43 28 4 43 28 4 43 28 4 43 28 4 43 28 4 43 28
4 43 28 4 43 28 4 43 28 4 43 28 38 19 21 38 19 21 38 19 21 38 19 21 38
19 21 37 19 21 37 19 21 37 19 21 37 19 21 37 19 21 37 19 21 37 19 21
37 19 21 37 18 21 37 18 21 37 18 21 37 18 21 37 18 21 37 18 21 37 18
21 37 18 21
36 18 20 37 18 20 37 18 20 37 18 20 37 18 20 37 18 20 37 18 20 37 18
20 37 18 20 37 18 20 37 18 20 37 18 20 37 18 20 37 18 20 37 18 20 37
18 20 37 19 20 37 19 20 37 19 20 38 19 20 38 19 20 38 19 20 38 19 20
38 19 20 38 19 20 38 19 20 38 19 20 38 19 20 38 19 20 38 19 20 38 19
20 38 19 20 38 19 21 38 19 21 38 19 21 38 19 21 39 19 21 39 19 21 39
19 21 39 19 21 39 19 21 39 19 21 39 19 21 39 19 21 39 19 21 39 19 21
39 19 21 39 19 21 39 19 21 39 19 21 39 19 21 39 19 21 40 20 21 40 20
21 40 20 21 40 20 21 40 20 21 40 20 21 40 20 21 40 20 21 40 20 21 40
20 21 40 20 21 40 20 21 40 20 21 40 20 21 40 20 21 40 20 21 40 20 21
41 20 21 41 20 21 41 20 21 41 20 21 41 20 22 41 20 22 41 20 22 41 20
22 41 20 22 41 20 22 41 20 22 41 20 22 41 20 22 41 20 22 41 20 22 41
20 22 41 20 22 42 20 22 42 20 22 42 21 22 19 50 105 9 45 104 9 45 103
9 45 103 11 46 103 12 47 106 12 47 106 12 48 111 13 50 122 13 52 132
13 53 143 12 57 157 12 58 166 23 64 177 25 65 184 25 66 192 26 68 200
26 69 209 26 71 217 27 72 225 27 74 233 27 74 239 27 76 246 28 77 254
29 115 255 30 120 255 31 124 255 32 18 29 33 19 29 34 19 30 35 19 30
35 20 30 36 20 30 35 19 27 36 19 27 23 22 42 23 23 48 23 24 52 23 25
55 24 26 59 26 28 64 33 32 67 39 23 42 40 24 45 40 24 48 41 25 51 42
26 53 42 26 56 43 27 59 43 27 61 44 28 64 44 29 67 45 29 70 45 30 73
46 30 75 47 31 78 47 32 81 48 32 84 48 33 87 49 34 89 50 34 92 50 35
95 51 36 98 51 36 101 52 37 104 53 38 107 53 39 110 54 39 113 55 40
116 55 41 118 56 41 121 56 42 123 56 42 125 57 42 127 57 43 129 57 43
130 57 43 131 57 43 132 56 43 133 55 43 134 54 42 135 53 42 135 51 41
134 48 39 133 45 22 24 45 22 24 45 22 24 45 22 24 46 22 24 46 22 24 46
22 24 46 22 24 46 22 24 46 22 24 46 22 24 46 22 24 46 22 24 46 22 24
46 22 24 46 22 24 46 22 24 46 22 24 46 22 24 46 22 24 46 22 24 46 22
24 46 22 24 46 22 24 46 22 24 46 22 24 46 22 24 46 22 24 46 23 24 46
23 24 46 23 24 46 23 24 46 23 24 46 23 24 46 23 24 46 23 24 46 23 24
46 23 24 46 23 24 46 23 24 46 22 24 46 22 24 46 22 24 46 22 24 46 22
24 46 22 24 46 22 24 46 22 24 46 22 24 46 22 24 46 22 24 46 22 24 46
22 24 46 22 24 46 22 24 46 22 24 46 22 24 46 22 24 46 22 24 45 22 24
45 22 24 45 22 24 45 22 24 45 22 24 45 22 24 45 22 24 45 22 24 45 22
24 45 22 24 45 22 24 45 22 24 45 22 24 45 22 24 45 22 24 45 22 24 45
22 24 45 22 24 45 22 24 45 22 24 45 22 24 45 22 24 45 22 24 45 22 24
45 22 24 45 22 24 45 22 24 45 22 24 45 22 24 45 22 24 45 22 24 45 22
24 45 22 24 44 22 24 44 22 24 44 22 24 44 22 24 44 22 24 44 22 24 44
22 24 44 22 24 44 22 23 44 22 23 44 22 23 44 22 23 44 22 23 5 70 33 5
64 32 28 73 38 42 77 42 9 57 31 5 53 30 5 51 30 5 50 29 5 48 29 5 47
29 5 45 28 5 44 28 5 43 28 5 43 28 5 43 28 5 43 28 5 43 28 5 43 28 5
43 28 5 43 28 5 43 28 5 43 28 5 43 28 5 43 28 5 43 28 5 43 28 5 43 28
5 43 28 5 43 28 5 43 28 5 43 28 5 43 28 5 43 28 5 43 28 5 43 28 4 43
28 4 43 28 4 43 28 4 43 28 4 43 28 4 43 28 4 43 28 4 43 28 4 43 28 4
43 28 4 43 28 4 43 28 4 43 28 4 43 28 4 43 28 4 43 28 4 43 28 4 43 28
4 43 28 4 43 28 4 43 28 4 43 28 4 43 28 4 43 28 4 43 28 4 43 28 4 43
28 4 43 28 4 43 28 4 43 28 4 43 28 4 43 28 4 43 28 4 43 28 4 43 28 4
43 28 4 43 28 4 43 28 4 43 28 4 43 28 4 43 28 4 43 28 4 43 28 4 43 28
4 43 28 4 43 28 4 43 28 4 43 28 4 43 28 4 43 28 4 43 28 4 43 28 4 43
28 4 43 28 4 43 28 4 43 28 4 43 28 4 43 28 4 43 28 4 43 28 4 43 28 4
43 28 4 43 28 4 43 28 4 43 28 4 43 28 38 19 21 38 19 21 38 19 21 38 19
21 38 19 21 38 19 21 38 19 21 38 19 21 38 19 21 38 19 21 38 19 21 38
19 21 37 19 21 37 19 21 37 19 21 37 19 21 37 19 21 37 19 21 37 19 21
37 19 21 37 18 21
37 18 20 37 18 20 37 18 20 37 18 20 37 18 20 37 18 20 37 18 20 37 18
20 37 18 20 37 19 20 37 19 20 37 19 20 38 19 20 38 19 20 38 19 20 38
19 20 38 19 20 38 19 20 38 19 20 38 19 20 38 19 20 38 19 20 38 19 20
38 19 20 38 19 20 38 19 21 38 19 21 38 19 21 39 19 21 39 19 21 39 19
21 39 19 21 39 19 21 39 19 21 39 19 21 39 19 21 39 19 21 39 19 21 39
19 21 39 19 21 39 19 21 39 19 21 39 19 21 39 19 21 39 19 21 40 20 21
40 20 21 40 20 21 40 20 21 40 20 21 40 20 21 40 20 21 40 20 21 40 20
21 40 20 21 40 20 21 40 20 21 40 20 21 40 20 21 40 20 21 40 20 21 41
20 21 41 20 21 41 20 21 41 20 21 41 20 21 41 20 22 41 20 22 41 20 22
41 20 22 41 20 22 41 20 22 41 20 22 41 20 22 41 20 22 41 20 22 41 20
22 42 20 22 42 20 22 42 20 22 42 21 22 42 21 22 42 21 22 42 21 22 42
21 22 42 21 22 42 21 22 42 21 22 42 21 22 42 21 22 20 50 106 9 45 104
8 45 104 8 44 101 7 44 101 8 45 103 8 46 109 11 49 122 11 51 133 13 54
145 12 55 154 11 57 165 13 59 174 27 66 184 28 68 194 28 69 203 29 71
211 30 72 220 30 74 228 31 76 236 31 76 242 31 78 250 32 80 255 34 116
255 35 121 255 33 123 255 35 128 255 32 18 29 34 19 29 35 19 30 35 20
30 36 20 30 36 20 30 37 20 31 28 25 43 23 23 47 23 24 53 23 25 57 24
26 62 31 38 73 36 40 78 35 36 77 40 24 46 41 25 48 42 25 51 42 26 54
43 26 57 43 27 59 44 28 62 44 28 65 45 29 68 45 30 71 46 30 73 47 31
76 47 31 79 48 32 82 48 33 85 49 33 87 50 34 90 50 35 93 51 35 96 52
36 99 52 37 102 53 38 105 53 38 108 54 39 110 55 40 113 55 40 116 56
41 118 56 41 121 57 42 123 57 42 125 57 42 127 57 43 128 57 43 130 57
43 131 56 43 132 56 43 133 55 42 134 54 42 134 51 41 134 48 39 132 46
23 24 46 23 24 46 23 24 46 23 24 46 23 24 46 23 24 46 23 24 46 23 24
46 23 24 46 23 24 46 23 24 46 23 24 46 23 24 46 23 24 46 23 24 46 23
24 46 23 24 46 23 24 46 23 24 46 23 24 46 23 24 46 23 24 46 23 24 46
23 24 46 23 24 46 23 24 46 23 24 46 23 24 46 23 24 46 23 24 46 23 24
46 23 24 46 23 24 46 23 24 46 23 24 46 23 24 46 23 24 46 23 24 46 23
24 46 23 24 46 23 24 46 23 24 46 23 24 46 23 24 46 23 24 46 23 24 46
23 24 46 23 24 46 23 24 46 23 24 46 23 24 46 23 24 46 23 24 46 23 24
46 23 24 46 23 24 46 23 24 46 23 24 46 23 24 46 23 24 46 23 24 46 23
24 46 23 24 46 23 24 46 23 24 46 23 24 46 23 24 46 23 24 46 23 24 46
23 24 46 23 24 46 23 24 46 23 24 46 23 24 46 23 24 46 23 24 46 23 24
46 23 24 46 22 24 46 22 24 46 22 24 46 22 24 46 22 24 45 22 24 45 22
24 45 22 24 45 22 24 45 22 24 45 22 24 45 22 24 45 22 24 45 22 24 45
22 24 45 22 24 45 22 24 45 22 24 45 22 24 45 22 24 45 22 24 45 22 24
45 22 24 45 22 24 45 22 24 45 22 24 45 22 24 45 22 24 5 66 32 10 64 33
50 82 44 17 63 34 5 54 30 5 52 30 5 50 29 5 49 29 5 47 29 5 46 28 5 44
28 5 43 28 5 43 28 5 43 28 5 43 28 5 43 28 5 43 28 5 43 28 5 43 28 5
43 28 5 43 28 5 43 28 5 43 28 5 43 28 5 43 28 5 43 28 5 43 28 5 43 28
5 43 28 5 43 28 5 43 28 5 43 28 5 43 28 5 43 28 5 43 28 5 43 28 5 43
28 5 43 28 5 43 28 5 43 28 5 43 28 5 43 28 5 43 28 5 43 28 5 43 28 4
43 28 4 43 28 4 43 28 4 43 28 4 43 28 4 43 28 4 43 28 4 43 28 4 43 28
4 43 28 4 43 28 4 43 28 4 43 28 4 43 28 4 43 28 4 43 28 4 43 28 4 43
28 4 43 28 4 43 28 4 43 28 4 43 28 4 43 28 4 43 28 4 43 28 4 43 28 4
43 28 4 43 28 4 43 28 4 43 28 4 43 28 4 43 28 4 43 28 4 43 28 4 43 28
4 43 28 4 43 28 4 43 28 4 43 28 4 43 28 4 43 28 4 43 28 4 43 28 4 43
28 4 43 28 4 43 28 4 43 28 4 43 28 4 43 28 4 43 28 4 43 28 4 43 28 4
43 28 4 43 28 4 43 28 4 43 28 4 43 28 39 19 21 38 19 21 38 19 21 38 19
21 38 19 21 38 19 21 38 19 21 38 19 21 38 19 21 38 19 21 38 19 21 38
19 21 38 19 21 38 19 21 38 19 21 38 19 21 38 19 21 38 19 21 37 19 21
37 19 21
37 18 20 37 18 20 37 18 20 37 19 20 37 19 20 38 19 20 38 19 20 38 19
20 38 19 20 38 19 20 38 19 20 38 19 20 38 19 20 38 19 20 38 19 20 38
19 20 38 19 20 38 19 20 38 19 21 38 19 21 38 19 21 38 19 21 39 19 21
39 19 21 39 19 21 39 19 21 39 19 21 39 19 21 39 19 21 39 19 21 39 19
21 39 19 21 39 19 21 39 19 21 39 19 21 39 19 21 39 19 21 39 19 21 40
20 21 40 20 21 40 20 21 40 20 21 40 20 21 40 20 21 40 20 21 40 20 21
40 20 21 40 20 21 40 20 21 40 20 21 40 20 21 40 20 21 40 20 21 40 20
21 41 20 21 41 20 21 41 20 21 41 20 21 41 20 22 41 20 22 41 20 22 41
20 22 41 20 22 41 20 22 41 20 22 41 20 22 41 20 22 41 20 22 41 20 22
42 20 22 42 20 22 42 20 22 42 21 22 42 21 22 42 21 22 42 21 22 42 21
22 42 21 22 42 21 22 42 21 22 42 21 22 42 21 22 42 21 22 42 21 22 42
21 22 43 21 22 43 21 22 43 21 22 43 21 22 43 21 22 21 50 106 9 45 104
8 45 104 8 45 104 7 44 100 7 44 100 7 45 104 7 47 120 9 52 133 10 54
144 9 53 152 9 55 162 9 57 171 26 65 184 27 67 193 28 69 202 28 71 211
29 72 219 30 74 228 31 76 236 31 77 243 32 79 251 34 110 255 35 115
255 37 120 255 39 125 255 40 129 255 42 134 255 33 18 29 34 19 30 35
20 30 36 20 30 36 20 30 37 20 31 37 21 31 34 32 47 23 24 50 27 32 76
36 42 71 33 41 76 32 41 80 40 43 86 36 38 83 42 25 49 42 25 52 43 26
54 43 27 57 44 27 60 44 28 63 45 29 66 45 29 68 46 30 71 47 31 74 47
31 77 48 32 80 48 32 82 49 33 85 50 34 88 50 34 91 51 35 94 51 36 97
52 36 99 53 37 102 53 38 105 54 38 108 55 39 111 55 40 113 56 40 116
56 41 118 57 41 121 57 42 123 57 42 125 57 42 127 57 43 128 57 43 130
57 43 131 56 43 132 55 42 133 54 42 133 52 41 133 49 40 132 42 36 126
47 23 24 47 23 24 47 23 24 47 23 24 47 23 24 47 23 24 47 23 24 47 23
24 47 23 24 47 23 24 47 23 24 47 23 24 47 23 24 47 23 24 47 23 24 47
23 24 47 23 24 47 23 24 47 23 24 47 23 24 47 23 24 47 23 24 47 23 24
47 23 24 47 23 24 47 23 24 47 23 24 47 23 24 47 23 24 47 23 24 47 23
24 47 23 24 47 23 24 47 23 24 47 23 24 47 23 24 47 23 24 47 23 24 47
23 24 47 23 24 47 23 24 47 23 24 47 23 24 47 23 24 47 23 24 47 23 24
47 23 24 47 23 24 47 23 24 47 23 24 47 23 24 47 23 24 47 23 24 47 23
24 47 23 24 47 23 24 47 23 24 47 23 24 47 23 24 47 23 24 47 23 24 47
23 24 47 23 24 47 23 24 47 23 24 47 23 24 47 23 24 47 23 24 47 23 24
47 23 24 47 23 24 47 23 24 46 23 24 46 23 24 46 23 24 46 23 24 46 23
24 46 23 24 46 23 24 46 23 24 46 23 24 46 23 24 46 23 24 46 23 24 46
23 24 46 23 24 46 23 24 46 23 24 46 23 24 46 23 24 46 23 24 46 23 24
46 23 24 46 23 24 46 23 24 46 22 24 46 22 24 46 22 24 45 22 24 45 22
24 45 22 24 45 22 24 45 22 24 45 22 24 45 22 24 5 69 33 5 64 32 30 73
39 31 71 39 7 56 31 5 53 30 5 51 30 5 49 29 5 48 29 5 46 29 5 45 28 5
43 28 5 43 28 5 43 28 5 43 28 5 43 28 5 43 28 5 43 28 5 43 28 5 43 28
5 43 28 5 43 28 5 43 28 5 43 28 5 43 28 5 43 28 5 43 28 5 43 28 5 43
28 5 43 28 5 43 28 5 43 28 5 43 28 5 43 28 5 43 28 5 43 28 5 43 28 5
43 28 5 43 28 5 43 28 5 43 28 5 43 28 5 43 28 5 43 28 5 43 28 5 43 28
5 43 28 5 43 28 5 43 28 5 43 28 5 43 28 5 43 28 5 43 28 5 43 28 4 43
28 4 43 28 4 43 28 4 43 28 4 43 28 4 43 28 4 43 28 4 43 28 4 43 28 4
43 28 4 43 28 4 43 28 4 43 28 4 43 28 4 43 28 4 43 28 4 43 28 4 43 28
4 43 28 4 43 28 4 43 28 4 43 28 4 43 28 4 43 28 4 43 28 4 43 28 4 43
28 4 43 28 4 43 28 4 43 28 4 43 28 4 43 28 4 43 28 4 43 28 4 43 28 4
43 28 4 43 28 4 43 28 4 43 28 4 43 28 4 43 28 4 43 28 4 43 28 4 43 28
4 43 28 4 43 28 4 43 28 4 43 28 4 43 28 39 19 22 39 19 22 39 19 22 39
19 22 39 19 22 39 19 22 39 19 21 39 19 21 38 19 21 38 19 21 38 19 21
38 19 21 38 19 21 38 19 21 38 19 21 38 19 21 38 19 21 38 19 21 38 19
21 38 19 21
38 19 20 38 19 20 38 19 20 38 19 20 38 19 20 38 19 20 38 19 20 38 19
20 38 19 20 38 19 20 38 19 20 38 19 20 38 19 21 38 19 21 38 19 21 39
19 21 39 19 21 39 19 21 39 19 21 39 19 21 39 19 21 39 19 21 39 19 21
39 19 21 39 19 21 39 19 21 39 19 21 39 19 21 39 19 21 39 19 21 39 19
21 40 20 21 40 20 21 40 20 21 40 20 21 40 20 21 40 20 21 40 20 21 40
20 21 40 20 21 40 20 21 40 20 21 40 20 21 40 20 21 40 20 21 40 20 21
41 20 21 41 20 21 41 20 21 41 20 21 41 20 21 41 20 22 41 20 22 41 20
22 41 20 22 41 20 22 41 20 22 41 20 22 41 20 22 41 20 22 41 20 22 41
20 22 42 20 22 42 20 22 42 21 22 42 21 22 42 21 22 42 21 22 42 21 22
42 21 22 42 21 22 42 21 22 42 21 22 42 21 22 42 21 22 42 21 22 42 21
22 43 21 22 43 21 22 43 21 22 43 21 22 43 21 22 43 21 22 43 21 22 43
21 22 43 21 22 43 21 22 43 21 22 43 21 22 43 21 23 43 21 23 22 51 106
8 45 104 8 45 104 7 44 100 7 44 100 7 44 104 7 47 116 8 49 131 8 51
141 9 53 152 9 55 162 9 57 172 10 58 181 30 68 194 30 70 203 31 72 212
32 74 221 33 76 230 35 77 238 34 78 245 36 80 253 37 110 255 39 115
255 41 119 255 42 124 255 44 129 255 45 133 255 46 136 255 33 19 29 35
19 30 36 20 30 36 20 30 37 20 31 37 21 31 38 21 31 38 21 31 33 37 59
32 39 67 33 41 75 33 42 81 43 46 90 40 43 90 42 25 49 43 26 52 43 26
55 44 27 58 44 28 61 45 28 63 45 29 66 46 30 69 47 30 72 47 31 75 48
31 77 48 32 80 49 33 83 50 33 86 50 34 89 51 35 91 51 35 94 52 36 97
53 37 100 53 37 103 54 38 106 54 39 108 55 39 111 56 40 113 56 40 116
56 41 118 57 41 121 57 42 123 57 42 125 57 42 126 57 42 128 57 43 129
56 42 130 56 42 131 54 42 132 52 41 132 49 40 131 43 36 126 47 23 24
47 23 24 47 23 24 47 23 24 47 23 24 47 23 24 47 23 24 47 23 24 48 23
24 48 23 24 48 23 24 48 23 24 48 23 24 48 23 24 48 23 24 48 23 24 48
23 25 48 23 25 48 23 25 48 23 25 48 23 25 48 23 25 48 23 25 48 23 25
48 23 25 48 23 25 48 23 25 48 23 25 48 23 25 48 23 25 48 23 25 48 23
25 48 23 25 48 23 25 48 23 25 48 23 25 48 23 25 48 23 25 48 23 25 48
23 25 48 23 25 48 23 25 48 23 25 48 23 25 48 23 25 48 23 25 48 23 25
48 23 25 48 23 25 48 23 25 48 23 25 48 23 25 48 23 25 48 23 25 48 23
25 48 23 25 48 23 25 48 23 25 48 23 25 48 23 25 47 23 25 47 23 25 47
23 25 47 23 25 47 23 25 47 23 25 47 23 25 47 23 25 47 23 25 47 23 25
47 23 25 47 23 25 47 23 25 47 23 25 47 23 25 47 23 25 47 23 25 47 23
25 47 23 25 47 23 25 47 23 25 47 23 25 47 23 25 47 23 25 47 23 25 47
23 25 47 23 24 47 23 24 47 23 24 47 23 24 47 23 24 46 23 24 46 23 24
46 23 24 46 23 24 46 23 24 46 23 24 46 23 24 46 23 24 46 23 24 46 23
24 46 23 24 46 23 24 46 23 24 46 23 24 46 23 24 5 66 32 9 64 33 35 74
40 11 59 32 5 54 30 5 52 30 5 50 29 5 48 29 5 47 29 5 45 28 5 44 28 5
43 28 5 43 28 5 43 28 5 43 28 5 43 28 5 43 28 5 43 28 5 43 28 5 43 28
5 43 28 5 43 28 5 43 28 5 43 28 5 43 28 5 43 28 5 43 28 5 43 28 5 43
28 5 43 28 5 43 28 5 43 28 5 43 28 5 43 28 5 43 28 5 43 28 5 43 28 5
43 28 5 43 28 5 43 28 5 43 28 5 43 28 5 43 28 5 43 28 5 43 28 5 43 28
5 43 28 5 43 28 5 43 28 5 43 28 5 43 28 5 43 28 5 43 28 5 43 28 5 43
28 5 43 28 5 43 28 5 43 28 5 43 28 5 43 28 5 43 28 5 43 28 4 43 28 4
43 28 4 43 28 4 43 28 4 43 28 4 43 28 4 43 28 4 43 28 4 43 28 4 43 28
4 43 28 4 43 28 4 43 28 4 43 28 4 43 28 4 43 28 4 43 28 4 43 28 4 43
28 4 43 28 4 43 28 4 43 28 4 43 28 4 43 28 4 43 28 4 43 28 4 43 28 4
43 28 4 43 28 4 43 28 4 43 28 4 43 28 4 43 28 4 43 28 4 43 28 4 43 28
4 43 28 4 43 28 4 43 28 4 43 28 4 43 28 39 20 22 39 20 22 39 20 22 39
20 22 39 20 22 39 19 22 39 19 22 39 19 22 39 19 22 39 19 22 39 19 22
39 19 22 39 19 22 39 19 22 39 19 21 38 19 21 38 19 21 38 19 21 38 19
21 38 19 21
38 19 20 38 19 20 38 19 20 38 19 20 38 19 20 38 19 21 38 19 21 38 19
21 39 19 21 39 19 21 39 19 21 39 19 21 39 19 21 39 19 21 39 19 21 39
19 21 39 19 21 39 19 21 39 19 21 39 19 21 39 19 21 39 19 21 39 19 21
39 19 21 40 20 21 40 20 21 40 20 21 40 20 21 40 20 21 40 20 21 40 20
21 40 20 21 40 20 21 40 20 21 40 20 21 40 20 21 40 20 21 40 20 21 40
20 21 40 20 21 41 20 21 41 20 21 41 20 21 41 20 21 41 20 22 41 20 22
41 20 22 41 20 22 41 20 22 41 20 22 41 20 22 41 20 22 41 20 22 41 20
22 41 20 22 42 20 22 42 20 22 42 21 22 42 21 22 42 21 22 42 21 22 42
21 22 42 21 22 42 21 22 42 21 22 42 21 22 42 21 22 42 21 22 42 21 22
42 21 22 43 21 22 43 21 22 43 21 22 43 21 22 43 21 22 43 21 22 43 21
22 43 21 22 43 21 22 43 21 22 43 21 22 43 21 23 43 21 23 43 21 23 43
21 23 44 21 23 44 21 23 44 21 23 44 21 23 44 22 23 44 22 23 21 53 111
8 45 104 8 45 104 24 52 107 14 56 118 12 53 116 10 52 123 7 49 126 8
52 142 9 53 152 9 55 162 10 57 172 10 58 182 32 69 195 33 71 204 34 73
213 35 75 222 36 77 231 36 78 238 37 80 246 38 104 255 40 109 255 41
113 255 43 118 255 44 122 255 46 126 255 47 130 255 47 133 255 47 136
255 33 19 29 35 19 30 36 20 30 37 20 31 37 21 31 38 21 31 38 21 31 39
21 31 37 36 60 40 42 73 42 45 81 42 46 87 41 44 90 42 25 49 43 26 52
44 27 55 44 27 58 45 28 61 45 29 64 46 29 67 46 30 69 47 30 72 48 31
75 48 32 78 49 32 81 49 33 84 50 34 86 51 34 89 51 35 92 52 36 95 52
36 98 53 37 100 54 38 103 54 38 106 55 39 108 55 39 111 56 40 113 56
40 116 57 41 118 57 41 120 57 42 122 57 42 124 57 42 126 57 42 127 56
42 128 56 42 129 54 42 130 52 41 130 49 39 129 43 36 125 48 24 25 48
24 25 48 24 25 48 24 25 48 24 25 48 24 25 48 24 25 48 24 25 48 24 25
48 24 25 48 24 25 48 24 25 48 24 25 48 24 25 48 24 25 48 24 25 48 24
25 48 24 25 48 24 25 48 24 25 48 24 25 48 24 25 48 24 25 48 24 25 48
24 25 48 24 25 48 24 25 48 24 25 48 24 25 48 24 25 48 24 25 48 24 25
48 24 25 48 24 25 48 24 25 48 24 25 48 24 25 48 24 25 48 24 25 48 24
25 48 24 25 48 24 25 48 24 25 48 24 25 48 24 25 48 24 25 48 24 25 48
24 25 48 24 25 48 24 25 48 24 25 48 24 25 48 24 25 48 24 25 48 24 25
48 24 25 48 24 25 48 24 25 48 24 25 48 24 25 48 24 25 48 24 25 48 24
25 48 24 25 48 24 25 48 24 25 48 24 25 48 24 25 48 24 25 48 24 25 48
24 25 48 24 25 48 24 25 48 24 25 48 24 25 48 23 25 48 23 25 48 23 25
48 23 25 48 23 25 48 23 25 48 23 25 48 23 25 47 23 25 47 23 25 47 23
25 47 23 25 47 23 25 47 23 25 47 23 25 47 23 25 47 23 25 47 23 25 47
23 25 47 23 25 47 23 25 47 23 25 47 23 25 47 23 25 47 23 25 47 23 25
47 23 25 47 23 25 47 23 25 47 23 25 46 23 25 5 69 33 5 64 32 18 67 35
18 64 35 6 55 31 5 53 30 5 51 30 5 49 29 5 47 29 5 46 29 5 45 28 5 43
28 5 43 28 5 43 28 5 43 28 5 43 28 5 43 28 5 43 28 5 43 28 5 43 28 5
43 28 5 43 28 5 43 28 5 43 28 5 43 28 5 43 28 5 43 28 5 43 28 5 43 28
5 43 28 5 43 28 5 43 28 5 43 28 5 43 28 5 43 28 5 43 28 5 43 28 5 43
28 5 43 28 5 43 28 5 43 28 5 43 28 5 43 28 5 43 28 5 43 28 5 43 28 5
43 28 5 43 28 5 43 28 5 43 28 5 43 28 5 43 28 5 43 28 5 43 28 5 43 28
5 43 28 5 43 28 5 43 28 5 43 28 5 43 28 5 43 28 5 43 28 5 43 28 5 43
28 5 43 28 5 43 28 5 43 28 5 43 28 5 43 28 5 43 28 5 43 28 4 43 28 4
43 28 4 43 28 4 43 28 4 43 28 4 43 28 4 43 28 4 43 28 4 43 28 4 43 28
4 43 28 4 43 28 4 43 28 4 43 28 4 43 28 4 43 28 4 43 28 4 43 28 4 43
28 4 43 28 4 43 28 4 43 28 4 43 28 4 43 28 4 43 28 4 43 28 4 43 28 4
43 28 4 43 28 4 43 28 4 43 28 4 43 28 4 43 28 4 43 28 40 20 22 40 20
22 40 20 22 40 20 22 40 20 22 39 20 22 39 20 22 39 20 22 39 20 22 39
20 22 39 20 22 39 19 22 39 19 22 39 19 22 39 19 22 39 19 22 39 19 22
39 19 22 39 19 22
38 19 21 38 19 21 39 19 21 39 19 21 39 19 21 39 19 21 39 19 21 39 19
21 39 19 21 39 19 21 39 19 21 39 19 21 39 19 21 39 19 21 39 19 21 39
19 21 39 19 21 39 19 21 40 20 21 40 20 21 40 20 21 40 20 21 40 20 21
40 20 21 40 20 21 40 20 21 40 20 21 40 20 21 40 20 21 40 20 21 40 20
21 40 20 21 40 20 21 41 20 21 41 20 21 41 20 21 41 20 21 41 20 21 41
20 22 41 20 22 41 20 22 41 20 22 41 20 22 41 20 22 41 20 22 41 20 22
41 20 22 41 20 22 42 20 22 42 20 22 42 21 22 42 21 22 42 21 22 42 21
22 42 21 22 42 21 22 42 21 22 42 21 22 42 21 22 42 21 22 42 21 22 42
21 22 43 21 22 43 21 22 43 21 22 43 21 22 43 21 22 43 21 22 43 21 22
43 21 22 43 21 22 43 21 22 43 21 22 43 21 22 43 21 23 43 21 23 43 21
23 44 21 23 44 21 23 44 21 23 44 21 23 44 22 23 44 22 23 44 22 23 44
22 23 44 22 23 44 22 23 44 22 23 44 22 23 44 22 23 44 22 23 44 22 23
23 52 108 8 45 104 8 45 104 39 74 133 18 60 121 14 57 128 12 55 135 11
55 142 9 53 146 12 67 180 12 69 190 13 73 210 13 76 230 34 72 204 35
74 213 36 76 222 38 77 231 37 78 238 39 97 255 40 102 255 42 107 255
43 111 255 44 116 255 45 120 255 46 124 255 47 127 255 48 130 255 48
133 255 47 135 255 33 18 29 35 20 30 36 20 30 37 20 31 38 21 31 38 21
31 39 21 31 39 22 34 40 23 37 41 23 41 41 24 44 42 25 47 43 25 50 43
26 53 44 27 55 44 27 58 45 28 61 46 29 64 46 29 67 47 30 70 47 31 73
48 31 75 49 32 78 49 33 81 50 33 84 50 34 87 51 35 89 52 35 92 52 36
95 53 36 98 53 37 101 54 38 103 55 38 106 55 39 108 56 39 111 56 40
113 56 40 116 57 41 118 57 41 120 57 42 122 57 42 124 57 42 125 56 42
126 55 42 127 54 41 128 52 40 128 49 39 127 49 24 25 49 24 25 49 24 25
49 24 25 49 24 25 49 24 25 49 24 25 49 24 25 49 24 25 49 24 25 49 24
25 49 24 25 49 24 25 49 24 25 49 24 25 49 24 25 49 24 25 49 24 25 49
24 25 49 24 25 49 24 25 49 24 25 49 24 25 49 24 25 49 24 25 49 24 25
49 24 25 49 24 25 49 24 25 49 24 25 49 24 25 49 24 25 49 24 25 49 24
25 49 24 25 49 24 25 49 24 25 49 24 25 49 24 25 49 24 25 49 24 25 49
24 25 49 24 25 49 24 25 49 24 25 49 24 25 49 24 25 49 24 25 49 24 25
49 24 25 49 24 25 49 24 25 49 24 25 49 24 25 49 24 25 49 24 25 49 24
25 49 24 25 49 24 25 49 24 25 49 24 25 49 24 25 49 24 25 49 24 25 49
24 25 49 24 25 49 24 25 49 24 25 49 24 25 49 24 25 49 24 25 49 24 25
49 24 25 49 24 25 49 24 25 49 24 25 48 24 25 48 24 25 48 24 25 48 24
25 48 24 25 48 24 25 48 24 25 48 24 25 48 24 25 48 24 25 48 24 25 48
24 25 48 24 25 48 24 25 48 24 25 48 24 25 48 24 25 48 24 25 48 24 25
48 23 25 48 23 25 48 23 25 48 23 25 48 23 25 47 23 25 47 23 25 47 23
25 47 23 25 47 23 25 47 23 25 47 23 25 47 23 25 5 66 32 7 62 32 18 65
35 8 57 31 5 54 30 5 52 30 5 50 29 5 48 29 5 47 29 5 45 28 5 44 28 5
43 28 5 43 28 5 43 28 5 43 28 5 43 28 5 43 28 5 43 28 5 43 28 5 43 28
5 43 28 5 43 28 5 43 28 5 43 28 5 43 28 5 43 28 5 43 28 5 43 28 5 43
28 5 43 28 5 43 28 5 43 28 5 43 28 5 43 28 5 43 28 5 43 28 5 43 28 5
43 28 5 43 28 5 43 28 5 43 28 5 43 28 5 43 28 5 43 28 5 43 28 5 43 28
5 43 28 5 43 28 5 43 28 5 43 28 5 43 28 5 43 28 5 43 28 5 43 28 5 43
28 5 43 28 5 43 28 5 43 28 5 43 28 5 43 28 5 43 28 5 43 28 5 43 28 5
43 28 5 43 28 5 43 28 5 43 28 5 43 28 5 43 28 5 43 28 5 43 28 5 43 28
5 43 28 5 43 28 5 43 28 5 43 28 5 43 28 5 43 28 4 43 28 4 43 28 4 43
28 4 43 28 4 43 28 4 43 28 4 43 28 4 43 28 4 43 28 4 43 28 4 43 28 4
43 28 4 43 28 4 43 28 4 43 28 4 43 28 4 43 28 4 43 28 4 43 28 4 43 28
4 43 28 4 43 28 4 43 28 4 43 28 4 43 28 4 43 28 4 43 28 40 20 22 40 20
22 40 20 22 40 20 22 40 20 22 40 20 22 40 20 22 40 20 22 40 20 22 40
20 22 40 20 22 39 20 22 39 20 22 39 20 22 39 20 22 39 20 22 39 20 22
39 19 22 39 19 22
39 19 21 39 19 21 39 19 21 39 19 21 39 19 21 39 19 21 39 19 21 39 19
21 39 19 21 39 19 21 39 19 21 40 20 21 40 20 21 40 20 21 40 20 21 40
20 21 40 20 21 40 20 21 40 20 21 40 20 21 40 20 21 40 20 21 40 20 21
40 20 21 40 20 21 40 20 21 41 20 21 41 20 21 41 20 21 41 20 21 41 20
21 41 20 22 41 20 22 41 20 22 41 20 22 41 20 22 41 20 22 41 20 22 41
20 22 41 20 22 41 20 22 42 20 22 42 20 22 42 21 22 42 21 22 42 21 22
42 21 22 42 21 22 42 21 22 42 21 22 42 21 22 42 21 22 42 21 22 42 21
22 42 21 22 43 21 22 43 21 22 43 21 22 43 21 22 43 21 22 43 21 22 43
21 22 43 21 22 43 21 22 43 21 22 43 21 22 43 21 22 43 21 23 43 21 23
44 21 23 44 21 23 44 21 23 44 21 23 44 22 23 44 22 23 44 22 23 44 22
23 44 22 23 44 22 23 44 22 23 44 22 23 44 22 23 44 22 23 44 22 23 45
22 23 45 22 23 45 22 23 45 22 23 45 22 23 45 22 23 45 22 23 45 22 23
20 51 109 25 54 109 8 45 105 43 79 137 42 76 134 19 62 130 15 59 138
12 56 145 13 57 152 16 72 183 13 70 189 13 72 208 13 76 228 26 99 255
36 104 255 38 76 221 37 85 234 39 90 245 40 95 255 41 100 255 42 104
255 44 109 255 45 113 255 46 117 255 47 121 255 47 124 255 47 127 255
47 129 255 47 131 255 46 133 255 32 18 29 35 19 30 36 20 30 37 21 31
38 21 31 39 21 31 39 22 34 40 23 37 41 23 40 42 24 43 42 25 47 43 26
50 44 26 53 44 27 56 45 28 59 45 28 61 46 29 64 47 30 67 47 30 70 48
31 73 48 31 76 49 32 79 50 33 81 50 33 84 51 34 87 51 35 90 52 35 92
53 36 95 53 37 98 54 37 101 54 38 103 55 38 106 55 39 108 56 39 111 56
40 113 56 40 115 57 41 117 57 41 119 57 41 121 56 41 123 56 41 124 55
41 125 54 41 126 52 40 126 48 38 125 49 24 25 49 24 25 49 24 25 49 24
25 49 24 25 49 24 25 49 24 25 49 24 25 49 24 25 49 24 25 50 24 25 50
24 25 50 24 25 50 24 25 50 24 25 50 24 25 50 24 25 50 24 25 50 24 25
50 24 25 50 24 25 50 24 25 50 24 25 50 24 25 50 24 25 50 24 25 50 24
25 50 24 25 50 24 25 50 24 25 50 24 25 50 24 25 50 24 25 50 24 25 50
24 25 50 24 25 50 24 25 50 24 25 50 24 25 50 24 26 50 24 26 50 24 26
50 24 26 50 24 26 50 24 26 50 24 26 50 24 26 50 24 26 50 24 26 50 24
26 50 24 26 50 24 26 50 24 26 50 24 26 50 24 26 50 24 26 50 24 26 50
24 26 50 24 26 50 24 26 50 24 26 50 24 26 50 24 26 50 24 26 50 24 26
50 24 26 49 24 26 49 24 26 49 24 26 49 24 26 49 24 26 49 24 26 49 24
25 49 24 25 49 24 25 49 24 25 49 24 25 49 24 25 49 24 25 49 24 25 49
24 25 49 24 25 49 24 25 49 24 25 49 24 25 49 24 25 49 24 25 49 24 25
49 24 25 49 24 25 49 24 25 49 24 25 49 24 25 49 24 25 48 24 25 48 24
25 48 24 25 48 24 25 48 24 25 48 24 25 48 24 25 48 24 25 48 24 25 48
24 25 48 24 25 48 24 25 48 24 25 48 24 25 6 70 33 8 64 32 12 63 33 13
60 32 8 55 31 7 53 30 7 51 30 6 49 29 5 47 29 5 46 29 5 44 28 5 43 28
5 43 28 5 43 28 5 43 28 5 43 28 5 43 28 5 43 28 5 43 28 5 43 28 5 43
28 5 43 28 5 43 28 5 43 28 5 43 28 5 43 28 5 43 28 5 43 28 5 43 28 5
43 28 5 43 28 5 43 28 5 43 28 5 43 28 5 43 28 5 43 28 5 43 28 5 43 28
5 43 28 5 43 28 5 43 28 5 43 28 5 43 28 5 43 28 5 43 28 5 43 28 5 43
28 5 43 28 5 43 28 5 43 28 5 43 28 5 43 28 5 43 28 5 43 28 5 43 28 5
43 28 5 43 28 5 43 28 5 43 28 5 43 28 5 43 28 5 43 28 5 43 28 5 43 28
5 43 28 5 43 28 5 43 28 5 43 28 5 43 28 5 43 28 5 43 28 5 43 28 5 43
28 5 43 28 5 43 28 5 43 28 5 43 28 5 43 28 5 43 28 5 43 28 5 43 28 5
43 28 5 43 28 5 43 28 5 43 28 5 43 28 4 43 28 4 43 28 4 43 28 4 43 28
4 43 28 4 43 28 4 43 28 4 43 28 4 43 28 4 43 28 4 43 28 4 43 28 4 43
28 4 43 28 4 43 28 4 43 28 4 43 28 4 43 28 4 43 28 4 43 28 41 20 22 41
20 22 41 20 22 40 20 22 40 20 22 40 20 22 40 20 22 40 20 22 40 20 22
40 20 22 40 20 22 40 20 22 40 20 22 40 20 22 40 20 22 40 20 22 40 20
22 40 20 22 39 20 22
39 19 21 39 19 21 39 19 21 39 19 21 39 19 21 40 20 21 40 20 21 40 20
21 40 20 21 40 20 21 40 20 21 40 20 21 40 20 21 40 20 21 40 20 21 40
20 21 40 20 21 40 20 21 40 20 21 40 20 21 41 20 21 41 20 21 41 20 21
41 20 21 41 20 21 41 20 22 41 20 22 41 20 22 41 20 22 41 20 22 41 20
22 41 20 22 41 20 22 41 20 22 42 20 22 42 20 22 42 20 22 42 21 22 42
21 22 42 21 22 42 21 22 42 21 22 42 21 22 42 21 22 42 21 22 42 21 22
42 21 22 42 21 22 42 21 22 43 21 22 43 21 22 43 21 22 43 21 22 43 21
22 43 21 22 43 21 22 43 21 22 43 21 22 43 21 22 43 21 22 43 21 23 43
21 23 44 21 23 44 21 23 44 21 23 44 21 23 44 22 23 44 22 23 44 22 23
44 22 23 44 22 23 44 22 23 44 22 23 44 22 23 44 22 23 44 22 23 45 22
23 45 22 23 45 22 23 45 22 23 45 22 23 45 22 23 45 22 23 45 22 23 45
22 23 45 22 23 45 22 23 45 22 23 45 22 23 45 22 23 46 22 23 46 22 23
46 22 23 22 53 109 25 52 108 44 83 139 46 81 138 44 77 140 41 74 148
37 70 150 37 69 157 13 59 160 16 73 191 24 89 213 25 93 232 26 98 251
40 107 255 37 78 220 38 83 231 39 88 242 40 92 252 42 97 255 43 101
255 44 106 255 45 110 255 46 114 255 46 117 255 47 120 255 47 123 255
47 125 255 46 127 255 45 128 255 43 128 255 41 128 255 34 19 30 36 20
30 37 21 31 38 21 31 39 22 33 40 22 36 41 23 40 42 24 43 42 25 46 43
26 49 44 26 52 44 27 55 45 28 58 46 28 61 46 29 64 47 30 67 47 30 70
48 31 73 49 32 76 49 32 79 50 33 81 50 34 84 51 34 87 52 35 90 52 35
93 53 36 95 53 37 98 54 37 101 54 38 103 55 38 106 55 39 108 56 39 110
56 40 113 56 40 115 56 40 117 56 41 119 56 41 120 55 41 122 54 40 123
53 40 123 51 39 123 46 37 121 50 24 25 50 24 25 50 24 25 50 24 25 50
24 25 50 24 25 50 24 25 50 25 25 50 25 25 50 25 25 50 25 25 50 25 25
50 25 25 50 25 26 50 25 26 50 25 26 50 25 26 50 25 26 50 25 26 50 25
26 50 25 26 50 25 26 50 25 26 50 25 26 50 25 26 50 25 26 51 25 26 51
25 26 51 25 26 51 25 26 51 25 26 51 25 26 51 25 26 51 25 26 51 25 26
51 25 26 51 25 26 51 25 26 51 25 26 51 25 26 51 25 26 51 25 26 51 25
26 51 25 26 51 25 26 51 25 26 51 25 26 51 25 26 51 25 26 51 25 26 51
25 26 50 25 26 50 25 26 50 25 26 50 25 26 50 25 26 50 25 26 50 25 26
50 25 26 50 25 26 50 25 26 50 25 26 50 25 26 50 25 26 50 25 26 50 25
26 50 25 26 50 25 26 50 25 26 50 25 26 50 25 26 50 25 26 50 25 26 50
25 26 50 25 26 50 25 26 50 24 26 50 24 26 50 24 26 50 24 26 50 24 26
50 24 26 50 24 26 50 24 26 50 24 26 50 24 26 50 24 26 49 24 26 49 24
26 49 24 26 49 24 26 49 24 26 49 24 26 49 24 26 49 24 26 49 24 26 49
24 26 49 24 26 49 24 26 49 24 26 49 24 26 49 24 25 49 24 25 49 24 25
49 24 25 49 24 25 83 30 27 96 34 30 99 35 30 10 68 33 10 63 32 13 61
33 11 57 31 9 55 30 9 52 30 8 50 30 8 48 29 7 47 29 6 45 28 5 43 28 5
43 28 5 43 28 5 43 28 5 43 28 5 43 28 5 43 28 5 43 28 5 43 28 5 43 28
5 43 28 5 43 28 5 43 28 5 43 28 5 43 28 5 43 28 5 43 28 5 43 28 5 43
28 5 43 28 5 43 28 5 43 28 5 43 28 5 43 28 5 43 28 5 43 28 5 43 28 5
43 28 5 43 28 5 43 28 5 43 28 5 43 28 5 43 28 5 43 28 5 43 28 5 43 28
5 43 28 5 43 28 5 43 28 5 43 28 5 43 28 5 43 28 5 43 28 5 43 28 5 43
28 5 43 28 5 43 28 5 43 28 5 43 28 5 43 28 5 43 28 5 43 28 5 43 28 5
43 28 5 43 28 5 43 28 5 43 28 5 43 28 5 43 28 5 43 28 5 43 28 5 43 28
5 43 28 5 43 28 5 43 28 5 43 28 5 43 28 5 43 28 5 43 28 5 43 28 5 43
28 5 43 28 5 43 28 5 43 28 5 43 28 5 43 28 5 43 28 5 43 28 5 43 28 5
43 28 5 43 28 5 43 28 5 43 28 4 43 28 4 43 28 4 43 28 4 43 28 4 43 28
4 43 28 4 43 28 4 43 28 4 43 28 4 43 28 4 43 28 4 43 28 4 43 28 4 43
28 41 20 23 41 20 23 41 20 23 41 20 23 41 20 23 41 20 22 41 20 22 41
20 22 40 20 22 40 20 22 40 20 22 40 20 22 40 20 22 40 20 22 40 20 22
40 20 22 40 20 22 40 20 22
40 20 21 40 20 21 40 20 21 40 20 21 40 20 21 40 20 21 40 20 21 40 20
21 40 20 21 40 20 21 40 20 21 40 20 21 40 20 21 40 20 21 41 20 21 41
20 21 41 20 21 41 20 21 41 20 21 41 20 22 41 20 22 41 20 22 41 20 22
41 20 22 41 20 22 41 20 22 41 20 22 41 20 22 42 20 22 42 20 22 42 21
22 42 21 22 42 21 22 42 21 22 42 21 22 42 21 22 42 21 22 42 21 22 42
21 22 42 21 22 42 21 22 42 21 22 43 21 22 43 21 22 43 21 22 43 21 22
43 21 22 43 21 22 43 21 22 43 21 22 43 21 22 43 21 22 43 21 22 43 21
22 43 21 23 43 21 23 44 21 23 44 21 23 44 21 23 44 22 23 44 22 23 44
22 23 44 22 23 44 22 23 44 22 23 44 22 23 44 22 23 44 22 23 44 22 23
45 22 23 45 22 23 45 22 23 45 22 23 45 22 23 45 22 23 45 22 23 45 22
23 45 22 23 45 22 23 45 22 23 45 22 23 45 22 23 46 22 23 46 22 23 46
22 23 46 22 23 46 22 23 46 22 24 46 23 24 46 23 24 46 23 24 46 23 24
46 23 24 46 23 24 23 52 107 26 53 108 46 85 140 47 82 140 45 79 148 42
76 156 40 74 163 36 70 164 13 60 167 31 85 206 34 94 226 36 98 244 34
99 255 38 75 216 39 80 227 40 85 238 41 89 248 42 94 255 43 98 255 44
102 255 45 106 255 45 110 255 46 113 255 46 116 255 46 119 255 45 121
255 45 122 255 43 123 255 41 123 255 39 122 255 35 118 255 32 18 29 36
20 30 37 20 31 38 21 31 39 22 35 40 23 39 41 24 42 42 25 46 43 25 49
44 26 52 44 27 55 45 28 58 46 28 61 46 29 64 47 30 67 48 30 70 48 31
73 49 32 76 49 32 79 50 33 81 51 34 84 51 34 87 52 35 90 52 35 92 53
36 95 53 37 98 54 37 100 54 38 103 55 38 105 55 39 108 55 39 110 55 39
112 55 40 114 55 40 116 55 40 117 54 40 119 53 40 120 52 39 120 49 38
120 41 34 114 51 25 26 51 25 26 51 25 26 51 25 26 51 25 26 51 25 26 51
25 26 51 25 26 51 25 26 51 25 26 51 25 26 51 25 26 51 25 26 51 25 26
51 25 26 51 25 26 51 25 26 51 25 26 51 25 26 51 25 26 51 25 26 51 25
26 51 25 26 51 25 26 51 25 26 51 25 26 51 25 26 51 25 26 51 25 26 51
25 26 51 25 26 51 25 26 51 25 26 51 25 26 51 25 26 51 25 26 51 25 26
51 25 26 51 25 26 51 25 26 51 25 26 51 25 26 51 25 26 51 25 26 51 25
26 51 25 26 51 25 26 51 25 26 51 25 26 51 25 26 51 25 26 51 25 26 51
25 26 51 25 26 51 25 26 51 25 26 51 25 26 51 25 26 51 25 26 51 25 26
51 25 26 51 25 26 51 25 26 51 25 26 51 25 26 51 25 26 51 25 26 51 25
26 51 25 26 51 25 26 51 25 26 51 25 26 51 25 26 51 25 26 51 25 26 51
25 26 51 25 26 51 25 26 51 25 26 51 25 26 51 25 26 50 25 26 50 25 26
50 25 26 50 25 26 50 25 26 50 25 26 50 25 26 50 25 26 50 25 26 50 25
26 50 25 26 50 25 26 50 25 26 50 25 26 50 24 26 50 24 26 50 24 26 50
24 26 50 24 26 50 24 26 50 24 26 49 24 26 49 24 26 49 24 26 90 32 29
104 37 31 109 38 32 110 39 32 110 39 32 11 66 33 11 62 32 12 59 32 10
56 31 10 54 30 9 52 30 9 50 30 8 48 29 8 46 29 7 44 28 6 43 28 6 43 28
4 43 28 5 43 28 5 43 28 5 43 28 5 43 28 5 43 28 5 43 28 5 43 28 5 43
28 5 43 28 5 43 28 5 43 28 5 43 28 5 43 28 5 43 28 5 43 28 5 43 28 5
43 28 5 43 28 5 43 28 5 43 28 5 43 28 5 43 28 5 43 28 5 43 28 5 43 28
5 43 28 5 43 28 5 43 28 5 43 28 5 43 28 5 43 28 5 43 28 5 43 28 5 43
28 5 43 28 5 43 28 5 43 28 5 43 28 5 43 28 5 43 28 5 43 28 5 43 28 5
43 28 5 43 28 5 43 28 5 43 28 5 43 28 5 43 28 5 43 28 5 43 28 5 43 28
5 43 28 5 43 28 5 43 28 5 43 28 5 43 28 5 43 28 5 43 28 5 43 28 5 43
28 5 43 28 5 43 28 5 43 28 5 43 28 5 43 28 5 43 28 5 43 28 5 43 28 5
43 28 5 43 28 5 43 28 5 43 28 5 43 28 5 43 28 5 43 28 5 43 28 5 43 28
5 43 28 5 43 28 5 43 28 5 43 28 5 43 28 5 43 28 5 43 28 5 43 28 5 43
28 4 43 28 4 43 28 4 43 28 4 43 28 4 43 28 4 43 28 4 43 28 4 43 28 41
21 23 41 21 23 41 21 23 41 21 23 41 20 23 41 20 23 41 20 23 41 20 23
41 20 23 41 20 23 41 20 23 41 20 23 41 20 22 41 20 22 40 20 22 40 20
22 40 20 22 40 20 22
40 20 21 40 20 21 40 20 21 40 20 21 40 20 21 40 20 21 40 20 21 40 20
21 41 20 21 41 20 21 41 20 21 41 20 21 41 20 21 41 20 22 41 20 22 41
20 22 41 20 22 41 20 22 41 20 22 41 20 22 41 20 22 41 20 22 42 20 22
42 20 22 42 21 22 42 21 22 42 21 22 42 21 22 42 21 22 42 21 22 42 21
22 42 21 22 42 21 22 42 21 22 42 21 22 42 21 22 43 21 22 43 21 22 43
21 22 43 21 22 43 21 22 43 21 22 43 21 22 43 21 22 43 21 22 43 21 22
43 21 22 43 21 22 43 21 23 44 21 23 44 21 23 44 21 23 44 21 23 44 22
23 44 22 23 44 22 23 44 22 23 44 22 23 44 22 23 44 22 23 44 22 23 44
22 23 45 22 23 45 22 23 45 22 23 45 22 23 45 22 23 45 22 23 45 22 23
45 22 23 45 22 23 45 22 23 45 22 23 45 22 23 45 22 23 46 22 23 46 22
23 46 22 23 46 22 23 46 22 23 46 22 24 46 23 24 46 23 24 46 23 24 46
23 24 46 23 24 46 23 24 46 23 24 47 23 24 47 23 24 47 23 24 47 23 24
47 23 24 47 23 24 47 23 24 24 52 107 27 53 108 47 85 139 46 83 147 46
82 157 42 81 168 42 77 172 39 75 179 38 72 184 39 73 191 39 74 199 37
73 205 38 75 214 39 77 222 40 81 233 41 86 243 42 90 252 42 94 255 43
98 255 44 102 255 44 106 255 45 109 255 45 111 255 45 114 255 44 116
255 43 117 255 41 117 255 39 116 255 36 113 255 30 106 255 49 24 25 49
24 25 34 19 29 36 20 30 38 21 33 39 22 37 41 23 41 42 24 45 43 25 48
43 26 51 44 27 54 45 27 58 46 28 61 46 29 64 47 30 67 48 30 70 48 31
73 49 32 75 49 32 78 50 33 81 51 33 84 51 34 87 52 35 89 52 35 92 53
36 95 53 36 97 54 37 100 54 37 102 54 38 104 54 38 107 55 39 109 54 39
111 54 39 113 54 39 114 53 39 115 52 38 116 49 37 116 45 35 114 51 25
26 51 25 26 51 25 26 51 25 26 51 25 26 51 25 26 51 25 26 51 25 26 51
25 26 51 25 26 52 25 26 52 25 26 52 25 26 52 25 26 52 25 26 52 25 26
52 25 26 52 25 26 52 25 26 52 25 26 52 25 26 52 25 26 52 25 26 52 25
26 52 25 26 52 25 26 52 25 26 52 25 26 52 25 26 52 25 26 52 25 26 52
25 26 52 25 26 52 25 26 52 25 26 52 25 26 52 25 26 52 25 26 52 25 26
52 25 26 52 25 26 52 25 26 52 25 26 52 25 26 52 25 26 52 25 26 52 25
26 52 25 26 52 25 26 52 25 26 52 25 26 52 25 26 52 25 26 52 25 26 52
25 26 52 25 26 52 25 26 52 25 26 52 25 26 52 25 26 52 25 26 52 25 26
52 25 26 52 25 26 52 25 26 52 25 26 52 25 26 52 25 26 52 25 26 52 25
26 52 25 26 52 25 26 52 25 26 52 25 26 51 25 26 51 25 26 51 25 26 51
25 26 51 25 26 51 25 26 51 25 26 51 25 26 51 25 26 51 25 26 51 25 26
51 25 26 51 25 26 51 25 26 51 25 26 51 25 26 51 25 26 51 25 26 51 25
26 51 25 26 51 25 26 51 25 26 51 25 26 51 25 26 50 25 26 50 25 26 50
25 26 50 25 26 50 25 26 50 25 26 50 25 26 50 25 26 105 37 31 113 40 33
116 41 33 117 41 34 118 41 34 12 70 34 12 64 33 12 61 32 11 58 32 11
55 31 10 53 31 10 51 31 10 49 30 9 47 30 8 46 29 8 44 29 7 44 29 6 43
28 5 43 28 4 43 28 3 42 27 5 43 28 5 43 28 5 43 28 5 43 28 5 43 28 5
43 28 5 43 28 5 43 28 5 43 28 5 43 28 5 43 28 5 43 28 5 43 28 5 43 28
5 43 28 5 43 28 5 43 28 5 43 28 5 43 28 5 43 28 5 43 28 5 43 28 5 43
28 5 43 28 5 43 28 5 43 28 5 43 28 5 43 28 5 43 28 5 43 28 5 43 28 5
43 28 5 43 28 5 43 28 5 43 28 5 43 28 5 43 28 5 43 28 5 43 28 5 43 28
5 43 28 5 43 28 5 43 28 5 43 28 5 43 28 5 43 28 5 43 28 5 43 28 5 43
28 5 43 28 5 43 28 5 43 28 5 43 28 5 43 28 5 43 28 5 43 28 5 43 28 5
43 28 5 43 28 5 43 28 5 43 28 5 43 28 5 43 28 5 43 28 5 43 28 5 43 28
5 43 28 5 43 28 5 43 28 5 43 28 5 43 28 5 43 28 5 43 28 5 43 28 5 43
28 5 43 28 5 43 28 5 43 28 5 43 28 5 43 28 5 43 28 5 43 28 5 43 28 5
43 28 5 43 28 5 43 28 5 43 28 5 43 28 5 43 28 5 43 28 5 43 28 4 43 28
42 21 23 42 21 23 42 21 23 42 21 23 42 21 23 42 21 23 41 21 23 41 21
23 41 21 23 41 21 23 41 21 23 41 20 23 41 20 23 41 20 23 41 20 23 41
20 23 41 20 23 41 20 23
40 20 21 40 20 21 41 20 21 41 20 21 41 20 21 41 20 21 41 20 21 41 20
22 41 20 22 41 20 22 41 20 22 41 20 22 41 20 22 41 20 22 41 20 22 41
20 22 42 20 22 42 20 22 42 21 22 42 21 22 42 21 22 42 21 22 42 21 22
42 21 22 42 21 22 42 21 22 42 21 22 42 21 22 42 21 22 42 21 22 43 21
22 43 21 22 43 21 22 43 21 22 43 21 22 43 21 22 43 21 22 43 21 22 43
21 22 43 21 22 43 21 22 43 21 23 43 21 23 44 21 23 44 21 23 44 21 23
44 21 23 44 22 23 44 22 23 44 22 23 44 22 23 44 22 23 44 22 23 44 22
23 44 22 23 44 22 23 45 22 23 45 22 23 45 22 23 45 22 23 45 22 23 45
22 23 45 22 23 45 22 23 45 22 23 45 22 23 45 22 23 45 22 23 45 22 23
46 22 23 46 22 23 46 22 23 46 22 23 46 22 23 46 23 24 46 23 24 46 23
24 46 23 24 46 23 24 46 23 24 46 23 24 47 23 24 47 23 24 47 23 24 47
23 24 47 23 24 47 23 24 47 23 24 47 23 24 47 23 24 47 23 24 47 23 24
47 23 24 47 23 24 48 23 24 48 23 24 24 52 107 27 53 108 48 86 140 49
85 153 44 84 164 44 81 170 42 79 178 40 77 185 37 72 187 39 73 194 38
75 203 38 74 210 39 76 218 39 77 227 40 82 237 41 86 246 42 90 255 42
94 255 43 98 255 43 101 255 44 104 255 43 106 255 43 108 255 42 110
255 41 110 255 39 110 255 36 107 255 30 100 255 50 24 25 50 24 25 50
24 25 50 24 25 50 24 25 34 19 29 37 21 34 39 22 39 40 24 43 42 25 46
43 25 50 44 26 53 44 27 57 45 28 60 46 29 63 47 29 66 47 30 69 48 31
72 49 31 75 49 32 78 50 33 80 50 33 83 51 34 86 51 34 89 52 35 91 52
36 94 53 36 96 53 37 99 53 37 101 53 37 103 53 38 105 53 38 107 53 38
109 52 38 110 51 37 111 49 37 112 45 35 110 52 25 26 52 25 26 52 25 26
52 25 26 52 25 26 52 25 26 52 25 26 52 25 26 52 25 26 52 25 26 52 25
26 52 25 26 52 26 26 52 26 26 52 26 26 52 26 26 52 26 26 52 26 26 52
26 26 52 26 26 52 26 26 52 26 26 53 26 26 53 26 26 53 26 26 53 26 26
53 26 26 53 26 26 53 26 27 53 26 27 53 26 27 53 26 27 53 26 27 53 26
27 53 26 27 53 26 27 53 26 27 53 26 27 53 26 27 53 26 27 53 26 27 53
26 27 53 26 27 53 26 27 53 26 27 53 26 27 53 26 27 53 26 27 53 26 27
53 26 27 53 26 27 53 26 27 53 26 27 53 26 27 53 26 27 53 26 27 53 26
27 53 26 27 53 26 27 53 26 27 53 26 27 53 26 27 53 26 27 53 26 27 53
26 27 53 26 27 53 26 27 52 26 27 52 26 27 52 26 27 52 26 27 52 26 27
52 26 27 52 26 27 52 26 27 52 26 27 52 26 27 52 26 27 52 26 27 52 26
27 52 26 27 52 26 27 52 25 27 52 25 27 52 25 27 52 25 27 52 25 27 52
25 27 52 25 27 52 25 27 52 25 27 52 25 27 52 25 27 52 25 27 51 25 27
51 25 27 51 25 27 51 25 27 51 25 26 51 25 26 51 25 26 51 25 26 51 25
26 51 25 26 51 25 26 51 25 26 51 25 26 111 39 32 118 41 34 121 42 34
123 43 35 123 43 35 123 43 36 12 67 34 12 63 33 12 60 33 12 57 32 11
55 32 11 52 32 10 50 31 10 49 31 9 47 30 9 45 30 8 44 30 8 44 30 7 44
29 6 43 29 5 43 28 4 42 28 3 42 27 5 43 28 5 43 28 5 43 28 5 43 28 5
43 28 5 43 28 5 43 28 5 43 28 5 43 28 5 43 28 5 43 28 5 43 28 5 43 28
5 43 28 5 43 28 5 43 28 5 43 28 5 43 28 5 43 28 5 43 28 5 43 28 5 43
28 5 43 28 5 43 28 5 43 28 5 43 28 5 43 28 5 43 28 5 43 28 5 43 28 5
43 28 5 43 28 5 43 28 5 43 28 5 43 28 5 43 28 5 43 28 5 43 28 5 43 28
5 43 28 5 43 28 5 43 28 5 43 28 5 43 28 5 43 28 5 43 28 5 43 28 5 43
28 5 43 28 5 43 28 5 43 28 5 43 28 5 43 28 5 43 28 5 43 28 5 43 28 5
43 28 5 43 28 5 43 28 5 43 28 5 43 28 5 43 28 5 43 28 5 43 28 5 43 28
5 43 28 5 43 28 5 43 28 5 43 28 5 43 28 5 43 28 5 43 28 5 43 28 5 43
28 5 43 28 5 43 28 5 43 28 5 43 28 5 43 28 5 43 28 5 43 28 5 43 28 5
43 28 5 43 28 5 43 28 5 43 28 5 43 28 5 43 28 5 43 28 5 43 28 5 43 28
42 21 23 42 21 23 42 21 23 42 21 23 42 21 23 42 21 23 42 21 23 42 21
23 42 21 23 42 21 23 42 21 23 42 21 23 41 21 23 41 21 23 41 21 23 41
21 23 41 21 23 41 20 23
41 20 21 41 20 21 41 20 22 41 20 22 41 20 22 41 20 22 41 20 22 41 20
22 41 20 22 41 20 22 41 20 22 42 20 22 42 20 22 42 21 22 42 21 22 42
21 22 42 21 22 42 21 22 42 21 22 42 21 22 42 21 22 42 21 22 42 21 22
42 21 22 43 21 22 43 21 22 43 21 22 43 21 22 43 21 22 43 21 22 43 21
22 43 21 22 43 21 22 43 21 22 43 21 22 43 21 22 43 21 23 44 21 23 44
21 23 44 21 23 44 21 23 44 22 23 44 22 23 44 22 23 44 22 23 44 22 23
44 22 23 44 22 23 44 22 23 44 22 23 45 22 23 45 22 23 45 22 23 45 22
23 45 22 23 45 22 23 45 22 23 45 22 23 45 22 23 45 22 23 45 22 23 45
22 23 46 22 23 46 22 23 46 22 23 46 22 23 46 22 23 46 23 24 46 23 24
46 23 24 46 23 24 46 23 24 46 23 24 46 23 24 47 23 24 47 23 24 47 23
24 47 23 24 47 23 24 47 23 24 47 23 24 47 23 24 47 23 24 47 23 24 47
23 24 47 23 24 47 23 24 48 23 24 48 23 24 48 23 24 48 23 24 48 23 24
48 23 24 48 23 24 48 24 24 48 24 24 48 24 24 24 52 107 27 55 110 29 56
116 47 85 155 46 84 166 43 82 174 43 80 182 39 77 187 38 73 191 38 74
198 39 76 207 38 75 214 39 76 222 40 78 230 40 81 239 41 85 247 41 89
255 42 92 255 42 95 255 42 98 255 42 100 255 41 102 255 40 102 255 38
102 255 35 100 255 28 91 255 50 25 25 50 25 25 50 25 25 50 25 25 51 25
25 51 25 25 51 25 25 51 25 25 33 19 32 37 22 39 39 23 43 41 24 48 42
25 51 43 26 55 44 27 58 45 28 61 46 29 65 47 30 68 47 30 71 48 31 74
49 32 76 49 32 79 50 33 82 50 33 85 51 34 87 51 34 90 51 35 92 52 35
95 52 36 97 52 36 99 52 36 101 51 36 103 51 36 105 49 36 106 47 35 106
43 33 104 52 26 26 52 26 26 53 26 26 53 26 26 53 26 26 53 26 26 53 26
26 53 26 26 53 26 26 53 26 26 53 26 26 53 26 26 53 26 27 53 26 27 53
26 27 53 26 27 53 26 27 53 26 27 53 26 27 53 26 27 53 26 27 53 26 27
53 26 27 53 26 27 53 26 27 53 26 27 53 26 27 53 26 27 53 26 27 53 26
27 53 26 27 53 26 27 53 26 27 53 26 27 53 26 27 53 26 27 53 26 27 53
26 27 53 26 27 53 26 27 53 26 27 54 26 27 54 26 27 54 26 27 54 26 27
54 26 27 54 26 27 54 26 27 54 26 27 54 26 27 54 26 27 53 26 27 53 26
27 53 26 27 53 26 27 53 26 27 53 26 27 53 26 27 53 26 27 53 26 27 53
26 27 53 26 27 53 26 27 53 26 27 53 26 27 53 26 27 53 26 27 53 26 27
53 26 27 53 26 27 53 26 27 53 26 27 53 26 27 53 26 27 53 26 27 53 26
27 53 26 27 53 26 27 53 26 27 53 26 27 53 26 27 53 26 27 53 26 27 53
26 27 53 26 27 53 26 27 53 26 27 53 26 27 53 26 27 53 26 27 52 26 27
52 26 27 52 26 27 52 26 27 52 26 27 52 26 27 52 26 27 52 26 27 52 26
27 52 26 27 52 26 27 52 25 27 52 25 27 52 25 27 52 25 27 52 25 27 52
25 27 52 25 27 114 40 33 121 42 34 124 44 35 126 44 35 127 45 37 128
45 40 127 46 43 13 66 34 12 62 33 12 59 33 12 56 33 12 54 32 11 52 32
11 50 32 10 48 31 10 46 31 9 45 31 9 44 30 8 44 30 7 44 30 7 44 30 6
43 29 5 43 29 4 42 28 3 42 27 5 43 28 5 43 28 5 43 28 5 43 28 5 43 28
5 43 28 5 43 28 5 43 28 5 43 28 5 43 28 5 43 28 5 43 28 5 43 28 5 43
28 5 43 28 5 43 28 5 43 28 5 43 28 5 43 28 5 43 28 5 43 28 5 43 28 5
43 28 5 43 28 5 43 28 5 43 28 5 43 28 5 43 28 5 43 28 5 43 28 5 43 28
5 43 28 5 43 28 5 43 28 5 43 28 5 43 28 5 43 28 5 43 28 5 43 28 5 43
28 5 43 28 5 43 28 5 43 28 5 43 28 5 43 28 5 43 28 5 43 28 5 43 28 5
43 28 5 43 28 5 43 28 5 43 28 5 43 28 5 43 28 5 43 28 5 43 28 5 43 28
5 43 28 5 43 28 5 43 28 5 43 28 5 43 28 5 43 28 5 43 28 5 43 28 5 43
28 5 43 28 5 43 28 5 43 28 5 43 28 5 43 28 5 43 28 5 43 28 5 43 28 5
43 28 5 43 28 5 43 28 5 43 28 5 43 28 5 43 28 5 43 28 5 43 28 5 43 28
5 43 28 5 43 28 5 43 28 5 43 28 5 43 28 5 43 28 5 43 28 5 43 28 43 21
23 43 21 23 43 21 23 43 21 23 42 21 23 42 21 23 42 21 23 42 21 23 42
21 23 42 21 23 42 21 23 42 21 23 42 21 23 42 21 23 42 21 23 42 21 23
42 21 23
41 20 22 41 20 22 41 20 22 41 20 22 41 20 22 42 20 22 42 20 22 42 21
22 42 21 22 42 21 22 42 21 22 42 21 22 42 21 22 42 21 22 42 21 22 42
21 22 42 21 22 42 21 22 43 21 22 43 21 22 43 21 22 43 21 22 43 21 22
43 21 22 43 21 22 43 21 22 43 21 22 43 21 22 43 21 22 43 21 22 43 21
23 44 21 23 44 21 23 44 21 23 44 21 23 44 22 23 44 22 23 44 22 23 44
22 23 44 22 23 44 22 23 44 22 23 44 22 23 44 22 23 45 22 23 45 22 23
45 22 23 45 22 23 45 22 23 45 22 23 45 22 23 45 22 23 45 22 23 45 22
23 45 22 23 45 22 23 46 22 23 46 22 23 46 22 23 46 22 23 46 22 23 46
23 24 46 23 24 46 23 24 46 23 24 46 23 24 46 23 24 46 23 24 47 23 24
47 23 24 47 23 24 47 23 24 47 23 24 47 23 24 47 23 24 47 23 24 47 23
24 47 23 24 47 23 24 47 23 24 48 23 24 48 23 24 48 23 24 48 23 24 48
23 24 48 23 24 48 23 24 48 24 24 48 24 24 48 24 24 48 24 24 48 24 25
49 24 25 49 24 25 49 24 25 49 24 25 49 24 25 49 24 25 49 24 25 27 55
110 29 57 118 46 83 153 46 84 167 44 83 177 42 80 183 40 77 189 38 73
192 38 74 201 37 74 207 38 75 216 39 77 224 39 78 231 40 80 238 40 83
246 40 86 253 40 89 255 40 91 255 40 93 255 38 94 255 36 93 255 33 90
255 51 25 25 51 25 26 51 25 26 51 25 26 51 25 26 51 25 26 51 25 26 51
25 26 51 25 26 51 25 26 51 25 26 52 25 26 52 25 26 35 21 41 38 23 47
40 25 51 42 26 55 43 27 59 44 28 62 45 29 66 46 29 69 46 30 72 47 31
75 48 31 77 48 32 80 49 33 83 49 33 85 49 33 88 49 34 90 49 34 92 49
34 94 49 34 96 48 34 98 46 34 98 43 32 98 53 26 26 53 26 26 53 26 27
53 26 27 53 26 27 53 26 27 53 26 27 53 26 27 53 26 27 53 26 27 53 26
27 53 26 27 54 26 27 54 26 27 54 26 27 54 26 27 54 26 27 54 26 27 54
26 27 54 26 27 54 26 27 54 26 27 54 26 27 54 26 27 54 26 27 54 26 27
54 26 27 54 26 27 54 26 27 54 26 27 54 26 27 54 26 27 54 26 27 54 26
27 54 26 27 54 26 27 54 26 27 54 26 27 54 26 27 54 26 27 54 26 27 54
26 27 54 26 27 54 26 27 54 26 27 54 26 27 54 26 27 54 26 27 54 26 27
54 26 27 54 27 27 54 27 27 54 27 27 54 27 27 54 26 27 54 26 27 54 26
27 54 26 27 54 26 27 54 26 27 54 26 27 54 26 27 54 26 27 54 26 27 54
26 27 54 26 27 54 26 27 54 26 27 54 26 27 54 26 27 54 26 27 54 26 27
54 26 27 54 26 27 54 26 27 54 26 27 54 26 27 54 26 27 54 26 27 54 26
27 54 26 27 54 26 27 54 26 27 54 26 27 54 26 27 54 26 27 54 26 27 53
26 27 53 26 27 53 26 27 53 26 27 53 26 27 53 26 27 53 26 27 53 26 27
53 26 27 53 26 27 53 26 27 53 26 27 53 26 27 53 26 27 53 26 27 53 26
27 53 26 27 53 26 27 53 26 27 53 26 27 52 26 27 52 26 27 52 26 27 114
40 33 122 43 34 126 44 35 128 45 36 130 46 39 131 47 43 131 47 46 13
70 35 13 64 34 13 61 34 12 58 33 12 55 33 12 53 33 11 51 32 11 49 32
10 47 32 10 46 31 9 45 31 9 44 31 8 44 31 8 44 31 7 44 30 6 43 30 5 43
29 4 43 29 3 42 28 3 42 27 5 43 28 5 43 28 5 43 28 5 43 28 5 43 28 5
43 28 5 43 28 5 43 28 5 43 28 5 43 28 5 43 28 5 43 28 5 43 28 5 43 28
5 43 28 5 43 28 5 43 28 5 43 28 5 43 28 5 43 28 5 43 28 5 43 28 5 43
28 5 43 28 5 43 28 5 43 28 5 43 28 5 43 28 5 43 28 5 43 28 5 43 28 5
43 28 5 43 28 5 43 28 5 43 28 5 43 28 5 43 28 5 43 28 5 43 28 5 43 28
5 43 28 5 43 28 5 43 28 5 43 28 5 43 28 5 43 28 5 43 28 5 43 28 5 43
28 5 43 28 5 43 28 5 43 28 5 43 28 5 43 28 5 43 28 5 43 28 5 43 28 5
43 28 5 43 28 5 43 28 5 43 28 5 43 28 5 43 28 5 43 28 5 43 28 5 43 28
5 43 28 5 43 28 5 43 28 5 43 28 5 43 28 5 43 28 5 43 28 5 43 28 5 43
28 5 43 28 5 43 28 5 43 28 5 43 28 5 43 28 5 43 28 5 43 28 5 43 28 5
43 28 5 43 28 5 43 28 5 43 28 5 43 28 5 43 28 5 43 28 43 21 24 43 21
24 43 21 24 43 21 24 43 21 24 43 21 24 43 21 23 43 21 23 43 21 23 43
21 23 42 21 23 42 21 23 42 21 23 42 21 23 42 21 23 42 21 23 42 21 23
42 20 22 42 21 22 42 21 22 42 21 22 42 21 22 42 21 22 42 21 22 42 21
22 42 21 22 42 21 22 42 21 22 42 21 22 42 21 22 43 21 22 43 21 22 43
21 22 43 21 22 43 21 22 43 21 22 43 21 22 43 21 22 43 21 22 43 21 22
43 21 22 43 21 23 44 21 23 44 21 23 44 21 23 44 21 23 44 22 23 44 22
23 44 22 23 44 22 23 44 22 23 44 22 23 44 22 23 44 22 23 44 22 23 45
22 23 45 22 23 45 22 23 45 22 23 45 22 23 45 22 23 45 22 23 45 22 23
45 22 23 45 22 23 45 22 23 45 22 23 46 22 23 46 22 23 46 22 23 46 22
23 46 22 23 46 23 24 46 23 24 46 23 24 46 23 24 46 23 24 46 23 24 46
23 24 47 23 24 47 23 24 47 23 24 47 23 24 47 23 24 47 23 24 47 23 24
47 23 24 47 23 24 47 23 24 47 23 24 48 23 24 48 23 24 48 23 24 48 23
24 48 23 24 48 23 24 48 23 24 48 24 24 48 24 24 48 24 24 48 24 24 48
24 24 49 24 25 49 24 25 49 24 25 49 24 25 49 24 25 49 24 25 49 24 25
49 24 25 49 24 25 49 24 25 49 24 25 49 24 25 50 24 25 50 24 25 50 24
25 50 24 25 29 56 116 31 61 135 33 64 150 34 67 163 34 68 173 35 68
180 36 70 190 36 72 199 37 73 207 37 75 215 38 76 222 38 77 229 38 78
235 38 79 240 38 81 245 37 83 248 36 83 250 33 81 247 27 74 234 51 25
26 51 25 26 52 25 26 52 25 26 52 25 26 52 25 26 52 25 26 52 25 26 52
25 26 52 25 26 52 25 26 52 25 26 52 25 26 52 26 26 52 26 26 52 26 26
53 26 26 53 26 26 36 23 52 39 25 57 41 26 61 42 27 65 43 28 68 44 29
71 44 30 74 45 30 77 45 31 79 45 31 82 45 31 84 45 31 86 44 31 87 42
30 87 53 26 27 54 26 27 54 26 27 54 26 27 54 26 27 54 26 27 54 26 27
54 26 27 54 26 27 54 26 27 54 26 27 54 26 27 54 26 27 54 26 27 54 26
27 54 26 27 54 26 27 54 26 27 54 26 27 54 27 27 54 27 27 54 27 27 54
27 27 55 27 27 55 27 27 55 27 27 55 27 27 55 27 27 55 27 27 55 27 27
55 27 27 55 27 27 55 27 27 55 27 27 55 27 27 55 27 27 55 27 27 55 27
27 55 27 27 55 27 27 55 27 27 55 27 27 55 27 27 55 27 27 55 27 28 55
27 28 55 27 28 55 27 28 55 27 28 55 27 28 55 27 28 55 27 28 55 27 28
55 27 28 55 27 28 55 27 28 55 27 28 55 27 28 55 27 28 55 27 28 55 27
28 55 27 28 55 27 28 55 27 28 55 27 28 55 27 28 55 27 28 55 27 28 55
27 28 55 27 28 55 27 28 55 27 28 55 27 28 55 27 28 55 27 28 55 27 28
55 27 28 55 27 28 55 27 28 55 27 28 55 27 28 55 27 28 55 27 28 55 27
28 54 27 28 54 27 28 54 27 28 54 27 28 54 27 28 54 27 28 54 27 28 54
27 28 54 27 28 54 26 28 54 26 28 54 26 28 54 26 28 54 26 28 54 26 28
54 26 28 54 26 27 54 26 27 54 26 27 54 26 27 54 26 27 54 26 27 53 26
27 53 26 27 53 26 27 53 26 27 53 26 27 53 26 27 53 26 27 112 39 33 121
42 34 126 44 35 129 45 36 132 47 41 133 48 45 134 48 49 133 49 52 13
68 35 13 63 34 13 60 34 13 57 34 12 55 33 12 52 33 11 50 33 11 49 32
11 47 32 10 45 32 10 45 32 9 45 31 8 44 31 8 44 31 7 44 31 6 44 30 6
43 30 5 43 30 4 43 29 3 42 28 3 42 27 5 43 28 5 43 28 5 43 28 5 43 28
5 43 28 5 43 28 5 43 28 5 43 28 5 43 28 5 43 28 5 43 28 5 43 28 5 43
28 5 43 28 5 43 28 5 43 28 5 43 28 5 43 28 5 43 28 5 43 28 5 43 28 5
43 28 5 43 28 5 43 28 5 43 28 5 43 28 5 43 28 5 43 28 5 43 28 5 43 28
5 43 28 5 43 28 5 43 28 5 43 28 5 43 28 5 43 28 5 43 28 5 43 28 5 43
28 5 43 28 5 43 28 5 43 28 5 43 28 5 43 28 5 43 28 5 43 28 5 43 28 5
43 28 5 43 28 5 43 28 5 43 28 5 43 28 5 43 28 5 43 28 5 43 28 5 43 28
5 43 28 5 43 28 5 43 28 5 43 28 5 43 28 5 43 28 5 43 28 5 43 28 5 43
28 5 43 28 5 43 28 5 43 28 5 43 28 5 43 28 5 43 28 5 43 28 5 43 28 5
43 28 5 43 28 5 43 28 5 43 28 5 43 28 5 43 28 5 43 28 5 43 28 5 43 28
5 43 28 5 43 28 5 43 28 5 43 28 5 43 28 5 43 28 5 43 28 44 22 24 44 22
24 44 22 24 43 22 24 43 22 24 43 22 24 43 21 24 43 21 24 43 21 24 43
21 24 43 21 24 43 21 24 43 21 24 43 21 23 43 21 23 42 21 23 42 21 23
42 21 22 42 21 22 42 21 22 42 21 22 42 21 22 42 21 22 42 21 22 43 21
22 43 21 22 43 21 22 43 21 22 43 21 22 43 21 22 43 21 22 43 21 22 43
21 22 43 21 22 43 21 22 43 21 22 43 21 23 44 21 23 44 21 23 44 21 23
44 22 23 44 22 23 44 22 23 44 22 23 44 22 23 44 22 23 44 22 23 44 22
23 44 22 23 45 22 23 45 22 23 45 22 23 45 22 23 45 22 23 45 22 23 45
22 23 45 22 23 45 22 23 45 22 23 45 22 23 45 22 23 46 22 23 46 22 23
46 22 23 46 22 23 46 22 23 46 23 24 46 23 24 46 23 24 46 23 24 46 23
24 46 23 24 46 23 24 47 23 24 47 23 24 47 23 24 47 23 24 47 23 24 47
23 24 47 23 24 47 23 24 47 23 24 47 23 24 47 23 24 48 23 24 48 23 24
48 23 24 48 23 24 48 23 24 48 23 24 48 23 24 48 24 24 48 24 24 48 24
24 48 24 24 48 24 25 49 24 25 49 24 25 49 24 25 49 24 25 49 24 25 49
24 25 49 24 25 49 24 25 49 24 25 49 24 25 49 24 25 50 24 25 50 24 25
50 24 25 50 24 25 50 24 25 50 24 25 50 24 25 50 24 25 50 25 25 50 25
25 50 25 25 50 25 25 51 25 25 27 56 121 30 62 144 32 65 159 34 66 168
34 67 177 34 69 186 35 71 195 36 72 203 36 73 210 36 74 216 36 75 221
35 75 225 34 75 226 31 74 225 52 25 26 52 25 26 52 25 26 52 25 26 52
25 26 52 25 26 52 25 26 52 26 26 52 26 26 52 26 26 53 26 26 53 26 26
53 26 26 53 26 26 53 26 26 53 26 26 53 26 26 53 26 26 53 26 26 53 26
26 53 26 26 53 26 27 53 26 27 53 26 27 54 26 27 54 26 27 54 26 27 54
26 27 54 26 27 54 26 27 54 26 27 54 26 27 54 26 27 54 26 27 54 26 27
54 26 27 54 26 27 54 26 27 54 26 27 54 27 27 54 27 27 55 27 27 55 27
27 55 27 27 55 27 27 55 27 27 55 27 27 55 27 27 55 27 27 55 27 27 55
27 27 55 27 27 55 27 27 55 27 27 55 27 27 55 27 27 55 27 27 55 27 27
55 27 27 55 27 27 55 27 28 55 27 28 55 27 28 55 27 28 55 27 28 56 27
28 56 27 28 56 27 28 56 27 28 56 27 28 56 27 28 56 27 28 56 27 28 56
27 28 56 27 28 56 27 28 56 27 28 56 27 28 56 27 28 56 27 28 56 27 28
56 27 28 56 27 28 56 27 28 56 27 28 56 27 28 56 27 28 56 27 28 56 27
28 56 27 28 56 27 28 56 27 28 56 27 28 56 27 28 56 27 28 56 27 28 56
27 28 56 27 28 56 27 28 56 27 28 56 27 28 56 27 28 56 27 28 56 27 28
56 27 28 56 27 28 56 27 28 56 27 28 56 27 28 56 27 28 56 27 28 55 27
28 55 27 28 55 27 28 55 27 28 55 27 28 55 27 28 55 27 28 55 27 28 55
27 28 55 27 28 55 27 28 55 27 28 55 27 28 55 27 28 55 27 28 55 27 28
55 27 28 55 27 28 55 27 28 55 27 28 55 27 28 55 27 28 55 27 28 55 27
28 55 27 28 54 27 28 54 27 28 54 27 28 54 27 28 54 27 28 54 27 28 54
27 28 54 27 28 54 26 28 54 26 28 54 26 28 106 37 32 119 42 34 125 44
35 129 45 36 132 47 41 134 48 46 135 49 50 135 50 54 135 50 57 13 66
35 13 62 35 13 59 34 13 56 34 12 54 34 12 52 33 12 50 33 11 48 33 11
46 32 10 45 32 10 45 32 9 45 32 9 44 32 8 44 31 7 44 31 7 44 31 6 43
31 5 43 30 4 43 30 3 42 29 3 42 28 5 43 28 5 43 28 5 43 28 5 43 28 5
43 28 5 43 28 5 43 28 5 43 28 5 43 28 5 43 28 5 43 28 5 43 28 5 43 28
5 43 28 5 43 28 5 43 28 5 43 28 5 43 28 5 43 28 5 43 28 5 43 28 5 43
28 5 43 28 5 43 28 5 43 28 5 43 28 5 43 28 5 43 28 5 43 28 5 43 28 5
43 28 5 43 28 5 43 28 5 43 28 5 43 28 5 43 28 5 43 28 5 43 28 5 43 28
5 43 28 5 43 28 5 43 28 5 43 28 5 43 28 5 43 28 5 43 28 5 43 28 5 43
28 5 43 28 5 43 28 5 43 28 5 43 28 5 43 28 5 43 28 5 43 28 5 43 28 5
43 28 5 43 28 5 43 28 5 43 28 5 43 28 5 43 28 5 43 28 5 43 28 5 43 28
5 43 28 5 43 28 5 43 28 5 43 28 5 43 28 5 43 28 5 43 28 5 43 28 5 43
28 5 43 28 5 43 28 5 43 28 5 43 28 5 43 28 5 43 28 5 43 28 5 43 28 5
43 28 5 43 28 5 43 28 5 43 28 5 43 28 5 43 28 5 43 28 44 22 24 44 22
24 44 22 24 44 22 24 44 22 24 44 22 24 44 22 24 44 22 24 43 22 24 43
22 24 43 22 24 43 21 24 43 21 24 43 21 24 43 21 24 43 21 24 43 21 24
42 21 22 42 21 22 43 21 22 43 21 22 43 21 22 43 21 22 43 21 22 43 21
22 43 21 22 43 21 22 43 21 22 43 21 22 43 21 22 43 21 23 43 21 23 44
21 23 44 21 23 44 21 23 44 22 23 44 22 23 44 22 23 44 22 23 44 22 23
44 22 23 44 22 23 44 22 23 44 22 23 45 22 23 45 22 23 45 22 23 45 22
23 45 22 23 45 22 23 45 22 23 45 22 23 45 22 23 45 22 23 45 22 23 46
22 23 46 22 23 46 22 23 46 22 23 46 22 23 46 23 23 46 23 24 46 23 24
46 23 24 46 23 24 46 23 24 46 23 24 47 23 24 47 23 24 47 23 24 47 23
24 47 23 24 47 23 24 47 23 24 47 23 24 47 23 24 47 23 24 47 23 24 48
23 24 48 23 24 48 23 24 48 23 24 48 23 24 48 23 24 48 23 24 48 24 24
48 24 24 48 24 24 48 24 24 49 24 25 49 24 25 49 24 25 49 24 25 49 24
25 49 24 25 49 24 25 49 24 25 49 24 25 49 24 25 49 24 25 49 24 25 50
24 25 50 24 25 50 24 25 50 24 25 50 24 25 50 24 25 50 24 25 50 25 25
50 25 25 50 25 25 50 25 25 51 25 25 51 25 25 51 25 25 51 25 25 51 25
25 51 25 26 51 25 26 51 25 26 51 25 26 51 25 26 51 25 26 52 25 26 27
60 148 30 63 163 31 65 173 30 66 180 30 67 186 28 67 189 24 64 185 52
25 26 52 25 26 52 26 26 52 26 26 53 26 26 53 26 26 53 26 26 53 26 26
53 26 26 53 26 26 53 26 26 53 26 26 53 26 26 53 26 26 53 26 26 53 26
26 53 26 27 54 26 27 54 26 27 54 26 27 54 26 27 54 26 27 54 26 27 54
26 27 54 26 27 54 26 27 54 26 27 54 26 27 54 26 27 54 26 27 54 27 27
55 27 27 55 27 27 55 27 27 55 27 27 55 27 27 55 27 27 55 27 27 55 27
27 55 27 27 55 27 27 55 27 27 55 27 27 55 27 27 55 27 27 55 27 27 55
27 27 55 27 27 55 27 27 56 27 27 56 27 28 56 27 28 56 27 28 56 27 28
56 27 28 56 27 28 56 27 28 56 27 28 56 27 28 56 27 28 56 27 28 56 27
28 56 27 28 56 27 28 56 27 28 56 27 28 56 27 28 56 27 28 56 27 28 56
27 28 56 27 28 56 27 28 56 27 28 56 27 28 56 27 28 56 27 28 56 28 28
56 28 28 56 28 28 57 28 28 57 28 28 57 28 28 57 28 28 57 28 28 57 28
28 57 28 28 57 28 28 57 28 28 57 28 28 57 28 28 57 28 28 57 28 28 57
28 28 57 28 28 57 28 28 57 28 28 57 28 28 57 28 28 57 28 28 57 28 28
57 28 28 57 28 28 57 28 28 57 28 28 56 28 28 56 28 28 56 28 28 56 28
28 56 28 28 56 28 28 56 28 28 56 28 28 56 27 28 56 27 28 56 27 28 56
27 28 56 27 28 56 27 28 56 27 28 56 27 28 56 27 28 56 27 28 56 27 28
56 27 28 56 27 28 56 27 28 56 27 28 56 27 28 56 27 28 56 27 28 56 27
28 56 27 28 56 27 28 56 27 28 55 27 28 55 27 28 55 27 28 55 27 28 55
27 28 55 27 28 55 27 28 55 27 28 55 27 28 55 27 28 55 27 28 55 27 28
55 27 28 55 27 28 55 27 28 55 27 28 114 40 33 122 43 35 127 45 35 131
47 41 134 48 46 136 49 51 136 50 55 136 51 58 135 51 61 13 65 35 13 61
35 13 58 34 13 55 34 12 53 34 12 51 33 12 49 33 11 47 33 11 46 33 10
45 32 10 45 32 9 45 32 9 44 32 8 44 32 7 44 32 7 44 31 6 44 31 5 43 31
4 43 30 3 42 30 3 42 29 3 42 28 5 43 28 5 43 28 5 43 28 5 43 28 5 43
28 5 43 28 5 43 28 5 43 28 5 43 28 5 43 28 5 43 28 5 43 28 5 43 28 5
43 28 5 43 28 5 43 28 5 43 28 5 43 28 5 43 28 5 43 28 5 43 28 5 43 28
5 43 28 5 43 28 5 43 28 5 43 28 5 43 28 5 43 28 5 43 28 5 43 28 5 43
28 5 43 28 5 43 28 5 43 28 5 43 28 5 43 28 5 43 28 5 43 28 5 43 28 5
43 28 5 43 28 5 43 28 5 43 28 5 43 28 5 43 28 5 43 28 5 43 28 5 43 28
5 43 28 5 43 28 5 43 28 5 43 28 5 43 28 5 43 28 5 43 28 5 43 28 5 43
28 5 43 28 5 43 28 5 43 28 5 43 28 5 43 28 5 43 28 5 43 28 5 43 28 5
43 28 5 43 28 5 43 28 5 43 28 5 43 28 5 43 28 5 43 28 5 43 28 5 43 28
5 43 28 5 43 28 5 43 28 5 43 28 5 43 28 5 43 28 5 43 28 5 43 28 5 43
28 5 43 28 5 43 28 5 43 28 5 43 28 5 43 28 45 22 24 45 22 24 44 22 24
44 22 24 44 22 24 44 22 24 44 22 24 44 22 24 44 22 24 44 22 24 44 22
24 44 22 24 44 22 24 44 22 24 43 22 24 43 22 24 43 22 24
43 21 22 43 21 22 43 21 22 43 21 22 43 21 22 43 21 22 43 21 22 43 21
22 43 21 23 44 21 23 44 21 23 44 21 23 44 21 23 44 22 23 44 22 23 44
22 23 44 22 23 44 22 23 44 22 23 44 22 23 44 22 23 45 22 23 45 22 23
45 22 23 45 22 23 45 22 23 45 22 23 45 22 23 45 22 23 45 22 23 45 22
23 45 22 23 45 22 23 46 22 23 46 22 23 46 22 23 46 22 23 46 22 23 46
23 24 46 23 24 46 23 24 46 23 24 46 23 24 46 23 24 47 23 24 47 23 24
47 23 24 47 23 24 47 23 24 47 23 24 47 23 24 47 23 24 47 23 24 47 23
24 47 23 24 47 23 24 48 23 24 48 23 24 48 23 24 48 23 24 48 23 24 48
23 24 48 24 24 48 24 24 48 24 24 48 24 24 49 24 24 49 24 25 49 24 25
49 24 25 49 24 25 49 24 25 49 24 25 49 24 25 49 24 25 49 24 25 49 24
25 50 24 25 50 24 25 50 24 25 50 24 25 50 24 25 50 24 25 50 24 25 50
24 25 50 25 25 50 25 25 50 25 25 51 25 25 51 25 25 51 25 25 51 25 25
51 25 25 51 25 25 51 25 26 51 25 26 51 25 26 51 25 26 51 25 26 52 25
26 52 25 26 52 25 26 52 25 26 52 25 26 52 25 26 52 25 26 52 25 26 52
25 26 52 25 26 52 26 26 52 26 26 53 26 26 53 26 26 53 26 26 53 26 26
53 26 26 53 26 26 53 26 26 53 26 26 53 26 26 53 26 26 53 26 26 54 26
27 54 26 27 54 26 27 54 26 27 54 26 27 54 26 27 54 26 27 54 26 27 54
26 27 54 26 27 54 26 27 54 26 27 54 27 27 55 27 27 55 27 27 55 27 27
55 27 27 55 27 27 55 27 27 55 27 27 55 27 27 55 27 27 55 27 27 55 27
27 55 27 27 55 27 27 55 27 27 55 27 27 56 27 27 56 27 27 56 27 27 56
27 28 56 27 28 56 27 28 56 27 28 56 27 28 56 27 28 56 27 28 56 27 28
56 27 28 56 27 28 56 27 28 56 27 28 56 27 28 56 27 28 56 27 28 57 28
28 57 28 28 57 28 28 57 28 28 57 28 28 57 28 28 57 28 28 57 28 28 57
28 28 57 28 28 57 28 28 57 28 28 57 28 28 57 28 28 57 28 28 57 28 28
57 28 28 57 28 28 57 28 28 57 28 28 57 28 28 57 28 28 57 28 28 57 28
28 57 28 28 57 28 28 57 28 28 57 28 28 57 28 28 57 28 28 57 28 28 57
28 28 57 28 28 57 28 29 57 28 29 57 28 29 57 28 29 57 28 29 57 28 29
57 28 29 57 28 29 57 28 29 57 28 29 57 28 29 57 28 29 57 28 29 57 28
29 57 28 29 57 28 29 57 28 29 57 28 29 57 28 29 57 28 29 57 28 29 57
28 29 57 28 29 57 28 29 57 28 29 57 28 29 57 28 29 57 28 29 57 28 29
57 28 29 57 28 29 57 28 29 57 28 29 57 28 29 57 28 29 57 28 29 57 28
29 57 28 29 57 28 29 57 28 29 57 28 29 57 28 29 56 28 29 56 28 29 56
28 29 56 28 29 56 28 29 56 28 29 56 27 28 56 27 28 56 27 28 56 27 28
56 27 28 56 27 28 56 27 28 56 27 28 56 27 28 56 27 28 56 27 28 56 27
28 55 27 28 55 27 28 106 37 32 118 41 34 124 44 35 129 46 40 133 48 46
135 49 51 136 50 55 137 51 59 136 51 62 14 70 36 13 64 35 13 60 35 13
57 35 13 55 34 12 52 34 12 50 34 11 49 33 11 47 33 11 45 33 10 45 33
10 45 33 9 45 33 9 45 32 8 44 32 7 44 32 7 44 32 6 44 31 5 43 31 4 43
31 4 43 30 3 42 29 3 42 29 6 43 28 6 43 28 5 43 28 5 43 28 5 43 28 5
43 28 5 43 28 5 43 28 5 43 28 5 43 28 5 43 28 5 43 28 5 43 28 5 43 28
5 43 28 5 43 28 5 43 28 5 43 28 5 43 28 5 43 28 5 43 28 5 43 28 5 43
28 5 43 28 5 43 28 5 43 28 5 43 28 5 43 28 5 43 28 5 43 28 5 43 28 5
43 28 5 43 28 5 43 28 5 43 28 5 43 28 5 43 28 5 43 28 5 43 28 5 43 28
5 43 28 5 43 28 5 43 28 5 43 28 5 43 28 5 43 28 5 43 28 5 43 28 5 43
28 5 43 28 5 43 28 5 43 28 5 43 28 5 43 28 5 43 28 5 43 28 5 43 28 5
43 28 5 43 28 5 43 28 5 43 28 5 43 28 5 43 28 5 43 28 5 43 28 5 43 28
5 43 28 5 43 28 5 43 28 5 43 28 5 43 28 5 43 28 5 43 28 5 43 28 5 43
28 5 43 28 5 43 28 5 43 28 5 43 28 5 43 28 5 43 28 5 43 28 5 43 28 5
43 28 5 43 28 5 43 28 5 43 28 5 43 28 45 22 25 45 22 25 45 22 25 45 22
24 45 22 24 45 22 24 45 22 24 44 22 24 44 22 24 44 22 24 44 22 24 44
22 24 44 22 24 44 22 24 44 22 24 44 22 24 44 22 24
43 21 22 43 21 22 43 21 22 43 21 23 44 21 23 44 21 23 44 21 23 44 21
23 44 22 23 44 22 23 44 22 23 44 22 23 44 22 23 44 22 23 44 22 23 44
22 23 45 22 23 45 22 23 45 22 23 45 22 23 45 22 23 45 22 23 45 22 23
45 22 23 45 22 23 45 22 23 45 22 23 45 22 23 46 22 23 46 22 23 46 22
23 46 22 23 46 22 23 46 23 24 46 23 24 46 23 24 46 23 24 46 23 24 46
23 24 47 23 24 47 23 24 47 23 24 47 23 24 47 23 24 47 23 24 47 23 24
47 23 24 47 23 24 47 23 24 47 23 24 48 23 24 48 23 24 48 23 24 48 23
24 48 23 24 48 23 24 48 24 24 48 24 24 48 24 24 48 24 24 48 24 24 49
24 25 49 24 25 49 24 25 49 24 25 49 24 25 49 24 25 49 24 25 49 24 25
49 24 25 49 24 25 50 24 25 50 24 25 50 24 25 50 24 25 50 24 25 50 24
25 50 24 25 50 24 25 50 25 25 50 25 25 50 25 25 51 25 25 51 25 25 51
25 25 51 25 25 51 25 25 51 25 25 51 25 26 51 25 26 51 25 26 51 25 26
51 25 26 52 25 26 52 25 26 52 25 26 52 25 26 52 25 26 52 25 26 52 25
26 52 25 26 52 25 26 52 26 26 53 26 26 53 26 26 53 26 26 53 26 26 53
26 26 53 26 26 53 26 26 53 26 26 53 26 26 53 26 26 53 26 26 53 26 26
54 26 27 54 26 27 54 26 27 54 26 27 54 26 27 54 26 27 54 26 27 54 26
27 54 26 27 54 26 27 54 26 27 55 27 27 55 27 27 55 27 27 55 27 27 55
27 27 55 27 27 55 27 27 55 27 27 55 27 27 55 27 27 55 27 27 55 27 27
55 27 27 56 27 27 56 27 27 56 27 27 56 27 27 56 27 27 56 27 28 56 27
28 56 27 28 56 27 28 56 27 28 56 27 28 56 27 28 56 27 28 56 27 28 56
27 28 57 28 28 57 28 28 57 28 28 57 28 28 57 28 28 57 28 28 57 28 28
57 28 28 57 28 28 57 28 28 57 28 28 57 28 28 57 28 28 57 28 28 57 28
28 57 28 28 57 28 28 57 28 28 57 28 28 58 28 28 58 28 28 58 28 28 58
28 28 58 28 28 58 28 28 58 28 28 58 28 28 58 28 29 58 28 29 58 28 29
58 28 29 58 28 29 58 28 29 58 28 29 58 28 29 58 28 29 58 28 29 58 28
29 58 28 29 58 28 29 58 28 29 58 28 29 58 28 29 58 28 29 58 28 29 58
28 29 58 28 29 58 28 29 58 28 29 58 28 29 58 28 29 58 28 29 58 28 29
58 28 29 58 28 29 58 28 29 58 28 29 58 28 29 58 28 29 58 28 29 58 28
29 58 28 29 58 28 29 58 28 29 58 28 29 58 28 29 58 28 29 58 28 29 58
28 29 58 28 29 58 28 29 58 28 29 58 28 29 58 28 29 58 28 29 58 28 29
58 28 29 58 28 29 58 28 29 58 28 29 58 28 29 58 28 29 58 28 29 58 28
29 57 28 29 57 28 29 57 28 29 57 28 29 57 28 29 57 28 29 57 28 29 57
28 29 57 28 29 57 28 29 57 28 29 57 28 29 57 28 29 57 28 29 57 28 29
57 28 29 57 28 29 57 28 29 57 28 29 56 28 29 56 28 29 56 28 29 56 28
29 56 28 29 56 28 29 110 39 32 120 42 34 125 44 38 130 47 44 133 48 50
135 50 55 136 51 59 136 51 62 136 52 66 14 68 36 14 63 36 13 59 35 13
56 35 12 54 34 12 52 34 12 50 34 11 48 34 11 46 33 11 45 33 10 45 33
10 45 33 9 45 33 9 45 33 8 44 33 7 44 32 7 44 32 6 44 32 5 43 32 5 43
31 4 43 31 3 42 30 3 42 29 6 44 28 6 44 28 6 44 28 6 44 28 6 44 28 6
44 28 6 44 28 6 44 28 6 43 28 5 43 28 5 43 28 5 43 28 5 43 28 5 43 28
5 43 28 5 43 28 5 43 28 5 43 28 5 43 28 5 43 28 5 43 28 5 43 28 5 43
28 5 43 28 5 43 28 5 43 28 5 43 28 5 43 28 5 43 28 5 43 28 5 43 28 5
43 28 5 43 28 5 43 28 5 43 28 5 43 28 5 43 28 5 43 28 5 43 28 5 43 28
5 43 28 5 43 28 5 43 28 5 43 28 5 43 28 5 43 28 5 43 28 5 43 28 5 43
28 5 43 28 5 43 28 5 43 28 5 43 28 5 43 28 5 43 28 5 43 28 5 43 28 5
43 28 5 43 28 5 43 28 5 43 28 5 43 28 5 43 28 5 43 28 5 43 28 5 43 28
5 43 28 5 43 28 5 43 28 5 43 28 5 43 28 5 43 28 5 43 28 5 43 28 5 43
28 5 43 28 5 43 28 5 43 28 5 43 28 5 43 28 5 43 28 5 43 28 5 43 28 5
43 28 5 43 28 5 43 28 5 43 28 5 43 28 46 23 25 45 23 25 45 23 25 45 22
25 45 22 25 45 22 25 45 22 25 45 22 25 45 22 25 45 22 24 45 22 24 45
22 24 44 22 24 44 22 24 44 22 24 44 22 24 44 22 24
44 21 23 44 21 23 44 21 23 44 22 23 44 22 23 44 22 23 44 22 23 44 22
23 44 22 23 44 22 23 44 22 23 45 22 23 45 22 23 45 22 23 45 22 23 45
22 23 45 22 23 45 22 23 45 22 23 45 22 23 45 22 23 45 22 23 45 22 23
46 22 23 46 22 23 46 22 23 46 22 23 46 23 23 46 23 24 46 23 24 46 23
24 46 23 24 46 23 24 46 23 24 47 23 24 47 23 24 47 23 24 47 23 24 47
23 24 47 23 24 47 23 24 47 23 24 47 23 24 47 23 24 47 23 24 48 23 24
48 23 24 48 23 24 48 23 24 48 23 24 48 23 24 48 24 24 48 24 24 48 24
24 48 24 24 49 24 24 49 24 25 49 24 25 49 24 25 49 24 25 49 24 25 49
24 25 49 24 25 49 24 25 49 24 25 49 24 25 50 24 25 50 24 25 50 24 25
50 24 25 50 24 25 50 24 25 50 24 25 50 25 25 50 25 25 50 25 25 51 25
25 51 25 25 51 25 25 51 25 25 51 25 25 51 25 25 51 25 26 51 25 26 51
25 26 51 25 26 52 25 26 52 25 26 52 25 26 52 25 26 52 25 26 52 25 26
52 25 26 52 25 26 52 25 26 52 26 26 52 26 26 53 26 26 53 26 26 53 26
26 53 26 26 53 26 26 53 26 26 53 26 26 53 26 26 53 26 26 53 26 26 54
26 26 54 26 27 54 26 27 54 26 27 54 26 27 54 26 27 54 26 27 54 26 27
54 26 27 54 26 27 54 26 27 55 27 27 55 27 27 55 27 27 55 27 27 55 27
27 55 27 27 55 27 27 55 27 27 55 27 27 55 27 27 55 27 27 55 27 27 56
27 27 56 27 27 56 27 27 56 27 27 56 27 27 56 27 28 56 27 28 56 27 28
56 27 28 56 27 28 56 27 28 56 27 28 56 27 28 57 27 28 57 28 28 57 28
28 57 28 28 57 28 28 57 28 28 57 28 28 57 28 28 57 28 28 57 28 28 57
28 28 57 28 28 57 28 28 57 28 28 57 28 28 58 28 28 58 28 28 58 28 28
58 28 28 58 28 28 58 28 28 58 28 28 58 28 28 58 28 28 58 28 28 58 28
29 58 28 29 58 28 29 58 28 29 58 28 29 58 28 29 58 28 29 58 28 29 58
28 29 58 28 29 59 28 29 59 28 29 59 28 29 59 29 29 59 29 29 59 29 29
59 29 29 59 29 29 59 29 29 59 29 29 59 29 29 59 29 29 59 29 29 59 29
29 59 29 29 59 29 29 59 29 29 59 29 29 59 29 29 59 29 29 59 29 29 59
29 29 59 29 29 59 29 29 59 29 29 59 29 29 59 29 29 59 29 29 59 29 29
59 29 29 59 29 29 59 29 29 59 29 29 59 29 29 59 29 29 59 29 29 59 29
29 59 29 29 59 29 29 59 29 29 59 29 29 59 29 29 59 29 29 59 29 29 59
29 29 59 29 29 59 29 29 59 29 29 59 29 29 59 29 29 59 29 29 59 29 29
59 29 29 59 29 29 59 29 29 58 29 29 58 29 29 58 29 29 58 28 29 58 28
29 58 28 29 58 28 29 58 28 29 58 28 29 58 28 29 58 28 29 58 28 29 58
28 29 58 28 29 58 28 29 58 28 29 58 28 29 58 28 29 58 28 29 58 28 29
57 28 29 57 28 29 57 28 29 57 28 29 57 28 29 57 28 29 57 28 29 57 28
29 57 28 29 97 34 30 112 40 33 120 42 34 126 45 42 130 47 48 133 49 53
134 50 58 135 51 62 135 52 66 136 52 69 14 67 37 14 62 36 14 59 35 13
56 35 12 53 35 12 51 34 12 49 34 11 47 34 11 46 34 10 45 33 10 45 33
10 45 33 9 45 33 9 45 33 8 44 33 7 44 33 7 44 32 6 44 32 5 43 32 5 43
31 4 43 31 3 43 30 3 42 30 3 42 29 6 44 28 6 44 28 6 44 28 6 44 28 6
44 28 6 44 28 6 44 28 6 44 28 6 44 28 6 44 28 6 44 28 6 44 28 6 44 28
6 44 28 6 43 28 5 43 28 5 43 28 5 43 28 5 43 28 5 43 28 5 43 28 5 43
28 5 43 28 5 43 28 5 43 28 5 43 28 5 43 28 5 43 28 5 43 28 5 43 28 5
43 28 5 43 28 5 43 28 5 43 28 5 43 28 5 43 28 5 43 28 5 43 28 5 43 28
5 43 28 5 43 28 5 43 28 5 43 28 5 43 28 5 43 28 5 43 28 5 43 28 5 43
28 5 43 28 5 43 28 5 43 28 5 43 28 5 43 28 5 43 28 5 43 28 5 43 28 5
43 28 5 43 28 5 43 28 5 43 28 5 43 28 5 43 28 5 43 28 5 43 28 5 43 28
5 43 28 5 43 28 5 43 28 5 43 28 5 43 28 5 43 28 5 43 28 5 43 28 5 43
28 5 43 28 5 43 28 5 43 28 5 43 28 5 43 28 5 43 28 5 43 28 5 43 28 5
43 28 5 43 28 5 43 28 5 43 28 5 43 28 46 23 25 46 23 25 46 23 25 46 23
25 46 23 25 46 23 25 45 23 25 45 23 25 45 22 25 45 22 25 45 22 25 45
22 25 45 22 25 45 22 25 45 22 25 45 22 24 45 22 24
44 22 23 44 22 23 44 22 23 44 22 23 44 22 23 44 22 23 45 22 23 45 22
23 45 22 23 45 22 23 45 22 23 45 22 23 45 22 23 45 22 23 45 22 23 45
22 23 45 22 23 45 22 23 46 22 23 46 22 23 46 22 23 46 22 23 46 23 23
46 23 24 46 23 24 46 23 24 46 23 24 46 23 24 46 23 24 47 23 24 47 23
24 47 23 24 47 23 24 47 23 24 47 23 24 47 23 24 47 23 24 47 23 24 47
23 24 48 23 24 48 23 24 48 23 24 48 23 24 48 23 24 48 23 24 48 24 24
48 24 24 48 24 24 48 24 24 48 24 24 49 24 25 49 24 25 49 24 25 49 24
25 49 24 25 49 24 25 49 24 25 49 24 25 49 24 25 49 24 25 50 24 25 50
24 25 50 24 25 50 24 25 50 24 25 50 24 25 50 24 25 50 25 25 50 25 25
50 25 25 51 25 25 51 25 25 51 25 25 51 25 25 51 25 25 51 25 25 51 25
26 51 25 26 51 25 26 51 25 26 52 25 26 52 25 26 52 25 26 52 25 26 52
25 26 52 25 26 52 25 26 52 25 26 52 25 26 52 26 26 53 26 26 53 26 26
53 26 26 53 26 26 53 26 26 53 26 26 53 26 26 53 26 26 53 26 26 53 26
26 53 26 26 54 26 26 54 26 27 54 26 27 54 26 27 54 26 27 54 26 27 54
26 27 54 26 27 54 26 27 54 26 27 55 27 27 55 27 27 55 27 27 55 27 27
55 27 27 55 27 27 55 27 27 55 27 27 55 27 27 55 27 27 55 27 27 56 27
27 56 27 27 56 27 27 56 27 27 56 27 27 56 27 27 56 27 28 56 27 28 56
27 28 56 27 28 56 27 28 57 27 28 57 27 28 57 28 28 57 28 28 57 28 28
57 28 28 57 28 28 57 28 28 57 28 28 57 28 28 57 28 28 57 28 28 57 28
28 58 28 28 58 28 28 58 28 28 58 28 28 58 28 28 58 28 28 58 28 28 58
28 28 58 28 28 58 28 28 58 28 28 58 28 29 58 28 29 58 28 29 58 28 29
59 28 29 59 28 29 59 28 29 59 29 29 59 29 29 59 29 29 59 29 29 59 29
29 59 29 29 59 29 29 59 29 29 59 29 29 59 29 29 59 29 29 59 29 29 59
29 29 59 29 29 59 29 29 59 29 29 59 29 29 59 29 29 59 29 29 59 29 29
60 29 29 60 29 29 60 29 29 60 29 29 60 29 29 60 29 29 60 29 29 60 29
29 60 29 29 60 29 29 60 29 29 60 29 29 60 29 29 60 29 29 60 29 29 60
29 29 60 29 29 60 29 29 60 29 29 60 29 30 60 29 30 60 29 30 60 29 30
60 29 30 60 29 30 60 29 30 60 29 30 60 29 30 60 29 30 60 29 30 60 29
30 60 29 30 60 29 30 60 29 30 60 29 30 60 29 30 60 29 30 60 29 30 60
29 30 60 29 30 60 29 30 60 29 30 60 29 30 59 29 30 59 29 30 59 29 30
59 29 30 59 29 30 59 29 30 59 29 30 59 29 30 59 29 30 59 29 30 59 29
30 59 29 30 59 29 30 59 29 30 59 29 30 59 29 30 59 29 30 59 29 30 59
29 30 59 29 30 59 29 30 59 29 30 59 29 29 58 29 29 58 29 29 58 29 29
58 28 29 58 28 29 58 28 29 58 28 29 58 28 29 58 28 29 58 28 29 58 28
29 58 28 29 101 36 31 113 40 33 120 43 38 125 45 45 129 47 51 132 49
56 133 50 61 134 51 65 134 52 69 135 52 72 14 65 37 14 61 36 13 58 36
13 55 35 12 53 35 12 50 34 12 49 34 11 47 34 11 45 34 10 45 34 10 45
34 9 45 34 9 45 34 8 45 33 8 44 33 7 44 33 7 44 33 6 44 32 5 43 32 4
43 32 4 43 31 3 43 31 3 43 30 3 42 29 6 44 28 6 44 28 6 44 28 6 44 28
6 44 28 6 44 28 6 44 28 6 44 28 6 44 28 6 44 28 6 44 28 6 44 28 6 44
28 6 44 28 6 44 28 6 44 28 6 44 28 6 44 28 6 44 28 6 44 28 6 44 28 6
43 28 5 43 28 5 43 28 5 43 28 5 43 28 5 43 28 5 43 28 5 43 28 5 43 28
5 43 28 5 43 28 5 43 28 5 43 28 5 43 28 5 43 28 5 43 28 5 43 28 5 43
28 5 43 28 5 43 28 5 43 28 5 43 28 5 43 28 5 43 28 5 43 28 5 43 28 5
43 28 5 43 28 5 43 28 5 43 28 5 43 28 5 43 28 5 43 28 5 43 28 5 43 28
5 43 28 5 43 28 5 43 28 5 43 28 5 43 28 5 43 28 5 43 28 5 43 28 5 43
28 5 43 28 5 43 28 5 43 28 5 43 28 5 43 28 5 43 28 5 43 28 5 43 28 5
43 28 5 43 28 5 43 28 5 43 28 5 43 28 5 43 28 5 43 28 5 43 28 5 43 28
5 43 28 5 43 28 5 43 28 5 43 28 5 43 28 46 23 25 46 23 25 46 23 25 46
23 25 46 23 25 46 23 25 46 23 25 46 23 25 46 23 25 46 23 25 46 23 25
45 23 25 45 23 25 45 22 25 45 22 25 45 22 25 45 22 25
44 22 23 45 22 23 45 22 23 45 22 23 45 22 23 45 22 23 45 22 23 45 22
23 45 22 23 45 22 23 45 22 23 45 22 23 45 22 23 46 22 23 46 22 23 46
22 23 46 22 23 46 23 23 46 23 24 46 23 24 46 23 24 46 23 24 46 23 24
46 23 24 47 23 24 47 23 24 47 23 24 47 23 24 47 23 24 47 23 24 47 23
24 47 23 24 47 23 24 47 23 24 48 23 24 48 23 24 48 23 24 48 23 24 48
23 24 48 23 24 48 24 24 48 24 24 48 24 24 48 24 24 48 24 24 49 24 25
49 24 25 49 24 25 49 24 25 49 24 25 49 24 25 49 24 25 49 24 25 49 24
25 49 24 25 50 24 25 50 24 25 50 24 25 50 24 25 50 24 25 50 24 25 50
24 25 50 25 25 50 25 25 50 25 25 51 25 25 51 25 25 51 25 25 51 25 25
51 25 25 51 25 25 51 25 26 51 25 26 51 25 26 51 25 26 52 25 26 52 25
26 52 25 26 52 25 26 52 25 26 52 25 26 52 25 26 52 25 26 52 26 26 53
26 26 53 26 26 53 26 26 53 26 26 53 26 26 53 26 26 53 26 26 53 26 26
53 26 26 53 26 26 54 26 26 54 26 26 54 26 27 54 26 27 54 26 27 54 26
27 54 26 27 54 26 27 54 26 27 54 26 27 55 27 27 55 27 27 55 27 27 55
27 27 55 27 27 55 27 27 55 27 27 55 27 27 55 27 27 55 27 27 55 27 27
56 27 27 56 27 27 56 27 27 56 27 27 56 27 27 56 27 27 56 27 28 56 27
28 56 27 28 56 27 28 57 27 28 57 28 28 57 28 28 57 28 28 57 28 28 57
28 28 57 28 28 57 28 28 57 28 28 57 28 28 57 28 28 57 28 28 58 28 28
58 28 28 58 28 28 58 28 28 58 28 28 58 28 28 58 28 28 58 28 28 58 28
28 58 28 28 58 28 28 58 28 29 58 28 29 59 28 29 59 28 29 59 29 29 59
29 29 59 29 29 59 29 29 59 29 29 59 29 29 59 29 29 59 29 29 59 29 29
59 29 29 59 29 29 59 29 29 59 29 29 60 29 29 60 29 29 60 29 29 60 29
29 60 29 29 60 29 29 60 29 29 60 29 29 60 29 29 60 29 29 60 29 29 60
29 29 60 29 29 60 29 29 60 29 29 60 29 29 60 29 29 60 29 29 60 29 30
60 29 30 60 29 30 60 29 30 60 29 30 60 29 30 60 29 30 61 29 30 61 29
30 61 29 30 61 29 30 61 29 30 61 29 30 61 29 30 61 29 30 61 29 30 61
29 30 61 29 30 61 29 30 61 29 30 61 30 30 61 30 30 61 30 30 61 30 30
61 30 30 61 30 30 61 30 30 61 30 30 61 30 30 61 30 30 61 30 30 61 29
30 61 29 30 61 29 30 61 29 30 61 29 30 61 29 30 61 29 30 60 29 30 60
29 30 60 29 30 60 29 30 60 29 30 60 29 30 60 29 30 60 29 30 60 29 30
60 29 30 60 29 30 60 29 30 60 29 30 60 29 30 60 29 30 60 29 30 60 29
30 60 29 30 60 29 30 60 29 30 60 29 30 60 29 30 60 29 30 60 29 30 60
29 30 59 29 30 59 29 30 59 29 30 59 29 30 59 29 30 59 29 30 59 29 30
59 29 30 59 29 30 59 29 30 59 29 30 59 29 30 59 29 30 59 29 30 59 29
30 59 29 30 102 36 31 112 39 33 119 43 41 124 45 48 128 47 54 130 49
59 131 50 64 132 51 68 132 51 71 132 52 74 13 64 36 13 60 36 13 57 35
12 54 35 12 52 35 12 50 35 11 48 34 11 46 34 11 45 34 10 45 34 10 45
34 9 45 34 9 45 34 8 45 34 8 44 33 7 44 33 7 44 33 6 44 33 5 43 32 4
43 32 3 43 31 3 43 31 3 43 30 3 42 30 6 44 29 6 44 29 6 44 29 6 44 28
6 44 28 6 44 28 6 44 28 6 44 28 6 44 28 6 44 28 6 44 28 6 44 28 6 44
28 6 44 28 6 44 28 6 44 28 6 44 28 6 44 28 6 44 28 6 44 28 6 44 28 6
44 28 6 44 28 6 44 28 6 44 28 6 44 28 6 44 28 6 44 28 5 43 28 5 43 28
5 43 28 5 43 28 5 43 28 5 43 28 5 43 28 5 43 28 5 43 28 5 43 28 5 43
28 5 43 28 5 43 28 5 43 28 5 43 28 5 43 28 5 43 28 5 43 28 5 43 28 5
43 28 5 43 28 5 43 28 5 43 28 5 43 28 5 43 28 5 43 28 5 43 28 5 43 28
5 43 28 5 43 28 5 43 28 5 43 28 5 43 28 5 43 28 5 43 28 5 43 28 5 43
28 5 43 28 5 43 28 5 43 28 5 43 28 5 43 28 5 43 28 5 43 28 5 43 28 5
43 28 5 43 28 5 43 28 5 43 28 5 43 28 5 43 28 5 43 28 5 43 28 5 43 28
5 43 28 5 43 28 5 43 28 5 43 28 5 43 28 47 23 26 47 23 25 47 23 25 47
23 25 47 23 25 46 23 25 46 23 25 46 23 25 46 23 25 46 23 25 46 23 25
46 23 25 46 23 25 46 23 25 46 23 25 46 23 25 45 23 25
45 22 23 45 22 23 45 22 23 45 22 23 45 22 23 45 22 23 45 22 23 45 22
23 46 22 23 46 22 23 46 22 23 46 22 23 46 22 23 46 23 24 46 23 24 46
23 24 46 23 24 46 23 24 46 23 24 47 23 24 47 23 24 47 23 24 47 23 24
47 23 24 47 23 24 47 23 24 47 23 24 47 23 24 47 23 24 48 23 24 48 23
24 48 23 24 48 23 24 48 23 24 48 23 24 48 24 24 48 24 24 48 24 24 48
24 24 48 24 24 49 24 25 49 24 25 49 24 25 49 24 25 49 24 25 49 24 25
49 24 25 49 24 25 49 24 25 49 24 25 50 24 25 50 24 25 50 24 25 50 24
25 50 24 25 50 24 25 50 24 25 50 25 25 50 25 25 51 25 25 51 25 25 51
25 25 51 25 25 51 25 25 51 25 25 51 25 25 51 25 26 51 25 26 51 25 26
52 25 26 52 25 26 52 25 26 52 25 26 52 25 26 52 25 26 52 25 26 52 25
26 52 26 26 52 26 26 53 26 26 53 26 26 53 26 26 53 26 26 53 26 26 53
26 26 53 26 26 53 26 26 53 26 26 54 26 26 54 26 26 54 26 27 54 26 27
54 26 27 54 26 27 54 26 27 54 26 27 54 26 27 54 26 27 55 27 27 55 27
27 55 27 27 55 27 27 55 27 27 55 27 27 55 27 27 55 27 27 55 27 27 55
27 27 56 27 27 56 27 27 56 27 27 56 27 27 56 27 27 56 27 27 56 27 28
56 27 28 56 27 28 56 27 28 57 27 28 57 28 28 57 28 28 57 28 28 57 28
28 57 28 28 57 28 28 57 28 28 57 28 28 57 28 28 58 28 28 58 28 28 58
28 28 58 28 28 58 28 28 58 28 28 58 28 28 58 28 28 58 28 28 58 28 28
58 28 28 58 28 28 59 28 29 59 28 29 59 28 29 59 29 29 59 29 29 59 29
29 59 29 29 59 29 29 59 29 29 59 29 29 59 29 29 59 29 29 59 29 29 60
29 29 60 29 29 60 29 29 60 29 29 60 29 29 60 29 29 60 29 29 60 29 29
60 29 29 60 29 29 60 29 29 60 29 29 60 29 29 60 29 29 60 29 29 60 29
29 61 29 29 61 29 30 61 29 30 61 29 30 61 29 30 61 30 30 61 30 30 61
30 30 61 30 30 61 30 30 61 30 30 61 30 30 61 30 30 61 30 30 61 30 30
61 30 30 61 30 30 61 30 30 61 30 30 61 30 30 61 30 30 61 30 30 61 30
30 61 30 30 61 30 30 61 30 30 61 30 30 61 30 30 61 30 30 61 30 30 61
30 30 61 30 30 62 30 30 62 30 30 62 30 30 62 30 30 62 30 30 62 30 30
62 30 30 62 30 30 62 30 30 61 30 30 61 30 30 61 30 30 61 30 30 61 30
30 61 30 30 61 30 30 61 30 30 61 30 30 61 30 30 61 30 30 61 30 30 61
30 30 61 30 30 61 30 30 61 30 30 61 30 30 61 30 30 61 30 30 61 30 30
61 30 30 61 30 30 61 30 30 61 30 30 61 30 30 61 30 30 61 30 30 61 30
30 61 30 30 61 30 30 61 30 30 61 30 30 61 30 30 60 29 30 60 29 30 60
29 30 60 29 30 60 29 30 60 29 30 60 29 30 60 29 30 60 29 30 60 29 30
60 29 30 60 29 30 60 29 30 60 29 30 60 29 30 60 29 30 59 29 30 59 29
30 59 29 30 101 36 31 111 39 35 118 43 43 122 45 50 126 47 56 128 49
61 129 50 66 130 50 70 130 51 73 129 51 77 13 63 36 13 59 36 12 56 36
12 53 35 12 51 35 11 49 35 11 47 34 11 46 34 10 45 34 10 45 34 10 45
34 9 45 34 9 45 34 8 45 34 8 44 34 7 44 33 6 44 33 6 44 33 5 43 33 4
43 32 4 43 32 3 43 31 3 43 31 3 42 30 6 44 29 6 44 29 6 44 29 6 44 29
6 44 29 6 44 29 6 44 29 6 44 29 6 44 29 6 44 29 6 44 29 6 44 29 6 44
28 6 44 28 6 44 28 6 44 28 6 44 28 6 44 28 6 44 28 6 44 28 6 44 28 6
44 28 6 44 28 6 44 28 6 44 28 6 44 28 6 44 28 6 44 28 6 44 28 6 44 28
6 44 28 6 44 28 6 44 28 6 44 28 5 43 28 5 43 28 5 43 28 5 43 28 5 43
28 5 43 28 5 43 28 5 43 28 5 43 28 5 43 28 5 43 28 5 43 28 5 43 28 5
43 28 5 43 28 5 43 28 5 43 28 5 43 28 5 43 28 5 43 28 5 43 28 5 43 28
5 43 28 5 43 28 5 43 28 5 43 28 5 43 28 5 43 28 5 43 28 5 43 28 5 43
28 5 43 28 5 43 28 5 43 28 5 43 28 5 43 28 5 43 28 5 43 28 5 43 28 5
43 28 5 43 28 5 43 28 5 43 28 5 43 28 5 43 28 5 43 28 5 43 28 5 43 28
5 43 28 5 43 28 5 43 28 5 43 28 5 43 28 47 24 26 47 23 26 47 23 26 47
23 26 47 23 26 47 23 26 47 23 26 47 23 25 47 23 25 47 23 25 46 23 25
46 23 25 46 23 25 46 23 25 46 23 25 46 23 25 46 23 25
45 22 23 45 22 23 45 22 23 46 22 23 46 22 23 46 22 23 46 22 23 46 22
23 46 23 24 46 23 24 46 23 24 46 23 24 46 23 24 46 23 24 47 23 24 47
23 24 47 23 24 47 23 24 47 23 24 47 23 24 47 23 24 47 23 24 47 23 24
47 23 24 47 23 24 48 23 24 48 23 24 48 23 24 48 23 24 48 23 24 48 24
24 48 24 24 48 24 24 48 24 24 48 24 24 49 24 25 49 24 25 49 24 25 49
24 25 49 24 25 49 24 25 49 24 25 49 24 25 49 24 25 49 24 25 50 24 25
50 24 25 50 24 25 50 24 25 50 24 25 50 24 25 50 24 25 50 25 25 50 25
25 51 25 25 51 25 25 51 25 25 51 25 25 51 25 25 51 25 25 51 25 26 51
25 26 51 25 26 51 25 26 52 25 26 52 25 26 52 25 26 52 25 26 52 25 26
52 25 26 52 25 26 52 25 26 52 26 26 53 26 26 53 26 26 53 26 26 53 26
26 53 26 26 53 26 26 53 26 26 53 26 26 53 26 26 53 26 26 54 26 26 54
26 27 54 26 27 54 26 27 54 26 27 54 26 27 54 26 27 54 26 27 54 26 27
55 27 27 55 27 27 55 27 27 55 27 27 55 27 27 55 27 27 55 27 27 55 27
27 55 27 27 56 27 27 56 27 27 56 27 27 56 27 27 56 27 27 56 27 27 56
27 27 56 27 28 56 27 28 56 27 28 57 27 28 57 28 28 57 28 28 57 28 28
57 28 28 57 28 28 57 28 28 57 28 28 57 28 28 57 28 28 58 28 28 58 28
28 58 28 28 58 28 28 58 28 28 58 28 28 58 28 28 58 28 28 58 28 28 58
28 28 59 28 28 59 28 29 59 28 29 59 29 29 59 29 29 59 29 29 59 29 29
59 29 29 59 29 29 59 29 29 59 29 29 59 29 29 60 29 29 60 29 29 60 29
29 60 29 29 60 29 29 60 29 29 60 29 29 60 29 29 60 29 29 60 29 29 60
29 29 60 29 29 60 29 29 61 29 29 61 29 29 61 29 29 61 29 29 61 30 30
61 30 30 61 30 30 61 30 30 61 30 30 61 30 30 61 30 30 61 30 30 61 30
30 61 30 30 61 30 30 61 30 30 62 30 30 62 30 30 62 30 30 62 30 30 62
30 30 62 30 30 62 30 30 62 30 30 62 30 30 62 30 30 62 30 30 62 30 30
62 30 30 62 30 30 62 30 30 62 30 30 62 30 30 62 30 30 62 30 30 62 30
30 62 30 30 62 30 30 62 30 30 62 30 30 62 30 30 62 30 30 62 30 30 62
30 30 62 30 30 62 30 31 62 30 31 62 30 31 62 30 31 62 30 31 62 30 31
62 30 31 62 30 31 62 30 31 62 30 31 62 30 31 62 30 31 62 30 31 62 30
31 62 30 31 62 30 31 62 30 31 62 30 31 62 30 31 62 30 31 62 30 31 62
30 31 62 30 31 62 30 31 62 30 31 62 30 31 62 30 31 62 30 31 62 30 31
62 30 31 62 30 31 62 30 31 62 30 31 62 30 31 62 30 31 62 30 31 62 30
31 62 30 31 61 30 31 61 30 31 61 30 31 61 30 31 61 30 31 61 30 31 61
30 31 61 30 31 61 30 31 61 30 31 61 30 31 61 30 31 61 30 31 61 30 30
61 30 30 61 30 30 61 30 30 60 30 30 60 29 30 60 29 30 60 29 30 60 29
30 78 28 27 99 35 30 108 39 37 115 42 45 120 45 52 123 47 58 125 48 63
126 49 68 127 50 72 127 50 75 126 51 78 13 62 36 12 58 36 12 55 36 12
53 35 12 51 35 11 49 35 11 47 35 10 45 34 10 45 34 10 45 34 9 45 34 9
45 34 8 45 34 8 45 34 7 44 34 7 44 34 6 44 33 5 44 33 5 43 33 4 43 32
4 43 32 3 43 32 3 43 31 3 43 30 6 44 29 6 44 29 6 44 29 6 44 29 6 44
29 6 44 29 6 44 29 6 44 29 6 44 29 6 44 29 6 44 29 6 44 29 6 44 29 6
44 29 6 44 29 6 44 29 6 44 29 6 44 29 6 44 29 6 44 29 6 44 29 6 44 28
6 44 28 6 44 28 6 44 28 6 44 28 6 44 28 6 44 28 6 44 28 6 44 28 6 44
28 6 44 28 6 44 28 6 44 28 6 44 28 6 44 28 6 44 28 6 44 28 6 44 28 6
44 28 5 43 28 5 43 28 5 43 28 5 43 28 5 43 28 5 43 28 5 43 28 5 43 28
5 43 28 5 43 28 5 43 28 5 43 28 5 43 28 5 43 28 5 43 28 5 43 28 5 43
28 5 43 28 5 43 28 5 43 28 5 43 28 5 43 28 5 43 28 5 43 28 5 43 28 5
43 28 5 43 28 5 43 28 5 43 28 5 43 28 5 43 28 5 43 28 5 43 28 5 43 28
5 43 28 5 43 28 5 43 28 5 43 28 5 43 28 5 43 28 5 43 28 5 43 28 5 43
28 5 43 28 5 43 28 5 43 28 5 43 28 48 24 26 48 24 26 48 24 26 48 24 26
48 24 26 47 24 26 47 23 26 47 23 26 47 23 26 47 23 26 47 23 26 47 23
26 47 23 26 47 23 25 47 23 25 46 23 25 46 23 25
46 22 23 46 22 23 46 22 23 46 23 23 46 23 24 46 23 24 46 23 24 46 23
24 46 23 24 47 23 24 47 23 24 47 23 24 47 23 24 47 23 24 47 23 24 47
23 24 47 23 24 47 23 24 47 23 24 47 23 24 48 23 24 48 23 24 48 23 24
48 23 24 48 23 24 48 23 24 48 24 24 48 24 24 48 24 24 48 24 24 49 24
24 49 24 25 49 24 25 49 24 25 49 24 25 49 24 25 49 24 25 49 24 25 49
24 25 49 24 25 50 24 25 50 24 25 50 24 25 50 24 25 50 24 25 50 24 25
50 24 25 50 25 25 50 25 25 51 25 25 51 25 25 51 25 25 51 25 25 51 25
25 51 25 25 51 25 25 51 25 26 51 25 26 51 25 26 52 25 26 52 25 26 52
25 26 52 25 26 52 25 26 52 25 26 52 25 26 52 25 26 52 26 26 53 26 26
53 26 26 53 26 26 53 26 26 53 26 26 53 26 26 53 26 26 53 26 26 53 26
26 54 26 26 54 26 26 54 26 27 54 26 27 54 26 27 54 26 27 54 26 27 54
26 27 54 26 27 55 27 27 55 27 27 55 27 27 55 27 27 55 27 27 55 27 27
55 27 27 55 27 27 55 27 27 56 27 27 56 27 27 56 27 27 56 27 27 56 27
27 56 27 27 56 27 27 56 27 28 56 27 28 56 27 28 57 27 28 57 28 28 57
28 28 57 28 28 57 28 28 57 28 28 57 28 28 57 28 28 57 28 28 58 28 28
58 28 28 58 28 28 58 28 28 58 28 28 58 28 28 58 28 28 58 28 28 58 28
28 58 28 28 59 28 28 59 28 29 59 29 29 59 29 29 59 29 29 59 29 29 59
29 29 59 29 29 59 29 29 59 29 29 60 29 29 60 29 29 60 29 29 60 29 29
60 29 29 60 29 29 60 29 29 60 29 29 60 29 29 60 29 29 60 29 29 60 29
29 61 29 29 61 29 29 61 29 29 61 29 29 61 30 29 61 30 30 61 30 30 61
30 30 61 30 30 61 30 30 61 30 30 61 30 30 61 30 30 62 30 30 62 30 30
62 30 30 62 30 30 62 30 30 62 30 30 62 30 30 62 30 30 62 30 30 62 30
30 62 30 30 62 30 30 62 30 30 62 30 30 62 30 30 62 30 30 62 30 30 63
30 30 63 30 30 63 30 30 63 30 30 63 30 30 63 30 30 63 30 30 63 30 30
63 30 31 63 31 31 63 31 31 63 31 31 63 31 31 63 31 31 63 31 31 63 31
31 63 31 31 63 31 31 63 31 31 63 31 31 63 31 31 63 31 31 63 31 31 63
31 31 63 31 31 63 31 31 63 31 31 63 31 31 63 31 31 63 31 31 63 31 31
63 31 31 63 31 31 63 31 31 63 31 31 63 31 31 63 31 31 63 31 31 63 31
31 63 31 31 63 31 31 63 31 31 63 31 31 63 31 31 63 31 31 63 31 31 63
31 31 63 31 31 63 31 31 63 31 31 63 31 31 63 31 31 63 31 31 63 31 31
63 31 31 63 31 31 63 31 31 63 30 31 63 30 31 63 30 31 62 30 31 62 30
31 62 30 31 62 30 31 62 30 31 62 30 31 62 30 31 62 30 31 62 30 31 62
30 31 62 30 31 62 30 31 62 30 31 62 30 31 62 30 31 62 30 31 62 30 31
61 30 31 61 30 31 61 30 31 61 30 31 61 30 31 61 30 31 61 30 31 61 30
31 77 28 26 96 34 30 106 38 38 112 42 47 117 44 54 120 46 60 122 47 65
123 48 69 124 49 73 124 50 77 123 50 80 12 61 36 12 58 36 12 55 36 11
52 35 11 50 35 11 48 35 11 46 35 10 45 34 10 45 35 9 45 35 9 45 34 9
45 34 8 45 34 8 44 34 7 44 34 6 44 34 6 44 34 5 44 33 5 43 33 4 43 33
4 43 32 4 43 32 3 43 31 3 43 30 6 44 29 6 44 29 6 44 29 6 44 29 6 44
29 6 44 29 6 44 29 6 44 29 6 44 29 6 44 29 6 44 29 6 44 29 6 44 29 6
44 29 6 44 29 6 44 29 6 44 29 6 44 29 6 44 29 6 44 29 6 44 29 6 44 29
6 44 29 6 44 29 6 44 29 6 44 29 6 44 29 6 44 29 6 44 29 6 44 28 6 44
28 6 44 28 6 44 28 6 44 28 6 44 28 6 44 28 6 44 28 6 44 28 6 44 28 6
44 28 6 44 28 6 44 28 6 44 28 6 44 28 6 44 28 5 43 28 5 43 28 5 43 28
5 43 28 5 43 28 5 43 28 5 43 28 5 43 28 5 43 28 5 43 28 5 43 28 5 43
28 5 43 28 5 43 28 5 43 28 5 43 28 5 43 28 5 43 28 5 43 28 5 43 28 5
43 28 5 43 28 5 43 28 5 43 28 5 43 28 5 43 28 5 43 28 5 43 28 5 43 28
5 43 28 5 43 28 5 43 28 5 43 28 5 43 28 5 43 28 5 43 28 5 43 28 5 43
28 5 43 28 5 43 28 5 43 28 5 43 28 48 24 26 48 24 26 48 24 26 48 24 26
48 24 26 48 24 26 48 24 26 48 24 26 48 24 26 47 24 26 47 24 26 47 23
26 47 23 26 47 23 26 47 23 26 47 23 26 47 23 26
46 23 24 46 23 24 46 23 24 46 23 24 46 23 24 47 23 24 47 23 24 47 23
24 47 23 24 47 23 24 47 23 24 47 23 24 47 23 24 47 23 24 47 23 24 48
23 24 48 23 24 48 23 24 48 23 24 48 23 24 48 23 24 48 24 24 48 24 24
48 24 24 48 24 24 49 24 24 49 24 25 49 24 25 49 24 25 49 24 25 49 24
25 49 24 25 49 24 25 49 24 25 49 24 25 50 24 25 50 24 25 50 24 25 50
24 25 50 24 25 50 24 25 50 24 25 50 25 25 50 25 25 50 25 25 51 25 25
51 25 25 51 25 25 51 25 25 51 25 25 51 25 25 51 25 26 51 25 26 51 25
26 52 25 26 52 25 26 52 25 26 52 25 26 52 25 26 52 25 26 52 25 26 52
25 26 52 26 26 53 26 26 53 26 26 53 26 26 53 26 26 53 26 26 53 26 26
53 26 26 53 26 26 53 26 26 54 26 26 54 26 26 54 26 27 54 26 27 54 26
27 54 26 27 54 26 27 54 26 27 54 26 27 55 27 27 55 27 27 55 27 27 55
27 27 55 27 27 55 27 27 55 27 27 55 27 27 55 27 27 56 27 27 56 27 27
56 27 27 56 27 27 56 27 27 56 27 27 56 27 28 56 27 28 56 27 28 57 27
28 57 28 28 57 28 28 57 28 28 57 28 28 57 28 28 57 28 28 57 28 28 57
28 28 58 28 28 58 28 28 58 28 28 58 28 28 58 28 28 58 28 28 58 28 28
58 28 28 58 28 28 59 28 28 59 28 28 59 29 29 59 29 29 59 29 29 59 29
29 59 29 29 59 29 29 59 29 29 59 29 29 60 29 29 60 29 29 60 29 29 60
29 29 60 29 29 60 29 29 60 29 29 60 29 29 60 29 29 60 29 29 61 29 29
61 29 29 61 29 29 61 29 29 61 30 29 61 30 29 61 30 30 61 30 30 61 30
30 61 30 30 61 30 30 62 30 30 62 30 30 62 30 30 62 30 30 62 30 30 62
30 30 62 30 30 62 30 30 62 30 30 62 30 30 62 30 30 62 30 30 62 30 30
63 30 30 63 30 30 63 30 30 63 30 30 63 30 30 63 30 30 63 30 30 63 31
30 63 31 30 63 31 30 63 31 31 63 31 31 63 31 31 63 31 31 63 31 31 63
31 31 63 31 31 63 31 31 64 31 31 64 31 31 64 31 31 64 31 31 64 31 31
64 31 31 64 31 31 64 31 31 64 31 31 64 31 31 64 31 31 64 31 31 64 31
31 64 31 31 64 31 31 64 31 31 64 31 31 64 31 31 64 31 31 64 31 31 64
31 31 64 31 31 64 31 31 64 31 31 64 31 31 64 31 31 64 31 31 64 31 31
64 31 31 64 31 31 64 31 31 64 31 31 64 31 31 64 31 31 64 31 31 64 31
31 64 31 31 64 31 31 64 31 31 64 31 31 64 31 31 64 31 31 64 31 31 64
31 31 64 31 31 64 31 31 64 31 31 64 31 31 64 31 31 64 31 31 64 31 31
64 31 31 64 31 31 64 31 31 63 31 31 63 31 31 63 31 31 63 31 31 63 31
31 63 31 31 63 31 31 63 31 31 63 31 31 63 31 31 63 31 31 63 31 31 63
31 31 63 31 31 63 31 31 63 31 31 63 31 31 63 30 31 62 30 31 62 30 31
62 30 31 62 30 31 62 30 31 62 30 31 62 30 31 62 30 31 62 30 31 62 30
31 72 26 26 92 33 29 102 37 39 109 41 48 113 43 55 116 45 61 118 46 66
120 47 70 120 48 74 120 49 78 119 49 81 12 61 36 12 57 36 11 54 36 11
52 35 11 50 35 11 48 35 10 46 35 10 45 35 10 45 35 9 45 35 9 45 35 8
45 35 8 45 34 7 44 34 7 44 34 6 44 34 6 44 34 5 44 33 4 43 33 4 43 33
4 43 32 4 43 32 3 43 31 3 43 30 6 44 29 6 44 29 6 44 29 6 44 29 6 44
29 6 44 29 6 44 29 6 44 29 6 44 29 6 44 29 6 44 29 6 44 29 6 44 29 6
44 29 6 44 29 6 44 29 6 44 29 6 44 29 6 44 29 6 44 29 6 44 29 6 44 29
6 44 29 6 44 29 6 44 29 6 44 29 6 44 29 6 44 29 6 44 29 6 44 29 6 44
29 6 44 29 6 44 29 6 44 29 6 44 29 6 44 29 6 44 28 6 44 28 6 44 28 6
44 28 6 44 28 6 44 28 6 44 28 6 44 28 6 44 28 6 44 28 6 44 28 6 44 28
6 44 28 6 44 28 5 44 28 5 43 28 5 43 28 5 43 28 5 43 28 5 43 28 5 43
28 5 43 28 5 43 28 5 43 28 5 43 28 5 43 28 5 43 28 5 43 28 5 43 28 5
43 28 5 43 28 5 43 28 5 43 28 5 43 28 5 43 28 5 43 28 5 43 28 5 43 28
5 43 28 5 43 28 5 43 28 5 43 28 5 43 28 5 43 28 5 43 28 5 43 28 5 43
28 5 43 28 5 43 28 5 43 28 5 43 28 49 24 26 49 24 26 49 24 26 49 24 26
48 24 26 48 24 26 48 24 26 48 24 26 48 24 26 48 24 26 48 24 26 48 24
26 48 24 26 48 24 26 47 24 26 47 24 26 47 23 26
47 23 24 47 23 24 47 23 24 47 23 24 47 23 24 47 23 24 47 23 24 47 23
24 47 23 24 47 23 24 47 23 24 48 23 24 48 23 24 48 23 24 48 23 24 48
23 24 48 23 24 48 24 24 48 24 24 48 24 24 48 24 24 49 24 24 49 24 25
49 24 25 49 24 25 49 24 25 49 24 25 49 24 25 49 24 25 49 24 25 50 24
25 50 24 25 50 24 25 50 24 25 50 24 25 50 24 25 50 24 25 50 25 25 50
25 25 50 25 25 51 25 25 51 25 25 51 25 25 51 25 25 51 25 25 51 25 25
51 25 26 51 25 26 51 25 26 52 25 26 52 25 26 52 25 26 52 25 26 52 25
26 52 25 26 52 25 26 52 25 26 52 26 26 53 26 26 53 26 26 53 26 26 53
26 26 53 26 26 53 26 26 53 26 26 53 26 26 53 26 26 54 26 26 54 26 26
54 26 27 54 26 27 54 26 27 54 26 27 54 26 27 54 26 27 54 26 27 55 27
27 55 27 27 55 27 27 55 27 27 55 27 27 55 27 27 55 27 27 55 27 27 56
27 27 56 27 27 56 27 27 56 27 27 56 27 27 56 27 27 56 27 27 56 27 28
56 27 28 57 27 28 57 28 28 57 28 28 57 28 28 57 28 28 57 28 28 57 28
28 57 28 28 57 28 28 58 28 28 58 28 28 58 28 28 58 28 28 58 28 28 58
28 28 58 28 28 58 28 28 58 28 28 59 28 28 59 28 28 59 29 29 59 29 29
59 29 29 59 29 29 59 29 29 59 29 29 59 29 29 60 29 29 60 29 29 60 29
29 60 29 29 60 29 29 60 29 29 60 29 29 60 29 29 60 29 29 61 29 29 61
29 29 61 29 29 61 29 29 61 30 29 61 30 29 61 30 29 61 30 30 61 30 30
61 30 30 62 30 30 62 30 30 62 30 30 62 30 30 62 30 30 62 30 30 62 30
30 62 30 30 62 30 30 62 30 30 62 30 30 62 30 30 63 30 30 63 30 30 63
30 30 63 30 30 63 30 30 63 30 30 63 31 30 63 31 30 63 31 30 63 31 30
63 31 31 63 31 31 63 31 31 64 31 31 64 31 31 64 31 31 64 31 31 64 31
31 64 31 31 64 31 31 64 31 31 64 31 31 64 31 31 64 31 31 64 31 31 64
31 31 64 31 31 64 31 31 64 31 31 64 31 31 64 31 31 65 31 31 65 31 31
65 31 31 65 31 31 65 31 31 65 31 31 65 31 31 65 31 31 65 31 31 65 31
31 65 31 31 65 31 31 65 31 31 65 31 31 65 31 31 65 31 31 65 31 32 65
31 32 65 32 32 65 32 32 65 32 32 65 32 32 65 32 32 65 32 32 65 32 32
65 32 32 65 32 32 65 32 32 65 32 32 65 32 32 65 32 32 65 32 32 65 32
32 65 32 32 65 32 32 65 32 32 65 31 32 65 31 32 65 31 32 65 31 32 65
31 32 65 31 32 65 31 32 65 31 32 65 31 32 65 31 32 65 31 32 65 31 32
64 31 32 64 31 32 64 31 32 64 31 32 64 31 32 64 31 32 64 31 32 64 31
32 64 31 32 64 31 32 64 31 32 64 31 32 64 31 32 64 31 32 64 31 32 64
31 32 64 31 32 64 31 32 63 31 32 63 31 32 63 31 32 63 31 32 63 31 32
63 31 32 63 31 32 63 31 32 63 31 32 63 31 31 63 31 31 63 31 31 63 31
31 63 23 24 87 31 28 98 36 40 104 39 48 109 42 55 112 44 61 114 45 67
116 46 71 116 47 75 116 47 79 116 48 82 11 60 36 11 56 36 11 53 36 11
51 35 11 49 35 10 47 35 10 45 35 10 45 35 9 45 35 9 45 35 8 45 35 8 45
35 7 44 35 7 44 34 6 44 34 6 44 34 5 44 34 5 43 33 4 43 33 4 43 33 4
43 32 4 43 32 3 43 31 3 43 30 6 44 29 6 44 29 6 44 29 6 44 29 6 44 29
6 44 29 6 44 29 6 44 29 6 44 29 6 44 29 6 44 29 6 44 29 6 44 29 6 44
29 6 44 29 6 44 29 6 44 29 6 44 29 6 44 29 6 44 29 6 44 29 6 44 29 6
44 29 6 44 29 6 44 29 6 44 29 6 44 29 6 44 29 6 44 29 6 44 29 6 44 29
6 44 29 6 44 29 6 44 29 6 44 29 6 44 29 6 44 29 6 44 29 6 44 29 6 44
29 6 44 29 6 44 29 6 44 29 6 44 28 6 44 28 6 44 28 6 44 28 6 44 28 6
44 28 6 44 28 6 44 28 6 44 28 6 44 28 6 44 28 6 44 28 5 44 28 5 43 28
5 43 28 5 43 28 5 43 28 5 43 28 5 43 28 5 43 28 5 43 28 5 43 28 5 43
28 5 43 28 5 43 28 5 43 28 5 43 28 5 43 28 5 43 28 5 43 28 5 43 28 5
43 28 5 43 28 5 43 28 5 43 28 5 43 28 5 43 28 5 43 28 5 43 28 5 43 28
5 43 28 5 43 28 5 43 28 5 43 28 49 24 27 49 24 27 49 24 27 49 24 27 49
24 27 49 24 27 49 24 26 49 24 26 49 24 26 48 24 26 48 24 26 48 24 26
48 24 26 48 24 26 48 24 26 48 24 26 48 24 26
47 23 24 47 23 24 47 23 24 47 23 24 47 23 24 47 23 24 48 23 24 48 23
24 48 23 24 48 23 24 48 23 24 48 23 24 48 24 24 48 24 24 48 24 24 48
24 24 49 24 24 49 24 25 49 24 25 49 24 25 49 24 25 49 24 25 49 24 25
49 24 25 49 24 25 49 24 25 50 24 25 50 24 25 50 24 25 50 24 25 50 24
25 50 24 25 50 24 25 50 25 25 50 25 25 51 25 25 51 25 25 51 25 25 51
25 25 51 25 25 51 25 25 51 25 26 51 25 26 51 25 26 52 25 26 52 25 26
52 25 26 52 25 26 52 25 26 52 25 26 52 25 26 52 25 26 52 26 26 53 26
26 53 26 26 53 26 26 53 26 26 53 26 26 53 26 26 53 26 26 53 26 26 53
26 26 54 26 26 54 26 26 54 26 27 54 26 27 54 26 27 54 26 27 54 26 27
54 26 27 54 26 27 55 27 27 55 27 27 55 27 27 55 27 27 55 27 27 55 27
27 55 27 27 55 27 27 56 27 27 56 27 27 56 27 27 56 27 27 56 27 27 56
27 27 56 27 27 56 27 28 56 27 28 57 27 28 57 28 28 57 28 28 57 28 28
57 28 28 57 28 28 57 28 28 57 28 28 58 28 28 58 28 28 58 28 28 58 28
28 58 28 28 58 28 28 58 28 28 58 28 28 58 28 28 59 28 28 59 28 28 59
29 29 59 29 29 59 29 29 59 29 29 59 29 29 59 29 29 60 29 29 60 29 29
60 29 29 60 29 29 60 29 29 60 29 29 60 29 29 60 29 29 60 29 29 61 29
29 61 29 29 61 29 29 61 29 29 61 30 29 61 30 29 61 30 29 61 30 30 61
30 30 61 30 30 62 30 30 62 30 30 62 30 30 62 30 30 62 30 30 62 30 30
62 30 30 62 30 30 62 30 30 62 30 30 63 30 30 63 30 30 63 30 30 63 30
30 63 30 30 63 31 30 63 31 30 63 31 30 63 31 30 63 31 30 63 31 30 64
31 31 64 31 31 64 31 31 64 31 31 64 31 31 64 31 31 64 31 31 64 31 31
64 31 31 64 31 31 64 31 31 64 31 31 64 31 31 65 31 31 65 31 31 65 31
31 65 31 31 65 31 31 65 31 31 65 31 31 65 31 31 65 31 31 65 32 31 65
32 31 65 32 31 65 32 31 65 32 31 65 32 31 65 32 31 65 32 31 65 32 32
65 32 32 66 32 32 66 32 32 66 32 32 66 32 32 66 32 32 66 32 32 66 32
32 66 32 32 66 32 32 66 32 32 66 32 32 66 32 32 66 32 32 66 32 32 66
32 32 66 32 32 66 32 32 66 32 32 66 32 32 66 32 32 66 32 32 66 32 32
66 32 32 66 32 32 66 32 32 66 32 32 66 32 32 66 32 32 66 32 32 66 32
32 66 32 32 66 32 32 66 32 32 66 32 32 66 32 32 66 32 32 66 32 32 66
32 32 66 32 32 66 32 32 66 32 32 65 32 32 65 32 32 65 32 32 65 32 32
65 32 32 65 32 32 65 32 32 65 32 32 65 32 32 65 32 32 65 32 32 65 32
32 65 32 32 65 32 32 65 32 32 65 32 32 65 32 32 65 31 32 65 31 32 65
31 32 64 31 32 64 31 32 64 31 32 64 31 32 64 31 32 64 31 32 64 31 32
64 31 32 64 31 32 64 31 32 64 31 32 64 31 32 64 31 32 63 31 32 63 31
32 63 31 32 81 29 28 92 34 39 99 38 48 104 40 55 107 42 62 110 44 67
111 45 72 112 46 76 112 46 79 111 47 83 11 59 36 11 56 36 11 53 36 10
51 35 10 48 35 10 46 35 10 45 35 9 45 35 9 45 36 9 45 36 8 45 35 8 45
35 7 44 35 7 44 34 6 44 34 6 44 34 5 44 34 4 43 34 4 43 33 4 43 33 4
43 32 4 43 32 3 43 31 3 43 30 6 44 29 6 44 29 6 44 29 6 44 29 6 44 29
6 44 29 6 44 29 6 44 29 6 44 29 6 44 29 6 44 29 6 44 29 6 44 29 6 44
29 6 44 29 6 44 29 6 44 29 6 44 29 6 44 29 6 44 29 6 44 29 6 44 29 6
44 29 6 44 29 6 44 29 6 44 29 6 44 29 6 44 29 6 44 29 6 44 29 6 44 29
6 44 29 6 44 29 6 44 29 6 44 29 6 44 29 6 44 29 6 44 29 6 44 29 6 44
29 6 44 29 6 44 29 6 44 29 6 44 29 6 44 29 6 44 29 6 44 29 6 44 29 6
44 29 6 44 28 6 44 28 6 44 28 6 44 28 6 44 28 6 44 28 6 44 28 6 44 28
6 44 28 6 44 28 6 44 28 5 44 28 5 43 28 5 43 28 5 43 28 5 43 28 5 43
28 5 43 28 5 43 28 5 43 28 5 43 28 5 43 28 5 43 28 5 43 28 5 43 28 5
43 28 5 43 28 5 43 28 5 43 28 5 43 28 5 43 28 5 43 28 5 43 28 5 43 28
5 43 28 5 43 28 5 43 28 5 43 28 50 25 27 50 25 27 50 25 27 50 25 27 49
24 27 49 24 27 49 24 27 49 24 27 49 24 27 49 24 27 49 24 27 49 24 26
49 24 26 48 24 26 48 24 26 48 24 26 48 24 26
47 23 24 47 23 24 48 23 24 48 23 24 48 23 24 48 23 24 48 23 24 48 23
24 48 24 24 48 24 24 48 24 24 48 24 24 49 24 24 49 24 25 49 24 25 49
24 25 49 24 25 49 24 25 49 24 25 49 24 25 49 24 25 49 24 25 50 24 25
50 24 25 50 24 25 50 24 25 50 24 25 50 24 25 50 25 25 50 25 25 50 25
25 51 25 25 51 25 25 51 25 25 51 25 25 51 25 25 51 25 25 51 25 26 51
25 26 51 25 26 52 25 26 52 25 26 52 25 26 52 25 26 52 25 26 52 25 26
52 25 26 52 25 26 52 26 26 53 26 26 53 26 26 53 26 26 53 26 26 53 26
26 53 26 26 53 26 26 53 26 26 54 26 26 54 26 26 54 26 26 54 26 27 54
26 27 54 26 27 54 26 27 54 26 27 54 26 27 55 27 27 55 27 27 55 27 27
55 27 27 55 27 27 55 27 27 55 27 27 55 27 27 56 27 27 56 27 27 56 27
27 56 27 27 56 27 27 56 27 27 56 27 27 56 27 28 57 27 28 57 27 28 57
28 28 57 28 28 57 28 28 57 28 28 57 28 28 57 28 28 57 28 28 58 28 28
58 28 28 58 28 28 58 28 28 58 28 28 58 28 28 58 28 28 58 28 28 59 28
28 59 28 28 59 29 28 59 29 29 59 29 29 59 29 29 59 29 29 59 29 29 60
29 29 60 29 29 60 29 29 60 29 29 60 29 29 60 29 29 60 29 29 60 29 29
60 29 29 61 29 29 61 29 29 61 29 29 61 30 29 61 30 29 61 30 29 61 30
29 61 30 30 61 30 30 62 30 30 62 30 30 62 30 30 62 30 30 62 30 30 62
30 30 62 30 30 62 30 30 62 30 30 63 30 30 63 30 30 63 30 30 63 30 30
63 30 30 63 31 30 63 31 30 63 31 30 63 31 30 63 31 30 64 31 30 64 31
31 64 31 31 64 31 31 64 31 31 64 31 31 64 31 31 64 31 31 64 31 31 64
31 31 64 31 31 65 31 31 65 31 31 65 31 31 65 31 31 65 31 31 65 31 31
65 31 31 65 31 31 65 32 31 65 32 31 65 32 31 65 32 31 65 32 31 66 32
31 66 32 31 66 32 31 66 32 32 66 32 32 66 32 32 66 32 32 66 32 32 66
32 32 66 32 32 66 32 32 66 32 32 66 32 32 66 32 32 66 32 32 66 32 32
66 32 32 66 32 32 66 32 32 66 32 32 66 32 32 67 32 32 67 32 32 67 32
32 67 32 32 67 32 32 67 32 32 67 32 32 67 32 32 67 32 32 67 32 32 67
32 32 67 32 32 67 32 32 67 32 32 67 32 32 67 32 32 67 32 32 67 32 32
67 32 32 67 32 32 67 32 32 67 32 32 67 32 32 67 32 32 67 32 32 67 32
32 67 32 32 67 32 32 67 32 32 67 32 32 67 32 32 67 32 32 67 32 32 67
32 32 66 32 32 66 32 32 66 32 32 66 32 32 66 32 32 66 32 32 66 32 32
66 32 32 66 32 32 66 32 32 66 32 32 66 32 32 66 32 32 66 32 32 66 32
32 66 32 32 66 32 32 66 32 32 66 32 32 66 32 32 66 32 32 65 32 32 65
32 32 65 32 32 65 32 32 65 32 32 65 32 32 65 32 32 65 32 32 65 32 32
65 32 32 65 32 32 65 32 32 65 31 32 64 31 32 64 31 32 64 31 32 64 31
32 64 31 32 74 27 26 86 32 38 94 36 48 99 39 55 102 41 61 105 42 67
106 43 72 107 44 76 107 45 80 106 45 83 11 59 36 10 55 36 10 52 36 10
50 35 10 48 35 9 46 35 9 45 35 9 45 35 9 45 36 8 45 36 8 45 35 7 44 35
7 44 35 6 44 34 6 44 34 5 44 34 5 43 34 4 43 34 4 43 33 4 43 33 4 43
33 4 43 32 3 43 31 3 42 29 6 44 29 6 44 29 6 44 29 6 44 29 6 44 29 6
44 29 6 44 29 6 44 29 6 44 29 6 44 29 6 44 29 6 44 29 6 44 29 6 44 29
6 44 29 6 44 29 6 44 29 6 44 29 6 44 29 6 44 29 6 44 29 6 44 29 6 44
29 6 44 29 6 44 29 6 44 29 6 44 29 6 44 29 6 44 29 6 44 29 6 44 29 6
44 29 6 44 29 6 44 29 6 44 29 6 44 29 6 44 29 6 44 29 6 44 29 6 44 29
6 44 29 6 44 29 6 44 29 6 44 29 6 44 29 6 44 29 6 44 29 6 44 29 6 44
29 6 44 29 6 44 29 6 44 29 6 44 29 6 44 29 6 44 29 6 44 29 6 44 28 6
44 28 6 44 28 6 44 28 6 44 28 6 44 28 6 44 28 6 44 28 6 44 28 5 44 28
5 43 28 5 43 28 5 43 28 5 43 28 5 43 28 5 43 28 5 43 28 5 43 28 5 43
28 5 43 28 5 43 28 5 43 28 5 43 28 5 43 28 5 43 28 5 43 28 5 43 28 5
43 28 5 43 28 5 43 28 5 43 28 50 25 27 50 25 27 50 25 27 50 25 27 50
25 27 50 25 27 50 25 27 50 25 27 49 25 27 49 24 27 49 24 27 49 24 27
49 24 27 49 24 27 49 24 27 49 24 27 49 24 26
48 23 24 48 23 24 48 23 24 48 23 24 48 24 24 48 24 24 48 24 24 48 24
24 49 24 25 49 24 25 49 24 25 49 24 25 49 24 25 49 24 25 49 24 25 49
24 25 49 24 25 50 24 25 50 24 25 50 24 25 50 24 25 50 24 25 50 24 25
50 24 25 50 25 25 50 25 25 50 25 25 51 25 25 51 25 25 51 25 25 51 25
25 51 25 25 51 25 25 51 25 26 51 25 26 52 25 26 52 25 26 52 25 26 52
25 26 52 25 26 52 25 26 52 25 26 52 25 26 52 26 26 53 26 26 53 26 26
53 26 26 53 26 26 53 26 26 53 26 26 53 26 26 53 26 26 53 26 26 54 26
26 54 26 26 54 26 27 54 26 27 54 26 27 54 26 27 54 26 27 54 26 27 55
27 27 55 27 27 55 27 27 55 27 27 55 27 27 55 27 27 55 27 27 55 27 27
56 27 27 56 27 27 56 27 27 56 27 27 56 27 27 56 27 27 56 27 27 56 27
28 57 27 28 57 27 28 57 28 28 57 28 28 57 28 28 57 28 28 57 28 28 57
28 28 58 28 28 58 28 28 58 28 28 58 28 28 58 28 28 58 28 28 58 28 28
58 28 28 58 28 28 59 28 28 59 28 28 59 29 28 59 29 29 59 29 29 59 29
29 59 29 29 59 29 29 60 29 29 60 29 29 60 29 29 60 29 29 60 29 29 60
29 29 60 29 29 60 29 29 61 29 29 61 29 29 61 29 29 61 30 29 61 30 29
61 30 29 61 30 29 61 30 30 62 30 30 62 30 30 62 30 30 62 30 30 62 30
30 62 30 30 62 30 30 62 30 30 62 30 30 63 30 30 63 30 30 63 30 30 63
30 30 63 30 30 63 31 30 63 31 30 63 31 30 63 31 30 64 31 30 64 31 30
64 31 31 64 31 31 64 31 31 64 31 31 64 31 31 64 31 31 64 31 31 64 31
31 65 31 31 65 31 31 65 31 31 65 31 31 65 31 31 65 31 31 65 31 31 65
32 31 65 32 31 65 32 31 65 32 31 66 32 31 66 32 31 66 32 31 66 32 31
66 32 31 66 32 32 66 32 32 66 32 32 66 32 32 66 32 32 66 32 32 66 32
32 66 32 32 67 32 32 67 32 32 67 32 32 67 32 32 67 32 32 67 32 32 67
32 32 67 32 32 67 32 32 67 32 32 67 32 32 67 32 32 67 32 32 67 33 32
67 33 32 67 33 32 67 33 32 67 33 32 67 33 32 67 33 32 67 33 32 67 33
32 68 33 32 68 33 32 68 33 32 68 33 33 68 33 33 68 33 33 68 33 33 68
33 33 68 33 33 68 33 33 68 33 33 68 33 33 68 33 33 68 33 33 68 33 33
68 33 33 68 33 33 68 33 33 68 33 33 68 33 33 68 33 33 68 33 33 68 33
33 68 33 33 68 33 33 68 33 33 68 33 33 68 33 33 67 33 33 67 33 33 67
33 33 67 33 33 67 33 33 67 33 33 67 33 33 67 33 33 67 33 33 67 33 33
67 33 33 67 33 33 67 33 33 67 33 33 67 33 33 67 33 33 67 32 33 67 32
33 67 32 33 67 32 33 67 32 33 67 32 33 66 32 33 66 32 33 66 32 33 66
32 33 66 32 33 66 32 33 66 32 33 66 32 33 66 32 33 66 32 33 66 32 33
66 32 33 66 32 33 65 32 33 65 32 33 65 32 33 65 32 33 65 32 33 65 32
33 65 32 33 65 24 24 79 30 36 87 34 46 93 37 54 96 39 61 99 40 66 101
42 71 101 42 76 102 43 79 101 43 83 10 58 36 10 55 36 10 52 36 10 50
35 9 47 35 9 45 35 9 45 35 8 45 35 8 45 35 8 45 35 7 44 35 7 44 35 6
44 35 6 44 34 5 44 34 5 44 34 4 43 34 4 43 34 4 43 33 4 43 33 4 43 32
4 43 32 3 43 31 6 44 29 6 44 29 6 44 29 6 44 29 6 44 29 6 44 29 6 44
29 6 44 29 6 44 29 6 44 29 6 44 29 6 44 29 6 44 29 6 44 29 6 44 29 6
44 29 6 44 29 6 44 29 6 44 29 6 44 29 6 44 29 6 44 29 6 44 29 6 44 29
6 44 29 6 44 29 6 44 29 6 44 29 6 44 29 6 44 29 6 44 29 6 44 29 6 44
29 6 44 29 6 44 29 6 44 29 6 44 29 6 44 29 6 44 29 6 44 29 6 44 29 6
44 29 6 44 29 6 44 29 6 44 29 6 44 29 6 44 29 6 44 29 6 44 29 6 44 29
6 44 29 6 44 29 6 44 29 6 44 29 6 44 29 6 44 29 6 44 29 6 44 29 6 44
29 6 44 29 6 44 29 6 44 29 6 44 29 6 44 28 6 44 28 6 44 28 6 44 28 6
44 28 6 44 28 6 44 28 6 44 28 5 44 28 5 43 28 5 43 28 5 43 28 5 43 28
5 43 28 5 43 28 5 43 28 5 43 28 5 43 28 5 43 28 5 43 28 5 43 28 5 43
28 5 43 28 5 43 28 5 43 28 51 25 27 51 25 27 51 25 27 50 25 27 50 25
27 50 25 27 50 25 27 50 25 27 50 25 27 50 25 27 50 25 27 50 25 27 50
25 27 49 25 27 49 24 27 49 24 27 49 24 27
48 24 24 48 24 24 48 24 24 48 24 24 49 24 25 49 24 25 49 24 25 49 24
25 49 24 25 49 24 25 49 24 25 49 24 25 49 24 25 50 24 25 50 24 25 50
24 25 50 24 25 50 24 25 50 24 25 50 24 25 50 25 25 50 25 25 51 25 25
51 25 25 51 25 25 51 25 25 51 25 25 51 25 25 51 25 26 51 25 26 51 25
26 52 25 26 52 25 26 52 25 26 52 25 26 52 25 26 52 25 26 52 25 26 52
25 26 52 26 26 53 26 26 53 26 26 53 26 26 53 26 26 53 26 26 53 26 26
53 26 26 53 26 26 54 26 26 54 26 26 54 26 26 54 26 27 54 26 27 54 26
27 54 26 27 54 26 27 54 26 27 55 27 27 55 27 27 55 27 27 55 27 27 55
27 27 55 27 27 55 27 27 55 27 27 56 27 27 56 27 27 56 27 27 56 27 27
56 27 27 56 27 27 56 27 27 56 27 28 57 27 28 57 28 28 57 28 28 57 28
28 57 28 28 57 28 28 57 28 28 57 28 28 58 28 28 58 28 28 58 28 28 58
28 28 58 28 28 58 28 28 58 28 28 59 28 28 59 28 28 59 28 28 59 29 28
59 29 29 59 29 29 59 29 29 59 29 29 60 29 29 60 29 29 60 29 29 60 29
29 60 29 29 60 29 29 60 29 29 60 29 29 61 29 29 61 29 29 61 29 29 61
29 29 61 30 29 61 30 29 61 30 29 61 30 29 62 30 30 62 30 30 62 30 30
62 30 30 62 30 30 62 30 30 62 30 30 62 30 30 63 30 30 63 30 30 63 30
30 63 30 30 63 30 30 63 31 30 63 31 30 63 31 30 63 31 30 64 31 30 64
31 30 64 31 30 64 31 31 64 31 31 64 31 31 64 31 31 64 31 31 64 31 31
65 31 31 65 31 31 65 31 31 65 31 31 65 31 31 65 31 31 65 32 31 65 32
31 65 32 31 65 32 31 66 32 31 66 32 31 66 32 31 66 32 31 66 32 31 66
32 31 66 32 32 66 32 32 66 32 32 66 32 32 66 32 32 67 32 32 67 32 32
67 32 32 67 32 32 67 32 32 67 32 32 67 32 32 67 32 32 67 32 32 67 33
32 67 33 32 67 33 32 67 33 32 68 33 32 68 33 32 68 33 32 68 33 32 68
33 32 68 33 32 68 33 32 68 33 32 68 33 32 68 33 33 68 33 33 68 33 33
68 33 33 68 33 33 68 33 33 68 33 33 68 33 33 68 33 33 68 33 33 68 33
33 68 33 33 68 33 33 68 33 33 68 33 33 69 33 33 69 33 33 69 33 33 69
33 33 69 33 33 69 33 33 69 33 33 69 33 33 69 33 33 69 33 33 69 33 33
69 33 33 69 33 33 69 33 33 69 33 33 69 33 33 69 33 33 69 33 33 69 33
33 69 33 33 68 33 33 68 33 33 68 33 33 68 33 33 68 33 33 68 33 33 68
33 33 68 33 33 68 33 33 68 33 33 68 33 33 68 33 33 68 33 33 68 33 33
68 33 33 68 33 33 68 33 33 68 33 33 68 33 33 68 33 33 68 33 33 68 33
33 68 33 33 68 33 33 67 33 33 67 33 33 67 33 33 67 33 33 67 33 33 67
33 33 67 33 33 67 33 33 67 33 33 67 33 33 67 33 33 67 32 33 67 32 33
67 32 33 66 32 33 66 32 33 66 32 33 66 32 33 66 32 33 66 32 33 66 32
33 66 32 33 50 19 22 70 27 33 80 31 44 86 34 53 90 37 59 93 38 65 95
40 70 96 41 75 96 41 79 96 42 82 10 58 36 9 54 36 9 51 35 9 49 35 9 47
35 8 45 35 8 45 35 8 45 35 8 45 35 7 44 35 7 44 35 6 44 35 6 44 35 5
44 34 5 44 34 4 43 34 4 43 34 4 43 34 4 43 33 4 43 33 4 43 32 4 43 32
3 43 30 6 44 29 6 44 29 6 44 29 6 44 29 6 44 29 6 44 29 6 44 29 6 44
29 6 44 29 6 44 29 6 44 29 6 44 29 6 44 29 6 44 29 6 44 29 6 44 29 6
44 29 6 44 29 6 44 29 6 44 29 6 44 29 6 44 29 6 44 29 6 44 29 6 44 29
6 44 29 6 44 29 6 44 29 6 44 29 6 44 29 6 44 29 6 44 29 6 44 29 6 44
29 6 44 29 6 44 29 6 44 29 6 44 29 6 44 29 6 44 29 6 44 29 6 44 29 6
44 29 6 44 29 6 44 29 6 44 29 6 44 29 6 44 29 6 44 29 6 44 29 6 44 29
6 44 29 6 44 29 6 44 29 6 44 29 6 44 29 6 44 29 6 44 29 6 44 29 6 44
29 6 44 29 6 44 29 6 44 29 6 44 29 6 44 29 6 44 29 6 44 29 6 44 29 6
44 28 6 44 28 6 44 28 6 44 28 6 44 28 6 44 28 6 44 28 5 44 28 5 44 28
5 43 28 5 43 28 5 43 28 5 43 28 5 43 28 5 43 28 5 43 28 5 43 28 5 43
28 5 43 28 5 43 28 51 25 28 51 25 28 51 25 28 51 25 28 51 25 28 51 25
27 51 25 27 51 25 27 50 25 27 50 25 27 50 25 27 50 25 27 50 25 27 50
25 27 50 25 27 50 25 27 50 25 27
49 24 25 49 24 25 49 24 25 49 24 25 49 24 25 49 24 25 49 24 25 49 24
25 49 24 25 50 24 25 50 24 25 50 24 25 50 24 25 50 24 25 50 24 25 50
24 25 50 25 25 50 25 25 51 25 25 51 25 25 51 25 25 51 25 25 51 25 25
51 25 25 51 25 26 51 25 26 51 25 26 52 25 26 52 25 26 52 25 26 52 25
26 52 25 26 52 25 26 52 25 26 52 26 26 52 26 26 53 26 26 53 26 26 53
26 26 53 26 26 53 26 26 53 26 26 53 26 26 53 26 26 54 26 26 54 26 26
54 26 27 54 26 27 54 26 27 54 26 27 54 26 27 54 26 27 55 27 27 55 27
27 55 27 27 55 27 27 55 27 27 55 27 27 55 27 27 55 27 27 56 27 27 56
27 27 56 27 27 56 27 27 56 27 27 56 27 27 56 27 27 56 27 28 57 27 28
57 28 28 57 28 28 57 28 28 57 28 28 57 28 28 57 28 28 57 28 28 58 28
28 58 28 28 58 28 28 58 28 28 58 28 28 58 28 28 58 28 28 59 28 28 59
28 28 59 28 28 59 29 28 59 29 29 59 29 29 59 29 29 59 29 29 60 29 29
60 29 29 60 29 29 60 29 29 60 29 29 60 29 29 60 29 29 60 29 29 61 29
29 61 29 29 61 29 29 61 30 29 61 30 29 61 30 29 61 30 29 61 30 29 62
30 30 62 30 30 62 30 30 62 30 30 62 30 30 62 30 30 62 30 30 63 30 30
63 30 30 63 30 30 63 30 30 63 30 30 63 31 30 63 31 30 63 31 30 63 31
30 64 31 30 64 31 30 64 31 30 64 31 31 64 31 31 64 31 31 64 31 31 64
31 31 65 31 31 65 31 31 65 31 31 65 31 31 65 31 31 65 31 31 65 32 31
65 32 31 65 32 31 66 32 31 66 32 31 66 32 31 66 32 31 66 32 31 66 32
31 66 32 31 66 32 32 66 32 32 67 32 32 67 32 32 67 32 32 67 32 32 67
32 32 67 32 32 67 32 32 67 32 32 67 32 32 67 33 32 67 33 32 68 33 32
68 33 32 68 33 32 68 33 32 68 33 32 68 33 32 68 33 32 68 33 32 68 33
32 68 33 32 68 33 32 68 33 33 68 33 33 68 33 33 69 33 33 69 33 33 69
33 33 69 33 33 69 33 33 69 33 33 69 33 33 69 33 33 69 33 33 69 33 33
69 33 33 69 33 33 69 33 33 69 33 33 69 33 33 69 33 33 69 34 33 69 34
33 69 34 33 69 34 33 69 34 33 69 34 33 69 34 33 69 34 33 69 34 33 69
34 33 69 34 33 70 34 33 70 34 33 70 34 33 70 34 33 70 34 33 70 34 33
70 34 33 70 34 33 70 34 34 70 34 34 69 34 34 69 34 34 69 34 34 69 34
34 69 34 34 69 34 34 69 34 34 69 34 34 69 34 34 69 34 34 69 34 34 69
34 34 69 34 34 69 34 34 69 34 34 69 34 34 69 34 34 69 34 34 69 33 34
69 33 34 69 33 34 69 33 34 69 33 34 69 33 34 69 33 34 69 33 34 69 33
34 68 33 34 68 33 34 68 33 34 68 33 34 68 33 34 68 33 34 68 33 34 68
33 34 68 33 34 68 33 34 68 33 34 68 33 33 68 33 33 68 33 33 67 33 33
67 33 33 67 33 33 67 33 33 67 33 33 67 33 33 67 33 33 67 33 33 67 33
33 67 32 33 67 32 33 60 23 28 71 28 41 78 32 50 83 34 57 86 36 64 88
37 69 89 38 74 90 39 78 90 40 81 9 58 36 9 54 36 9 51 35 9 49 35 8 46
35 8 45 35 8 45 35 7 44 35 7 44 35 7 44 35 6 44 35 6 44 35 5 44 34 5
44 34 4 43 34 4 43 34 4 43 34 4 43 33 4 43 33 4 43 33 4 43 32 3 43 31
6 44 29 6 44 29 6 44 29 6 44 29 6 44 29 6 44 29 6 44 29 6 44 29 6 44
29 6 44 29 6 44 29 6 44 29 6 44 29 6 44 29 6 44 29 6 44 29 6 44 29 6
44 29 6 44 29 6 44 29 6 44 29 6 44 29 6 44 29 6 44 29 6 44 29 6 44 29
6 44 29 6 44 29 6 44 29 6 44 29 6 44 29 6 44 29 6 44 29 6 44 29 6 44
29 6 44 29 6 44 29 6 44 29 6 44 29 6 44 29 6 44 29 6 44 29 6 44 29 6
44 29 6 44 29 6 44 29 6 44 29 6 44 29 6 44 29 6 44 29 6 44 29 6 44 29
6 44 29 6 44 29 6 44 29 6 44 29 6 44 29 6 44 29 6 44 29 6 44 29 6 44
29 6 44 29 6 44 29 6 44 29 6 44 29 6 44 29 6 44 29 6 44 29 6 44 29 6
44 29 6 44 29 6 44 29 6 44 29 6 44 29 6 44 29 6 44 28 6 44 28 6 44 28
6 44 28 6 44 28 6 44 28 5 44 28 5 43 28 5 43 28 5 43 28 5 43 28 5 43
28 5 43 28 52 26 28 52 26 28 52 26 28 52 26 28 51 26 28 51 25 28 51 25
28 51 25 28 51 25 28 51 25 28 51 25 28 51 25 27 51 25 27 50 25 27 50
25 27 50 25 27 50 25 27 50 25 27
49 24 25 49 24 25 49 24 25 49 24 25 49 24 25 50 24 25 50 24 25 50 24
25 50 24 25 50 24 25 50 24 25 50 24 25 50 25 25 50 25 25 51 25 25 51
25 25 51 25 25 51 25 25 51 25 25 51 25 25 51 25 26 51 25 26 51 25 26
52 25 26 52 25 26 52 25 26 52 25 26 52 25 26 52 25 26 52 25 26 52 26
26 53 26 26 53 26 26 53 26 26 53 26 26 53 26 26 53 26 26 53 26 26 53
26 26 53 26 26 54 26 26 54 26 26 54 26 27 54 26 27 54 26 27 54 26 27
54 26 27 54 26 27 55 27 27 55 27 27 55 27 27 55 27 27 55 27 27 55 27
27 55 27 27 55 27 27 56 27 27 56 27 27 56 27 27 56 27 27 56 27 27 56
27 27 56 27 27 56 27 28 57 27 28 57 28 28 57 28 28 57 28 28 57 28 28
57 28 28 57 28 28 58 28 28 58 28 28 58 28 28 58 28 28 58 28 28 58 28
28 58 28 28 58 28 28 59 28 28 59 28 28 59 29 28 59 29 29 59 29 29 59
29 29 59 29 29 60 29 29 60 29 29 60 29 29 60 29 29 60 29 29 60 29 29
60 29 29 60 29 29 61 29 29 61 29 29 61 29 29 61 30 29 61 30 29 61 30
29 61 30 29 62 30 29 62 30 30 62 30 30 62 30 30 62 30 30 62 30 30 62
30 30 62 30 30 63 30 30 63 30 30 63 30 30 63 30 30 63 31 30 63 31 30
63 31 30 63 31 30 64 31 30 64 31 30 64 31 30 64 31 30 64 31 31 64 31
31 64 31 31 64 31 31 65 31 31 65 31 31 65 31 31 65 31 31 65 31 31 65
32 31 65 32 31 65 32 31 66 32 31 66 32 31 66 32 31 66 32 31 66 32 31
66 32 31 66 32 31 66 32 32 66 32 32 67 32 32 67 32 32 67 32 32 67 32
32 67 32 32 67 32 32 67 32 32 67 33 32 67 33 32 68 33 32 68 33 32 68
33 32 68 33 32 68 33 32 68 33 32 68 33 32 68 33 32 68 33 32 68 33 32
68 33 32 69 33 33 69 33 33 69 33 33 69 33 33 69 33 33 69 33 33 69 33
33 69 33 33 69 33 33 69 33 33 69 33 33 69 34 33 69 34 33 69 34 33 70
34 33 70 34 33 70 34 33 70 34 33 70 34 33 70 34 33 70 34 33 70 34 33
70 34 33 70 34 33 70 34 33 70 34 33 70 34 33 70 34 33 70 34 33 70 34
34 70 34 34 70 34 34 70 34 34 70 34 34 70 34 34 70 34 34 70 34 34 70
34 34 70 34 34 70 34 34 70 34 34 70 34 34 70 34 34 70 34 34 70 34 34
70 34 34 70 34 34 70 34 34 70 34 34 70 34 34 70 34 34 70 34 34 70 34
34 70 34 34 70 34 34 70 34 34 70 34 34 70 34 34 70 34 34 70 34 34 70
34 34 70 34 34 70 34 34 70 34 34 70 34 34 70 34 34 70 34 34 70 34 34
70 34 34 70 34 34 70 34 34 70 34 34 70 34 34 70 34 34 70 34 34 69 34
34 69 34 34 69 34 34 69 34 34 69 34 34 69 34 34 69 34 34 69 34 34 69
34 34 69 33 34 69 33 34 69 33 34 69 33 34 69 33 34 68 33 34 68 33 34
68 33 34 68 33 34 68 33 34 68 33 34 68 33 34 68 33 34 68 33 34 68 33
34 68 33 34 67 33 34 44 16 20 61 24 36 70 28 47 75 31 55 79 33 61 81
35 67 83 36 72 83 37 76 83 37 80 9 58 36 8 53 35 8 51 35 8 48 35 8 46
35 7 44 34 7 44 35 7 44 35 6 44 35 6 44 35 6 44 35 5 44 34 5 44 34 4
43 34 4 43 34 4 43 34 4 43 34 4 43 33 4 43 33 4 43 32 4 43 32 3 43 31
7 44 29 6 44 29 6 44 29 6 44 29 6 44 29 6 44 29 6 44 29 6 44 29 6 44
29 6 44 29 6 44 29 6 44 29 6 44 29 6 44 29 6 44 29 6 44 29 6 44 29 6
44 29 6 44 29 6 44 29 6 44 29 6 44 29 6 44 29 6 44 29 6 44 29 6 44 29
6 44 29 6 44 29 6 44 29 6 44 29 6 44 29 6 44 29 6 44 29 6 44 29 6 44
29 6 44 29 6 44 29 6 44 29 6 44 29 6 44 29 6 44 29 6 44 29 6 44 29 6
44 29 6 44 29 6 44 29 6 44 29 6 44 29 6 44 29 6 44 29 6 44 29 6 44 29
6 44 29 6 44 29 6 44 29 6 44 29 6 44 29 6 44 29 6 44 29 6 44 29 6 44
29 6 44 29 6 44 29 6 44 29 6 44 29 6 44 29 6 44 29 6 44 29 6 44 29 6
44 29 6 44 29 6 44 29 6 44 29 6 44 29 6 44 29 6 44 29 6 44 29 6 44 29
6 44 29 6 44 29 6 44 28 6 44 28 6 44 28 6 44 28 6 44 28 5 44 28 5 44
28 5 43 28 52 26 28 52 26 28 52 26 28 52 26 28 52 26 28 52 26 28 52 26
28 52 26 28 51 26 28 51 25 28 51 25 28 51 25 28 51 25 28 51 25 28 51
25 28 51 25 28 51 25 28 50 25 27
49 24 25 50 24 25 50 24 25 50 24 25 50 24 25 50 24 25 50 24 25 50 24
25 50 25 25 50 25 25 51 25 25 51 25 25 51 25 25 51 25 25 51 25 25 51
25 25 51 25 26 51 25 26 51 25 26 52 25 26 52 25 26 52 25 26 52 25 26
52 25 26 52 25 26 52 25 26 52 26 26 53 26 26 53 26 26 53 26 26 53 26
26 53 26 26 53 26 26 53 26 26 53 26 26 53 26 26 54 26 26 54 26 26 54
26 27 54 26 27 54 26 27 54 26 27 54 26 27 54 26 27 55 27 27 55 27 27
55 27 27 55 27 27 55 27 27 55 27 27 55 27 27 55 27 27 56 27 27 56 27
27 56 27 27 56 27 27 56 27 27 56 27 27 56 27 27 57 27 28 57 27 28 57
28 28 57 28 28 57 28 28 57 28 28 57 28 28 57 28 28 58 28 28 58 28 28
58 28 28 58 28 28 58 28 28 58 28 28 58 28 28 59 28 28 59 28 28 59 28
28 59 29 28 59 29 29 59 29 29 59 29 29 59 29 29 60 29 29 60 29 29 60
29 29 60 29 29 60 29 29 60 29 29 60 29 29 61 29 29 61 29 29 61 29 29
61 30 29 61 30 29 61 30 29 61 30 29 62 30 29 62 30 30 62 30 30 62 30
30 62 30 30 62 30 30 62 30 30 62 30 30 63 30 30 63 30 30 63 30 30 63
30 30 63 31 30 63 31 30 63 31 30 64 31 30 64 31 30 64 31 30 64 31 30
64 31 31 64 31 31 64 31 31 64 31 31 65 31 31 65 31 31 65 31 31 65 31
31 65 31 31 65 32 31 65 32 31 66 32 31 66 32 31 66 32 31 66 32 31 66
32 31 66 32 31 66 32 31 66 32 31 66 32 32 67 32 32 67 32 32 67 32 32
67 32 32 67 32 32 67 32 32 67 32 32 67 33 32 68 33 32 68 33 32 68 33
32 68 33 32 68 33 32 68 33 32 68 33 32 68 33 32 68 33 32 68 33 32 69
33 32 69 33 32 69 33 33 69 33 33 69 33 33 69 33 33 69 33 33 69 33 33
69 33 33 69 34 33 70 34 33 70 34 33 70 34 33 70 34 33 70 34 33 70 34
33 70 34 33 70 34 33 70 34 33 70 34 33 70 34 33 70 34 33 70 34 33 70
34 33 71 34 33 71 34 33 71 34 34 71 34 34 71 34 34 71 34 34 71 34 34
71 34 34 71 34 34 71 34 34 71 34 34 71 34 34 71 34 34 71 34 34 71 34
34 71 34 34 71 34 34 71 34 34 71 34 34 71 34 34 71 34 34 71 34 34 71
35 34 71 35 34 71 35 34 71 35 34 71 35 34 71 35 34 71 35 34 71 35 34
71 35 34 71 35 34 71 35 34 71 35 34 71 35 34 71 35 34 71 35 34 71 35
34 71 35 34 71 35 34 71 35 34 71 35 34 71 35 34 71 34 34 71 34 34 71
34 34 71 34 34 71 34 34 71 34 34 71 34 34 71 34 34 71 34 34 71 34 34
71 34 34 71 34 34 71 34 34 71 34 34 71 34 34 70 34 34 70 34 34 70 34
34 70 34 34 70 34 34 70 34 34 70 34 34 70 34 34 70 34 34 70 34 34 70
34 34 70 34 34 70 34 34 70 34 34 69 34 34 69 34 34 69 34 34 69 34 34
69 34 34 69 34 34 69 34 34 69 34 34 69 33 34 69 33 34 69 33 34 68 33
34 68 33 34 68 33 34 68 33 34 48 19 29 59 25 42 66 28 51 70 30 58 73
32 64 75 33 69 76 34 74 76 35 78 8 57 36 8 53 35 8 50 35 7 48 35 7 46
34 7 44 34 7 44 34 6 44 34 6 44 34 6 44 34 5 44 34 5 44 34 4 43 34 4
43 34 4 43 34 4 43 34 4 43 33 4 43 33 4 43 33 4 43 32 3 43 31 7 44 29
7 44 29 7 44 29 7 44 29 7 44 29 7 44 29 7 44 29 7 44 29 6 44 29 6 44
29 6 44 29 6 44 29 6 44 29 6 44 29 6 44 29 6 44 29 6 44 29 6 44 29 6
44 29 6 44 29 6 44 29 6 44 29 6 44 29 6 44 29 6 44 29 6 44 29 6 44 29
6 44 29 6 44 29 6 44 29 6 44 29 6 44 29 6 44 29 6 44 29 6 44 29 6 44
29 6 44 29 6 44 29 6 44 29 6 44 29 6 44 29 6 44 29 6 44 29 6 44 29 6
44 29 6 44 29 6 44 29 6 44 29 6 44 29 6 44 29 6 44 29 6 44 29 6 44 29
6 44 29 6 44 29 6 44 29 6 44 29 6 44 29 6 44 29 6 44 29 6 44 29 6 44
29 6 44 29 6 44 29 6 44 29 6 44 29 6 44 29 6 44 29 6 44 29 6 44 29 6
44 29 6 44 29 6 44 29 6 44 29 6 44 29 6 44 29 6 44 29 6 44 29 6 44 29
6 44 29 6 44 29 6 44 29 6 44 29 6 44 29 6 44 29 6 44 29 6 44 29 6 44
28 6 44 28 53 26 29 53 26 29 53 26 28 53 26 28 52 26 28 52 26 28 52 26
28 52 26 28 52 26 28 52 26 28 52 26 28 52 26 28 52 26 28 51 25 28 51
25 28 51 25 28 51 25 28 51 25 28
50 24 25 50 24 25 50 24 25 50 24 25 50 25 25 50 25 25 51 25 25 51 25
25 51 25 25 51 25 25 51 25 25 51 25 25 51 25 26 51 25 26 51 25 26 52
25 26 52 25 26 52 25 26 52 25 26 52 25 26 52 25 26 52 25 26 52 26 26
53 26 26 53 26 26 53 26 26 53 26 26 53 26 26 53 26 26 53 26 26 53 26
26 53 26 26 54 26 26 54 26 26 54 26 27 54 26 27 54 26 27 54 26 27 54
26 27 54 26 27 55 27 27 55 27 27 55 27 27 55 27 27 55 27 27 55 27 27
55 27 27 56 27 27 56 27 27 56 27 27 56 27 27 56 27 27 56 27 27 56 27
27 56 27 28 57 27 28 57 28 28 57 28 28 57 28 28 57 28 28 57 28 28 57
28 28 57 28 28 58 28 28 58 28 28 58 28 28 58 28 28 58 28 28 58 28 28
58 28 28 59 28 28 59 28 28 59 29 28 59 29 28 59 29 29 59 29 29 59 29
29 60 29 29 60 29 29 60 29 29 60 29 29 60 29 29 60 29 29 60 29 29 61
29 29 61 29 29 61 29 29 61 29 29 61 30 29 61 30 29 61 30 29 62 30 29
62 30 30 62 30 30 62 30 30 62 30 30 62 30 30 62 30 30 62 30 30 63 30
30 63 30 30 63 30 30 63 30 30 63 31 30 63 31 30 63 31 30 64 31 30 64
31 30 64 31 30 64 31 30 64 31 31 64 31 31 64 31 31 65 31 31 65 31 31
65 31 31 65 31 31 65 31 31 65 32 31 65 32 31 66 32 31 66 32 31 66 32
31 66 32 31 66 32 31 66 32 31 66 32 31 66 32 31 67 32 31 67 32 32 67
32 32 67 32 32 67 32 32 67 32 32 67 32 32 67 33 32 68 33 32 68 33 32
68 33 32 68 33 32 68 33 32 68 33 32 68 33 32 68 33 32 68 33 32 69 33
32 69 33 32 69 33 32 69 33 33 69 33 33 69 33 33 69 33 33 69 33 33 69
34 33 70 34 33 70 34 33 70 34 33 70 34 33 70 34 33 70 34 33 70 34 33
70 34 33 70 34 33 70 34 33 70 34 33 71 34 33 71 34 33 71 34 33 71 34
33 71 34 33 71 34 34 71 34 34 71 34 34 71 34 34 71 34 34 71 34 34 71
34 34 71 34 34 72 35 34 72 35 34 72 35 34 72 35 34 72 35 34 72 35 34
72 35 34 72 35 34 72 35 34 72 35 34 72 35 34 72 35 34 72 35 34 72 35
34 72 35 34 72 35 34 72 35 34 72 35 34 72 35 34 72 35 34 72 35 34 72
35 34 72 35 34 72 35 35 72 35 35 72 35 35 72 35 35 72 35 35 72 35 35
72 35 35 72 35 35 72 35 35 72 35 35 72 35 35 72 35 35 72 35 35 72 35
35 72 35 35 72 35 35 72 35 35 72 35 35 72 35 35 72 35 35 72 35 35 72
35 35 72 35 35 72 35 35 72 35 35 72 35 35 72 35 35 72 35 35 72 35 35
72 35 35 72 35 35 72 35 35 72 35 35 71 35 35 71 35 35 71 35 35 71 35
35 71 35 35 71 35 35 71 35 35 71 35 35 71 34 35 71 34 35 71 34 35 71
34 35 71 34 35 71 34 35 70 34 35 70 34 35 70 34 35 70 34 35 70 34 35
70 34 35 70 34 35 70 34 35 70 34 35 70 34 35 70 34 35 69 34 34 69 34
34 69 34 34 69 34 34 69 34 34 69 34 34 47 20 35 56 24 46 61 27 54 65
29 61 67 30 66 68 31 71 69 32 75 7 58 36 7 53 35 7 50 35 7 47 34 6 45
34 6 44 34 6 44 34 6 44 34 5 44 34 5 44 34 5 44 34 4 43 34 4 43 34 4
43 34 4 43 34 4 43 34 4 43 33 4 43 33 4 43 32 3 43 32 7 44 29 7 44 29
7 44 29 7 44 29 7 44 29 7 44 29 7 44 29 7 44 29 7 44 29 7 44 29 7 44
29 7 44 29 7 44 29 7 44 29 7 44 29 6 44 29 6 44 29 6 44 29 6 44 29 6
44 29 6 44 29 6 44 29 6 44 29 6 44 29 6 44 29 6 44 29 6 44 29 6 44 29
6 44 29 6 44 29 6 44 29 6 44 29 6 44 29 6 44 29 6 44 29 6 44 29 6 44
29 6 44 29 6 44 29 6 44 29 6 44 29 6 44 29 6 44 29 6 44 29 6 44 29 6
44 29 6 44 29 6 44 29 6 44 29 6 44 29 6 44 29 6 44 29 6 44 29 6 44 29
6 44 29 6 44 29 6 44 29 6 44 29 6 44 29 6 44 29 6 44 29 6 44 29 6 44
29 6 44 29 6 44 29 6 44 29 6 44 29 6 44 29 6 44 29 6 44 29 6 44 29 6
44 29 6 44 29 6 44 29 6 44 29 6 44 29 6 44 29 6 44 29 6 44 29 6 44 29
6 44 29 6 44 29 6 44 29 6 44 29 6 44 29 6 44 29 6 44 29 6 44 29 6 44
29 6 44 29 53 26 29 53 26 29 53 26 29 53 26 29 53 26 29 53 26 29 53 26
29 53 26 28 52 26 28 52 26 28 52 26 28 52 26 28 52 26 28 52 26 28 52
26 28 52 26 28 52 26 28 51 25 28
50 25 25 50 25 25 51 25 25 51 25 25 51 25 25 51 25 25 51 25 25 51 25
25 51 25 26 51 25 26 51 25 26 52 25 26 52 25 26 52 25 26 52 25 26 52
25 26 52 25 26 52 25 26 52 26 26 52 26 26 53 26 26 53 26 26 53 26 26
53 26 26 53 26 26 53 26 26 53 26 26 53 26 26 54 26 26 54 26 26 54 26
27 54 26 27 54 26 27 54 26 27 54 26 27 54 26 27 55 27 27 55 27 27 55
27 27 55 27 27 55 27 27 55 27 27 55 27 27 56 27 27 56 27 27 56 27 27
56 27 27 56 27 27 56 27 27 56 27 27 56 27 28 57 27 28 57 28 28 57 28
28 57 28 28 57 28 28 57 28 28 57 28 28 58 28 28 58 28 28 58 28 28 58
28 28 58 28 28 58 28 28 58 28 28 58 28 28 59 28 28 59 28 28 59 29 28
59 29 29 59 29 29 59 29 29 59 29 29 60 29 29 60 29 29 60 29 29 60 29
29 60 29 29 60 29 29 60 29 29 61 29 29 61 29 29 61 29 29 61 30 29 61
30 29 61 30 29 61 30 29 62 30 29 62 30 30 62 30 30 62 30 30 62 30 30
62 30 30 62 30 30 63 30 30 63 30 30 63 30 30 63 30 30 63 31 30 63 31
30 63 31 30 64 31 30 64 31 30 64 31 30 64 31 30 64 31 31 64 31 31 64
31 31 65 31 31 65 31 31 65 31 31 65 31 31 65 31 31 65 32 31 65 32 31
66 32 31 66 32 31 66 32 31 66 32 31 66 32 31 66 32 31 66 32 31 67 32
31 67 32 32 67 32 32 67 32 32 67 32 32 67 32 32 67 32 32 67 33 32 68
33 32 68 33 32 68 33 32 68 33 32 68 33 32 68 33 32 68 33 32 68 33 32
69 33 32 69 33 32 69 33 32 69 33 32 69 33 33 69 33 33 69 33 33 69 33
33 70 34 33 70 34 33 70 34 33 70 34 33 70 34 33 70 34 33 70 34 33 70
34 33 70 34 33 71 34 33 71 34 33 71 34 33 71 34 33 71 34 33 71 34 33
71 34 33 71 34 34 71 34 34 71 34 34 71 34 34 72 35 34 72 35 34 72 35
34 72 35 34 72 35 34 72 35 34 72 35 34 72 35 34 72 35 34 72 35 34 72
35 34 72 35 34 72 35 34 72 35 34 73 35 34 73 35 34 73 35 34 73 35 34
73 35 34 73 35 34 73 35 34 73 35 35 73 35 35 73 35 35 73 35 35 73 35
35 73 35 35 73 35 35 73 35 35 73 35 35 73 35 35 73 35 35 73 35 35 73
35 35 73 35 35 73 35 35 73 35 35 73 35 35 73 35 35 73 35 35 73 35 35
73 35 35 73 35 35 73 35 35 73 35 35 73 35 35 73 35 35 73 35 35 73 35
35 73 35 35 73 35 35 73 35 35 73 35 35 73 35 35 73 35 35 73 35 35 73
35 35 73 35 35 73 35 35 73 35 35 73 35 35 73 35 35 73 35 35 73 35 35
73 35 35 73 35 35 73 35 35 72 35 35 72 35 35 72 35 35 72 35 35 72 35
35 72 35 35 72 35 35 72 35 35 72 35 35 72 35 35 72 35 35 72 35 35 72
35 35 72 35 35 71 35 35 71 35 35 71 35 35 71 35 35 71 35 35 71 35 35
71 35 35 71 34 35 71 34 35 71 34 35 71 34 35 70 34 35 70 34 35 70 34
35 70 34 35 70 34 35 70 34 35 70 34 35 24 10 19 42 19 38 50 23 48 55
25 56 57 27 62 59 28 67 60 29 71 6 58 35 6 53 35 6 49 34 6 47 34 6 45
34 6 44 34 5 44 34 5 44 34 5 44 34 4 43 34 4 43 34 4 43 34 4 43 34 4
43 34 4 43 33 4 43 33 4 43 33 4 43 32 4 43 32 7 44 29 7 44 29 7 44 29
7 44 29 7 44 29 7 44 29 7 44 29 7 44 29 7 44 29 7 44 29 7 44 29 7 44
29 7 44 29 7 44 29 7 44 29 7 44 29 7 44 29 7 44 29 7 44 29 7 44 29 7
44 29 6 44 29 6 44 29 6 44 29 6 44 29 6 44 29 6 44 29 6 44 29 6 44 29
6 44 29 6 44 29 6 44 29 6 44 29 6 44 29 6 44 29 6 44 29 6 44 29 6 44
29 6 44 29 6 44 29 6 44 29 6 44 29 6 44 29 6 44 29 6 44 29 6 44 29 6
44 29 6 44 29 6 44 29 6 44 29 6 44 29 6 44 29 6 44 29 6 44 29 6 44 29
6 44 29 6 44 29 6 44 29 6 44 29 6 44 29 6 44 29 6 44 29 6 44 29 6 44
29 6 44 29 6 44 29 6 44 29 6 44 29 6 44 29 6 44 29 6 44 29 6 44 29 6
44 29 6 44 29 6 44 29 6 44 29 6 44 29 6 44 29 6 44 29 6 44 29 6 44 29
6 44 29 6 44 29 6 44 29 6 44 29 6 44 29 6 44 29 6 44 29 6 44 29 6 44
29 54 27 29 54 27 29 54 27 29 54 27 29 54 27 29 53 26 29 53 26 29 53
26 29 53 26 29 53 26 29 53 26 29 53 26 29 53 26 29 52 26 28 52 26 28
52 26 28 52 26 28 52 26 28 52 26 28
51 25 25 51 25 25 51 25 25 51 25 25 51 25 26 51 25 26 51 25 26 52 25
26 52 25 26 52 25 26 52 25 26 52 25 26 52 25 26 52 25 26 52 25 26 52
26 26 53 26 26 53 26 26 53 26 26 53 26 26 53 26 26 53 26 26 53 26 26
53 26 26 54 26 26 54 26 26 54 26 27 54 26 27 54 26 27 54 26 27 54 26
27 54 26 27 55 27 27 55 27 27 55 27 27 55 27 27 55 27 27 55 27 27 55
27 27 55 27 27 56 27 27 56 27 27 56 27 27 56 27 27 56 27 27 56 27 27
56 27 28 57 27 28 57 28 28 57 28 28 57 28 28 57 28 28 57 28 28 57 28
28 58 28 28 58 28 28 58 28 28 58 28 28 58 28 28 58 28 28 58 28 28 58
28 28 59 28 28 59 28 28 59 29 28 59 29 29 59 29 29 59 29 29 59 29 29
60 29 29 60 29 29 60 29 29 60 29 29 60 29 29 60 29 29 60 29 29 61 29
29 61 29 29 61 29 29 61 30 29 61 30 29 61 30 29 62 30 29 62 30 30 62
30 30 62 30 30 62 30 30 62 30 30 62 30 30 63 30 30 63 30 30 63 30 30
63 30 30 63 31 30 63 31 30 63 31 30 64 31 30 64 31 30 64 31 30 64 31
30 64 31 30 64 31 31 64 31 31 65 31 31 65 31 31 65 31 31 65 31 31 65
31 31 65 32 31 65 32 31 66 32 31 66 32 31 66 32 31 66 32 31 66 32 31
66 32 31 66 32 31 67 32 31 67 32 32 67 32 32 67 32 32 67 32 32 67 32
32 67 33 32 68 33 32 68 33 32 68 33 32 68 33 32 68 33 32 68 33 32 68
33 32 69 33 32 69 33 32 69 33 32 69 33 32 69 33 32 69 33 33 69 33 33
69 33 33 70 34 33 70 34 33 70 34 33 70 34 33 70 34 33 70 34 33 70 34
33 70 34 33 71 34 33 71 34 33 71 34 33 71 34 33 71 34 33 71 34 33 71
34 33 71 34 33 71 34 34 72 34 34 72 35 34 72 35 34 72 35 34 72 35 34
72 35 34 72 35 34 72 35 34 72 35 34 72 35 34 72 35 34 73 35 34 73 35
34 73 35 34 73 35 34 73 35 34 73 35 34 73 35 34 73 35 34 73 35 34 73
35 34 73 35 35 73 35 35 73 35 35 73 35 35 74 35 35 74 36 35 74 36 35
74 36 35 74 36 35 74 36 35 74 36 35 74 36 35 74 36 35 74 36 35 74 36
35 74 36 35 74 36 35 74 36 35 74 36 35 74 36 35 74 36 35 74 36 35 74
36 35 74 36 35 74 36 35 74 36 35 74 36 35 74 36 35 74 36 35 74 36 35
74 36 35 74 36 35 74 36 35 74 36 35 74 36 35 74 36 36 74 36 36 74 36
36 74 36 36 74 36 36 74 36 36 74 36 36 74 36 36 74 36 36 74 36 36 74
36 36 74 36 36 74 36 36 74 36 36 74 36 36 74 36 36 74 36 36 74 36 36
74 36 36 74 36 36 73 36 36 73 36 36 73 36 36 73 36 36 73 36 36 73 36
36 73 35 36 73 35 36 73 35 36 73 35 36 73 35 36 73 35 36 73 35 36 73
35 36 72 35 36 72 35 36 72 35 36 72 35 35 72 35 35 72 35 35 72 35 35
72 35 35 72 35 35 72 35 35 72 35 35 71 35 35 71 35 35 71 35 35 71 35
35 71 35 35 71 35 35 71 34 35 71 34 35 71 34 35 23 11 23 36 17 40 43
20 49 47 23 56 49 24 62 51 25 67 51 26 71 5 52 34 5 49 34 5 46 34 5 44
33 5 43 33 4 43 34 4 43 34 4 43 34 4 43 34 4 43 34 4 43 34 4 43 34 4
43 33 4 43 33 4 43 33 4 43 32 4 43 32 7 44 29 7 44 29 7 44 29 7 44 29
7 44 29 7 44 29 7 44 29 7 44 29 7 44 29 7 44 29 7 44 29 7 44 29 7 44
29 7 44 29 7 44 29 7 44 29 7 44 29 7 44 29 7 44 29 7 44 29 7 44 29 7
44 29 7 44 29 7 44 29 7 44 29 7 44 29 7 44 29 6 44 29 6 44 29 6 44 29
6 44 29 6 44 29 6 44 29 6 44 29 6 44 29 6 44 29 6 44 29 6 44 29 6 44
29 6 44 29 6 44 29 6 44 29 6 44 29 6 44 29 6 44 29 6 44 29 6 44 29 6
44 29 6 44 29 6 44 29 6 44 29 6 44 29 6 44 29 6 44 29 6 44 29 6 44 29
6 44 29 6 44 29 6 44 29 6 44 29 6 44 29 6 44 29 6 44 29 6 44 29 6 44
29 6 44 29 6 44 29 6 44 29 6 44 29 6 44 29 6 44 29 6 44 29 6 44 29 6
44 29 6 44 29 6 44 29 6 44 29 6 44 29 6 44 29 6 44 29 6 44 29 6 44 29
6 44 29 6 44 29 6 44 29 6 44 29 6 44 29 6 44 29 6 44 29 6 44 29 6 44
29 55 27 29 54 27 29 54 27 29 54 27 29 54 27 29 54 27 29 54 27 29 54
27 29 54 27 29 53 26 29 53 26 29 53 26 29 53 26 29 53 26 29 53 26 29
53 26 29 53 26 29 52 26 28 52 26 28
51 25 25 51 25 26 51 25 26 51 25 26 52 25 26 52 25 26 52 25 26 52 25
26 52 25 26 52 25 26 52 25 26 52 26 26 53 26 26 53 26 26 53 26 26 53
26 26 53 26 26 53 26 26 53 26 26 53 26 26 54 26 26 54 26 26 54 26 27
54 26 27 54 26 27 54 26 27 54 26 27 54 26 27 55 27 27 55 27 27 55 27
27 55 27 27 55 27 27 55 27 27 55 27 27 55 27 27 56 27 27 56 27 27 56
27 27 56 27 27 56 27 27 56 27 27 56 27 27 57 27 28 57 28 28 57 28 28
57 28 28 57 28 28 57 28 28 57 28 28 58 28 28 58 28 28 58 28 28 58 28
28 58 28 28 58 28 28 58 28 28 58 28 28 59 28 28 59 28 28 59 29 28 59
29 29 59 29 29 59 29 29 59 29 29 60 29 29 60 29 29 60 29 29 60 29 29
60 29 29 60 29 29 61 29 29 61 29 29 61 29 29 61 29 29 61 30 29 61 30
29 61 30 29 62 30 29 62 30 30 62 30 30 62 30 30 62 30 30 62 30 30 62
30 30 63 30 30 63 30 30 63 30 30 63 30 30 63 31 30 63 31 30 63 31 30
64 31 30 64 31 30 64 31 30 64 31 30 64 31 31 64 31 31 65 31 31 65 31
31 65 31 31 65 31 31 65 31 31 65 32 31 65 32 31 66 32 31 66 32 31 66
32 31 66 32 31 66 32 31 66 32 31 66 32 31 67 32 31 67 32 32 67 32 32
67 32 32 67 32 32 67 32 32 67 33 32 68 33 32 68 33 32 68 33 32 68 33
32 68 33 32 68 33 32 68 33 32 69 33 32 69 33 32 69 33 32 69 33 32 69
33 33 69 33 33 69 33 33 70 34 33 70 34 33 70 34 33 70 34 33 70 34 33
70 34 33 70 34 33 71 34 33 71 34 33 71 34 33 71 34 33 71 34 33 71 34
33 71 34 33 71 34 33 72 34 34 72 35 34 72 35 34 72 35 34 72 35 34 72
35 34 72 35 34 72 35 34 72 35 34 73 35 34 73 35 34 73 35 34 73 35 34
73 35 34 73 35 34 73 35 34 73 35 34 73 35 34 73 35 34 73 35 34 74 35
35 74 35 35 74 36 35 74 36 35 74 36 35 74 36 35 74 36 35 74 36 35 74
36 35 74 36 35 74 36 35 74 36 35 74 36 35 75 36 35 75 36 35 75 36 35
75 36 35 75 36 35 75 36 35 75 36 35 75 36 35 75 36 35 75 36 35 75 36
35 75 36 35 75 36 35 75 36 36 75 36 36 75 36 36 75 36 36 75 36 36 75
36 36 75 36 36 75 36 36 75 36 36 75 36 36 75 36 36 75 36 36 75 36 36
75 36 36 75 36 36 75 36 36 75 36 36 75 36 36 75 36 36 75 36 36 75 36
36 75 36 36 75 36 36 75 36 36 75 36 36 75 36 36 75 36 36 75 36 36 75
36 36 75 36 36 75 36 36 75 36 36 75 36 36 75 36 36 75 36 36 75 36 36
75 36 36 75 36 36 74 36 36 74 36 36 74 36 36 74 36 36 74 36 36 74 36
36 74 36 36 74 36 36 74 36 36 74 36 36 74 36 36 74 36 36 74 36 36 73
36 36 73 36 36 73 36 36 73 36 36 73 36 36 73 35 36 73 35 36 73 35 36
73 35 36 73 35 36 73 35 36 72 35 36 72 35 36 72 35 36 72 35 36 72 35
36 72 35 36 72 35 36 72 35 36 72 35 36 71 35 36 71 35 36 71 35 35 27
14 39 34 18 48 38 20 55 40 21 61 41 22 65 5 52 34 4 49 34 4 46 33 4 44
33 4 43 33 4 43 33 4 43 33 4 43 33 4 43 33 4 43 33 4 43 33 4 43 33 4
43 33 4 43 33 4 43 32 3 43 31 7 44 29 7 44 29 7 44 29 7 44 29 7 44 29
7 44 29 7 44 29 7 44 29 7 44 29 7 44 29 7 44 29 7 44 29 7 44 29 7 44
29 7 44 29 7 44 29 7 44 29 7 44 29 7 44 29 7 44 29 7 44 29 7 44 29 7
44 29 7 44 29 7 44 29 7 44 29 7 44 29 7 44 29 7 44 29 7 44 29 7 44 29
7 44 29 6 44 29 6 44 29 6 44 29 6 44 29 6 44 29 6 44 29 6 44 29 6 44
29 6 44 29 6 44 29 6 44 29 6 44 29 6 44 29 6 44 29 6 44 29 6 44 29 6
44 29 6 44 29 6 44 29 6 44 29 6 44 29 6 44 29 6 44 29 6 44 29 6 44 29
6 44 29 6 44 29 6 44 29 6 44 29 6 44 29 6 44 29 6 44 29 6 44 29 6 44
29 6 44 29 6 44 29 6 44 29 6 44 29 6 44 29 6 44 29 6 44 29 6 44 29 6
44 29 6 44 29 6 44 29 6 44 29 6 44 29 6 44 29 6 44 29 6 44 29 6 44 29
6 44 29 6 44 29 6 44 29 6 44 29 6 44 29 6 44 29 6 44 29 6 44 29 6 44
29 55 27 30 55 27 30 55 27 30 55 27 30 55 27 29 54 27 29 54 27 29 54
27 29 54 27 29 54 27 29 54 27 29 54 27 29 54 27 29 53 26 29 53 26 29
53 26 29 53 26 29 53 26 29 53 26 29
52 25 26 52 25 26 52 25 26 52 25 26 52 25 26 52 25 26 52 25 26 52 26
26 53 26 26 53 26 26 53 26 26 53 26 26 53 26 26 53 26 26 53 26 26 53
26 26 54 26 26 54 26 26 54 26 26 54 26 27 54 26 27 54 26 27 54 26 27
54 26 27 55 27 27 55 27 27 55 27 27 55 27 27 55 27 27 55 27 27 55 27
27 55 27 27 56 27 27 56 27 27 56 27 27 56 27 27 56 27 27 56 27 27 56
27 27 57 27 28 57 27 28 57 28 28 57 28 28 57 28 28 57 28 28 57 28 28
57 28 28 58 28 28 58 28 28 58 28 28 58 28 28 58 28 28 58 28 28 58 28
28 59 28 28 59 28 28 59 29 28 59 29 28 59 29 29 59 29 29 59 29 29 60
29 29 60 29 29 60 29 29 60 29 29 60 29 29 60 29 29 61 29 29 61 29 29
61 29 29 61 29 29 61 30 29 61 30 29 61 30 29 62 30 29 62 30 30 62 30
30 62 30 30 62 30 30 62 30 30 62 30 30 63 30 30 63 30 30 63 30 30 63
30 30 63 31 30 63 31 30 64 31 30 64 31 30 64 31 30 64 31 30 64 31 30
64 31 31 64 31 31 65 31 31 65 31 31 65 31 31 65 31 31 65 31 31 65 32
31 66 32 31 66 32 31 66 32 31 66 32 31 66 32 31 66 32 31 66 32 31 67
32 31 67 32 31 67 32 32 67 32 32 67 32 32 67 32 32 68 33 32 68 33 32
68 33 32 68 33 32 68 33 32 68 33 32 68 33 32 69 33 32 69 33 32 69 33
32 69 33 32 69 33 32 69 33 33 69 33 33 70 34 33 70 34 33 70 34 33 70
34 33 70 34 33 70 34 33 70 34 33 71 34 33 71 34 33 71 34 33 71 34 33
71 34 33 71 34 33 71 34 33 71 34 33 72 35 34 72 35 34 72 35 34 72 35
34 72 35 34 72 35 34 72 35 34 72 35 34 73 35 34 73 35 34 73 35 34 73
35 34 73 35 34 73 35 34 73 35 34 73 35 34 74 35 34 74 35 34 74 36 34
74 36 35 74 36 35 74 36 35 74 36 35 74 36 35 74 36 35 74 36 35 74 36
35 75 36 35 75 36 35 75 36 35 75 36 35 75 36 35 75 36 35 75 36 35 75
36 35 75 36 35 75 36 35 75 36 35 75 36 35 75 36 35 76 36 35 76 36 36
76 36 36 76 36 36 76 37 36 76 37 36 76 37 36 76 37 36 76 37 36 76 37
36 76 37 36 76 37 36 76 37 36 76 37 36 76 37 36 76 37 36 76 37 36 76
37 36 76 37 36 76 37 36 76 37 36 76 37 36 76 37 36 76 37 36 76 37 36
76 37 36 76 37 36 76 37 36 76 37 36 76 37 36 76 37 36 76 37 36 76 37
36 76 37 36 76 37 36 76 37 36 76 37 36 76 37 36 76 37 36 76 37 36 76
37 36 76 37 36 76 37 36 76 37 36 76 37 36 76 37 36 76 37 36 76 37 36
76 37 36 75 37 36 75 37 36 75 37 36 75 36 36 75 36 36 75 36 36 75 36
36 75 36 36 75 36 36 75 36 36 75 36 36 75 36 36 75 36 36 75 36 36 74
36 36 74 36 36 74 36 36 74 36 36 74 36 36 74 36 36 74 36 36 74 36 36
74 36 36 74 36 36 73 36 36 73 36 36 73 36 36 73 36 36 73 36 36 73 35
36 73 35 36 73 35 36 73 35 36 72 35 36 72 35 36 72 35 36 72 35 36 72
35 36 26 13 37 28 15 46 29 17 53 30 18 58 4 53 33 4 49 33 4 46 33 4 44
33 4 43 33 4 43 33 4 43 33 4 43 33 4 43 33 4 43 33 4 43 33 4 43 33 4
43 32 4 43 32 3 43 31 7 44 29 7 44 29 7 44 29 7 44 29 7 44 29 7 44 29
7 44 29 7 44 29 7 44 29 7 44 29 7 44 29 7 44 29 7 44 29 7 44 29 7 44
29 7 44 29 7 44 29 7 44 29 7 44 29 7 44 29 7 44 29 7 44 29 7 44 29 7
44 29 7 44 29 7 44 29 7 44 29 7 44 29 7 44 29 7 44 29 7 44 29 7 44 29
7 44 29 7 44 29 7 44 29 7 44 29 7 44 29 7 44 29 6 44 29 6 44 29 6 44
29 6 44 29 6 44 29 6 44 29 6 44 29 6 44 29 6 44 29 6 44 29 6 44 29 6
44 29 6 44 29 6 44 29 6 44 29 6 44 29 6 44 29 6 44 29 6 44 29 6 44 29
6 44 29 6 44 29 6 44 29 6 44 29 6 44 29 6 44 29 6 44 29 6 44 29 6 44
29 6 44 29 6 44 29 6 44 29 6 44 29 6 44 29 6 44 29 6 44 29 6 44 29 6
44 29 6 44 29 6 44 29 6 44 29 6 44 29 6 44 29 6 44 29 6 44 29 6 44 29
6 44 29 6 44 29 6 44 29 6 44 29 6 44 29 6 44 29 6 44 29 6 44 29 56 28
30 56 28 30 55 27 30 55 27 30 55 27 30 55 27 30 55 27 30 55 27 30 55
27 30 55 27 30 54 27 29 54 27 29 54 27 29 54 27 29 54 27 29 54 27 29
54 27 29 54 27 29 53 26 29 53 26 29
52 25 26 52 25 26 52 25 26 52 25 26 52 26 26 53 26 26 53 26 26 53 26
26 53 26 26 53 26 26 53 26 26 53 26 26 53 26 26 54 26 26 54 26 26 54
26 27 54 26 27 54 26 27 54 26 27 54 26 27 54 26 27 55 27 27 55 27 27
55 27 27 55 27 27 55 27 27 55 27 27 55 27 27 56 27 27 56 27 27 56 27
27 56 27 27 56 27 27 56 27 27 56 27 27 56 27 28 57 27 28 57 28 28 57
28 28 57 28 28 57 28 28 57 28 28 57 28 28 58 28 28 58 28 28 58 28 28
58 28 28 58 28 28 58 28 28 58 28 28 59 28 28 59 28 28 59 29 28 59 29
28 59 29 29 59 29 29 59 29 29 60 29 29 60 29 29 60 29 29 60 29 29 60
29 29 60 29 29 60 29 29 61 29 29 61 29 29 61 29 29 61 30 29 61 30 29
61 30 29 62 30 29 62 30 30 62 30 30 62 30 30 62 30 30 62 30 30 62 30
30 63 30 30 63 30 30 63 30 30 63 30 30 63 31 30 63 31 30 64 31 30 64
31 30 64 31 30 64 31 30 64 31 30 64 31 31 65 31 31 65 31 31 65 31 31
65 31 31 65 31 31 65 32 31 65 32 31 66 32 31 66 32 31 66 32 31 66 32
31 66 32 31 66 32 31 67 32 31 67 32 31 67 32 32 67 32 32 67 32 32 67
32 32 67 33 32 68 33 32 68 33 32 68 33 32 68 33 32 68 33 32 68 33 32
69 33 32 69 33 32 69 33 32 69 33 32 69 33 32 69 33 33 69 33 33 70 34
33 70 34 33 70 34 33 70 34 33 70 34 33 70 34 33 71 34 33 71 34 33 71
34 33 71 34 33 71 34 33 71 34 33 71 34 33 72 34 33 72 35 33 72 35 34
72 35 34 72 35 34 72 35 34 72 35 34 72 35 34 73 35 34 73 35 34 73 35
34 73 35 34 73 35 34 73 35 34 73 35 34 73 35 34 74 35 34 74 36 34 74
36 34 74 36 35 74 36 35 74 36 35 74 36 35 74 36 35 75 36 35 75 36 35
75 36 35 75 36 35 75 36 35 75 36 35 75 36 35 75 36 35 75 36 35 75 36
35 76 36 35 76 36 35 76 36 35 76 36 35 76 37 35 76 37 36 76 37 36 76
37 36 76 37 36 76 37 36 76 37 36 76 37 36 76 37 36 76 37 36 77 37 36
77 37 36 77 37 36 77 37 36 77 37 36 77 37 36 77 37 36 77 37 36 77 37
36 77 37 36 77 37 36 77 37 36 77 37 36 77 37 36 77 37 36 77 37 36 77
37 36 77 37 36 77 37 36 77 37 37 77 37 37 77 37 37 77 37 37 77 37 37
77 37 37 77 37 37 77 37 37 77 37 37 77 37 37 77 37 37 77 37 37 77 37
37 77 37 37 77 37 37 77 37 37 77 37 37 77 37 37 77 37 37 77 37 37 77
37 37 77 37 37 77 37 37 77 37 37 77 37 37 77 37 37 77 37 37 77 37 37
77 37 37 76 37 37 76 37 37 76 37 37 76 37 37 76 37 37 76 37 37 76 37
37 76 37 37 76 37 37 76 37 37 76 37 37 76 37 37 76 37 37 75 37 37 75
37 37 75 37 37 75 37 37 75 36 37 75 36 37 75 36 37 75 36 37 75 36 37
75 36 37 74 36 37 74 36 37 74 36 37 74 36 37 74 36 37 74 36 37 74 36
37 74 36 36 74 36 36 73 36 36 73 36 36 73 36 36 73 36 36 73 36 36 73
35 36 73 35 36 73 35 36 27 15 42 29 16 49 4 54 33 4 49 32 4 46 32 4 43
32 4 43 32 4 43 32 4 43 32 4 43 32 4 43 32 4 43 32 4 43 32 3 43 32 3
43 31 7 44 29 7 44 29 7 44 29 7 44 29 7 44 29 7 44 29 7 44 29 7 44 29
7 44 29 7 44 29 7 44 29 7 44 29 7 44 29 7 44 29 7 44 29 7 44 29 7 44
29 7 44 29 7 44 29 7 44 29 7 44 29 7 44 29 7 44 29 7 44 29 7 44 29 7
44 29 7 44 29 7 44 29 7 44 29 7 44 29 7 44 29 7 44 29 7 44 29 7 44 29
7 44 29 7 44 29 7 44 29 7 44 29 7 44 29 7 44 29 7 44 29 7 44 29 7 44
29 7 44 29 6 44 29 6 44 29 6 44 29 6 44 29 6 44 29 6 44 29 6 44 29 6
44 29 6 44 29 6 44 29 6 44 29 6 44 29 6 44 29 6 44 29 6 44 29 6 44 29
6 44 29 6 44 29 6 44 29 6 44 29 6 44 29 6 44 29 6 44 29 6 44 29 6 44
29 6 44 29 6 44 29 6 44 29 6 44 29 6 44 29 6 44 29 6 44 29 6 44 29 6
44 29 6 44 29 6 44 29 6 44 29 6 44 29 6 44 29 6 44 29 6 44 29 6 44 29
6 44 29 6 44 29 6 44 29 6 44 29 6 44 29 6 44 29 6 44 29 6 44 29 56 28
30 56 28 30 56 28 30 56 28 30 56 28 30 56 28 30 55 27 30 55 27 30 55
27 30 55 27 30 55 27 30 55 27 30 55 27 30 55 27 30 54 27 29 54 27 29
54 27 29 54 27 29 54 27 29 54 27 29
52 26 26 53 26 26 53 26 26 53 26 26 53 26 26 53 26 26 53 26 26 53 26
26 53 26 26 54 26 26 54 26 26 54 26 27 54 26 27 54 26 27 54 26 27 54
26 27 54 26 27 55 27 27 55 27 27 55 27 27 55 27 27 55 27 27 55 27 27
55 27 27 55 27 27 56 27 27 56 27 27 56 27 27 56 27 27 56 27 27 56 27
27 56 27 28 57 27 28 57 28 28 57 28 28 57 28 28 57 28 28 57 28 28 57
28 28 58 28 28 58 28 28 58 28 28 58 28 28 58 28 28 58 28 28 58 28 28
59 28 28 59 28 28 59 29 28 59 29 28 59 29 29 59 29 29 59 29 29 60 29
29 60 29 29 60 29 29 60 29 29 60 29 29 60 29 29 60 29 29 61 29 29 61
29 29 61 29 29 61 30 29 61 30 29 61 30 29 62 30 29 62 30 30 62 30 30
62 30 30 62 30 30 62 30 30 62 30 30 63 30 30 63 30 30 63 30 30 63 30
30 63 31 30 63 31 30 64 31 30 64 31 30 64 31 30 64 31 30 64 31 30 64
31 31 65 31 31 65 31 31 65 31 31 65 31 31 65 31 31 65 32 31 65 32 31
66 32 31 66 32 31 66 32 31 66 32 31 66 32 31 66 32 31 67 32 31 67 32
31 67 32 32 67 32 32 67 32 32 67 33 32 68 33 32 68 33 32 68 33 32 68
33 32 68 33 32 68 33 32 69 33 32 69 33 32 69 33 32 69 33 32 69 33 32
69 33 32 69 33 33 70 34 33 70 34 33 70 34 33 70 34 33 70 34 33 70 34
33 71 34 33 71 34 33 71 34 33 71 34 33 71 34 33 71 34 33 71 34 33 72
34 33 72 35 33 72 35 34 72 35 34 72 35 34 72 35 34 72 35 34 73 35 34
73 35 34 73 35 34 73 35 34 73 35 34 73 35 34 73 35 34 74 35 34 74 35
34 74 36 34 74 36 34 74 36 35 74 36 35 74 36 35 74 36 35 75 36 35 75
36 35 75 36 35 75 36 35 75 36 35 75 36 35 75 36 35 75 36 35 76 36 35
76 36 35 76 36 35 76 37 35 76 37 35 76 37 35 76 37 36 76 37 36 76 37
36 76 37 36 77 37 36 77 37 36 77 37 36 77 37 36 77 37 36 77 37 36 77
37 36 77 37 36 77 37 36 77 37 36 77 37 36 77 37 36 77 37 36 78 37 36
78 37 36 78 37 36 78 37 36 78 37 36 78 37 36 78 38 37 78 38 37 78 38
37 78 38 37 78 38 37 78 38 37 78 38 37 78 38 37 78 38 37 78 38 37 78
38 37 78 38 37 78 38 37 78 38 37 78 38 37 78 38 37 78 38 37 78 38 37
78 38 37 78 38 37 78 38 37 78 38 37 78 38 37 78 38 37 78 38 37 78 38
37 78 38 37 78 38 37 78 38 37 78 38 37 78 38 37 78 38 37 78 38 37 78
38 37 78 38 37 78 38 37 78 38 37 78 38 37 78 38 37 78 38 37 78 38 37
77 38 37 77 38 37 77 37 37 77 37 37 77 37 37 77 37 37 77 37 37 77 37
37 77 37 37 77 37 37 77 37 37 77 37 37 77 37 37 76 37 37 76 37 37 76
37 37 76 37 37 76 37 37 76 37 37 76 37 37 76 37 37 76 37 37 76 37 37
75 37 37 75 37 37 75 37 37 75 37 37 75 37 37 75 36 37 75 36 37 75 36
37 75 36 37 74 36 37 74 36 37 74 36 37 74 36 37 74 36 37 74 36 37 74
36 37 74 36 37 73 36 37 73 36 37 73 36 37 26 14 38 3 49 31 3 46 31 3
43 31 3 43 31 3 43 31 3 43 31 3 43 31 3 43 31 3 43 31 7 44 29 7 44 29
7 44 29 7 44 29 7 44 29 7 44 29 7 44 29 7 44 29 7 44 29 7 44 29 7 44
29 7 44 29 7 44 29 7 44 29 7 44 29 7 44 29 7 44 29 7 44 29 7 44 29 7
44 29 7 44 29 7 44 29 7 44 29 7 44 29 7 44 29 7 44 29 7 44 29 7 44 29
7 44 29 7 44 29 7 44 29 7 44 29 7 44 29 7 44 29 7 44 29 7 44 29 7 44
29 7 44 29 7 44 29 7 44 29 7 44 29 7 44 29 7 44 29 7 44 29 7 44 29 7
44 29 7 44 29 7 44 29 7 44 29 7 44 29 7 44 29 6 44 29 6 44 29 6 44 29
6 44 29 6 44 29 6 44 29 6 44 29 6 44 29 6 44 29 6 44 29 6 44 29 6 44
29 6 44 29 6 44 29 6 44 29 6 44 29 6 44 29 6 44 29 6 44 29 6 44 29 6
44 29 6 44 29 6 44 29 6 44 29 6 44 29 6 44 29 6 44 29 6 44 29 6 44 29
6 44 29 6 44 29 6 44 29 6 44 29 6 44 29 6 44 29 6 44 29 6 44 29 6 44
29 6 44 29 6 44 29 6 44 29 6 44 29 6 44 29 6 44 29 6 44 29 6 44 29 57
28 31 57 28 31 56 28 30 56 28 30 56 28 30 56 28 30 56 28 30 56 28 30
56 28 30 56 28 30 55 27 30 55 27 30 55 27 30 55 27 30 55 27 30 55 27
30 55 27 30 54 27 30 54 27 30 54 27 29
53 26 26 53 26 26 53 26 26 53 26 26 53 26 26 53 26 26 54 26 26 54 26
26 54 26 27 54 26 27 54 26 27 54 26 27 54 26 27 54 26 27 55 27 27 55
27 27 55 27 27 55 27 27 55 27 27 55 27 27 55 27 27 56 27 27 56 27 27
56 27 27 56 27 27 56 27 27 56 27 27 56 27 27 56 27 28 57 27 28 57 28
28 57 28 28 57 28 28 57 28 28 57 28 28 57 28 28 58 28 28 58 28 28 58
28 28 58 28 28 58 28 28 58 28 28 58 28 28 59 28 28 59 28 28 59 29 28
59 29 29 59 29 29 59 29 29 60 29 29 60 29 29 60 29 29 60 29 29 60 29
29 60 29 29 60 29 29 61 29 29 61 29 29 61 29 29 61 30 29 61 30 29 61
30 29 61 30 29 62 30 29 62 30 30 62 30 30 62 30 30 62 30 30 62 30 30
63 30 30 63 30 30 63 30 30 63 30 30 63 31 30 63 31 30 64 31 30 64 31
30 64 31 30 64 31 30 64 31 30 64 31 31 65 31 31 65 31 31 65 31 31 65
31 31 65 31 31 65 32 31 65 32 31 66 32 31 66 32 31 66 32 31 66 32 31
66 32 31 66 32 31 67 32 31 67 32 31 67 32 32 67 32 32 67 32 32 67 33
32 68 33 32 68 33 32 68 33 32 68 33 32 68 33 32 68 33 32 69 33 32 69
33 32 69 33 32 69 33 32 69 33 32 69 33 33 70 34 33 70 34 33 70 34 33
70 34 33 70 34 33 70 34 33 71 34 33 71 34 33 71 34 33 71 34 33 71 34
33 71 34 33 72 34 33 72 34 33 72 35 33 72 35 34 72 35 34 72 35 34 72
35 34 73 35 34 73 35 34 73 35 34 73 35 34 73 35 34 73 35 34 73 35 34
74 35 34 74 35 34 74 36 34 74 36 34 74 36 34 74 36 35 74 36 35 75 36
35 75 36 35 75 36 35 75 36 35 75 36 35 75 36 35 75 36 35 76 36 35 76
36 35 76 36 35 76 37 35 76 37 35 76 37 35 76 37 35 76 37 35 76 37 36
77 37 36 77 37 36 77 37 36 77 37 36 77 37 36 77 37 36 77 37 36 77 37
36 77 37 36 77 37 36 78 37 36 78 37 36 78 37 36 78 37 36 78 38 36 78
38 36 78 38 36 78 38 36 78 38 37 78 38 37 78 38 37 78 38 37 79 38 37
79 38 37 79 38 37 79 38 37 79 38 37 79 38 37 79 38 37 79 38 37 79 38
37 79 38 37 79 38 37 79 38 37 79 38 37 79 38 37 79 38 37 79 38 37 79
38 37 79 38 37 79 38 37 79 38 37 79 38 37 79 38 37 79 38 37 79 38 37
79 38 37 79 38 37 79 38 38 79 38 38 79 38 38 79 38 38 79 38 38 79 38
38 79 38 38 79 38 38 79 38 38 79 38 38 79 38 38 79 38 38 79 38 38 79
38 38 79 38 38 79 38 38 79 38 38 79 38 38 79 38 38 79 38 38 79 38 38
78 38 38 78 38 38 78 38 38 78 38 38 78 38 38 78 38 38 78 38 38 78 38
38 78 38 38 78 38 38 78 38 38 78 38 38 78 38 38 77 38 38 77 38 38 77
38 38 77 37 38 77 37 38 77 37 38 77 37 38 77 37 38 77 37 38 77 37 38
76 37 38 76 37 38 76 37 37 76 37 37 76 37 37 76 37 37 76 37 37 76 37
37 75 37 37 75 37 37 75 37 37 75 37 37 75 37 37 75 36 37 75 36 37 75
36 37 74 36 37 74 36 37 74 36 37 74 36 37 74 36 37 8 51 31 7 48 30 7
45 29 7 44 29 7 44 29 7 44 29 7 44 29 7 44 29 7 44 29 7 44 29 7 44 29
7 44 29 7 44 29 7 44 29 7 44 29 7 44 29 7 44 29 7 44 29 7 44 29 7 44
29 7 44 29 7 44 29 7 44 29 7 44 29 7 44 29 7 44 29 7 44 29 7 44 29 7
44 29 7 44 29 7 44 29 7 44 29 7 44 29 7 44 29 7 44 29 7 44 29 7 44 29
7 44 29 7 44 29 7 44 29 7 44 29 7 44 29 7 44 29 7 44 29 7 44 29 7 44
29 7 44 29 7 44 29 7 44 29 7 44 29 7 44 29 7 44 29 7 44 29 7 44 29 7
44 29 7 44 29 7 44 29 7 44 29 7 44 29 7 44 29 7 44 29 7 44 29 7 44 29
7 44 29 6 44 29 6 44 29 6 44 29 6 44 29 6 44 29 6 44 29 6 44 29 6 44
29 6 44 29 6 44 29 6 44 29 6 44 29 6 44 29 6 44 29 6 44 29 6 44 29 6
44 29 6 44 29 6 44 29 6 44 29 6 44 29 6 44 29 6 44 29 6 44 29 6 44 29
6 44 29 6 44 29 6 44 29 6 44 29 6 44 29 6 44 29 6 44 29 6 44 29 6 44
29 6 44 29 6 44 29 6 44 29 6 44 29 6 44 29 6 44 29 6 44 29 57 28 31 57
28 31 57 28 31 57 28 31 57 28 31 57 28 31 57 28 31 56 28 30 56 28 30
56 28 30 56 28 30 56 28 30 56 28 30 56 28 30 55 28 30 55 27 30 55 27
30 55 27 30 55 27 30 55 27 30 55 27 30
53 26 26 53 26 26 54 26 26 54 26 26 54 26 27 54 26 27 54 26 27 54 26
27 54 26 27 54 26 27 55 27 27 55 27 27 55 27 27 55 27 27 55 27 27 55
27 27 55 27 27 55 27 27 56 27 27 56 27 27 56 27 27 56 27 27 56 27 27
56 27 27 56 27 28 57 27 28 57 28 28 57 28 28 57 28 28 57 28 28 57 28
28 57 28 28 58 28 28 58 28 28 58 28 28 58 28 28 58 28 28 58 28 28 58
28 28 59 28 28 59 28 28 59 29 28 59 29 28 59 29 29 59 29 29 59 29 29
60 29 29 60 29 29 60 29 29 60 29 29 60 29 29 60 29 29 61 29 29 61 29
29 61 29 29 61 30 29 61 30 29 61 30 29 61 30 29 62 30 29 62 30 30 62
30 30 62 30 30 62 30 30 62 30 30 63 30 30 63 30 30 63 30 30 63 30 30
63 31 30 63 31 30 64 31 30 64 31 30 64 31 30 64 31 30 64 31 30 64 31
31 64 31 31 65 31 31 65 31 31 65 31 31 65 31 31 65 32 31 65 32 31 66
32 31 66 32 31 66 32 31 66 32 31 66 32 31 66 32 31 67 32 31 67 32 31
67 32 32 67 32 32 67 32 32 67 33 32 68 33 32 68 33 32 68 33 32 68 33
32 68 33 32 68 33 32 69 33 32 69 33 32 69 33 32 69 33 32 69 33 32 70
33 33 70 34 33 70 34 33 70 34 33 70 34 33 70 34 33 71 34 33 71 34 33
71 34 33 71 34 33 71 34 33 71 34 33 71 34 33 72 34 33 72 35 33 72 35
34 72 35 34 72 35 34 72 35 34 73 35 34 73 35 34 73 35 34 73 35 34 73
35 34 73 35 34 74 35 34 74 35 34 74 36 34 74 36 34 74 36 34 74 36 35
74 36 35 75 36 35 75 36 35 75 36 35 75 36 35 75 36 35 75 36 35 75 36
35 76 36 35 76 36 35 76 36 35 76 37 35 76 37 35 76 37 35 76 37 35 77
37 35 77 37 36 77 37 36 77 37 36 77 37 36 77 37 36 77 37 36 77 37 36
78 37 36 78 37 36 78 37 36 78 37 36 78 37 36 78 38 36 78 38 36 78 38
36 78 38 36 78 38 36 79 38 37 79 38 37 79 38 37 79 38 37 79 38 37 79
38 37 79 38 37 79 38 37 79 38 37 79 38 37 79 38 37 79 38 37 79 38 37
80 38 37 80 38 37 80 38 37 80 38 37 80 38 37 80 38 37 80 38 37 80 38
37 80 39 37 80 39 37 80 39 38 80 39 38 80 39 38 80 39 38 80 39 38 80
39 38 80 39 38 80 39 38 80 39 38 80 39 38 80 39 38 80 39 38 80 39 38
80 39 38 80 39 38 80 39 38 80 39 38 80 39 38 80 39 38 80 39 38 80 39
38 80 39 38 80 39 38 80 39 38 80 39 38 80 39 38 80 39 38 80 39 38 80
39 38 80 39 38 80 39 38 80 39 38 80 39 38 80 39 38 80 39 38 80 38 38
79 38 38 79 38 38 79 38 38 79 38 38 79 38 38 79 38 38 79 38 38 79 38
38 79 38 38 79 38 38 79 38 38 79 38 38 79 38 38 78 38 38 78 38 38 78
38 38 78 38 38 78 38 38 78 38 38 78 38 38 78 38 38 78 38 38 77 38 38
77 38 38 77 38 38 77 37 38 77 37 38 77 37 38 77 37 38 77 37 38 77 37
38 76 37 38 76 37 38 76 37 38 76 37 38 76 37 38 76 37 38 76 37 38 75
37 38 75 37 38 75 37 37 75 37 37 75 37 37 75 36 37 8 53 31 8 48 30 8
45 29 7 44 29 7 44 29 7 44 29 7 44 29 7 44 29 7 44 29 7 44 29 7 44 29
7 44 29 7 44 29 7 44 29 7 44 29 7 44 29 7 44 29 7 44 29 7 44 29 7 44
29 7 44 29 7 44 29 7 44 29 7 44 29 7 44 29 7 44 29 7 44 29 7 44 29 7
44 29 7 44 29 7 44 29 7 44 29 7 44 29 7 44 29 7 44 29 7 44 29 7 44 29
7 44 29 7 44 29 7 44 29 7 44 29 7 44 29 7 44 29 7 44 29 7 44 29 7 44
29 7 44 29 7 44 29 7 44 29 7 44 29 7 44 29 7 44 29 7 44 29 7 44 29 7
44 29 7 44 29 7 44 29 7 44 29 7 44 29 7 44 29 7 44 29 7 44 29 7 44 29
7 44 29 7 44 29 7 44 29 7 44 29 7 44 29 6 44 29 6 44 29 6 44 29 6 44
29 6 44 29 6 44 29 6 44 29 6 44 29 6 44 29 6 44 29 6 44 29 6 44 29 6
44 29 6 44 29 6 44 29 6 44 29 6 44 29 6 44 29 6 44 29 6 44 29 6 44 29
6 44 29 6 44 29 6 44 29 6 44 29 6 44 29 6 44 29 6 44 29 6 44 29 6 44
29 6 44 29 6 44 29 6 44 29 6 44 29 6 44 29 6 44 29 6 44 29 58 29 31 58
29 31 58 29 31 57 28 31 57 28 31 57 28 31 57 28 31 57 28 31 57 28 31
57 28 31 57 28 31 56 28 31 56 28 30 56 28 30 56 28 30 56 28 30 56 28
30 56 28 30 55 27 30 55 27 30 55 27 30
54 26 26 54 26 27 54 26 27 54 26 27 54 26 27 54 26 27 54 26 27 55 27
27 55 27 27 55 27 27 55 27 27 55 27 27 55 27 27 55 27 27 56 27 27 56
27 27 56 27 27 56 27 27 56 27 27 56 27 27 56 27 27 56 27 28 57 27 28
57 28 28 57 28 28 57 28 28 57 28 28 57 28 28 57 28 28 58 28 28 58 28
28 58 28 28 58 28 28 58 28 28 58 28 28 58 28 28 59 28 28 59 28 28 59
29 28 59 29 29 59 29 29 59 29 29 60 29 29 60 29 29 60 29 29 60 29 29
60 29 29 60 29 29 60 29 29 61 29 29 61 29 29 61 29 29 61 30 29 61 30
29 61 30 29 62 30 29 62 30 30 62 30 30 62 30 30 62 30 30 62 30 30 62
30 30 63 30 30 63 30 30 63 30 30 63 31 30 63 31 30 63 31 30 64 31 30
64 31 30 64 31 30 64 31 30 64 31 30 64 31 31 65 31 31 65 31 31 65 31
31 65 31 31 65 32 31 65 32 31 66 32 31 66 32 31 66 32 31 66 32 31 66
32 31 66 32 31 67 32 31 67 32 31 67 32 32 67 32 32 67 32 32 67 33 32
68 33 32 68 33 32 68 33 32 68 33 32 68 33 32 69 33 32 69 33 32 69 33
32 69 33 32 69 33 32 69 33 32 70 34 33 70 34 33 70 34 33 70 34 33 70
34 33 70 34 33 71 34 33 71 34 33 71 34 33 71 34 33 71 34 33 71 34 33
72 34 33 72 35 33 72 35 33 72 35 34 72 35 34 72 35 34 73 35 34 73 35
34 73 35 34 73 35 34 73 35 34 73 35 34 74 35 34 74 35 34 74 36 34 74
36 34 74 36 34 74 36 34 75 36 35 75 36 35 75 36 35 75 36 35 75 36 35
75 36 35 75 36 35 76 36 35 76 36 35 76 36 35 76 37 35 76 37 35 76 37
35 76 37 35 77 37 35 77 37 36 77 37 36 77 37 36 77 37 36 77 37 36 77
37 36 78 37 36 78 37 36 78 37 36 78 37 36 78 38 36 78 38 36 78 38 36
78 38 36 79 38 36 79 38 36 79 38 36 79 38 37 79 38 37 79 38 37 79 38
37 79 38 37 79 38 37 80 38 37 80 38 37 80 38 37 80 38 37 80 38 37 80
38 37 80 39 37 80 39 37 80 39 37 80 39 37 80 39 37 80 39 37 80 39 37
81 39 38 81 39 38 81 39 38 81 39 38 81 39 38 81 39 38 81 39 38 81 39
38 81 39 38 81 39 38 81 39 38 81 39 38 81 39 38 81 39 38 81 39 38 81
39 38 81 39 38 81 39 38 81 39 38 81 39 38 81 39 38 81 39 38 81 39 38
81 39 38 81 39 38 81 39 38 81 39 38 81 39 38 81 39 38 81 39 38 81 39
38 81 39 38 81 39 38 81 39 39 81 39 39 81 39 39 81 39 39 81 39 39 81
39 39 81 39 39 81 39 39 81 39 39 81 39 39 81 39 39 81 39 39 81 39 39
80 39 39 80 39 39 80 39 39 80 39 39 80 39 39 80 39 39 80 39 39 80 39
39 80 39 39 80 39 39 80 39 39 80 39 39 79 39 39 79 39 39 79 38 39 79
38 39 79 38 39 79 38 39 79 38 38 79 38 38 79 38 38 79 38 38 78 38 38
78 38 38 78 38 38 78 38 38 78 38 38 78 38 38 78 38 38 78 38 38 77 38
38 77 38 38 77 38 38 77 38 38 77 37 38 77 37 38 77 37 38 76 37 38 76
37 38 76 37 38 76 37 38 76 37 38 76 37 38 76 37 38 75 37 38 8 49 30 8
46 30 8 44 29 8 44 29 8 44 29 8 44 29 8 44 29 7 44 29 7 44 29 7 44 29
7 44 29 7 44 29 7 44 29 7 44 29 7 44 29 7 44 29 7 44 29 7 44 29 7 44
29 7 44 29 7 44 29 7 44 29 7 44 29 7 44 29 7 44 29 7 44 29 7 44 29 7
44 29 7 44 29 7 44 29 7 44 29 7 44 29 7 44 29 7 44 29 7 44 29 7 44 29
7 44 29 7 44 29 7 44 29 7 44 29 7 44 29 7 44 29 7 44 29 7 44 29 7 44
29 7 44 29 7 44 29 7 44 29 7 44 29 7 44 29 7 44 29 7 44 29 7 44 29 7
44 29 7 44 29 7 44 29 7 44 29 7 44 29 7 44 29 7 44 29 7 44 29 7 44 29
7 44 29 7 44 29 7 44 29 7 44 29 7 44 29 7 44 29 7 44 29 7 44 29 7 44
29 6 44 29 6 44 29 6 44 29 6 44 29 6 44 29 6 44 29 6 44 29 6 44 29 6
44 29 6 44 29 6 44 29 6 44 29 6 44 29 6 44 29 6 44 29 6 44 29 6 44 29
6 44 29 6 44 29 6 44 29 6 44 29 6 44 29 6 44 29 6 44 29 6 44 29 6 44
29 6 44 29 6 44 29 6 44 29 6 44 29 6 44 29 6 44 29 59 29 32 58 29 32
58 29 31 58 29 31 58 29 31 58 29 31 58 29 31 58 29 31 57 28 31 57 28
31 57 28 31 57 28 31 57 28 31 57 28 31 57 28 31 56 28 31 56 28 31 56
28 30 56 28 30 56 28 30 56 28 30 56 28 30
54 26 27 54 26 27 54 26 27 55 27 27 55 27 27 55 27 27 55 27 27 55 27
27 55 27 27 55 27 27 55 27 27 56 27 27 56 27 27 56 27 27 56 27 27 56
27 27 56 27 27 56 27 27 57 27 28 57 28 28 57 28 28 57 28 28 57 28 28
57 28 28 57 28 28 58 28 28 58 28 28 58 28 28 58 28 28 58 28 28 58 28
28 58 28 28 59 28 28 59 28 28 59 29 28 59 29 28 59 29 29 59 29 29 59
29 29 60 29 29 60 29 29 60 29 29 60 29 29 60 29 29 60 29 29 61 29 29
61 29 29 61 29 29 61 30 29 61 30 29 61 30 29 61 30 29 62 30 29 62 30
30 62 30 30 62 30 30 62 30 30 62 30 30 63 30 30 63 30 30 63 30 30 63
30 30 63 31 30 63 31 30 64 31 30 64 31 30 64 31 30 64 31 30 64 31 30
64 31 31 65 31 31 65 31 31 65 31 31 65 31 31 65 31 31 65 32 31 66 32
31 66 32 31 66 32 31 66 32 31 66 32 31 66 32 31 67 32 31 67 32 31 67
32 32 67 32 32 67 32 32 67 33 32 68 33 32 68 33 32 68 33 32 68 33 32
68 33 32 69 33 32 69 33 32 69 33 32 69 33 32 69 33 32 69 33 32 70 34
33 70 34 33 70 34 33 70 34 33 70 34 33 70 34 33 71 34 33 71 34 33 71
34 33 71 34 33 71 34 33 71 34 33 72 34 33 72 35 33 72 35 33 72 35 34
72 35 34 73 35 34 73 35 34 73 35 34 73 35 34 73 35 34 73 35 34 74 35
34 74 35 34 74 36 34 74 36 34 74 36 34 74 36 34 75 36 35 75 36 35 75
36 35 75 36 35 75 36 35 75 36 35 76 36 35 76 36 35 76 36 35 76 37 35
76 37 35 76 37 35 76 37 35 77 37 35 77 37 35 77 37 36 77 37 36 77 37
36 77 37 36 78 37 36 78 37 36 78 37 36 78 37 36 78 38 36 78 38 36 78
38 36 78 38 36 79 38 36 79 38 36 79 38 36 79 38 37 79 38 37 79 38 37
79 38 37 79 38 37 80 38 37 80 38 37 80 38 37 80 38 37 80 38 37 80 39
37 80 39 37 80 39 37 80 39 37 81 39 37 81 39 37 81 39 37 81 39 37 81
39 38 81 39 38 81 39 38 81 39 38 81 39 38 81 39 38 81 39 38 81 39 38
82 39 38 82 39 38 82 39 38 82 39 38 82 39 38 82 39 38 82 39 38 82 39
38 82 39 38 82 39 38 82 40 38 82 40 38 82 40 38 82 40 38 82 40 38 82
40 39 82 40 39 82 40 39 82 40 39 82 40 39 82 40 39 82 40 39 82 40 39
82 40 39 82 40 39 82 40 39 82 40 39 82 40 39 82 40 39 82 40 39 82 40
39 82 40 39 82 40 39 82 40 39 82 40 39 82 40 39 82 40 39 82 40 39 82
40 39 82 40 39 82 40 39 82 40 39 82 40 39 82 39 39 82 39 39 82 39 39
81 39 39 81 39 39 81 39 39 81 39 39 81 39 39 81 39 39 81 39 39 81 39
39 81 39 39 81 39 39 81 39 39 81 39 39 80 39 39 80 39 39 80 39 39 80
39 39 80 39 39 80 39 39 80 39 39 80 39 39 80 39 39 79 39 39 79 39 39
79 39 39 79 38 39 79 38 39 79 38 39 79 38 39 79 38 39 78 38 39 78 38
39 78 38 39 78 38 39 78 38 39 78 38 39 78 38 39 78 38 39 77 38 38 77
38 38 77 38 38 77 38 38 77 37 38 77 37 38 76 37 38 76 37 38 8 50 30 8
46 30 8 45 29 8 45 29 8 45 29 8 45 29 8 44 29 8 44 29 8 44 29 8 44 29
8 44 29 8 44 29 7 44 29 7 44 29 7 44 29 7 44 29 7 44 29 7 44 29 7 44
29 7 44 29 7 44 29 7 44 29 7 44 29 7 44 29 7 44 29 7 44 29 7 44 29 7
44 29 7 44 29 7 44 29 7 44 29 7 44 29 7 44 29 7 44 29 7 44 29 7 44 29
7 44 29 7 44 29 7 44 29 7 44 29 7 44 29 7 44 29 7 44 29 7 44 29 7 44
29 7 44 29 7 44 29 7 44 29 7 44 29 7 44 29 7 44 29 7 44 29 7 44 29 7
44 29 7 44 29 7 44 29 7 44 29 7 44 29 7 44 29 7 44 29 7 44 29 7 44 29
7 44 29 7 44 29 7 44 29 7 44 29 7 44 29 7 44 29 7 44 29 7 44 29 7 44
29 7 44 29 7 44 29 7 44 29 7 44 29 6 44 29 6 44 29 6 44 29 6 44 29 6
44 29 6 44 29 6 44 29 6 44 29 6 44 29 6 44 29 6 44 29 6 44 29 6 44 29
6 44 29 6 44 29 6 44 29 6 44 29 6 44 29 6 44 29 6 44 29 6 44 29 6 44
29 6 44 29 6 44 29 6 44 29 6 44 29 6 44 29 6 44 29 59 29 32 59 29 32
59 29 32 59 29 32 59 29 32 58 29 32 58 29 31 58 29 31 58 29 31 58 29
31 58 29 31 58 29 31 57 28 31 57 28 31 57 28 31 57 28 31 57 28 31 57
28 31 57 28 31 56 28 31 56 28 31 56 28 31
55 27 27 55 27 27 55 27 27 55 27 27 55 27 27 55 27 27 55 27 27 55 27
27 56 27 27 56 27 27 56 27 27 56 27 27 56 27 27 56 27 27 56 27 28 57
27 28 57 28 28 57 28 28 57 28 28 57 28 28 57 28 28 57 28 28 58 28 28
58 28 28 58 28 28 58 28 28 58 28 28 58 28 28 58 28 28 59 28 28 59 28
28 59 29 28 59 29 28 59 29 29 59 29 29 59 29 29 60 29 29 60 29 29 60
29 29 60 29 29 60 29 29 60 29 29 61 29 29 61 29 29 61 29 29 61 30 29
61 30 29 61 30 29 62 30 29 62 30 29 62 30 30 62 30 30 62 30 30 62 30
30 62 30 30 63 30 30 63 30 30 63 30 30 63 31 30 63 31 30 63 31 30 64
31 30 64 31 30 64 31 30 64 31 30 64 31 30 64 31 31 65 31 31 65 31 31
65 31 31 65 31 31 65 32 31 65 32 31 66 32 31 66 32 31 66 32 31 66 32
31 66 32 31 67 32 31 67 32 31 67 32 31 67 32 32 67 32 32 67 33 32 68
33 32 68 33 32 68 33 32 68 33 32 68 33 32 68 33 32 69 33 32 69 33 32
69 33 32 69 33 32 69 33 32 70 33 33 70 34 33 70 34 33 70 34 33 70 34
33 70 34 33 71 34 33 71 34 33 71 34 33 71 34 33 71 34 33 72 34 33 72
35 33 72 35 33 72 35 33 72 35 34 72 35 34 73 35 34 73 35 34 73 35 34
73 35 34 73 35 34 73 35 34 74 35 34 74 35 34 74 36 34 74 36 34 74 36
34 75 36 34 75 36 35 75 36 35 75 36 35 75 36 35 75 36 35 76 36 35 76
36 35 76 36 35 76 37 35 76 37 35 76 37 35 77 37 35 77 37 35 77 37 35
77 37 36 77 37 36 77 37 36 77 37 36 78 37 36 78 37 36 78 37 36 78 38
36 78 38 36 78 38 36 79 38 36 79 38 36 79 38 36 79 38 36 79 38 36 79
38 37 79 38 37 80 38 37 80 38 37 80 38 37 80 38 37 80 38 37 80 39 37
80 39 37 80 39 37 81 39 37 81 39 37 81 39 37 81 39 37 81 39 37 81 39
37 81 39 38 81 39 38 81 39 38 82 39 38 82 39 38 82 39 38 82 39 38 82
39 38 82 39 38 82 39 38 82 40 38 82 40 38 82 40 38 82 40 38 82 40 38
83 40 38 83 40 38 83 40 38 83 40 38 83 40 38 83 40 39 83 40 39 83 40
39 83 40 39 83 40 39 83 40 39 83 40 39 83 40 39 83 40 39 83 40 39 83
40 39 83 40 39 83 40 39 83 40 39 83 40 39 83 40 39 83 40 39 83 40 39
83 40 39 83 40 39 83 40 39 83 40 39 83 40 39 83 40 39 83 40 39 83 40
39 83 40 39 83 40 39 83 40 39 83 40 39 83 40 39 83 40 39 83 40 39 83
40 39 83 40 39 83 40 39 83 40 39 83 40 39 83 40 40 83 40 40 83 40 40
82 40 40 82 40 40 82 40 40 82 40 40 82 40 40 82 40 40 82 40 40 82 40
40 82 40 40 82 40 39 82 40 39 82 40 39 81 39 39 81 39 39 81 39 39 81
39 39 81 39 39 81 39 39 81 39 39 81 39 39 81 39 39 80 39 39 80 39 39
80 39 39 80 39 39 80 39 39 80 39 39 80 39 39 80 39 39 79 39 39 79 39
39 79 39 39 79 38 39 79 38 39 79 38 39 79 38 39 78 38 39 78 38 39 78
38 39 78 38 39 78 38 39 78 38 39 78 38 39 77 38 39 77 38 39 8 52 31 8
47 30 8 45 29 8 45 29 8 45 29 8 45 29 8 45 29 8 45 29 8 45 29 8 45 29
8 45 29 8 44 29 8 44 29 8 44 29 8 44 29 8 44 29 8 44 29 7 44 29 7 44
29 7 44 29 7 44 29 7 44 29 7 44 29 7 44 29 7 44 29 7 44 29 7 44 29 7
44 29 7 44 29 7 44 29 7 44 29 7 44 29 7 44 29 7 44 29 7 44 29 7 44 29
7 44 29 7 44 29 7 44 29 7 44 29 7 44 29 7 44 29 7 44 29 7 44 29 7 44
29 7 44 29 7 44 29 7 44 29 7 44 29 7 44 29 7 44 29 7 44 29 7 44 29 7
44 29 7 44 29 7 44 29 7 44 29 7 44 29 7 44 29 7 44 29 7 44 29 7 44 29
7 44 29 7 44 29 7 44 29 7 44 29 7 44 29 7 44 29 7 44 29 7 44 29 7 44
29 7 44 29 7 44 29 7 44 29 7 44 29 7 44 29 7 44 29 7 44 29 7 44 29 6
44 29 6 44 29 6 44 29 6 44 29 6 44 29 6 44 29 6 44 29 6 44 29 6 44 29
6 44 29 6 44 29 6 44 29 6 44 29 6 44 29 6 44 29 6 44 29 6 44 29 6 44
29 6 44 29 6 44 29 6 44 29 6 44 29 6 44 29 60 30 32 60 30 32 59 29 32
59 29 32 59 29 32 59 29 32 59 29 32 59 29 32 59 29 32 58 29 32 58 29
32 58 29 31 58 29 31 58 29 31 58 29 31 58 29 31 57 28 31 57 28 31 57
28 31 57 28 31 57 28 31 57 28 31 57 28 31
55 27 27 55 27 27 55 27 27 55 27 27 56 27 27 56 27 27 56 27 27 56 27
27 56 27 27 56 27 27 56 27 27 56 27 28 57 27 28 57 28 28 57 28 28 57
28 28 57 28 28 57 28 28 57 28 28 58 28 28 58 28 28 58 28 28 58 28 28
58 28 28 58 28 28 58 28 28 59 28 28 59 28 28 59 29 28 59 29 29 59 29
29 59 29 29 60 29 29 60 29 29 60 29 29 60 29 29 60 29 29 60 29 29 60
29 29 61 29 29 61 29 29 61 29 29 61 30 29 61 30 29 61 30 29 62 30 29
62 30 30 62 30 30 62 30 30 62 30 30 62 30 30 63 30 30 63 30 30 63 30
30 63 30 30 63 31 30 63 31 30 64 31 30 64 31 30 64 31 30 64 31 30 64
31 30 64 31 31 65 31 31 65 31 31 65 31 31 65 31 31 65 31 31 65 32 31
66 32 31 66 32 31 66 32 31 66 32 31 66 32 31 66 32 31 67 32 31 67 32
31 67 32 32 67 32 32 67 32 32 68 33 32 68 33 32 68 33 32 68 33 32 68
33 32 68 33 32 69 33 32 69 33 32 69 33 32 69 33 32 69 33 32 70 33 32
70 34 33 70 34 33 70 34 33 70 34 33 70 34 33 71 34 33 71 34 33 71 34
33 71 34 33 71 34 33 72 34 33 72 35 33 72 35 33 72 35 33 72 35 34 72
35 34 73 35 34 73 35 34 73 35 34 73 35 34 73 35 34 74 35 34 74 35 34
74 36 34 74 36 34 74 36 34 74 36 34 75 36 34 75 36 35 75 36 35 75 36
35 75 36 35 75 36 35 76 36 35 76 36 35 76 37 35 76 37 35 76 37 35 77
37 35 77 37 35 77 37 35 77 37 36 77 37 36 77 37 36 78 37 36 78 37 36
78 37 36 78 37 36 78 38 36 78 38 36 79 38 36 79 38 36 79 38 36 79 38
36 79 38 36 79 38 36 79 38 37 80 38 37 80 38 37 80 38 37 80 38 37 80
39 37 80 39 37 80 39 37 81 39 37 81 39 37 81 39 37 81 39 37 81 39 37
81 39 37 81 39 37 82 39 38 82 39 38 82 39 38 82 39 38 82 39 38 82 39
38 82 39 38 82 40 38 82 40 38 83 40 38 83 40 38 83 40 38 83 40 38 83
40 38 83 40 38 83 40 38 83 40 38 83 40 39 83 40 39 83 40 39 83 40 39
84 40 39 84 40 39 84 40 39 84 40 39 84 40 39 84 40 39 84 40 39 84 40
39 84 40 39 84 40 39 84 40 39 84 40 39 84 41 39 84 41 39 84 41 39 84
41 39 84 41 39 84 41 39 84 41 39 84 41 39 84 41 40 84 41 40 84 41 40
84 41 40 84 41 40 84 41 40 84 41 40 84 41 40 84 41 40 84 41 40 84 41
40 84 41 40 84 41 40 84 41 40 84 41 40 84 41 40 84 41 40 84 41 40 84
41 40 84 41 40 84 41 40 84 41 40 84 40 40 84 40 40 84 40 40 84 40 40
83 40 40 83 40 40 83 40 40 83 40 40 83 40 40 83 40 40 83 40 40 83 40
40 83 40 40 83 40 40 83 40 40 83 40 40 82 40 40 82 40 40 82 40 40 82
40 40 82 40 40 82 40 40 82 40 40 82 40 40 82 40 40 81 40 40 81 39 40
81 39 40 81 39 40 81 39 40 81 39 40 81 39 40 80 39 40 80 39 40 80 39
40 80 39 40 80 39 40 80 39 39 80 39 39 79 39 39 79 39 39 79 39 39 79
39 39 79 38 39 79 38 39 79 38 39 78 38 39 78 38 39 78 38 39 78 38 39 8
48 30 8 45 29 8 45 29 8 45 29 8 45 29 8 45 29 8 45 29 8 45 29 8 45 29
8 45 29 8 45 29 8 45 29 8 45 29 8 45 29 8 45 29 8 44 29 8 44 29 8 44
29 8 44 29 8 44 29 7 44 29 7 44 29 7 44 29 7 44 29 7 44 29 7 44 29 7
44 29 7 44 29 7 44 29 7 44 29 7 44 29 7 44 29 7 44 29 7 44 29 7 44 29
7 44 29 7 44 29 7 44 29 7 44 29 7 44 29 7 44 29 7 44 29 7 44 29 7 44
29 7 44 29 7 44 29 7 44 29 7 44 29 7 44 29 7 44 29 7 44 29 7 44 29 7
44 29 7 44 29 7 44 29 7 44 29 7 44 29 7 44 29 7 44 29 7 44 29 7 44 29
7 44 29 7 44 29 7 44 29 7 44 29 7 44 29 7 44 29 7 44 29 7 44 29 7 44
29 7 44 29 7 44 29 7 44 29 7 44 29 7 44 29 7 44 29 7 44 29 7 44 29 7
44 29 7 44 29 7 44 29 6 44 29 6 44 29 6 44 29 6 44 29 6 44 29 6 44 29
6 44 29 6 44 29 6 44 29 6 44 29 6 44 29 6 44 29 6 44 29 6 44 29 6 44
29 6 44 29 6 44 29 6 44 29 6 44 29 6 44 29 60 30 33 60 30 32 60 30 32
60 30 32 60 30 32 60 30 32 59 29 32 59 29 32 59 29 32 59 29 32 59 29
32 59 29 32 59 29 32 58 29 32 58 29 32 58 29 32 58 29 31 58 29 31 58
29 31 57 29 31 57 28 31 57 28 31 57 28 31
55 27 27 56 27 27 56 27 27 56 27 27 56 27 27 56 27 27 56 27 27 56 27
27 56 27 28 57 27 28 57 28 28 57 28 28 57 28 28 57 28 28 57 28 28 57
28 28 58 28 28 58 28 28 58 28 28 58 28 28 58 28 28 58 28 28 58 28 28
59 28 28 59 28 28 59 29 28 59 29 29 59 29 29 59 29 29 60 29 29 60 29
29 60 29 29 60 29 29 60 29 29 60 29 29 60 29 29 61 29 29 61 29 29 61
29 29 61 30 29 61 30 29 61 30 29 62 30 29 62 30 30 62 30 30 62 30 30
62 30 30 62 30 30 63 30 30 63 30 30 63 30 30 63 30 30 63 31 30 63 31
30 64 31 30 64 31 30 64 31 30 64 31 30 64 31 30 64 31 31 65 31 31 65
31 31 65 31 31 65 31 31 65 32 31 65 32 31 66 32 31 66 32 31 66 32 31
66 32 31 66 32 31 67 32 31 67 32 31 67 32 31 67 32 32 67 32 32 67 33
32 68 33 32 68 33 32 68 33 32 68 33 32 68 33 32 69 33 32 69 33 32 69
33 32 69 33 32 69 33 32 69 33 32 70 34 33 70 34 33 70 34 33 70 34 33
70 34 33 71 34 33 71 34 33 71 34 33 71 34 33 71 34 33 71 34 33 72 34
33 72 35 33 72 35 33 72 35 34 72 35 34 73 35 34 73 35 34 73 35 34 73
35 34 73 35 34 74 35 34 74 35 34 74 36 34 74 36 34 74 36 34 74 36 34
75 36 34 75 36 35 75 36 35 75 36 35 75 36 35 76 36 35 76 36 35 76 36
35 76 37 35 76 37 35 76 37 35 77 37 35 77 37 35 77 37 35 77 37 36 77
37 36 78 37 36 78 37 36 78 37 36 78 37 36 78 38 36 78 38 36 79 38 36
79 38 36 79 38 36 79 38 36 79 38 36 79 38 36 80 38 37 80 38 37 80 38
37 80 38 37 80 39 37 80 39 37 81 39 37 81 39 37 81 39 37 81 39 37 81
39 37 81 39 37 81 39 37 82 39 37 82 39 38 82 39 38 82 39 38 82 39 38
82 39 38 82 40 38 82 40 38 83 40 38 83 40 38 83 40 38 83 40 38 83 40
38 83 40 38 83 40 38 83 40 38 83 40 38 84 40 39 84 40 39 84 40 39 84
40 39 84 40 39 84 40 39 84 40 39 84 40 39 84 41 39 84 41 39 84 41 39
85 41 39 85 41 39 85 41 39 85 41 39 85 41 39 85 41 39 85 41 39 85 41
39 85 41 39 85 41 40 85 41 40 85 41 40 85 41 40 85 41 40 85 41 40 85
41 40 85 41 40 85 41 40 85 41 40 85 41 40 85 41 40 85 41 40 85 41 40
85 41 40 85 41 40 85 41 40 85 41 40 85 41 40 85 41 40 85 41 40 85 41
40 85 41 40 85 41 40 85 41 40 85 41 40 85 41 40 85 41 40 85 41 40 85
41 40 85 41 40 85 41 40 85 41 40 85 41 40 85 41 40 85 41 40 85 41 40
84 41 40 84 41 40 84 41 40 84 41 40 84 41 40 84 41 40 84 41 40 84 41
40 84 41 40 84 41 40 84 41 40 84 40 40 83 40 40 83 40 40 83 40 40 83
40 40 83 40 40 83 40 40 83 40 40 83 40 40 82 40 40 82 40 40 82 40 40
82 40 40 82 40 40 82 40 40 82 40 40 82 40 40 81 40 40 81 40 40 81 39
40 81 39 40 81 39 40 81 39 40 81 39 40 80 39 40 80 39 40 80 39 40 80
39 40 80 39 40 80 39 40 79 39 40 79 39 40 79 39 40 79 39 40 79 38 40 8
50 30 8 45 30 8 45 29 8 45 29 8 45 29 8 45 29 8 45 29 8 45 29 8 45 29
8 45 29 8 45 29 8 45 29 8 45 29 8 45 29 8 45 29 8 45 29 8 45 29 8 45
29 8 45 29 8 45 29 8 44 29 8 44 29 8 44 29 8 44 29 8 44 29 7 44 29 7
44 29 7 44 29 7 44 29 7 44 29 7 44 29 7 44 29 7 44 29 7 44 29 7 44 29
7 44 29 7 44 29 7 44 29 7 44 29 7 44 29 7 44 29 7 44 29 7 44 29 7 44
29 7 44 29 7 44 29 7 44 29 7 44 29 7 44 29 7 44 29 7 44 29 7 44 29 7
44 29 7 44 29 7 44 29 7 44 29 7 44 29 7 44 29 7 44 29 7 44 29 7 44 29
7 44 29 7 44 29 7 44 29 7 44 29 7 44 29 7 44 29 7 44 29 7 44 29 7 44
29 7 44 29 7 44 29 7 44 29 7 44 29 7 44 29 7 44 29 7 44 29 7 44 29 7
44 29 7 44 29 7 44 29 7 44 29 7 44 29 7 44 29 7 44 29 6 44 29 6 44 29
6 44 29 6 44 29 6 44 29 6 44 29 6 44 29 6 44 29 6 44 29 6 44 29 6 44
29 6 44 29 6 44 29 6 44 29 6 44 29 61 30 33 61 30 33 61 30 33 61 30 33
60 30 33 60 30 33 60 30 32 60 30 32 60 30 32 60 30 32 59 29 32 59 29
32 59 29 32 59 29 32 59 29 32 59 29 32 59 29 32 58 29 32 58 29 32 58
29 32 58 29 32 58 29 31 58 29 31 58 29 31
56 27 27 56 27 27 56 27 27 56 27 27 56 27 28 57 27 28 57 27 28 57 28
28 57 28 28 57 28 28 57 28 28 57 28 28 57 28 28 58 28 28 58 28 28 58
28 28 58 28 28 58 28 28 58 28 28 59 28 28 59 28 28 59 29 28 59 29 28
59 29 29 59 29 29 59 29 29 60 29 29 60 29 29 60 29 29 60 29 29 60 29
29 60 29 29 61 29 29 61 29 29 61 29 29 61 30 29 61 30 29 61 30 29 61
30 29 62 30 29 62 30 30 62 30 30 62 30 30 62 30 30 62 30 30 63 30 30
63 30 30 63 30 30 63 30 30 63 31 30 63 31 30 64 31 30 64 31 30 64 31
30 64 31 30 64 31 30 64 31 31 65 31 31 65 31 31 65 31 31 65 31 31 65
32 31 66 32 31 66 32 31 66 32 31 66 32 31 66 32 31 66 32 31 67 32 31
67 32 31 67 32 31 67 32 32 67 32 32 67 33 32 68 33 32 68 33 32 68 33
32 68 33 32 68 33 32 69 33 32 69 33 32 69 33 32 69 33 32 69 33 32 70
33 32 70 34 33 70 34 33 70 34 33 70 34 33 70 34 33 71 34 33 71 34 33
71 34 33 71 34 33 71 34 33 72 34 33 72 35 33 72 35 33 72 35 34 72 35
34 73 35 34 73 35 34 73 35 34 73 35 34 73 35 34 74 35 34 74 35 34 74
36 34 74 36 34 74 36 34 74 36 34 75 36 34 75 36 35 75 36 35 75 36 35
75 36 35 76 36 35 76 36 35 76 37 35 76 37 35 76 37 35 77 37 35 77 37
35 77 37 35 77 37 35 77 37 36 77 37 36 78 37 36 78 37 36 78 37 36 78
38 36 78 38 36 79 38 36 79 38 36 79 38 36 79 38 36 79 38 36 79 38 36
80 38 37 80 38 37 80 38 37 80 38 37 80 39 37 80 39 37 81 39 37 81 39
37 81 39 37 81 39 37 81 39 37 81 39 37 82 39 37 82 39 37 82 39 38 82
39 38 82 39 38 82 40 38 82 40 38 83 40 38 83 40 38 83 40 38 83 40 38
83 40 38 83 40 38 83 40 38 84 40 38 84 40 38 84 40 38 84 40 39 84 40
39 84 40 39 84 40 39 84 41 39 84 41 39 85 41 39 85 41 39 85 41 39 85
41 39 85 41 39 85 41 39 85 41 39 85 41 39 85 41 39 85 41 39 85 41 39
86 41 40 86 41 40 86 41 40 86 41 40 86 41 40 86 41 40 86 41 40 86 41
40 86 41 40 86 41 40 86 41 40 86 41 40 86 41 40 86 42 40 86 42 40 86
42 40 86 42 40 86 42 40 86 42 40 86 42 40 86 42 40 86 42 40 86 42 40
86 42 40 86 42 41 86 42 41 86 42 41 86 42 41 86 42 41 86 42 41 86 42
41 86 42 41 86 42 41 86 42 41 86 42 41 86 42 41 86 42 41 86 42 41 86
42 41 86 42 41 86 42 41 86 41 41 86 41 41 86 41 41 86 41 41 86 41 41
86 41 41 85 41 41 85 41 41 85 41 41 85 41 41 85 41 41 85 41 41 85 41
41 85 41 41 85 41 41 85 41 41 85 41 41 84 41 41 84 41 41 84 41 41 84
41 41 84 41 41 84 41 41 84 41 41 84 41 41 83 41 41 83 40 41 83 40 41
83 40 41 83 40 41 83 40 41 83 40 41 83 40 41 82 40 41 82 40 41 82 40
41 82 40 40 82 40 40 82 40 40 81 40 40 81 40 40 81 40 40 81 39 40 81
39 40 81 39 40 81 39 40 80 39 40 80 39 40 80 39 40 80 39 40 80 39 40
80 39 40 8 46 30 8 45 30 8 45 30 8 45 30 8 45 30 8 45 30 8 45 30 8 45
30 8 45 30 8 45 29 8 45 29 8 45 29 8 45 29 8 45 29 8 45 29 8 45 29 8
45 29 8 45 29 8 45 29 8 45 29 8 45 29 8 45 29 8 45 29 8 45 29 8 44 29
8 44 29 8 44 29 8 44 29 7 44 29 7 44 29 7 44 29 7 44 29 7 44 29 7 44
29 7 44 29 7 44 29 7 44 29 7 44 29 7 44 29 7 44 29 7 44 29 7 44 29 7
44 29 7 44 29 7 44 29 7 44 29 7 44 29 7 44 29 7 44 29 7 44 29 7 44 29
7 44 29 7 44 29 7 44 29 7 44 29 7 44 29 7 44 29 7 44 29 7 44 29 7 44
29 7 44 29 7 44 29 7 44 29 7 44 29 7 44 29 7 44 29 7 44 29 7 44 29 7
44 29 7 44 29 7 44 29 7 44 29 7 44 29 7 44 29 7 44 29 7 44 29 7 44 29
7 44 29 7 44 29 7 44 29 7 44 29 7 44 29 7 44 29 7 44 29 7 44 29 7 44
29 7 44 29 6 44 29 6 44 29 6 44 29 6 44 29 6 44 29 6 44 29 6 44 29 6
44 29 6 44 29 6 44 29 6 44 29 62 31 33 62 30 33 61 30 33 61 30 33 61
30 33 61 30 33 61 30 33 61 30 33 60 30 33 60 30 33 60 30 33 60 30 32
60 30 32 60 30 32 59 29 32 59 29 32 59 29 32 59 29 32 59 29 32 59 29
32 59 29 32 58 29 32 58 29 32 58 29 32 58 29 32
56 27 27 56 27 28 57 27 28 57 27 28 57 28 28 57 28 28 57 28 28 57 28
28 57 28 28 58 28 28 58 28 28 58 28 28 58 28 28 58 28 28 58 28 28 58
28 28 59 28 28 59 28 28 59 29 28 59 29 28 59 29 29 59 29 29 59 29 29
60 29 29 60 29 29 60 29 29 60 29 29 60 29 29 60 29 29 61 29 29 61 29
29 61 29 29 61 30 29 61 30 29 61 30 29 61 30 29 62 30 29 62 30 30 62
30 30 62 30 30 62 30 30 62 30 30 63 30 30 63 30 30 63 30 30 63 31 30
63 31 30 63 31 30 64 31 30 64 31 30 64 31 30 64 31 30 64 31 31 64 31
31 65 31 31 65 31 31 65 31 31 65 31 31 65 32 31 66 32 31 66 32 31 66
32 31 66 32 31 66 32 31 66 32 31 67 32 31 67 32 31 67 32 32 67 32 32
67 32 32 68 33 32 68 33 32 68 33 32 68 33 32 68 33 32 68 33 32 69 33
32 69 33 32 69 33 32 69 33 32 69 33 32 70 34 33 70 34 33 70 34 33 70
34 33 70 34 33 71 34 33 71 34 33 71 34 33 71 34 33 71 34 33 72 34 33
72 35 33 72 35 33 72 35 33 72 35 34 72 35 34 73 35 34 73 35 34 73 35
34 73 35 34 73 35 34 74 35 34 74 36 34 74 36 34 74 36 34 74 36 34 75
36 34 75 36 35 75 36 35 75 36 35 75 36 35 76 36 35 76 36 35 76 37 35
76 37 35 76 37 35 77 37 35 77 37 35 77 37 35 77 37 35 77 37 36 78 37
36 78 37 36 78 37 36 78 37 36 78 38 36 78 38 36 79 38 36 79 38 36 79
38 36 79 38 36 79 38 36 80 38 36 80 38 37 80 38 37 80 38 37 80 39 37
80 39 37 81 39 37 81 39 37 81 39 37 81 39 37 81 39 37 81 39 37 82 39
37 82 39 37 82 39 38 82 39 38 82 39 38 82 40 38 83 40 38 83 40 38 83
40 38 83 40 38 83 40 38 83 40 38 84 40 38 84 40 38 84 40 38 84 40 38
84 40 39 84 40 39 84 40 39 84 41 39 85 41 39 85 41 39 85 41 39 85 41
39 85 41 39 85 41 39 85 41 39 85 41 39 86 41 39 86 41 39 86 41 39 86
41 39 86 41 40 86 41 40 86 41 40 86 41 40 86 41 40 86 42 40 86 42 40
87 42 40 87 42 40 87 42 40 87 42 40 87 42 40 87 42 40 87 42 40 87 42
40 87 42 40 87 42 40 87 42 40 87 42 40 87 42 41 87 42 41 87 42 41 87
42 41 87 42 41 87 42 41 87 42 41 87 42 41 87 42 41 87 42 41 87 42 41
87 42 41 87 42 41 87 42 41 87 42 41 87 42 41 87 42 41 87 42 41 87 42
41 87 42 41 87 42 41 87 42 41 87 42 41 87 42 41 87 42 41 87 42 41 87
42 41 87 42 41 87 42 41 87 42 41 87 42 41 87 42 41 87 42 41 87 42 41
87 42 41 86 42 41 86 42 41 86 42 41 86 42 41 86 42 41 86 42 41 86 42
41 86 42 41 86 42 41 86 41 41 86 41 41 85 41 41 85 41 41 85 41 41 85
41 41 85 41 41 85 41 41 85 41 41 85 41 41 84 41 41 84 41 41 84 41 41
84 41 41 84 41 41 84 41 41 84 41 41 83 41 41 83 41 41 83 40 41 83 40
41 83 40 41 83 40 41 83 40 41 82 40 41 82 40 41 82 40 41 82 40 41 82
40 41 82 40 41 81 40 41 81 40 41 81 40 41 81 39 41 81 39 40 81 39 40
80 39 40 8 48 30 8 45 30 8 45 30 8 45 30 8 45 30 8 45 30 8 45 30 8 45
30 8 45 30 8 45 30 8 45 30 8 45 30 8 45 30 8 45 30 8 45 30 8 45 30 8
45 30 8 45 29 8 45 29 8 45 29 8 45 29 8 45 29 8 45 29 8 45 29 8 45 29
8 45 29 8 45 29 8 45 29 8 45 29 8 44 29 8 44 29 8 44 29 7 44 29 7 44
29 7 44 29 7 44 29 7 44 29 7 44 29 7 44 29 7 44 29 7 44 29 7 44 29 7
44 29 7 44 29 7 44 29 7 44 29 7 44 29 7 44 29 7 44 29 7 44 29 7 44 29
7 44 29 7 44 29 7 44 29 7 44 29 7 44 29 7 44 29 7 44 29 7 44 29 7 44
29 7 44 29 7 44 29 7 44 29 7 44 29 7 44 29 7 44 29 7 44 29 7 44 29 7
44 29 7 44 29 7 44 29 7 44 29 7 44 29 7 44 29 7 44 29 7 44 29 7 44 29
7 44 29 7 44 29 7 44 29 7 44 29 7 44 29 7 44 29 7 44 29 7 44 29 7 44
29 7 44 29 7 44 29 7 44 29 7 44 29 6 44 29 6 44 29 6 44 29 6 44 29 6
44 29 6 44 29 6 44 29 6 44 29 62 31 34 62 31 34 62 31 33 62 31 33 62
31 33 61 30 33 61 30 33 61 30 33 61 30 33 61 30 33 61 30 33 60 30 33
60 30 33 60 30 33 60 30 33 60 30 33 60 30 32 60 30 32 59 29 32 59 29
32 59 29 32 59 29 32 59 29 32 59 29 32 58 29 32
57 28 28 57 28 28 57 28 28 57 28 28 57 28 28 57 28 28 58 28 28 58 28
28 58 28 28 58 28 28 58 28 28 58 28 28 58 28 28 59 28 28 59 28 28 59
29 28 59 29 28 59 29 29 59 29 29 59 29 29 60 29 29 60 29 29 60 29 29
60 29 29 60 29 29 60 29 29 61 29 29 61 29 29 61 29 29 61 30 29 61 30
29 61 30 29 61 30 29 62 30 29 62 30 30 62 30 30 62 30 30 62 30 30 62
30 30 63 30 30 63 30 30 63 30 30 63 31 30 63 31 30 63 31 30 64 31 30
64 31 30 64 31 30 64 31 30 64 31 31 65 31 31 65 31 31 65 31 31 65 31
31 65 31 31 65 32 31 66 32 31 66 32 31 66 32 31 66 32 31 66 32 31 66
32 31 67 32 31 67 32 31 67 32 32 67 32 32 67 32 32 68 33 32 68 33 32
68 33 32 68 33 32 68 33 32 69 33 32 69 33 32 69 33 32 69 33 32 69 33
32 69 33 32 70 34 33 70 34 33 70 34 33 70 34 33 70 34 33 71 34 33 71
34 33 71 34 33 71 34 33 71 34 33 72 34 33 72 35 33 72 35 33 72 35 34
72 35 34 73 35 34 73 35 34 73 35 34 73 35 34 73 35 34 74 35 34 74 35
34 74 36 34 74 36 34 74 36 34 75 36 34 75 36 35 75 36 35 75 36 35 75
36 35 76 36 35 76 36 35 76 36 35 76 37 35 76 37 35 77 37 35 77 37 35
77 37 35 77 37 35 77 37 36 78 37 36 78 37 36 78 37 36 78 37 36 78 38
36 79 38 36 79 38 36 79 38 36 79 38 36 79 38 36 79 38 36 80 38 36 80
38 37 80 38 37 80 38 37 80 39 37 81 39 37 81 39 37 81 39 37 81 39 37
81 39 37 81 39 37 82 39 37 82 39 37 82 39 37 82 39 38 82 40 38 83 40
38 83 40 38 83 40 38 83 40 38 83 40 38 83 40 38 84 40 38 84 40 38 84
40 38 84 40 38 84 40 38 84 40 39 84 41 39 85 41 39 85 41 39 85 41 39
85 41 39 85 41 39 85 41 39 85 41 39 86 41 39 86 41 39 86 41 39 86 41
39 86 41 39 86 41 40 86 41 40 86 41 40 87 42 40 87 42 40 87 42 40 87
42 40 87 42 40 87 42 40 87 42 40 87 42 40 87 42 40 87 42 40 88 42 40
88 42 40 88 42 40 88 42 40 88 42 41 88 42 41 88 42 41 88 42 41 88 42
41 88 42 41 88 42 41 88 42 41 88 42 41 88 42 41 88 42 41 88 43 41 88
43 41 88 43 41 88 43 41 88 43 41 88 43 41 88 43 41 88 43 41 88 43 41
88 43 41 88 43 41 88 43 41 88 43 41 88 43 41 88 43 42 88 43 42 88 43
42 88 43 42 88 43 42 88 43 42 88 43 42 88 43 42 88 43 42 88 43 42 88
43 42 88 43 42 88 42 42 88 42 42 88 42 42 88 42 42 88 42 42 88 42 42
88 42 42 87 42 42 87 42 42 87 42 42 87 42 42 87 42 42 87 42 42 87 42
42 87 42 42 87 42 42 87 42 42 87 42 42 86 42 42 86 42 42 86 42 42 86
42 42 86 42 42 86 42 42 86 42 42 86 42 42 85 41 42 85 41 42 85 41 42
85 41 42 85 41 42 85 41 42 85 41 42 84 41 42 84 41 42 84 41 41 84 41
41 84 41 41 84 41 41 84 41 41 83 41 41 83 41 41 83 40 41 83 40 41 83
40 41 83 40 41 82 40 41 82 40 41 82 40 41 82 40 41 82 40 41 81 40 41
81 40 41 81 40 41 8 45 30 8 45 30 8 45 30 8 45 30 8 45 30 8 45 30 8 45
30 8 45 30 8 45 30 8 45 30 8 45 30 8 45 30 8 45 30 8 45 30 8 45 30 8
45 30 8 45 30 8 45 30 8 45 30 8 45 30 8 45 30 8 45 30 8 45 30 8 45 29
8 45 29 8 45 29 8 45 29 8 45 29 8 45 29 8 45 29 8 45 29 8 45 29 8 44
29 8 44 29 8 44 29 7 44 29 7 44 29 7 44 29 7 44 29 7 44 29 7 44 29 7
44 29 7 44 29 7 44 29 7 44 29 7 44 29 7 44 29 7 44 29 7 44 29 7 44 29
7 44 29 7 44 29 7 44 29 7 44 29 7 44 29 7 44 29 7 44 29 7 44 29 7 44
29 7 44 29 7 44 29 7 44 29 7 44 29 7 44 29 7 44 29 7 44 29 7 44 29 7
44 29 7 44 29 7 44 29 7 44 29 7 44 29 7 44 29 7 44 29 7 44 29 7 44 29
7 44 29 7 44 29 7 44 29 7 44 29 7 44 29 7 44 29 7 44 29 7 44 29 7 44
29 7 44 29 7 44 29 7 44 29 7 44 29 7 44 29 7 44 29 7 44 29 6 44 29 6
44 29 6 44 29 6 44 29 63 31 34 63 31 34 63 31 34 62 31 34 62 31 34 62
31 34 62 31 34 62 31 33 62 31 33 61 30 33 61 30 33 61 30 33 61 30 33
61 30 33 61 30 33 60 30 33 60 30 33 60 30 33 60 30 33 60 30 33 60 30
33 60 30 32 59 29 32 59 29 32 59 29 32 59 29 32
57 28 28 57 28 28 57 28 28 58 28 28 58 28 28 58 28 28 58 28 28 58 28
28 58 28 28 58 28 28 59 28 28 59 28 28 59 29 28 59 29 28 59 29 29 59
29 29 59 29 29 60 29 29 60 29 29 60 29 29 60 29 29 60 29 29 60 29 29
61 29 29 61 29 29 61 29 29 61 30 29 61 30 29 61 30 29 61 30 29 62 30
30 62 30 30 62 30 30 62 30 30 62 30 30 62 30 30 63 30 30 63 30 30 63
30 30 63 31 30 63 31 30 63 31 30 64 31 30 64 31 30 64 31 30 64 31 30
64 31 31 65 31 31 65 31 31 65 31 31 65 31 31 65 31 31 65 32 31 66 32
31 66 32 31 66 32 31 66 32 31 66 32 31 66 32 31 67 32 31 67 32 31 67
32 32 67 32 32 67 33 32 68 33 32 68 33 32 68 33 32 68 33 32 68 33 32
69 33 32 69 33 32 69 33 32 69 33 32 69 33 32 70 33 32 70 34 33 70 34
33 70 34 33 70 34 33 70 34 33 71 34 33 71 34 33 71 34 33 71 34 33 71
34 33 72 34 33 72 35 33 72 35 33 72 35 34 72 35 34 73 35 34 73 35 34
73 35 34 73 35 34 73 35 34 74 35 34 74 36 34 74 36 34 74 36 34 74 36
34 75 36 34 75 36 35 75 36 35 75 36 35 75 36 35 76 36 35 76 36 35 76
37 35 76 37 35 76 37 35 77 37 35 77 37 35 77 37 35 77 37 36 78 37 36
78 37 36 78 37 36 78 37 36 78 38 36 79 38 36 79 38 36 79 38 36 79 38
36 79 38 36 79 38 36 80 38 36 80 38 37 80 38 37 80 39 37 80 39 37 81
39 37 81 39 37 81 39 37 81 39 37 81 39 37 82 39 37 82 39 37 82 39 37
82 39 38 82 39 38 83 40 38 83 40 38 83 40 38 83 40 38 83 40 38 83 40
38 84 40 38 84 40 38 84 40 38 84 40 38 84 40 38 84 40 39 85 41 39 85
41 39 85 41 39 85 41 39 85 41 39 85 41 39 86 41 39 86 41 39 86 41 39
86 41 39 86 41 39 86 41 39 86 41 39 87 42 40 87 42 40 87 42 40 87 42
40 87 42 40 87 42 40 87 42 40 87 42 40 88 42 40 88 42 40 88 42 40 88
42 40 88 42 40 88 42 40 88 42 40 88 42 41 88 42 41 88 42 41 89 43 41
89 43 41 89 43 41 89 43 41 89 43 41 89 43 41 89 43 41 89 43 41 89 43
41 89 43 41 89 43 41 89 43 41 89 43 41 89 43 41 89 43 41 89 43 41 89
43 42 89 43 42 89 43 42 89 43 42 90 43 42 90 43 42 90 43 42 90 43 42
90 43 42 90 43 42 90 43 42 90 43 42 89 43 42 89 43 42 89 43 42 89 43
42 89 43 42 89 43 42 89 43 42 89 43 42 89 43 42 89 43 42 89 43 42 89
43 42 89 43 42 89 43 42 89 43 42 89 43 42 89 43 42 89 43 42 89 43 42
89 43 42 88 43 42 88 43 42 88 43 42 88 43 42 88 43 42 88 43 42 88 43
42 88 43 42 88 42 42 88 42 42 88 42 42 87 42 42 87 42 42 87 42 42 87
42 42 87 42 42 87 42 42 87 42 42 87 42 42 86 42 42 86 42 42 86 42 42
86 42 42 86 42 42 86 42 42 86 42 42 85 42 42 85 41 42 85 41 42 85 41
42 85 41 42 85 41 42 84 41 42 84 41 42 84 41 42 84 41 42 84 41 42 84
41 42 83 41 42 83 41 42 83 41 42 83 40 41 83 40 41 83 40 41 82 40 41
82 40 41 82 40 41 8 48 30 8 45 30 8 45 30 8 45 30 8 45 30 8 45 30 8 45
30 8 45 30 8 45 30 8 45 30 8 45 30 8 45 30 8 45 30 8 45 30 8 45 30 8
45 30 8 45 30 8 45 30 8 45 30 8 45 30 8 45 30 8 45 30 8 45 30 8 45 30
8 45 30 8 45 30 8 45 30 8 45 30 8 45 30 8 45 29 8 45 29 8 45 29 8 45
29 8 45 29 8 45 29 8 45 29 8 44 29 8 44 29 7 44 29 7 44 29 7 44 29 7
44 29 7 44 29 7 44 29 7 44 29 7 44 29 7 44 29 2 42 28 2 42 28 2 42 28
2 42 28 2 42 28 2 42 28 2 42 28 2 42 28 2 42 28 2 42 28 2 42 28 2 42
28 2 42 28 2 42 28 2 42 28 2 42 28 2 42 28 2 42 28 2 42 28 2 42 28 2
42 28 2 42 28 2 42 28 2 42 28 2 42 28 7 44 29 7 44 29 7 44 29 7 44 29
7 44 29 7 44 29 7 44 29 7 44 29 7 44 29 7 44 29 7 44 29 7 44 29 7 44
29 7 44 29 7 44 29 7 44 29 7 44 29 7 44 29 7 44 29 7 44 29 7 44 29 7
44 29 7 44 29 64 32 34 63 31 34 63 31 34 63 31 34 63 31 34 63 31 34 63
31 34 62 31 34 62 31 34 62 31 34 62 31 34 62 31 34 62 31 33 61 30 33
61 30 33 61 30 33 61 30 33 61 30 33 61 30 33 61 30 33 60 30 33 60 30
33 60 30 33 60 30 33 60 30 33 60 30 33 59 30 32
57 28 28 58 28 28 58 28 28 58 28 28 58 28 28 58 28 28 58 28 28 59 28
28 59 28 28 59 29 28 59 29 28 59 29 29 59 29 29 59 29 29 60 29 29 60
29 29 60 29 29 60 29 29 60 29 29 60 29 29 61 29 29 61 29 29 61 29 29
61 30 29 61 30 29 61 30 29 61 30 29 62 30 30 62 30 30 62 30 30 62 30
30 62 30 30 62 30 30 63 30 30 63 30 30 63 30 30 63 31 30 63 31 30 63
31 30 64 31 30 64 31 30 64 31 30 64 31 30 64 31 31 65 31 31 65 31 31
65 31 31 65 31 31 65 31 31 65 32 31 66 32 31 66 32 31 66 32 31 66 32
31 66 32 31 66 32 31 67 32 31 67 32 31 67 32 32 67 32 32 67 33 32 68
33 32 68 33 32 68 33 32 68 33 32 68 33 32 69 33 32 69 33 32 69 33 32
69 33 32 69 33 32 70 33 32 70 34 33 70 34 33 70 34 33 70 34 33 71 34
33 71 34 33 71 34 33 71 34 33 71 34 33 72 34 33 72 34 33 72 35 33 72
35 33 72 35 34 73 35 34 73 35 34 73 35 34 73 35 34 73 35 34 74 35 34
74 35 34 74 36 34 74 36 34 74 36 34 75 36 34 75 36 34 75 36 35 75 36
35 75 36 35 76 36 35 76 36 35 76 36 35 76 37 35 76 37 35 77 37 35 77
37 35 77 37 35 77 37 35 77 37 36 78 37 36 78 37 36 78 37 36 78 38 36
78 38 36 79 38 36 79 38 36 79 38 36 79 38 36 79 38 36 80 38 36 80 38
37 80 38 37 80 39 37 81 39 37 81 39 37 81 39 37 81 39 37 81 39 37 81
39 37 82 39 37 82 39 37 82 39 37 82 39 38 82 40 38 83 40 38 83 40 38
83 40 38 83 40 38 83 40 38 84 40 38 84 40 38 84 40 38 84 40 38 84 40
38 84 41 38 85 41 39 85 41 39 85 41 39 85 41 39 85 41 39 86 41 39 86
41 39 86 41 39 86 41 39 86 41 39 86 41 39 86 41 39 87 42 40 87 42 40
87 42 40 87 42 40 87 42 40 87 42 40 88 42 40 88 42 40 88 42 40 88 42
40 88 42 40 88 42 40 88 42 40 88 42 40 89 42 41 89 43 41 89 43 41 89
43 41 89 43 41 89 43 41 89 43 41 89 43 41 89 43 41 89 43 41 90 43 41
90 43 41 90 43 41 90 43 41 90 43 41 90 43 41 90 43 41 90 43 42 90 43
42 90 43 42 90 43 42 90 43 42 90 43 42 90 43 42 90 43 42 90 43 42 90
44 42 90 44 42 91 44 42 91 44 42 91 44 42 91 44 42 91 44 42 91 44 42
91 44 42 91 44 42 91 44 42 91 44 42 91 44 42 91 44 42 91 44 42 90 44
43 90 44 43 90 44 43 90 44 43 90 44 43 90 44 43 90 44 43 90 44 43 90
44 43 90 44 43 90 43 43 90 43 43 90 43 43 90 43 43 90 43 43 90 43 43
90 43 43 90 43 43 89 43 43 89 43 43 89 43 43 89 43 43 89 43 43 89 43
43 89 43 43 89 43 43 89 43 43 89 43 43 88 43 43 88 43 43 88 43 43 88
43 43 88 43 43 88 43 43 88 43 43 88 42 43 87 42 43 87 42 43 87 42 43
87 42 43 87 42 43 87 42 43 86 42 43 86 42 42 86 42 42 86 42 42 86 42
42 86 42 42 86 42 42 85 42 42 85 41 42 85 41 42 85 41 42 85 41 42 85
41 42 84 41 42 84 41 42 84 41 42 84 41 42 84 41 42 83 41 42 83 41 42
83 41 42 83 40 42 83 40 42 8 45 30 8 45 30 8 45 30 8 45 30 8 45 30 8
45 30 8 45 30 8 45 30 8 45 30 8 45 30 8 45 30 8 45 30 8 45 30 8 45 30
8 45 30 8 45 30 8 45 30 8 45 30 8 45 30 8 45 30 8 45 30 8 45 30 8 45
30 8 45 30 8 45 30 8 45 30 8 45 30 8 45 30 8 45 30 8 45 30 8 45 30 8
45 30 8 45 30 8 45 30 8 45 29 8 45 29 8 45 29 8 45 29 8 45 29 8 44 29
2 42 29 2 42 29 2 42 29 2 42 28 2 42 28 2 42 28 2 42 28 2 42 28 2 42
28 2 42 28 2 42 28 2 42 28 2 42 28 2 42 28 2 42 28 2 42 28 2 42 28 2
42 28 2 42 28 2 42 28 2 42 28 2 42 28 2 42 28 2 42 28 2 42 28 2 42 28
2 42 28 2 42 28 2 42 28 2 42 28 2 42 28 2 42 28 2 42 28 2 42 28 2 42
28 2 42 28 2 42 28 7 44 29 7 44 29 7 44 29 7 44 29 7 44 29 7 44 29 7
44 29 7 44 29 7 44 29 7 44 29 7 44 29 7 44 29 7 44 29 7 44 29 7 44 29
7 44 29 7 44 29 64 32 35 64 32 35 64 32 35 64 32 34 63 31 34 63 31 34
63 31 34 63 31 34 63 31 34 63 31 34 62 31 34 62 31 34 62 31 34 62 31
34 62 31 34 62 31 34 61 31 33 61 30 33 61 30 33 61 30 33 61 30 33 61
30 33 61 30 33 60 30 33 60 30 33 60 30 33 60 30 33
58 28 28 58 28 28 58 28 28 58 28 28 58 28 28 59 28 28 59 28 28 59 29
28 59 29 29 59 29 29 59 29 29 60 29 29 60 29 29 60 29 29 60 29 29 60
29 29 60 29 29 60 29 29 61 29 29 61 29 29 61 30 29 61 30 29 61 30 29
61 30 29 62 30 29 62 30 30 62 30 30 62 30 30 62 30 30 62 30 30 63 30
30 63 30 30 63 30 30 63 31 30 63 31 30 63 31 30 64 31 30 64 31 30 64
31 30 64 31 30 64 31 31 64 31 31 65 31 31 65 31 31 65 31 31 65 31 31
65 32 31 66 32 31 66 32 31 66 32 31 66 32 31 66 32 31 66 32 31 67 32
31 67 32 31 67 32 32 67 32 32 67 33 32 68 33 32 68 33 32 68 33 32 68
33 32 68 33 32 69 33 32 69 33 32 69 33 32 69 33 32 69 33 32 70 33 32
70 34 33 70 34 33 70 34 33 70 34 33 71 34 33 71 34 33 71 34 33 71 34
33 71 34 33 72 34 33 72 35 33 72 35 33 72 35 33 72 35 34 73 35 34 73
35 34 73 35 34 73 35 34 73 35 34 74 35 34 74 35 34 74 36 34 74 36 34
74 36 34 75 36 34 75 36 35 75 36 35 75 36 35 75 36 35 76 36 35 76 36
35 76 37 35 76 37 35 76 37 35 77 37 35 77 37 35 77 37 35 77 37 35 78
37 36 78 37 36 78 37 36 78 38 36 78 38 36 79 38 36 79 38 36 79 38 36
79 38 36 79 38 36 80 38 36 80 38 36 80 38 37 80 39 37 80 39 37 81 39
37 81 39 37 81 39 37 81 39 37 82 39 37 82 39 37 82 39 37 82 39 37 82
39 38 83 40 38 83 40 38 83 40 38 83 40 38 83 40 38 84 40 38 84 40 38
84 40 38 84 40 38 84 40 38 84 40 38 85 41 39 85 41 39 85 41 39 85 41
39 85 41 39 86 41 39 86 41 39 86 41 39 86 41 39 86 41 39 86 41 39 87
42 39 87 42 39 87 42 40 87 42 40 87 42 40 87 42 40 88 42 40 88 42 40
88 42 40 88 42 40 88 42 40 88 42 40 88 42 40 89 42 40 89 43 40 89 43
41 89 43 41 89 43 41 89 43 41 89 43 41 90 43 41 90 43 41 90 43 41 90
43 41 90 43 41 90 43 41 90 43 41 90 43 41 90 43 41 90 43 41 91 43 42
91 44 42 91 44 42 91 44 42 91 44 42 91 44 42 91 44 42 91 44 42 91 44
42 91 44 42 91 44 42 91 44 42 91 44 42 91 44 42 91 44 42 91 44 42 91
44 42 92 44 42 92 44 42 92 44 43 92 44 43 92 44 43 92 44 43 92 44 43
92 44 43 92 44 43 92 44 43 92 44 43 92 44 43 92 44 43 92 44 43 92 44
43 91 44 43 91 44 43 91 44 43 91 44 43 91 44 43 91 44 43 91 44 43 91
44 43 91 44 43 91 44 43 91 44 43 91 44 43 91 44 43 91 44 43 91 44 43
91 44 43 91 44 43 90 44 43 90 44 43 90 44 43 90 44 43 90 44 43 90 44
43 90 44 43 90 43 43 90 43 43 90 43 43 89 43 43 89 43 43 89 43 43 89
43 43 89 43 43 89 43 43 89 43 43 88 43 43 88 43 43 88 43 43 88 43 43
88 43 43 88 43 43 88 43 43 87 43 43 87 42 43 87 42 43 87 42 43 87 42
43 87 42 43 86 42 43 86 42 43 86 42 43 86 42 43 86 42 43 86 42 43 85
42 43 85 42 43 85 41 43 85 41 42 85 41 42 85 41 42 84 41 42 84 41 42
84 41 42 84 41 42 84 41 42 83 41 42 8 45 30 8 45 30 8 45 30 8 45 30 8
45 30 8 45 30 8 45 30 8 45 30 8 45 30 8 45 30 8 45 30 8 45 30 8 45 30
8 45 30 8 45 30 8 45 30 8 45 30 8 45 30 8 45 30 8 45 30 8 45 30 8 45
30 8 45 30 8 45 30 8 45 30 8 45 30 8 45 30 8 45 30 8 45 30 8 45 30 8
45 30 8 45 30 8 45 30 8 45 30 2 42 29 2 42 29 2 42 29 2 42 29 2 42 29
2 42 29 2 42 29 2 42 29 2 42 29 2 42 29 2 42 29 2 42 29 2 42 29 2 42
29 2 42 29 2 42 28 2 42 28 2 42 28 2 42 28 2 42 28 2 42 28 2 42 28 2
42 28 2 42 28 2 42 28 2 42 28 2 42 28 2 42 28 2 42 28 2 42 28 2 42 28
2 42 28 2 42 28 2 42 28 2 42 28 2 42 28 2 42 28 2 42 28 2 42 28 2 42
28 2 42 28 2 42 28 2 42 28 2 42 28 2 42 28 2 42 28 7 44 29 7 44 29 7
44 29 7 44 29 7 44 29 7 44 29 7 44 29 7 44 29 7 44 29 7 44 29 7 44 29
7 44 29 65 32 35 65 32 35 65 32 35 64 32 35 64 32 35 64 32 35 64 32 35
64 32 35 63 31 34 63 31 34 63 31 34 63 31 34 63 31 34 63 31 34 62 31
34 62 31 34 62 31 34 62 31 34 62 31 34 62 31 34 61 31 34 61 30 33 61
30 33 61 30 33 61 30 33 61 30 33 61 30 33 60 30 33
16 10 21 16 10 21 59 28 28 59 28 28 59 29 28 59 29 29 59 29 29 59 29
29 60 29 29 60 29 29 60 29 29 60 29 29 60 29 29 60 29 29 60 29 29 61
29 29 61 29 29 61 29 29 61 30 29 61 30 29 61 30 29 62 30 29 62 30 30
62 30 30 62 30 30 62 30 30 62 30 30 63 30 30 63 30 30 63 30 30 63 30
30 63 31 30 63 31 30 64 31 30 64 31 30 64 31 30 64 31 30 64 31 31 64
31 31 65 31 31 65 31 31 65 31 31 65 31 31 65 32 31 66 32 31 66 32 31
66 32 31 66 32 31 66 32 31 66 32 31 67 32 31 67 32 31 67 32 32 67 32
32 67 32 32 68 33 32 68 33 32 68 33 32 68 33 32 68 33 32 69 33 32 69
33 32 69 33 32 69 33 32 69 33 32 70 33 32 70 34 33 70 34 33 70 34 33
70 34 33 71 34 33 71 34 33 71 34 33 71 34 33 71 34 33 72 34 33 72 35
33 72 35 33 72 35 33 72 35 34 73 35 34 73 35 34 73 35 34 73 35 34 73
35 34 74 35 34 74 35 34 74 36 34 74 36 34 74 36 34 75 36 34 75 36 35
75 36 35 75 36 35 75 36 35 76 36 35 76 36 35 76 37 35 76 37 35 77 37
35 77 37 35 77 37 35 77 37 35 77 37 36 78 37 36 78 37 36 78 37 36 78
38 36 78 38 36 79 38 36 79 38 36 79 38 36 79 38 36 80 38 36 80 38 36
80 38 37 80 38 37 80 39 37 81 39 37 81 39 37 81 39 37 81 39 37 81 39
37 82 39 37 82 39 37 82 39 37 82 39 37 83 40 38 83 40 38 83 40 38 83
40 38 83 40 38 84 40 38 84 40 38 84 40 38 84 40 38 84 40 38 85 41 38
85 41 39 85 41 39 85 41 39 85 41 39 86 41 39 86 41 39 86 41 39 86 41
39 86 41 39 86 41 39 87 42 39 87 42 39 87 42 40 87 42 40 87 42 40 88
42 40 88 42 40 88 42 40 88 42 40 88 42 40 88 42 40 89 42 40 89 43 40
89 43 40 89 43 40 89 43 41 89 43 41 89 43 41 90 43 41 90 43 41 90 43
41 90 43 41 90 43 41 90 43 41 90 43 41 91 43 41 91 43 41 91 44 41 91
44 42 91 44 42 91 44 42 91 44 42 91 44 42 91 44 42 91 44 42 92 44 42
92 44 42 92 44 42 92 44 42 92 44 42 92 44 42 92 44 42 92 44 42 92 44
42 92 44 43 92 44 43 92 44 43 92 44 43 92 44 43 92 44 43 93 44 43 93
44 43 93 45 43 93 45 43 93 45 43 93 45 43 93 45 43 93 45 43 93 45 43
93 45 43 93 45 43 93 45 43 93 45 43 93 45 43 93 45 43 93 45 43 93 45
43 93 45 43 93 45 43 92 45 44 92 45 44 92 45 44 92 45 44 92 45 44 92
45 44 92 45 44 92 44 44 92 44 44 92 44 44 92 44 44 92 44 44 92 44 44
92 44 44 92 44 44 91 44 44 91 44 44 91 44 44 91 44 44 91 44 44 91 44
44 91 44 44 91 44 44 91 44 44 91 44 44 90 44 44 90 44 44 90 44 44 90
44 44 90 44 44 90 44 44 90 43 44 89 43 44 89 43 44 89 43 44 89 43 44
89 43 44 89 43 44 89 43 44 88 43 44 88 43 43 88 43 43 88 43 43 88 43
43 88 43 43 87 43 43 87 42 43 87 42 43 87 42 43 87 42 43 87 42 43 86
42 43 86 42 43 86 42 43 86 42 43 86 42 43 85 42 43 85 42 43 85 42 43
85 41 43 85 41 43 84 41 43 84 41 43 8 45 30 8 45 30 8 45 30 8 45 30 8
45 30 8 45 30 8 45 30 8 45 30 8 45 30 8 45 30 8 45 30 8 45 30 8 45 30
8 45 30 8 45 30 8 45 30 8 45 30 8 45 30 8 45 30 8 45 30 8 45 30 8 45
30 8 45 30 8 45 30 8 45 30 8 45 30 8 45 30 8 45 30 8 45 30 8 45 30 8
45 30 2 42 29 2 42 29 2 42 29 2 42 29 2 42 29 2 42 29 2 42 29 2 42 29
2 42 29 2 42 29 2 42 29 2 42 29 2 42 29 2 42 29 2 42 29 2 42 29 2 42
29 2 42 29 2 42 29 2 42 29 2 42 29 2 42 29 2 42 29 2 42 29 2 42 28 2
42 28 2 42 28 2 42 28 2 42 28 2 42 28 2 42 28 2 42 28 2 42 28 2 42 28
2 42 28 2 42 28 2 42 28 2 42 28 2 42 28 2 42 28 2 42 28 2 42 28 2 42
28 2 42 28 2 42 28 2 42 28 2 42 28 2 42 28 2 42 28 2 42 28 2 42 28 2
42 28 7 44 29 7 44 29 7 44 29 7 44 29 7 44 29 7 44 29 7 44 29 7 44 29
66 33 36 65 32 35 65 32 35 65 32 35 65 32 35 65 32 35 65 32 35 64 32
35 64 32 35 64 32 35 64 32 35 64 32 35 63 31 35 63 31 34 63 31 34 63
31 34 63 31 34 63 31 34 62 31 34 62 31 34 62 31 34 62 31 34 62 31 34
62 31 34 61 31 34 61 30 34 61 30 33 61 30 33 61 30 33
16 10 21 16 10 21 16 10 21 16 10 21 59 29 29 59 29 29 60 29 29 60 29
29 60 29 29 60 29 29 60 29 29 60 29 29 61 29 29 61 29 29 61 29 29 61
30 29 61 30 29 61 30 29 62 30 29 62 30 30 62 30 30 62 30 30 62 30 30
62 30 30 63 30 30 63 30 30 63 30 30 63 30 30 63 31 30 63 31 30 64 31
30 64 31 30 64 31 30 64 31 30 64 31 31 64 31 31 65 31 31 65 31 31 65
31 31 65 31 31 65 32 31 66 32 31 66 32 31 66 32 31 66 32 31 66 32 31
66 32 31 67 32 31 67 32 31 67 32 32 67 32 32 67 32 32 68 33 32 68 33
32 68 33 32 68 33 32 68 33 32 69 33 32 69 33 32 69 33 32 69 33 32 69
33 32 70 33 32 70 34 33 70 34 33 70 34 33 70 34 33 71 34 33 71 34 33
71 34 33 71 34 33 71 34 33 72 34 33 72 35 33 72 35 33 72 35 33 72 35
34 73 35 34 73 35 34 73 35 34 73 35 34 73 35 34 74 35 34 74 35 34 74
36 34 74 36 34 74 36 34 75 36 34 75 36 35 75 36 35 75 36 35 76 36 35
76 36 35 76 36 35 76 37 35 76 37 35 77 37 35 77 37 35 77 37 35 77 37
35 77 37 36 78 37 36 78 37 36 78 37 36 78 38 36 79 38 36 79 38 36 79
38 36 79 38 36 79 38 36 80 38 36 80 38 36 80 38 37 80 39 37 81 39 37
81 39 37 81 39 37 81 39 37 81 39 37 82 39 37 82 39 37 82 39 37 82 39
37 82 40 38 83 40 38 83 40 38 83 40 38 83 40 38 84 40 38 84 40 38 84
40 38 84 40 38 84 40 38 85 41 38 85 41 38 85 41 39 85 41 39 85 41 39
86 41 39 86 41 39 86 41 39 86 41 39 86 41 39 87 41 39 87 42 39 87 42
39 87 42 40 87 42 40 88 42 40 88 42 40 88 42 40 88 42 40 88 42 40 88
42 40 89 42 40 89 43 40 89 43 40 89 43 40 89 43 41 89 43 41 90 43 41
90 43 41 90 43 41 90 43 41 90 43 41 90 43 41 91 43 41 91 43 41 91 44
41 91 44 41 91 44 41 91 44 42 91 44 42 91 44 42 92 44 42 92 44 42 92
44 42 92 44 42 92 44 42 92 44 42 92 44 42 92 44 42 92 44 42 93 44 42
93 44 42 93 45 43 93 45 43 93 45 43 93 45 43 93 45 43 93 45 43 93 45
43 93 45 43 93 45 43 93 45 43 93 45 43 93 45 43 94 45 43 94 45 43 94
45 43 94 45 43 94 45 43 94 45 43 94 45 43 94 45 44 94 45 44 94 45 44
94 45 44 94 45 44 94 45 44 94 45 44 94 45 44 94 45 44 94 45 44 94 45
44 94 45 44 94 45 44 94 45 44 93 45 44 93 45 44 93 45 44 93 45 44 93
45 44 93 45 44 93 45 44 93 45 44 93 45 44 93 45 44 93 45 44 93 45 44
93 45 44 93 45 44 93 45 44 92 45 44 92 45 44 92 45 44 92 45 44 92 45
44 92 45 44 92 44 44 92 44 44 92 44 44 91 44 44 91 44 44 91 44 44 91
44 44 91 44 44 91 44 44 91 44 44 90 44 44 90 44 44 90 44 44 90 44 44
90 44 44 90 44 44 90 44 44 89 43 44 89 43 44 89 43 44 89 43 44 89 43
44 89 43 44 88 43 44 88 43 44 88 43 44 88 43 44 88 43 44 87 43 44 87
43 44 87 42 44 87 42 44 87 42 43 87 42 43 86 42 43 86 42 43 86 42 43
86 42 43 86 42 43 85 42 43 85 42 43 85 42 43 8 45 30 8 45 30 8 45 30 8
45 30 8 45 30 8 45 30 8 45 30 8 45 30 8 45 30 8 45 30 8 45 30 8 45 30
8 45 30 8 45 30 8 45 30 8 45 30 8 45 30 8 45 30 8 45 30 8 45 30 8 45
30 8 45 30 8 45 30 8 45 30 8 45 30 8 45 30 8 45 30 2 42 29 2 42 29 2
42 29 2 42 29 2 42 29 2 42 29 2 42 29 2 42 29 2 42 29 2 42 29 2 42 29
2 42 29 2 42 29 2 42 29 2 42 29 2 42 29 2 42 29 2 42 29 2 42 29 2 42
29 2 42 29 2 42 29 2 42 29 2 42 29 2 42 29 2 42 29 2 42 29 2 42 29 2
42 29 2 42 29 2 42 29 2 42 29 2 42 29 2 42 28 2 42 28 2 42 28 2 42 28
2 42 28 2 42 28 2 42 28 2 42 28 2 42 28 2 42 28 2 42 28 2 42 28 2 42
28 2 42 28 2 42 28 2 42 28 2 42 28 2 42 28 2 42 28 2 42 28 2 42 28 2
42 28 2 42 28 2 42 28 7 44 29 7 44 29 7 44 29 7 44 29 7 44 29 66 33 36
66 33 36 66 33 36 66 33 36 66 33 36 65 32 36 65 32 35 65 32 35 65 32
35 65 32 35 65 32 35 64 32 35 64 32 35 64 32 35 64 32 35 64 32 35 63
32 35 63 31 35 63 31 34 63 31 34 63 31 34 63 31 34 62 31 34 62 31 34
62 31 34 62 31 34 62 31 34 62 31 34 61 31 34 61 30 34
16 10 21 16 10 21 16 10 21 16 10 21 16 10 21 16 10 21 60 29 29 60 29
29 60 29 29 61 29 29 61 29 29 61 29 29 61 30 29 61 30 29 61 30 29 62
30 29 62 30 30 62 30 30 62 30 30 62 30 30 62 30 30 62 30 30 63 30 30
63 30 30 63 30 30 63 31 30 63 31 30 64 31 30 64 31 30 64 31 30 64 31
30 64 31 30 64 31 31 65 31 31 65 31 31 65 31 31 65 31 31 65 32 31 65
32 31 66 32 31 66 32 31 66 32 31 66 32 31 66 32 31 67 32 31 67 32 31
67 32 32 67 32 32 67 32 32 68 33 32 68 33 32 68 33 32 68 33 32 68 33
32 68 33 32 69 33 32 69 33 32 69 33 32 69 33 32 69 33 32 70 34 33 70
34 33 70 34 33 70 34 33 70 34 33 71 34 33 71 34 33 71 34 33 71 34 33
71 34 33 72 34 33 72 35 33 72 35 33 72 35 34 73 35 34 73 35 34 73 35
34 73 35 34 73 35 34 74 35 34 74 35 34 74 36 34 74 36 34 74 36 34 75
36 34 75 36 35 75 36 35 75 36 35 76 36 35 76 36 35 76 36 35 76 37 35
76 37 35 77 37 35 77 37 35 77 37 35 77 37 35 78 37 36 78 37 36 78 37
36 78 38 36 78 38 36 79 38 36 79 38 36 79 38 36 79 38 36 79 38 36 80
38 36 80 38 36 80 38 37 80 39 37 81 39 37 81 39 37 81 39 37 81 39 37
81 39 37 82 39 37 82 39 37 82 39 37 82 39 37 83 40 38 83 40 38 83 40
38 83 40 38 83 40 38 84 40 38 84 40 38 84 40 38 84 40 38 85 41 38 85
41 38 85 41 39 85 41 39 85 41 39 86 41 39 86 41 39 86 41 39 86 41 39
86 41 39 87 42 39 87 42 39 87 42 39 87 42 40 87 42 40 88 42 40 88 42
40 88 42 40 88 42 40 88 42 40 89 42 40 89 43 40 89 43 40 89 43 40 89
43 40 90 43 41 90 43 41 90 43 41 90 43 41 90 43 41 90 43 41 91 43 41
91 43 41 91 44 41 91 44 41 91 44 41 91 44 41 92 44 42 92 44 42 92 44
42 92 44 42 92 44 42 92 44 42 92 44 42 92 44 42 93 44 42 93 44 42 93
45 42 93 45 42 93 45 42 93 45 43 93 45 43 93 45 43 93 45 43 94 45 43
94 45 43 94 45 43 94 45 43 94 45 43 94 45 43 94 45 43 94 45 43 94 45
43 94 45 43 94 45 43 94 45 43 94 45 44 94 45 44 95 45 44 95 45 44 95
45 44 95 46 44 95 46 44 95 46 44 95 46 44 95 46 44 95 46 44 95 46 44
95 46 44 95 46 44 95 46 44 95 46 44 95 46 44 95 46 44 95 46 44 95 46
44 95 46 44 95 46 44 95 46 44 95 46 44 94 46 45 94 46 45 94 46 45 94
46 45 94 45 45 94 45 45 94 45 45 94 45 45 94 45 45 94 45 45 94 45 45
94 45 45 94 45 45 94 45 45 93 45 45 93 45 45 93 45 45 93 45 45 93 45
45 93 45 45 93 45 45 93 45 45 93 45 45 92 45 45 92 45 45 92 45 45 92
45 45 92 45 45 92 45 45 92 44 45 91 44 45 91 44 45 91 44 45 91 44 45
91 44 45 91 44 45 90 44 45 90 44 45 90 44 44 90 44 44 90 44 44 90 44
44 89 44 44 89 43 44 89 43 44 89 43 44 89 43 44 89 43 44 88 43 44 88
43 44 88 43 44 88 43 44 88 43 44 87 43 44 87 43 44 87 43 44 87 42 44
87 42 44 86 42 44 86 42 44 86 42 44 86 42 44 86 42 43 9 45 30 9 45 30
8 45 30 8 45 30 8 45 30 8 45 30 8 45 30 8 45 30 8 45 30 8 45 30 8 45
30 8 45 30 8 45 30 8 45 30 8 45 30 8 45 30 8 45 30 8 45 30 8 45 30 8
45 30 8 45 30 8 45 30 8 45 30 2 42 29 2 42 29 2 42 29 2 42 29 2 42 29
2 42 29 2 42 29 2 42 29 2 42 29 2 42 29 2 42 29 2 42 29 2 42 29 2 42
29 2 42 29 2 42 29 2 42 29 2 42 29 2 42 29 2 42 29 2 42 29 2 42 29 2
42 29 2 42 29 2 42 29 2 42 29 2 42 29 2 42 29 2 42 29 2 42 29 2 42 29
2 42 29 2 42 29 2 42 29 2 42 29 2 42 29 2 42 29 2 42 29 2 42 29 2 42
29 2 42 29 2 42 28 2 42 28 2 42 28 2 42 28 2 42 28 2 42 28 2 42 28 2
42 28 2 42 28 2 42 28 2 42 28 2 42 28 2 42 28 2 42 28 2 42 28 2 42 28
2 42 28 2 42 28 2 42 28 2 42 28 2 42 28 7 44 29 7 44 29 67 33 36 67 33
36 67 33 36 67 33 36 66 33 36 66 33 36 66 33 36 66 33 36 66 33 36 65
32 36 65 32 36 65 32 35 65 32 35 65 32 35 65 32 35 64 32 35 64 32 35
64 32 35 64 32 35 64 32 35 63 32 35 63 31 35 63 31 35 63 31 34 63 31
34 63 31 34 62 31 34 62 31 34 62 31 34 62 31 34 62 31 34
16 10 21 16 10 21 16 10 21 16 10 21 16 10 21 16 10 21 16 10 21 16 10
21 61 29 29 61 30 29 61 30 29 61 30 29 61 30 29 62 30 30 62 30 30 62
30 30 62 30 30 62 30 30 62 30 30 63 30 30 63 30 30 63 30 30 63 31 30
63 31 30 63 31 30 64 31 30 64 31 30 64 31 30 64 31 30 64 31 31 65 31
31 65 31 31 65 31 31 65 31 31 65 31 31 65 32 31 66 32 31 66 32 31 66
32 31 66 32 31 66 32 31 67 32 31 67 32 31 67 32 32 67 32 32 67 32 32
67 33 32 68 33 32 68 33 32 68 33 32 68 33 32 68 33 32 69 33 32 69 33
32 69 33 32 69 33 32 69 33 32 70 34 33 70 34 33 70 34 33 70 34 33 70
34 33 71 34 33 71 34 33 71 34 33 71 34 33 71 34 33 72 34 33 72 35 33
72 35 33 72 35 34 72 35 34 73 35 34 73 35 34 73 35 34 73 35 34 74 35
34 74 35 34 74 36 34 74 36 34 74 36 34 75 36 34 75 36 35 75 36 35 75
36 35 76 36 35 76 36 35 76 36 35 76 37 35 76 37 35 77 37 35 77 37 35
77 37 35 77 37 35 78 37 36 78 37 36 78 37 36 78 38 36 78 38 36 79 38
36 79 38 36 79 38 36 79 38 36 80 38 36 80 38 36 80 38 37 80 38 37 80
39 37 81 39 37 81 39 37 81 39 37 81 39 37 82 39 37 82 39 37 82 39 37
82 39 37 82 40 37 83 40 38 83 40 38 83 40 38 83 40 38 84 40 38 84 40
38 84 40 38 84 40 38 84 40 38 85 41 38 85 41 39 85 41 39 85 41 39 86
41 39 86 41 39 86 41 39 86 41 39 86 41 39 87 42 39 87 42 39 87 42 39
87 42 40 88 42 40 88 42 40 88 42 40 88 42 40 88 42 40 89 42 40 89 42
40 89 43 40 89 43 40 89 43 40 90 43 41 90 43 41 90 43 41 90 43 41 90
43 41 90 43 41 91 43 41 91 43 41 91 44 41 91 44 41 91 44 41 92 44 41
92 44 42 92 44 42 92 44 42 92 44 42 92 44 42 92 44 42 93 44 42 93 44
42 93 45 42 93 45 42 93 45 42 93 45 42 93 45 43 94 45 43 94 45 43 94
45 43 94 45 43 94 45 43 94 45 43 94 45 43 94 45 43 94 45 43 95 45 43
95 45 43 95 45 43 95 46 43 95 46 44 95 46 44 95 46 44 95 46 44 95 46
44 95 46 44 95 46 44 95 46 44 95 46 44 96 46 44 96 46 44 96 46 44 96
46 44 96 46 44 96 46 44 96 46 44 96 46 44 96 46 44 96 46 45 96 46 45
96 46 45 96 46 45 96 46 45 96 46 45 96 46 45 96 46 45 96 46 45 96 46
45 96 46 45 96 46 45 96 46 45 96 46 45 96 46 45 95 46 45 95 46 45 95
46 45 95 46 45 95 46 45 95 46 45 95 46 45 95 46 45 95 46 45 95 46 45
95 46 45 95 46 45 95 46 45 94 46 45 94 46 45 94 46 45 94 46 45 94 46
45 94 45 45 94 45 45 94 45 45 94 45 45 93 45 45 93 45 45 93 45 45 93
45 45 93 45 45 93 45 45 93 45 45 92 45 45 92 45 45 92 45 45 92 45 45
92 45 45 92 45 45 91 44 45 91 44 45 91 44 45 91 44 45 91 44 45 91 44
45 90 44 45 90 44 45 90 44 45 90 44 45 90 44 45 89 44 45 89 44 45 89
43 45 89 43 45 89 43 45 89 43 44 88 43 44 88 43 44 88 43 44 88 43 44
87 43 44 87 43 44 87 43 44 87 42 44 87 42 44 86 42 44 86 42 44 9 45 30
9 45 30 9 45 30 9 45 30 9 45 30 8 45 30 8 45 30 8 45 30 8 45 30 8 45
30 8 45 30 8 45 30 8 45 30 8 45 30 8 45 30 8 45 30 8 45 30 8 45 30 8
45 30 8 45 30 2 42 29 2 42 29 2 42 29 2 42 29 2 42 29 2 42 29 2 42 29
2 42 29 2 42 29 2 42 29 2 42 29 2 42 29 2 42 29 2 42 29 2 42 29 2 42
29 2 42 29 2 42 29 2 42 29 2 42 29 2 42 29 2 42 29 2 42 29 2 42 29 2
42 29 2 42 29 2 42 29 2 42 29 2 42 29 2 42 29 2 42 29 2 42 29 2 42 29
2 42 29 2 42 29 2 42 29 2 42 29 2 42 29 2 42 29 2 42 29 2 42 29 2 42
29 2 42 29 2 42 29 2 42 29 2 42 29 2 42 29 2 42 29 2 42 28 2 42 28 2
42 28 2 42 28 2 42 28 2 42 28 2 42 28 2 42 28 2 42 28 2 42 28 2 42 28
2 42 28 2 42 28 2 42 28 2 42 28 2 42 28 2 42 28 17 12 28 68 34 37 67
33 37 67 33 37 67 33 36 67 33 36 67 33 36 66 33 36 66 33 36 66 33 36
66 33 36 66 33 36 66 33 36 65 32 36 65 32 36 65 32 35 65 32 35 65 32
35 64 32 35 64 32 35 64 32 35 64 32 35 64 32 35 64 32 35 63 32 35 63
31 35 63 31 35 63 31 34 63 31 34 63 31 34 62 31 34 62 31 34
16 10 21 16 10 21 16 10 21 16 10 21 16 10 21 16 10 21 16 10 21 16 10
21 16 10 21 61 30 29 62 30 30 62 30 30 62 30 30 62 30 30 62 30 30 62
30 30 63 30 30 63 30 30 63 30 30 63 30 30 63 31 30 63 31 30 64 31 30
64 31 30 64 31 30 64 31 30 64 31 31 64 31 31 65 31 31 65 31 31 65 31
31 65 31 31 65 32 31 66 32 31 66 32 31 66 32 31 66 32 31 66 32 31 66
32 31 67 32 31 67 32 31 67 32 32 67 32 32 67 32 32 68 33 32 68 33 32
68 33 32 68 33 32 68 33 32 69 33 32 69 33 32 69 33 32 69 33 32 69 33
32 70 33 33 70 34 33 70 34 33 70 34 33 70 34 33 71 34 33 71 34 33 71
34 33 71 34 33 71 34 33 72 34 33 72 35 33 72 35 33 72 35 34 72 35 34
73 35 34 73 35 34 73 35 34 73 35 34 74 35 34 74 35 34 74 36 34 74 36
34 74 36 34 75 36 34 75 36 35 75 36 35 75 36 35 75 36 35 76 36 35 76
36 35 76 37 35 76 37 35 77 37 35 77 37 35 77 37 35 77 37 35 77 37 36
78 37 36 78 37 36 78 38 36 78 38 36 79 38 36 79 38 36 79 38 36 79 38
36 80 38 36 80 38 36 80 38 37 80 38 37 80 39 37 81 39 37 81 39 37 81
39 37 81 39 37 82 39 37 82 39 37 82 39 37 82 39 37 83 40 38 83 40 38
83 40 38 83 40 38 83 40 38 84 40 38 84 40 38 84 40 38 84 40 38 85 41
38 85 41 38 85 41 39 85 41 39 86 41 39 86 41 39 86 41 39 86 41 39 86
41 39 87 41 39 87 42 39 87 42 39 87 42 39 87 42 40 88 42 40 88 42 40
88 42 40 88 42 40 89 42 40 89 42 40 89 43 40 89 43 40 89 43 40 90 43
40 90 43 41 90 43 41 90 43 41 90 43 41 91 43 41 91 43 41 91 44 41 91
44 41 91 44 41 92 44 41 92 44 41 92 44 42 92 44 42 92 44 42 92 44 42
93 44 42 93 44 42 93 45 42 93 45 42 93 45 42 93 45 42 94 45 42 94 45
43 94 45 43 94 45 43 94 45 43 94 45 43 94 45 43 95 45 43 95 45 43 95
45 43 95 46 43 95 46 43 95 46 43 95 46 43 95 46 44 96 46 44 96 46 44
96 46 44 96 46 44 96 46 44 96 46 44 96 46 44 96 46 44 96 46 44 96 46
44 96 46 44 96 46 44 96 46 44 97 46 44 97 46 45 97 46 45 97 46 45 97
46 45 97 46 45 97 47 45 97 47 45 97 47 45 97 47 45 97 47 45 97 47 45
97 47 45 97 47 45 97 47 45 97 47 45 97 47 45 97 47 45 97 47 45 97 47
45 97 47 45 97 47 45 97 47 45 97 47 45 97 47 45 96 47 46 96 47 46 96
47 46 96 46 46 96 46 46 96 46 46 96 46 46 96 46 46 96 46 46 96 46 46
96 46 46 96 46 46 96 46 46 95 46 46 95 46 46 95 46 46 95 46 46 95 46
46 95 46 46 95 46 46 95 46 46 95 46 46 94 46 46 94 46 46 94 46 46 94
46 46 94 46 46 94 45 46 94 45 46 93 45 46 93 45 46 93 45 46 93 45 46
93 45 46 93 45 46 92 45 46 92 45 46 92 45 45 92 45 45 92 45 45 92 45
45 91 44 45 91 44 45 91 44 45 91 44 45 91 44 45 90 44 45 90 44 45 90
44 45 90 44 45 90 44 45 89 44 45 89 44 45 89 43 45 89 43 45 89 43 45
88 43 45 88 43 45 88 43 45 88 43 45 88 43 45 87 43 44 87 43 44 87 43
44 9 45 30 9 45 30 9 45 30 9 45 30 9 45 30 9 45 30 9 45 30 8 45 30 8
45 30 8 45 30 8 45 30 8 45 30 8 45 30 8 45 30 8 45 30 8 45 30 8 45 30
2 42 29 2 42 29 2 42 29 2 42 29 2 42 29 2 42 29 2 42 29 2 42 29 2 42
29 2 42 29 2 42 29 2 42 29 2 42 29 2 42 29 2 42 29 2 42 29 2 42 29 2
42 29 2 42 29 2 42 29 2 42 29 2 42 29 2 42 29 2 42 29 2 42 29 2 42 29
2 42 29 2 42 29 2 42 29 2 42 29 2 42 29 2 42 29 2 42 29 2 42 29 2 42
29 2 42 29 2 42 29 2 42 29 2 42 29 2 42 29 2 42 29 2 42 29 2 42 29 2
42 29 2 42 29 2 42 29 2 42 29 2 42 29 2 42 29 2 42 29 2 42 29 2 42 29
2 42 29 2 42 29 2 42 29 2 42 28 2 42 28 2 42 28 2 42 28 2 42 28 2 42
28 2 42 28 2 42 28 2 42 28 2 42 28 2 42 28 17 12 28 17 12 28 17 12 28
68 34 37 68 34 37 68 34 37 67 33 37 67 33 37 67 33 37 67 33 36 67 33
36 66 33 36 66 33 36 66 33 36 66 33 36 66 33 36 66 33 36 65 32 36 65
32 36 65 32 36 65 32 35 65 32 35 64 32 35 64 32 35 64 32 35 64 32 35
64 32 35 64 32 35 63 32 35 63 31 35 63 31 35 63 31 35 63 31 34
16 10 21 16 10 21 16 10 21 16 10 21 16 10 21 16 10 21 16 10 21 16 10
21 16 10 21 16 10 21 16 10 21 62 30 30 62 30 30 62 30 30 63 30 30 63
30 30 63 30 30 63 31 30 63 31 30 64 31 30 64 31 30 64 31 30 64 31 30
64 31 31 64 31 31 65 31 31 65 31 31 65 31 31 65 31 31 65 32 31 65 32
31 66 32 31 66 32 31 66 32 31 66 32 31 66 32 31 67 32 31 67 32 31 67
32 32 67 32 32 67 32 32 68 33 32 68 33 32 68 33 32 68 33 32 68 33 32
68 33 32 69 33 32 69 33 32 69 33 32 69 33 32 69 33 32 70 34 33 70 34
33 70 34 33 70 34 33 70 34 33 71 34 33 71 34 33 71 34 33 71 34 33 72
34 33 72 35 33 72 35 33 72 35 33 72 35 34 73 35 34 73 35 34 73 35 34
73 35 34 73 35 34 74 35 34 74 36 34 74 36 34 74 36 34 75 36 34 75 36
34 75 36 35 75 36 35 75 36 35 76 36 35 76 36 35 76 37 35 76 37 35 77
37 35 77 37 35 77 37 35 77 37 35 77 37 36 78 37 36 78 37 36 78 37 36
78 38 36 79 38 36 79 38 36 79 38 36 79 38 36 80 38 36 80 38 36 80 38
37 80 38 37 80 39 37 81 39 37 81 39 37 81 39 37 81 39 37 82 39 37 82
39 37 82 39 37 82 39 37 83 40 38 83 40 38 83 40 38 83 40 38 84 40 38
84 40 38 84 40 38 84 40 38 84 40 38 85 41 38 85 41 38 85 41 39 85 41
39 86 41 39 86 41 39 86 41 39 86 41 39 87 41 39 87 42 39 87 42 39 87
42 39 87 42 40 88 42 40 88 42 40 88 42 40 88 42 40 89 42 40 89 42 40
89 43 40 89 43 40 89 43 40 90 43 40 90 43 41 90 43 41 90 43 41 90 43
41 91 43 41 91 43 41 91 44 41 91 44 41 91 44 41 92 44 41 92 44 41 92
44 42 92 44 42 92 44 42 93 44 42 93 44 42 93 45 42 93 45 42 93 45 42
94 45 42 94 45 42 94 45 42 94 45 43 94 45 43 94 45 43 95 45 43 95 45
43 95 45 43 95 45 43 95 46 43 95 46 43 95 46 43 96 46 43 96 46 43 96
46 44 96 46 44 96 46 44 96 46 44 96 46 44 96 46 44 96 46 44 97 46 44
97 46 44 97 46 44 97 46 44 97 47 44 97 47 44 97 47 45 97 47 45 97 47
45 97 47 45 97 47 45 97 47 45 98 47 45 98 47 45 98 47 45 98 47 45 98
47 45 98 47 45 98 47 45 98 47 45 98 47 45 98 47 45 98 47 45 98 47 45
98 47 46 98 47 46 98 47 46 98 47 46 98 47 46 98 47 46 98 47 46 98 47
46 98 47 46 98 47 46 98 47 46 98 47 46 98 47 46 98 47 46 97 47 46 97
47 46 97 47 46 97 47 46 97 47 46 97 47 46 97 47 46 97 47 46 97 47 46
97 47 46 97 47 46 97 47 46 96 47 46 96 47 46 96 47 46 96 47 46 96 47
46 96 46 46 96 46 46 96 46 46 96 46 46 95 46 46 95 46 46 95 46 46 95
46 46 95 46 46 95 46 46 95 46 46 94 46 46 94 46 46 94 46 46 94 46 46
94 46 46 94 45 46 93 45 46 93 45 46 93 45 46 93 45 46 93 45 46 92 45
46 92 45 46 92 45 46 92 45 46 92 45 46 92 45 46 91 45 46 91 44 46 91
44 46 91 44 46 91 44 46 90 44 45 90 44 45 90 44 45 90 44 45 89 44 45
89 44 45 89 44 45 89 43 45 89 43 45 88 43 45 88 43 45 88 43 45 88 43
45 88 43 45 9 45 30 9 45 30 9 45 30 9 45 30 9 45 30 9 45 30 9 45 30 9
45 30 9 45 30 9 45 30 8 45 30 8 45 30 8 45 30 8 45 30 2 42 29 2 42 29
2 42 29 2 42 29 2 42 29 2 42 29 2 42 29 2 42 29 2 42 29 2 42 29 2 42
29 2 42 29 2 42 29 2 42 29 2 42 29 2 42 29 2 42 29 2 42 29 2 42 29 2
42 29 2 42 29 2 42 29 2 42 29 2 42 29 2 42 29 2 42 29 2 42 29 2 42 29
2 42 29 2 42 29 2 42 29 2 42 29 2 42 29 2 42 29 2 42 29 2 42 29 2 42
29 2 42 29 2 42 29 2 42 29 2 42 29 2 42 29 2 42 29 2 42 29 2 42 29 2
42 29 2 42 29 2 42 29 2 42 29 2 42 29 2 42 29 2 42 29 2 42 29 2 42 29
2 42 29 2 42 29 2 42 29 2 42 29 2 42 29 2 42 29 2 42 29 2 42 29 2 42
28 2 42 28 2 42 28 2 42 28 2 42 28 17 12 28 17 12 28 17 12 28 17 12 28
17 12 28 68 34 37 68 34 37 68 34 37 68 34 37 68 34 37 67 33 37 67 33
37 67 33 37 67 33 36 67 33 36 66 33 36 66 33 36 66 33 36 66 33 36 66
33 36 65 33 36 65 32 36 65 32 36 65 32 36 65 32 36 65 32 35 64 32 35
64 32 35 64 32 35 64 32 35 64 32 35 64 32 35 63 32 35 63 31 35
16 10 21 16 10 21 16 10 21 16 10 21 16 10 21 16 10 21 16 10 21 16 10
21 16 10 21 16 10 21 16 10 22 16 10 22 63 30 30 63 30 30 63 30 30 63
31 30 63 31 30 64 31 30 64 31 30 64 31 30 64 31 30 64 31 31 64 31 31
65 31 31 65 31 31 65 31 31 65 31 31 65 32 31 66 32 31 66 32 31 66 32
31 66 32 31 66 32 31 66 32 31 67 32 31 67 32 32 67 32 32 67 32 32 67
33 32 68 33 32 68 33 32 68 33 32 68 33 32 68 33 32 69 33 32 69 33 32
69 33 32 69 33 32 69 33 32 70 34 33 70 34 33 70 34 33 70 34 33 70 34
33 71 34 33 71 34 33 71 34 33 71 34 33 71 34 33 72 34 33 72 35 33 72
35 33 72 35 34 72 35 34 73 35 34 73 35 34 73 35 34 73 35 34 74 35 34
74 35 34 74 36 34 74 36 34 74 36 34 75 36 34 75 36 35 75 36 35 75 36
35 76 36 35 76 36 35 76 37 35 76 37 35 76 37 35 77 37 35 77 37 35 77
37 35 77 37 35 78 37 36 78 37 36 78 37 36 78 38 36 79 38 36 79 38 36
79 38 36 79 38 36 79 38 36 80 38 36 80 38 36 80 38 37 80 39 37 81 39
37 81 39 37 81 39 37 81 39 37 82 39 37 82 39 37 82 39 37 82 39 37 83
40 38 83 40 38 83 40 38 83 40 38 84 40 38 84 40 38 84 40 38 84 40 38
84 40 38 85 41 38 85 41 38 85 41 39 85 41 39 86 41 39 86 41 39 86 41
39 86 41 39 87 41 39 87 42 39 87 42 39 87 42 39 88 42 40 88 42 40 88
42 40 88 42 40 88 42 40 89 42 40 89 43 40 89 43 40 89 43 40 90 43 40
90 43 41 90 43 41 90 43 41 90 43 41 91 43 41 91 44 41 91 44 41 91 44
41 92 44 41 92 44 41 92 44 41 92 44 42 92 44 42 93 44 42 93 44 42 93
44 42 93 45 42 93 45 42 94 45 42 94 45 42 94 45 42 94 45 42 94 45 43
94 45 43 95 45 43 95 45 43 95 45 43 95 46 43 95 46 43 95 46 43 96 46
43 96 46 43 96 46 43 96 46 44 96 46 44 96 46 44 97 46 44 97 46 44 97
46 44 97 46 44 97 47 44 97 47 44 97 47 44 97 47 44 97 47 44 98 47 45
98 47 45 98 47 45 98 47 45 98 47 45 98 47 45 98 47 45 98 47 45 98 47
45 98 47 45 98 47 45 98 47 45 99 47 45 99 47 45 99 47 45 99 47 46 99
47 46 99 47 46 99 47 46 99 48 46 99 48 46 99 48 46 99 48 46 99 48 46
99 48 46 99 48 46 99 48 46 99 48 46 99 48 46 99 48 46 99 48 46 99 48
46 99 48 46 99 48 46 99 48 46 99 48 46 99 48 46 99 48 47 98 48 47 98
48 47 98 47 47 98 47 47 98 47 47 98 47 47 98 47 47 98 47 47 98 47 47
98 47 47 98 47 47 98 47 47 97 47 47 97 47 47 97 47 47 97 47 47 97 47
47 97 47 47 97 47 47 97 47 47 97 47 47 96 47 47 96 47 47 96 47 47 96
47 47 96 47 47 96 46 47 95 46 47 95 46 47 95 46 47 95 46 47 95 46 47
95 46 47 94 46 47 94 46 47 94 46 47 94 46 47 94 46 47 94 46 46 93 46
46 93 45 46 93 45 46 93 45 46 93 45 46 92 45 46 92 45 46 92 45 46 92
45 46 92 45 46 91 45 46 91 45 46 91 44 46 91 44 46 91 44 46 90 44 46
90 44 46 90 44 46 90 44 46 89 44 46 89 44 46 89 44 45 89 44 45 89 43
45 88 43 45 88 43 45 9 45 30 9 45 30 9 45 30 9 45 30 9 45 30 9 45 30 9
45 30 9 45 30 9 45 30 9 45 30 9 45 30 2 42 29 2 42 29 2 42 29 2 42 29
2 42 29 2 42 29 2 42 29 2 42 29 2 42 29 2 42 29 2 42 29 2 42 29 2 42
29 2 42 29 2 42 29 2 42 29 2 42 29 2 42 29 2 42 29 2 42 29 2 42 29 2
42 29 2 42 29 2 42 29 2 42 29 2 42 29 2 42 29 2 42 29 2 42 29 2 42 29
2 42 29 2 42 29 2 42 29 2 42 29 2 42 29 2 42 29 2 42 29 2 42 29 2 42
29 2 42 29 2 42 29 2 42 29 2 42 29 2 42 29 2 42 29 2 42 29 2 42 29 2
42 29 2 42 29 2 42 29 2 42 29 2 42 29 2 42 29 2 42 29 2 42 29 2 42 29
2 42 29 2 42 29 2 42 29 2 42 29 2 42 29 2 42 29 2 42 29 2 42 29 2 42
29 2 42 29 2 42 29 2 42 29 17 12 29 17 12 29 17 12 29 17 12 29 17 12
28 17 12 28 69 34 38 69 34 37 68 34 37 68 34 37 68 34 37 68 34 37 68
34 37 67 34 37 67 33 37 67 33 37 67 33 37 67 33 37 67 33 36 66 33 36
66 33 36 66 33 36 66 33 36 66 33 36 65 33 36 65 32 36 65 32 36 65 32
36 65 32 36 65 32 35 64 32 35 64 32 35 64 32 35 64 32 35 64 32 35
16 10 21 16 10 21 16 10 21 16 10 21 16 10 21 16 10 21 16 10 21 16 10
22 16 10 22 16 10 22 16 10 22 16 10 22 16 10 22 63 31 30 64 31 30 64
31 30 64 31 30 64 31 30 64 31 31 64 31 31 65 31 31 65 31 31 65 31 31
65 31 31 65 32 31 65 32 31 66 32 31 66 32 31 66 32 31 66 32 31 66 32
31 67 32 31 67 32 31 67 32 32 67 32 32 67 32 32 68 33 32 68 33 32 68
33 32 68 33 32 68 33 32 68 33 32 69 33 32 69 33 32 69 33 32 69 33 32
69 33 33 70 34 33 70 34 33 70 34 33 70 34 33 71 34 33 71 34 33 71 34
33 71 34 33 71 34 33 72 34 33 72 35 33 72 35 33 72 35 34 72 35 34 73
35 34 73 35 34 73 35 34 73 35 34 73 35 34 74 35 34 74 36 34 74 36 34
74 36 34 75 36 34 75 36 35 75 36 35 75 36 35 75 36 35 76 36 35 76 36
35 76 37 35 76 37 35 77 37 35 77 37 35 77 37 35 77 37 35 78 37 36 78
37 36 78 37 36 78 38 36 78 38 36 79 38 36 79 38 36 79 38 36 79 38 36
80 38 36 80 38 36 80 38 37 80 39 37 81 39 37 81 39 37 81 39 37 81 39
37 82 39 37 82 39 37 82 39 37 82 39 37 83 40 38 83 40 38 83 40 38 83
40 38 84 40 38 84 40 38 84 40 38 84 40 38 84 40 38 85 41 38 85 41 38
85 41 39 85 41 39 86 41 39 86 41 39 86 41 39 86 41 39 87 41 39 87 42
39 87 42 39 87 42 39 88 42 40 88 42 40 88 42 40 88 42 40 89 42 40 89
42 40 89 43 40 89 43 40 89 43 40 90 43 40 90 43 41 90 43 41 90 43 41
91 43 41 91 43 41 91 44 41 91 44 41 92 44 41 92 44 41 92 44 41 92 44
42 92 44 42 93 44 42 93 44 42 93 45 42 93 45 42 93 45 42 94 45 42 94
45 42 94 45 42 94 45 42 94 45 43 95 45 43 95 45 43 95 45 43 95 46 43
95 46 43 96 46 43 96 46 43 96 46 43 96 46 43 96 46 44 96 46 44 97 46
44 97 46 44 97 46 44 97 46 44 97 47 44 97 47 44 97 47 44 98 47 44 98
47 44 98 47 44 98 47 45 98 47 45 98 47 45 98 47 45 98 47 45 99 47 45
99 47 45 99 47 45 99 47 45 99 47 45 99 48 45 99 48 45 99 48 45 99 48
46 99 48 46 99 48 46 100 48 46 100 48 46 100 48 46 100 48 46 100 48 46
100 48 46 100 48 46 100 48 46 100 48 46 100 48 46 100 48 46 100 48 46
100 48 46 100 48 46 100 48 47 100 48 47 100 48 47 100 48 47 100 48 47
100 48 47 100 48 47 100 48 47 100 48 47 100 48 47 100 48 47 100 48 47
100 48 47 100 48 47 99 48 47 99 48 47 99 48 47 99 48 47 99 48 47 99 48
47 99 48 47 99 48 47 99 48 47 99 48 47 99 48 47 98 48 47 98 48 47 98
48 47 98 48 47 98 47 47 98 47 47 98 47 47 98 47 47 97 47 47 97 47 47
97 47 47 97 47 47 97 47 47 97 47 47 97 47 47 96 47 47 96 47 47 96 47
47 96 47 47 96 47 47 96 47 47 95 46 47 95 46 47 95 46 47 95 46 47 95
46 47 95 46 47 94 46 47 94 46 47 94 46 47 94 46 47 94 46 47 93 46 47
93 45 47 93 45 47 93 45 47 93 45 47 92 45 47 92 45 47 92 45 46 92 45
46 91 45 46 91 45 46 91 45 46 91 44 46 91 44 46 90 44 46 90 44 46 90
44 46 90 44 46 89 44 46 89 44 46 89 44 46 89 44 46 9 45 30 9 45 30 9
45 30 9 45 30 9 45 30 9 45 30 9 45 30 9 45 30 9 45 30 2 42 29 2 42 29
2 42 29 2 42 29 2 42 29 2 42 29 2 42 29 2 42 29 2 42 29 2 42 29 2 42
29 2 42 29 2 42 29 2 42 29 2 42 29 2 42 29 2 42 29 2 42 29 2 42 29 2
42 29 2 42 29 2 42 29 2 42 29 2 42 29 2 42 29 2 42 29 2 42 29 2 42 29
2 42 29 2 42 29 2 42 29 2 42 29 2 42 29 2 42 29 2 42 29 2 42 29 2 42
29 2 42 29 2 42 29 2 42 29 2 42 29 2 42 29 2 42 29 2 42 29 2 42 29 2
42 29 2 42 29 2 42 29 2 42 29 2 42 29 2 42 29 2 42 29 2 42 29 2 42 29
2 42 29 2 42 29 2 42 29 2 42 29 2 42 29 2 42 29 2 42 29 2 42 29 2 42
29 2 42 29 2 42 29 2 42 29 2 42 29 2 42 29 17 12 29 17 12 29 17 12 29
17 12 29 17 12 29 17 12 29 17 12 29 17 12 29 69 34 38 69 34 38 69 34
38 69 34 38 68 34 37 68 34 37 68 34 37 68 34 37 68 34 37 67 34 37 67
33 37 67 33 37 67 33 37 67 33 37 66 33 37 66 33 36 66 33 36 66 33 36
66 33 36 66 33 36 65 33 36 65 32 36 65 32 36 65 32 36 65 32 36 64 32
36 64 32 35 64 32 35
16 10 21 16 10 21 16 10 21 16 10 21 16 10 21 16 10 22 16 10 22 16 10
22 16 10 22 16 10 22 16 10 22 16 10 22 16 10 22 16 10 22 64 31 30 64
31 30 64 31 31 64 31 31 65 31 31 65 31 31 65 31 31 65 31 31 65 32 31
66 32 31 66 32 31 66 32 31 66 32 31 66 32 31 66 32 31 67 32 31 67 32
32 67 32 32 67 32 32 67 33 32 68 33 32 68 33 32 68 33 32 68 33 32 68
33 32 69 33 32 69 33 32 69 33 32 69 33 32 69 33 32 70 34 33 70 34 33
70 34 33 70 34 33 70 34 33 71 34 33 71 34 33 71 34 33 71 34 33 71 34
33 72 34 33 72 35 33 72 35 33 72 35 34 73 35 34 73 35 34 73 35 34 73
35 34 73 35 34 74 35 34 74 35 34 74 36 34 74 36 34 74 36 34 75 36 34
75 36 35 75 36 35 75 36 35 76 36 35 76 36 35 76 37 35 76 37 35 77 37
35 77 37 35 77 37 35 77 37 35 77 37 36 78 37 36 78 37 36 78 38 36 78
38 36 79 38 36 79 38 36 79 38 36 79 38 36 80 38 36 80 38 36 80 38 37
80 39 37 81 39 37 81 39 37 81 39 37 81 39 37 82 39 37 82 39 37 82 39
37 82 39 37 82 40 37 83 40 38 83 40 38 83 40 38 83 40 38 84 40 38 84
40 38 84 40 38 84 40 38 85 41 38 85 41 38 85 41 39 85 41 39 86 41 39
86 41 39 86 41 39 86 41 39 87 41 39 87 42 39 87 42 39 87 42 39 88 42
40 88 42 40 88 42 40 88 42 40 89 42 40 89 43 40 89 43 40 89 43 40 90
43 40 90 43 40 90 43 41 90 43 41 91 43 41 91 43 41 91 44 41 91 44 41
91 44 41 92 44 41 92 44 41 92 44 41 92 44 42 93 44 42 93 44 42 93 45
42 93 45 42 93 45 42 94 45 42 94 45 42 94 45 42 94 45 42 95 45 43 95
45 43 95 45 43 95 46 43 95 46 43 96 46 43 96 46 43 96 46 43 96 46 43
96 46 43 96 46 44 97 46 44 97 46 44 97 46 44 97 47 44 97 47 44 98 47
44 98 47 44 98 47 44 98 47 44 98 47 44 98 47 45 98 47 45 99 47 45 99
47 45 99 47 45 99 47 45 99 47 45 99 48 45 99 48 45 99 48 45 100 48 45
100 48 45 100 48 46 100 48 46 100 48 46 100 48 46 100 48 46 100 48 46
100 48 46 100 48 46 100 48 46 101 48 46 101 48 46 101 48 46 101 48 46
101 48 46 101 48 47 101 48 47 101 48 47 101 48 47 101 49 47 101 49 47
101 49 47 101 49 47 101 49 47 101 49 47 101 49 47 101 49 47 101 49 47
101 49 47 101 49 47 101 49 47 101 49 47 101 49 47 101 49 47 101 49 47
101 49 47 101 49 48 101 49 48 100 48 48 100 48 48 100 48 48 100 48 48
100 48 48 100 48 48 100 48 48 100 48 48 100 48 48 100 48 48 100 48 48
99 48 48 99 48 48 99 48 48 99 48 48 99 48 48 99 48 48 99 48 48 99 48
48 98 48 48 98 48 48 98 48 48 98 48 48 98 48 48 98 47 48 98 47 48 97
47 48 97 47 48 97 47 48 97 47 48 97 47 48 97 47 48 96 47 48 96 47 48
96 47 48 96 47 48 96 47 48 95 47 48 95 46 48 95 46 47 95 46 47 95 46
47 94 46 47 94 46 47 94 46 47 94 46 47 94 46 47 93 46 47 93 46 47 93
45 47 93 45 47 93 45 47 92 45 47 92 45 47 92 45 47 92 45 47 91 45 47
91 45 47 91 45 47 91 44 47 90 44 46 90 44 46 90 44 46 90 44 46 90 44
46 89 44 46 9 45 30 9 45 30 9 45 30 9 45 30 9 45 30 9 45 30 9 45 30 2
42 29 2 42 29 2 42 29 2 42 29 2 42 29 2 42 29 2 42 29 2 42 29 2 42 29
2 42 29 2 42 29 2 42 29 2 42 29 2 42 29 2 42 29 2 42 29 2 42 29 2 42
29 2 42 29 2 42 29 2 42 29 2 42 29 2 42 29 2 42 29 2 42 29 2 42 29 2
42 29 2 42 29 2 42 29 2 42 29 2 42 29 2 42 29 2 42 29 2 42 29 2 42 29
2 42 29 2 42 29 2 42 29 2 42 29 2 42 29 2 42 29 2 42 29 2 42 29 2 42
29 2 42 29 2 42 29 2 42 29 2 42 29 2 42 29 2 42 29 2 42 29 2 42 29 2
42 29 2 42 29 2 42 29 2 42 29 2 42 29 2 42 29 2 42 29 2 42 29 2 42 29
2 42 29 2 42 29 2 42 29 2 42 29 2 42 29 2 42 29 2 42 29 18 12 29 18 12
29 18 12 29 18 12 29 18 12 29 17 12 29 17 12 29 17 12 29 17 12 29 70
35 38 70 35 38 69 34 38 69 34 38 69 34 38 69 34 38 69 34 38 68 34 38
68 34 37 68 34 37 68 34 37 68 34 37 67 33 37 67 33 37 67 33 37 67 33
37 67 33 37 66 33 37 66 33 36 66 33 36 66 33 36 66 33 36 66 33 36 65
32 36 65 32 36 65 32 36 65 32 36 65 32 36
16 10 21 16 10 21 16 10 22 16 10 22 16 10 22 16 10 22 16 10 22 16 10
22 16 10 22 16 10 22 16 10 22 16 10 22 16 10 22 16 10 22 16 10 22 65
31 31 65 31 31 65 31 31 65 31 31 65 32 31 65 32 31 66 32 31 66 32 31
66 32 31 66 32 31 66 32 31 67 32 31 67 32 31 67 32 32 67 32 32 67 32
32 68 33 32 68 33 32 68 33 32 68 33 32 68 33 32 68 33 32 69 33 32 69
33 32 69 33 32 69 33 32 69 33 33 70 34 33 70 34 33 70 34 33 70 34 33
70 34 33 71 34 33 71 34 33 71 34 33 71 34 33 72 34 33 72 35 33 72 35
33 72 35 34 72 35 34 73 35 34 73 35 34 73 35 34 73 35 34 73 35 34 74
35 34 74 36 34 74 36 34 74 36 34 75 36 34 75 36 35 75 36 35 75 36 35
75 36 35 76 36 35 76 36 35 76 37 35 76 37 35 77 37 35 77 37 35 77 37
35 77 37 35 78 37 36 78 37 36 78 37 36 78 38 36 79 38 36 79 38 36 79
38 36 79 38 36 79 38 36 80 38 36 80 38 36 80 38 37 80 39 37 81 39 37
81 39 37 81 39 37 81 39 37 82 39 37 82 39 37 82 39 37 82 39 37 83 40
38 83 40 38 83 40 38 83 40 38 84 40 38 84 40 38 84 40 38 84 40 38 85
41 38 85 41 38 85 41 39 85 41 39 86 41 39 86 41 39 86 41 39 86 41 39
87 41 39 87 42 39 87 42 39 87 42 39 88 42 40 88 42 40 88 42 40 88 42
40 89 42 40 89 43 40 89 43 40 89 43 40 90 43 40 90 43 40 90 43 41 90
43 41 91 43 41 91 43 41 91 44 41 91 44 41 92 44 41 92 44 41 92 44 41
92 44 42 93 44 42 93 44 42 93 44 42 93 45 42 93 45 42 94 45 42 94 45
42 94 45 42 94 45 42 95 45 43 95 45 43 95 45 43 95 46 43 95 46 43 96
46 43 96 46 43 96 46 43 96 46 43 96 46 43 97 46 44 97 46 44 97 46 44
97 47 44 97 47 44 98 47 44 98 47 44 98 47 44 98 47 44 98 47 44 98 47
44 99 47 45 99 47 45 99 47 45 99 47 45 99 48 45 99 48 45 100 48 45 100
48 45 100 48 45 100 48 45 100 48 45 100 48 46 100 48 46 100 48 46 101
48 46 101 48 46 101 48 46 101 48 46 101 48 46 101 48 46 101 49 46 101
49 46 101 49 46 101 49 46 101 49 47 102 49 47 102 49 47 102 49 47 102
49 47 102 49 47 102 49 47 102 49 47 102 49 47 102 49 47 102 49 47 102
49 47 102 49 47 102 49 47 102 49 47 102 49 47 102 49 48 102 49 48 102
49 48 102 49 48 102 49 48 102 49 48 102 49 48 102 49 48 102 49 48 102
49 48 102 49 48 102 49 48 102 49 48 101 49 48 101 49 48 101 49 48 101
49 48 101 49 48 101 49 48 101 49 48 101 49 48 101 49 48 101 49 48 101
49 48 100 49 48 100 49 48 100 49 48 100 49 48 100 48 48 100 48 48 100
48 48 100 48 48 99 48 48 99 48 48 99 48 48 99 48 48 99 48 48 99 48 48
99 48 48 98 48 48 98 48 48 98 48 48 98 48 48 98 48 48 97 47 48 97 47
48 97 47 48 97 47 48 97 47 48 97 47 48 96 47 48 96 47 48 96 47 48 96
47 48 96 47 48 95 47 48 95 46 48 95 46 48 95 46 48 95 46 48 94 46 48
94 46 48 94 46 48 94 46 48 93 46 47 93 46 47 93 46 47 93 45 47 92 45
47 92 45 47 92 45 47 92 45 47 92 45 47 91 45 47 91 45 47 91 45 47 91
44 47 90 44 47 90 44 47 90 44 47 9 45 30 9 45 30 9 45 30 9 45 30 9 45
30 2 42 29 2 42 29 2 42 29 2 42 29 2 42 29 2 42 29 2 42 29 2 42 29 2
42 29 2 42 29 2 42 29 2 42 29 2 42 29 2 42 29 2 42 29 2 42 29 2 42 29
2 42 29 2 42 29 2 42 29 2 42 29 2 42 29 2 42 29 2 42 29 2 42 29 2 42
29 2 42 29 2 42 29 2 42 29 2 42 29 2 42 29 2 42 29 2 42 29 2 42 29 2
42 29 2 42 29 2 42 29 2 42 29 2 42 29 2 42 29 2 42 29 2 42 29 2 42 29
2 42 29 2 42 29 2 42 29 2 42 29 2 42 29 2 42 29 2 42 29 2 42 29 2 42
29 2 42 29 2 42 29 2 42 29 2 42 29 2 42 29 2 42 29 2 42 29 2 42 29 2
42 29 2 42 29 2 42 29 2 42 29 2 42 29 2 42 29 2 42 29 2 42 29 18 13 30
18 13 30 18 13 30 18 12 30 18 12 29 18 12 29 18 12 29 18 12 29 18 12
29 18 12 29 70 35 39 70 35 38 70 35 38 70 35 38 69 35 38 69 34 38 69
34 38 69 34 38 69 34 38 68 34 38 68 34 38 68 34 37 68 34 37 68 34 37
67 34 37 67 33 37 67 33 37 67 33 37 67 33 37 67 33 37 66 33 37 66 33
37 66 33 36 66 33 36 66 33 36 65 33 36 65 32 36 65 32 36
16 10 22 16 10 22 16 10 22 16 10 22 16 10 22 16 10 22 16 10 22 16 10
22 16 10 22 16 10 22 16 10 22 16 10 22 16 10 22 16 10 22 16 10 22 16
10 22 65 31 31 65 32 31 66 32 31 66 32 31 66 32 31 66 32 31 66 32 31
66 32 31 67 32 31 67 32 32 67 32 32 67 32 32 67 32 32 68 33 32 68 33
32 68 33 32 68 33 32 68 33 32 69 33 32 69 33 32 69 33 32 69 33 32 69
33 32 70 34 33 70 34 33 70 34 33 70 34 33 70 34 33 71 34 33 71 34 33
71 34 33 71 34 33 71 34 33 72 34 33 72 35 33 72 35 33 72 35 34 72 35
34 73 35 34 73 35 34 73 35 34 73 35 34 74 35 34 74 35 34 74 36 34 74
36 34 74 36 34 75 36 34 75 36 35 75 36 35 75 36 35 76 36 35 76 36 35
76 37 35 76 37 35 77 37 35 77 37 35 77 37 35 77 37 35 77 37 36 78 37
36 78 37 36 78 38 36 78 38 36 79 38 36 79 38 36 79 38 36 79 38 36 80
38 36 80 38 36 80 38 37 80 39 37 81 39 37 81 39 37 81 39 37 81 39 37
82 39 37 82 39 37 82 39 37 82 39 37 83 40 38 83 40 38 83 40 38 83 40
38 84 40 38 84 40 38 84 40 38 84 40 38 85 41 38 85 41 38 85 41 39 85
41 39 86 41 39 86 41 39 86 41 39 86 41 39 87 41 39 87 42 39 87 42 39
87 42 39 88 42 40 88 42 40 88 42 40 88 42 40 89 42 40 89 43 40 89 43
40 89 43 40 90 43 40 90 43 40 90 43 41 90 43 41 91 43 41 91 43 41 91
44 41 91 44 41 92 44 41 92 44 41 92 44 41 92 44 42 93 44 42 93 44 42
93 45 42 93 45 42 94 45 42 94 45 42 94 45 42 94 45 42 94 45 42 95 45
43 95 45 43 95 46 43 95 46 43 96 46 43 96 46 43 96 46 43 96 46 43 96
46 43 97 46 43 97 46 44 97 46 44 97 47 44 98 47 44 98 47 44 98 47 44
98 47 44 98 47 44 98 47 44 99 47 44 99 47 45 99 47 45 99 47 45 99 48
45 100 48 45 100 48 45 100 48 45 100 48 45 100 48 45 100 48 45 100 48
46 101 48 46 101 48 46 101 48 46 101 48 46 101 48 46 101 49 46 101 49
46 102 49 46 102 49 46 102 49 46 102 49 46 102 49 47 102 49 47 102 49
47 102 49 47 102 49 47 102 49 47 102 49 47 102 49 47 103 49 47 103 49
47 103 49 47 103 49 47 103 49 47 103 49 47 103 49 48 103 49 48 103 49
48 103 49 48 103 50 48 103 50 48 103 50 48 103 50 48 103 50 48 103 50
48 103 50 48 103 50 48 103 50 48 103 50 48 103 50 48 103 50 48 103 50
48 103 50 48 103 50 48 103 50 49 103 49 49 102 49 49 102 49 49 102 49
49 102 49 49 102 49 49 102 49 49 102 49 49 102 49 49 102 49 49 102 49
49 102 49 49 101 49 49 101 49 49 101 49 49 101 49 49 101 49 49 101 49
49 101 49 49 101 49 49 100 49 49 100 49 49 100 49 49 100 49 49 100 48
49 100 48 49 99 48 49 99 48 49 99 48 49 99 48 49 99 48 49 99 48 49 98
48 49 98 48 49 98 48 49 98 48 49 98 48 49 97 48 49 97 47 49 97 47 49
97 47 49 97 47 49 96 47 48 96 47 48 96 47 48 96 47 48 96 47 48 95 47
48 95 47 48 95 46 48 95 46 48 94 46 48 94 46 48 94 46 48 94 46 48 94
46 48 93 46 48 93 46 48 93 46 48 93 45 48 92 45 48 92 45 48 92 45 47
92 45 47 91 45 47 91 45 47 91 45 47 91 45 47 90 44 47 9 45 30 9 45 30
9 45 30 2 42 29 2 42 29 2 42 29 2 42 29 2 42 29 2 42 29 2 42 29 2 42
29 2 42 29 2 42 29 2 42 29 2 42 29 2 42 29 2 42 29 2 42 29 2 42 29 2
42 29 2 42 29 2 42 29 2 42 29 2 42 29 2 42 29 2 42 29 2 42 29 2 42 29
2 42 29 2 42 29 2 42 29 2 42 29 2 42 29 2 42 29 2 42 29 2 42 29 2 42
29 2 42 29 2 42 29 2 42 29 2 42 29 2 42 29 2 42 29 2 42 29 2 42 29 2
42 29 2 42 29 2 42 29 2 42 29 2 42 29 2 42 29 2 42 29 2 42 29 2 42 29
2 42 29 2 42 29 2 42 29 2 42 29 2 42 29 2 42 29 2 42 29 2 42 29 2 42
29 2 42 29 2 42 29 2 42 29 2 42 29 2 42 29 2 42 29 2 42 29 18 13 30 18
13 30 18 13 30 18 13 30 18 13 30 18 13 30 18 13 30 18 13 30 18 13 30
18 12 30 18 12 30 18 12 29 71 35 39 71 35 39 70 35 39 70 35 39 70 35
38 70 35 38 70 35 38 69 34 38 69 34 38 69 34 38 69 34 38 69 34 38 68
34 38 68 34 38 68 34 38 68 34 37 68 34 37 67 34 37 67 33 37 67 33 37
67 33 37 67 33 37 66 33 37 66 33 37 66 33 37 66 33 36 66 33 36 66 33
36
16 10 22 16 10 22 16 10 22 16 10 22 16 10 22 16 10 22 16 10 22 16 10
22 16 10 22 16 10 22 16 10 22 16 10 22 16 10 22 16 10 22 16 10 22 16
10 22 66 32 31 66 32 31 66 32 31 66 32 31 66 32 31 67 32 31 67 32 31
67 32 32 67 32 32 67 32 32 67 33 32 68 33 32 68 33 32 68 33 32 68 33
32 68 33 32 69 33 32 69 33 32 69 33 32 69 33 32 69 33 33 70 34 33 70
34 33 70 34 33 70 34 33 70 34 33 71 34 33 71 34 33 71 34 33 71 34 33
71 34 33 72 35 33 72 35 33 72 35 34 72 35 34 73 35 34 73 35 34 73 35
34 73 35 34 73 35 34 74 35 34 74 36 34 74 36 34 74 36 34 75 36 34 75
36 35 75 36 35 75 36 35 75 36 35 76 36 35 76 36 35 76 37 35 76 37 35
77 37 35 77 37 35 77 37 35 77 37 35 78 37 36 78 37 36 78 37 36 78 38
36 79 38 36 79 38 36 79 38 36 79 38 36 79 38 36 80 38 36 80 38 37 80
38 37 80 39 37 81 39 37 81 39 37 81 39 37 81 39 37 82 39 37 82 39 37
82 39 37 82 40 37 83 40 38 83 40 38 83 40 38 83 40 38 84 40 38 84 40
38 84 40 38 84 40 38 85 41 38 85 41 38 85 41 39 86 41 39 86 41 39 86
41 39 86 41 39 87 41 39 87 42 39 87 42 39 87 42 39 88 42 39 88 42 40
88 42 40 88 42 40 89 42 40 89 43 40 89 43 40 89 43 40 90 43 40 90 43
40 90 43 41 90 43 41 91 43 41 91 43 41 91 44 41 91 44 41 92 44 41 92
44 41 92 44 41 92 44 42 93 44 42 93 44 42 93 45 42 93 45 42 94 45 42
94 45 42 94 45 42 94 45 42 95 45 42 95 45 43 95 45 43 95 46 43 96 46
43 96 46 43 96 46 43 96 46 43 96 46 43 97 46 43 97 46 44 97 46 44 97
47 44 98 47 44 98 47 44 98 47 44 98 47 44 98 47 44 99 47 44 99 47 44
99 47 45 99 47 45 99 48 45 100 48 45 100 48 45 100 48 45 100 48 45 100
48 45 100 48 45 101 48 45 101 48 46 101 48 46 101 48 46 101 48 46 101
49 46 102 49 46 102 49 46 102 49 46 102 49 46 102 49 46 102 49 46 102
49 47 102 49 47 103 49 47 103 49 47 103 49 47 103 49 47 103 49 47 103
49 47 103 50 47 103 50 47 103 50 47 103 50 47 103 50 48 104 50 48 104
50 48 104 50 48 104 50 48 104 50 48 104 50 48 104 50 48 104 50 48 104
50 48 104 50 48 104 50 48 104 50 48 104 50 48 104 50 48 104 50 49 104
50 49 104 50 49 104 50 49 104 50 49 104 50 49 104 50 49 104 50 49 104
50 49 104 50 49 104 50 49 104 50 49 104 50 49 103 50 49 103 50 49 103
50 49 103 50 49 103 50 49 103 50 49 103 50 49 103 50 49 103 50 49 103
50 49 103 50 49 102 50 49 102 50 49 102 50 49 102 49 49 102 49 49 102
49 49 102 49 49 102 49 49 101 49 49 101 49 49 101 49 49 101 49 49 101
49 49 101 49 49 100 49 49 100 49 49 100 49 49 100 49 49 100 49 49 100
48 49 99 48 49 99 48 49 99 48 49 99 48 49 99 48 49 98 48 49 98 48 49
98 48 49 98 48 49 98 48 49 97 48 49 97 47 49 97 47 49 97 47 49 96 47
49 96 47 49 96 47 49 96 47 49 96 47 49 95 47 49 95 47 49 95 46 49 95
46 48 94 46 48 94 46 48 94 46 48 94 46 48 93 46 48 93 46 48 93 46 48
93 46 48 93 45 48 92 45 48 92 45 48 92 45 48 92 45 48 91 45 48 91 45
47 9 45 30 9 45 30 2 42 29 2 42 29 2 42 29 2 42 29 2 42 29 2 42 29 2
42 29 2 42 29 2 42 29 2 42 29 2 42 29 2 42 29 2 42 29 2 42 29 2 42 29
2 42 29 2 42 29 2 42 29 2 42 29 2 42 29 2 42 29 2 42 29 2 42 29 2 42
29 2 42 29 2 42 29 2 42 29 2 42 29 2 42 29 2 42 29 2 42 29 2 42 29 2
42 29 2 42 29 2 42 29 2 42 29 2 42 29 2 42 29 2 42 29 2 42 29 2 42 29
2 42 29 2 42 29 2 42 29 2 42 29 2 42 29 2 42 29 2 42 29 2 42 29 2 42
29 2 42 29 2 42 29 2 42 29 2 42 29 2 42 29 2 42 29 2 42 29 2 42 29 2
42 29 2 42 29 2 42 29 2 42 29 2 42 29 2 42 29 2 42 29 2 42 29 18 13 31
18 13 30 18 13 30 18 13 30 18 13 30 18 13 30 18 13 30 18 13 30 18 13
30 18 13 30 18 13 30 18 13 30 18 13 30 71 35 39 71 35 39 71 35 39 71
35 39 70 35 39 70 35 39 70 35 39 70 35 39 70 35 38 69 35 38 69 34 38
69 34 38 69 34 38 69 34 38 68 34 38 68 34 38 68 34 38 68 34 38 68 34
37 67 34 37 67 34 37 67 33 37 67 33 37 67 33 37 67 33 37 66 33 37 66
33 37 66 33 37
16 10 22 16 10 22 16 10 22 16 10 22 16 10 22 16 10 22 16 10 22 16 10
22 16 10 22 16 10 22 16 10 22 16 10 22 16 10 22 16 11 22 16 11 22 16
11 22 16 11 22 66 32 31 66 32 31 67 32 31 67 32 32 67 32 32 67 32 32
67 32 32 68 33 32 68 33 32 68 33 32 68 33 32 68 33 32 68 33 32 69 33
32 69 33 32 69 33 32 69 33 32 69 33 33 70 34 33 70 34 33 70 34 33 70
34 33 70 34 33 71 34 33 71 34 33 71 34 33 71 34 33 72 34 33 72 35 33
72 35 33 72 35 34 72 35 34 73 35 34 73 35 34 73 35 34 73 35 34 73 35
34 74 35 34 74 36 34 74 36 34 74 36 34 75 36 34 75 36 35 75 36 35 75
36 35 76 36 35 76 36 35 76 36 35 76 37 35 76 37 35 77 37 35 77 37 35
77 37 35 77 37 36 78 37 36 78 37 36 78 37 36 78 38 36 79 38 36 79 38
36 79 38 36 79 38 36 80 38 36 80 38 36 80 38 37 80 39 37 81 39 37 81
39 37 81 39 37 81 39 37 82 39 37 82 39 37 82 39 37 82 39 37 83 40 38
83 40 38 83 40 38 83 40 38 84 40 38 84 40 38 84 40 38 84 40 38 85 41
38 85 41 38 85 41 39 85 41 39 86 41 39 86 41 39 86 41 39 86 41 39 87
41 39 87 42 39 87 42 39 87 42 39 88 42 40 88 42 40 88 42 40 89 42 40
89 42 40 89 43 40 89 43 40 90 43 40 90 43 40 90 43 41 90 43 41 91 43
41 91 43 41 91 44 41 91 44 41 92 44 41 92 44 41 92 44 41 92 44 42 93
44 42 93 44 42 93 45 42 93 45 42 94 45 42 94 45 42 94 45 42 94 45 42
95 45 42 95 45 43 95 46 43 95 46 43 96 46 43 96 46 43 96 46 43 96 46
43 97 46 43 97 46 43 97 46 44 97 47 44 98 47 44 98 47 44 98 47 44 98
47 44 98 47 44 99 47 44 99 47 44 99 47 45 99 47 45 99 48 45 100 48 45
100 48 45 100 48 45 100 48 45 100 48 45 101 48 45 101 48 45 101 48 46
101 48 46 101 49 46 102 49 46 102 49 46 102 49 46 102 49 46 102 49 46
102 49 46 102 49 46 103 49 47 103 49 47 103 49 47 103 49 47 103 49 47
103 50 47 103 50 47 104 50 47 104 50 47 104 50 47 104 50 47 104 50 48
104 50 48 104 50 48 104 50 48 104 50 48 104 50 48 104 50 48 105 50 48
105 50 48 105 50 48 105 50 48 105 50 48 105 50 48 105 50 48 105 50 49
105 50 49 105 50 49 105 50 49 105 50 49 105 50 49 105 51 49 105 51 49
105 51 49 105 51 49 105 51 49 105 51 49 105 51 49 105 51 49 105 51 49
105 51 49 105 51 49 105 50 49 105 50 50 104 50 50 104 50 50 104 50 50
104 50 50 104 50 50 104 50 50 104 50 50 104 50 50 104 50 50 104 50 50
104 50 50 104 50 50 103 50 50 103 50 50 103 50 50 103 50 50 103 50 50
103 50 50 103 50 50 102 50 50 102 50 50 102 50 50 102 50 50 102 50 50
102 49 50 102 49 50 101 49 50 101 49 50 101 49 50 101 49 50 101 49 50
100 49 50 100 49 50 100 49 50 100 49 50 100 49 50 100 49 50 99 48 50
99 48 50 99 48 50 99 48 50 98 48 50 98 48 50 98 48 50 98 48 49 98 48
49 97 48 49 97 48 49 97 47 49 97 47 49 96 47 49 96 47 49 96 47 49 96
47 49 96 47 49 95 47 49 95 47 49 95 47 49 95 46 49 94 46 49 94 46 49
94 46 49 94 46 49 93 46 48 93 46 48 93 46 48 93 46 48 92 45 48 92 45
48 92 45 48 92 45 48 19 14 35 2 42 29 2 42 29 2 42 29 2 42 29 2 42 29
2 42 29 2 42 29 2 42 29 2 42 29 2 42 29 2 42 29 2 42 29 2 42 29 2 42
29 2 42 29 2 42 29 2 42 29 2 42 29 2 42 29 2 42 29 2 42 29 2 42 29 2
42 29 2 42 29 2 42 29 2 42 29 2 42 29 2 42 29 2 42 29 2 42 29 2 42 29
2 42 29 2 42 29 2 42 29 2 42 29 2 42 29 2 42 29 2 42 29 2 42 29 2 42
29 2 42 29 2 42 29 2 42 29 2 42 29 2 42 29 2 42 29 2 42 29 2 42 29 2
42 29 2 42 29 2 42 29 2 42 29 2 42 29 2 42 29 2 42 29 2 42 29 2 42 29
2 42 29 2 42 29 2 42 29 2 42 29 2 42 29 2 42 29 2 42 29 18 13 31 18 13
31 18 13 31 18 13 31 18 13 31 18 13 31 18 13 31 18 13 30 18 13 30 18
13 30 18 13 30 18 13 30 18 13 30 18 13 30 18 13 30 72 36 40 72 36 40
71 36 39 71 35 39 71 35 39 71 35 39 71 35 39 70 35 39 70 35 39 70 35
39 70 35 39 70 35 38 69 35 38 69 34 38 69 34 38 69 34 38 69 34 38 68
34 38 68 34 38 68 34 38 68 34 38 68 34 37 67 34 37 67 33 37 67 33 37
67 33 37 67 33 37 66 33 37
16 10 22 16 10 22 16 10 22 16 10 22 16 10 22 16 10 22 16 10 22 16 10
22 16 10 22 16 10 22 16 10 22 16 11 22 16 11 22 16 11 22 16 11 22 16
11 22 16 11 22 67 32 31 67 32 32 67 32 32 67 32 32 67 32 32 68 33 32
68 33 32 68 33 32 68 33 32 68 33 32 69 33 32 69 33 32 69 33 32 69 33
32 69 33 32 70 33 33 70 34 33 70 34 33 70 34 33 70 34 33 71 34 33 71
34 33 71 34 33 71 34 33 71 34 33 72 34 33 72 35 33 72 35 34 72 35 34
72 35 34 73 35 34 73 35 34 73 35 34 73 35 34 74 35 34 74 35 34 74 36
34 74 36 34 74 36 34 75 36 34 75 36 35 75 36 35 75 36 35 76 36 35 76
36 35 76 37 35 76 37 35 77 37 35 77 37 35 77 37 35 77 37 35 77 37 36
78 37 36 78 37 36 78 38 36 78 38 36 79 38 36 79 38 36 79 38 36 79 38
36 80 38 36 80 38 36 80 38 37 80 39 37 81 39 37 81 39 37 81 39 37 81
39 37 82 39 37 82 39 37 82 39 37 82 39 37 83 40 38 83 40 38 83 40 38
83 40 38 84 40 38 84 40 38 84 40 38 84 40 38 85 41 38 85 41 38 85 41
39 86 41 39 86 41 39 86 41 39 86 41 39 87 41 39 87 42 39 87 42 39 87
42 39 88 42 40 88 42 40 88 42 40 88 42 40 89 42 40 89 43 40 89 43 40
89 43 40 90 43 40 90 43 40 90 43 41 91 43 41 91 43 41 91 44 41 91 44
41 92 44 41 92 44 41 92 44 41 92 44 41 93 44 42 93 44 42 93 45 42 93
45 42 94 45 42 94 45 42 94 45 42 94 45 42 95 45 42 95 45 43 95 46 43
95 46 43 96 46 43 96 46 43 96 46 43 96 46 43 97 46 43 97 46 43 97 46
44 97 47 44 98 47 44 98 47 44 98 47 44 98 47 44 99 47 44 99 47 44 99
47 44 99 47 45 99 48 45 100 48 45 100 48 45 100 48 45 100 48 45 101 48
45 101 48 45 101 48 45 101 48 46 101 48 46 102 49 46 102 49 46 102 49
46 102 49 46 102 49 46 102 49 46 103 49 46 103 49 46 103 49 47 103 49
47 103 49 47 103 50 47 104 50 47 104 50 47 104 50 47 104 50 47 104 50
47 104 50 47 104 50 48 104 50 48 105 50 48 105 50 48 105 50 48 105 50
48 105 50 48 105 50 48 105 50 48 105 51 48 105 51 48 105 51 48 105 51
49 106 51 49 106 51 49 106 51 49 106 51 49 106 51 49 106 51 49 106 51
49 106 51 49 106 51 49 106 51 49 106 51 49 106 51 49 106 51 49 106 51
49 106 51 50 106 51 50 106 51 50 106 51 50 106 51 50 106 51 50 106 51
50 106 51 50 106 51 50 106 51 50 106 51 50 105 51 50 105 51 50 105 51
50 105 51 50 105 51 50 105 51 50 105 51 50 105 51 50 105 51 50 105 51
50 105 51 50 104 51 50 104 51 50 104 51 50 104 50 50 104 50 50 104 50
50 104 50 50 104 50 50 103 50 50 103 50 50 103 50 50 103 50 50 103 50
50 103 50 50 102 50 50 102 50 50 102 50 50 102 50 50 102 50 50 102 49
50 101 49 50 101 49 50 101 49 50 101 49 50 101 49 50 100 49 50 100 49
50 100 49 50 100 49 50 100 49 50 99 49 50 99 48 50 99 48 50 99 48 50
98 48 50 98 48 50 98 48 50 98 48 50 98 48 50 97 48 50 97 48 50 97 47
50 97 47 50 96 47 50 96 47 50 96 47 49 96 47 49 95 47 49 95 47 49 95
47 49 95 47 49 94 46 49 94 46 49 94 46 49 94 46 49 93 46 49 93 46 49
93 46 49 93 46 49 92 45 48 19 14 35 19 14 35 2 42 29 2 42 29 2 42 29 2
42 29 2 42 29 2 42 29 2 42 29 2 42 29 2 42 29 2 42 29 2 42 29 2 42 29
2 42 29 2 42 29 2 42 29 2 42 29 2 42 29 2 42 29 2 42 29 2 42 29 2 42
29 2 42 29 2 42 29 2 42 29 2 42 29 2 42 29 2 42 29 2 42 29 2 42 29 2
42 29 2 42 29 2 42 29 2 42 29 2 42 29 2 42 29 2 42 29 2 42 29 2 42 29
2 42 29 2 42 29 2 42 29 2 42 29 2 42 29 2 42 29 2 42 29 2 42 29 2 42
29 2 42 29 2 42 29 2 42 29 2 42 29 2 42 29 2 42 29 2 42 29 2 42 29 2
42 29 2 42 29 2 42 29 2 42 29 2 42 29 2 42 29 2 42 29 18 13 31 18 13
31 18 13 31 18 13 31 18 13 31 18 13 31 18 13 31 18 13 31 18 13 31 18
13 31 18 13 31 18 13 31 18 13 31 18 13 30 18 13 30 73 36 40 72 36 40
72 36 40 72 36 40 72 36 40 71 36 40 71 35 39 71 35 39 71 35 39 71 35
39 70 35 39 70 35 39 70 35 39 70 35 39 70 35 39 69 35 39 69 34 38 69
34 38 69 34 38 69 34 38 68 34 38 68 34 38 68 34 38 68 34 38 68 34 38
67 34 38 67 34 37 67 33 37 67 33 37
16 10 22 16 10 22 16 10 22 16 10 22 16 10 22 16 10 22 16 10 22 16 10
22 16 11 22 16 11 22 16 11 22 16 11 22 16 11 22 16 11 22 16 11 22 16
11 22 16 11 22 67 32 32 67 32 32 67 33 32 68 33 32 68 33 32 68 33 32
68 33 32 68 33 32 69 33 32 69 33 32 69 33 32 69 33 32 69 33 33 70 34
33 70 34 33 70 34 33 70 34 33 70 34 33 71 34 33 71 34 33 71 34 33 71
34 33 71 34 33 72 34 33 72 35 33 72 35 34 72 35 34 72 35 34 73 35 34
73 35 34 73 35 34 73 35 34 74 35 34 74 35 34 74 36 34 74 36 34 74 36
34 75 36 35 75 36 35 75 36 35 75 36 35 76 36 35 76 36 35 76 37 35 76
37 35 77 37 35 77 37 35 77 37 35 77 37 35 78 37 36 78 37 36 78 37 36
78 38 36 78 38 36 79 38 36 79 38 36 79 38 36 79 38 36 80 38 36 80 38
37 80 38 37 80 39 37 81 39 37 81 39 37 81 39 37 81 39 37 82 39 37 82
39 37 82 39 37 82 40 38 83 40 38 83 40 38 83 40 38 84 40 38 84 40 38
84 40 38 84 40 38 85 41 38 85 41 38 85 41 39 85 41 39 86 41 39 86 41
39 86 41 39 86 41 39 87 41 39 87 42 39 87 42 39 87 42 39 88 42 40 88
42 40 88 42 40 89 42 40 89 43 40 89 43 40 89 43 40 90 43 40 90 43 40
90 43 41 90 43 41 91 43 41 91 44 41 91 44 41 92 44 41 92 44 41 92 44
41 92 44 41 93 44 42 93 44 42 93 45 42 93 45 42 94 45 42 94 45 42 94
45 42 94 45 42 95 45 42 95 45 43 95 46 43 95 46 43 96 46 43 96 46 43
96 46 43 97 46 43 97 46 43 97 46 43 97 46 44 98 47 44 98 47 44 98 47
44 98 47 44 98 47 44 99 47 44 99 47 44 99 47 44 99 48 45 100 48 45 100
48 45 100 48 45 100 48 45 101 48 45 101 48 45 101 48 45 101 48 45 101
48 46 102 49 46 102 49 46 102 49 46 102 49 46 102 49 46 103 49 46 103
49 46 103 49 46 103 49 47 103 49 47 103 50 47 104 50 47 104 50 47 104
50 47 104 50 47 104 50 47 104 50 47 105 50 47 105 50 48 105 50 48 105
50 48 105 50 48 105 50 48 105 51 48 106 51 48 106 51 48 106 51 48 106
51 48 106 51 48 106 51 49 106 51 49 106 51 49 106 51 49 106 51 49 106
51 49 106 51 49 107 51 49 107 51 49 107 51 49 107 51 49 107 51 49 107
51 50 107 51 50 107 51 50 107 51 50 107 51 50 107 51 50 107 51 50 107
51 50 107 51 50 107 51 50 107 51 50 107 51 50 107 51 50 107 51 50 107
51 50 107 51 50 107 51 50 107 51 50 106 51 51 106 51 51 106 51 51 106
51 51 106 51 51 106 51 51 106 51 51 106 51 51 106 51 51 106 51 51 106
51 51 106 51 51 105 51 51 105 51 51 105 51 51 105 51 51 105 51 51 105
51 51 105 51 51 105 51 51 104 51 51 104 51 51 104 51 51 104 51 51 104
50 51 104 50 51 103 50 51 103 50 51 103 50 51 103 50 51 103 50 51 102
50 51 102 50 51 102 50 51 102 50 51 102 50 51 102 50 51 101 49 51 101
49 51 101 49 51 101 49 51 100 49 51 100 49 51 100 49 51 100 49 51 100
49 51 99 49 51 99 49 51 99 48 50 99 48 50 98 48 50 98 48 50 98 48 50
98 48 50 97 48 50 97 48 50 97 48 50 97 47 50 96 47 50 96 47 50 96 47
50 96 47 50 95 47 50 95 47 50 95 47 50 95 47 49 94 46 49 94 46 49 94
46 49 94 46 49 93 46 49 93 46 49 19 14 36 19 14 36 19 14 36 19 14 36 2
42 29 2 42 29 2 42 29 2 42 29 2 42 29 2 42 29 2 42 29 2 42 29 2 42 29
2 42 29 2 42 29 2 42 29 2 42 29 2 42 29 2 42 29 2 42 29 2 42 29 2 42
29 2 42 29 2 42 29 2 42 29 2 42 29 2 42 29 2 42 29 2 42 29 2 42 29 2
42 29 2 42 29 2 42 29 2 42 29 2 42 29 2 42 29 2 42 29 2 42 29 2 42 29
2 42 29 2 42 29 2 42 29 2 42 29 2 42 29 2 42 29 2 42 29 2 42 29 2 42
29 2 42 29 2 42 29 2 42 29 2 42 29 2 42 29 2 42 29 2 42 29 2 42 29 2
42 29 2 42 29 2 42 29 2 42 29 2 42 29 2 42 29 18 13 32 18 13 32 18 13
32 18 13 32 18 13 32 18 13 31 18 13 31 18 13 31 18 13 31 18 13 31 18
13 31 18 13 31 18 13 31 18 13 31 18 13 31 18 13 31 18 13 31 73 36 40
73 36 40 73 36 40 72 36 40 72 36 40 72 36 40 72 36 40 72 36 40 71 36
40 71 35 40 71 35 39 71 35 39 71 35 39 70 35 39 70 35 39 70 35 39 70
35 39 70 35 39 69 35 39 69 34 38 69 34 38 69 34 38 69 34 38 68 34 38
68 34 38 68 34 38 68 34 38 68 34 38 67 34 38
16 10 22 16 10 22 16 10 22 16 10 22 16 10 22 16 10 22 16 11 22 16 11
22 16 11 22 16 11 22 16 11 22 16 11 22 16 11 22 16 11 22 16 11 22 16
11 23 16 11 23 67 33 32 68 33 32 68 33 32 68 33 32 68 33 32 68 33 32
69 33 32 69 33 32 69 33 32 69 33 32 69 33 33 70 34 33 70 34 33 70 34
33 70 34 33 70 34 33 71 34 33 71 34 33 71 34 33 71 34 33 71 34 33 72
34 33 72 35 33 72 35 34 72 35 34 73 35 34 73 35 34 73 35 34 73 35 34
73 35 34 74 35 34 74 36 34 74 36 34 74 36 34 75 36 34 75 36 35 75 36
35 75 36 35 75 36 35 76 36 35 76 36 35 76 37 35 76 37 35 77 37 35 77
37 35 77 37 35 77 37 36 78 37 36 78 37 36 78 37 36 78 38 36 79 38 36
79 38 36 79 38 36 79 38 36 80 38 36 80 38 36 80 38 37 80 38 37 81 39
37 81 39 37 81 39 37 81 39 37 82 39 37 82 39 37 82 39 37 82 39 37 83
40 38 83 40 38 83 40 38 83 40 38 84 40 38 84 40 38 84 40 38 84 40 38
85 41 38 85 41 38 85 41 39 85 41 39 86 41 39 86 41 39 86 41 39 87 41
39 87 42 39 87 42 39 87 42 39 88 42 40 88 42 40 88 42 40 88 42 40 89
42 40 89 43 40 89 43 40 89 43 40 90 43 40 90 43 40 90 43 41 91 43 41
91 43 41 91 44 41 91 44 41 92 44 41 92 44 41 92 44 41 92 44 42 93 44
42 93 44 42 93 45 42 94 45 42 94 45 42 94 45 42 94 45 42 95 45 42 95
45 43 95 45 43 95 46 43 96 46 43 96 46 43 96 46 43 96 46 43 97 46 43
97 46 43 97 46 44 98 47 44 98 47 44 98 47 44 98 47 44 99 47 44 99 47
44 99 47 44 99 47 44 100 48 45 100 48 45 100 48 45 100 48 45 100 48 45
101 48 45 101 48 45 101 48 45 101 48 46 102 49 46 102 49 46 102 49 46
102 49 46 102 49 46 103 49 46 103 49 46 103 49 46 103 49 47 103 49 47
104 50 47 104 50 47 104 50 47 104 50 47 104 50 47 105 50 47 105 50 47
105 50 47 105 50 48 105 50 48 105 50 48 106 51 48 106 51 48 106 51 48
106 51 48 106 51 48 106 51 48 106 51 48 106 51 49 107 51 49 107 51 49
107 51 49 107 51 49 107 51 49 107 51 49 107 51 49 107 51 49 107 52 49
107 52 49 107 52 50 107 52 50 108 52 50 108 52 50 108 52 50 108 52 50
108 52 50 108 52 50 108 52 50 108 52 50 108 52 50 108 52 50 108 52 50
108 52 50 108 52 51 108 52 51 108 52 51 108 52 51 108 52 51 108 52 51
108 52 51 108 52 51 108 52 51 107 52 51 107 52 51 107 52 51 107 52 51
107 52 51 107 52 51 107 52 51 107 52 51 107 52 51 107 52 51 107 52 51
107 52 51 106 52 51 106 52 51 106 52 51 106 51 51 106 51 52 106 51 52
106 51 52 106 51 52 105 51 52 105 51 52 105 51 52 105 51 52 105 51 52
105 51 52 104 51 52 104 51 52 104 51 52 104 51 52 104 51 52 104 50 52
103 50 52 103 50 52 103 50 52 103 50 52 103 50 51 102 50 51 102 50 51
102 50 51 102 50 51 102 50 51 101 50 51 101 49 51 101 49 51 101 49 51
100 49 51 100 49 51 100 49 51 100 49 51 99 49 51 99 49 51 99 49 51 99
48 51 99 48 51 98 48 51 98 48 51 98 48 51 98 48 51 97 48 51 97 48 50
97 48 50 97 47 50 96 47 50 96 47 50 96 47 50 95 47 50 95 47 50 95 47
50 95 47 50 94 47 50 94 46 50 94 46 50 19 14 36 19 14 36 19 14 36 19
14 36 19 14 36 19 14 36 2 42 29 2 42 29 2 42 29 2 42 29 2 42 29 2 42
29 2 42 29 2 42 29 2 42 29 2 42 29 2 42 29 2 42 29 2 42 29 2 42 29 2
42 29 2 42 29 2 42 29 2 42 29 2 42 29 2 42 29 2 42 29 2 42 29 2 42 29
2 42 29 2 42 29 2 42 29 2 42 29 2 42 29 2 42 29 2 42 29 2 42 29 2 42
29 2 42 29 2 42 29 2 42 29 2 42 29 2 42 29 2 42 29 2 42 29 2 42 29 2
42 29 2 42 29 2 42 29 2 42 29 2 42 29 2 42 29 2 42 29 2 42 29 2 42 29
2 42 29 2 42 29 2 42 29 2 42 29 2 42 29 18 13 32 18 13 32 18 13 32 18
13 32 18 13 32 18 13 32 18 13 32 18 13 32 18 13 32 18 13 32 18 13 32
18 13 31 18 13 31 18 13 31 18 13 31 18 13 31 18 13 31 18 13 31 74 37
41 74 37 41 73 37 41 73 36 41 73 36 41 73 36 40 73 36 40 72 36 40 72
36 40 72 36 40 72 36 40 71 36 40 71 36 40 71 35 40 71 35 39 71 35 39
70 35 39 70 35 39 70 35 39 70 35 39 70 35 39 69 35 39 69 34 39 69 34
38 69 34 38 69 34 38 68 34 38 68 34 38 68 34 38 68 34 38
16 10 22 16 10 22 16 10 22 16 10 22 16 11 22 16 11 22 16 11 22 16 11
22 16 11 22 16 11 22 16 11 22 16 11 22 16 11 23 16 11 23 16 11 23 16
11 23 16 11 23 68 33 32 68 33 32 68 33 32 68 33 32 69 33 32 69 33 32
69 33 32 69 33 32 69 33 33 70 34 33 70 34 33 70 34 33 70 34 33 70 34
33 71 34 33 71 34 33 71 34 33 71 34 33 71 34 33 72 35 33 72 35 33 72
35 34 72 35 34 73 35 34 73 35 34 73 35 34 73 35 34 73 35 34 74 35 34
74 36 34 74 36 34 74 36 34 75 36 34 75 36 35 75 36 35 75 36 35 75 36
35 76 36 35 76 36 35 76 37 35 76 37 35 77 37 35 77 37 35 77 37 35 77
37 36 78 37 36 78 37 36 78 37 36 78 38 36 79 38 36 79 38 36 79 38 36
79 38 36 80 38 36 80 38 36 80 38 37 80 39 37 81 39 37 81 39 37 81 39
37 81 39 37 82 39 37 82 39 37 82 39 37 82 39 37 83 40 38 83 40 38 83
40 38 83 40 38 84 40 38 84 40 38 84 40 38 84 40 38 85 41 38 85 41 38
85 41 39 86 41 39 86 41 39 86 41 39 86 41 39 87 41 39 87 42 39 87 42
39 87 42 39 88 42 40 88 42 40 88 42 40 89 42 40 89 42 40 89 43 40 89
43 40 90 43 40 90 43 40 90 43 41 90 43 41 91 43 41 91 44 41 91 44 41
92 44 41 92 44 41 92 44 41 92 44 41 93 44 42 93 44 42 93 45 42 93 45
42 94 45 42 94 45 42 94 45 42 95 45 42 95 45 42 95 45 43 95 46 43 96
46 43 96 46 43 96 46 43 96 46 43 97 46 43 97 46 43 97 46 44 98 47 44
98 47 44 98 47 44 98 47 44 99 47 44 99 47 44 99 47 44 99 47 44 100 48
45 100 48 45 100 48 45 100 48 45 101 48 45 101 48 45 101 48 45 101 48
45 102 49 46 102 49 46 102 49 46 102 49 46 102 49 46 103 49 46 103 49
46 103 49 46 103 49 46 103 50 47 104 50 47 104 50 47 104 50 47 104 50
47 105 50 47 105 50 47 105 50 47 105 50 47 105 50 48 105 50 48 106 51
48 106 51 48 106 51 48 106 51 48 106 51 48 106 51 48 107 51 48 107 51
48 107 51 49 107 51 49 107 51 49 107 51 49 107 51 49 107 52 49 108 52
49 108 52 49 108 52 49 108 52 49 108 52 50 108 52 50 108 52 50 108 52
50 108 52 50 108 52 50 108 52 50 108 52 50 109 52 50 109 52 50 109 52
50 109 52 50 109 52 51 109 52 51 109 52 51 109 52 51 109 52 51 109 52
51 109 52 51 109 52 51 109 52 51 109 52 51 109 52 51 109 52 51 109 52
51 109 52 51 109 52 51 108 52 51 108 52 52 108 52 52 108 52 52 108 52
52 108 52 52 108 52 52 108 52 52 108 52 52 108 52 52 108 52 52 108 52
52 108 52 52 107 52 52 107 52 52 107 52 52 107 52 52 107 52 52 107 52
52 107 52 52 106 52 52 106 52 52 106 52 52 106 52 52 106 51 52 106 51
52 106 51 52 105 51 52 105 51 52 105 51 52 105 51 52 105 51 52 104 51
52 104 51 52 104 51 52 104 51 52 104 51 52 103 51 52 103 50 52 103 50
52 103 50 52 103 50 52 102 50 52 102 50 52 102 50 52 102 50 52 102 50
52 101 50 52 101 50 52 101 49 52 101 49 52 100 49 52 100 49 52 100 49
51 100 49 51 99 49 51 99 49 51 99 49 51 99 48 51 98 48 51 98 48 51 98
48 51 98 48 51 97 48 51 97 48 51 97 48 51 97 48 51 96 47 51 96 47 51
96 47 50 95 47 50 95 47 50 95 47 50 95 47 50 94 47 50 19 14 36 19 14
36 19 14 36 19 14 36 19 14 36 19 14 36 19 14 36 2 42 29 2 42 29 2 42
29 2 42 29 2 42 29 2 42 29 2 42 29 2 42 29 2 42 29 2 42 29 2 42 29 2
42 29 2 42 29 2 42 29 2 42 29 2 42 29 2 42 29 2 42 29 2 42 29 2 42 29
2 42 29 2 42 29 2 42 29 2 42 29 2 42 29 2 42 29 2 42 29 2 42 29 2 42
29 2 42 29 2 42 29 2 42 29 2 42 29 2 42 29 2 42 29 2 42 29 2 42 29 2
42 29 2 42 29 2 42 29 2 42 29 2 42 29 2 42 29 2 42 29 2 42 29 2 42 29
2 42 29 2 42 29 2 42 29 2 42 29 18 13 33 18 13 33 18 13 33 18 13 33 18
13 33 18 13 32 18 13 32 18 13 32 18 13 32 18 13 32 18 13 32 18 13 32
18 13 32 18 13 32 18 13 32 18 13 32 18 13 32 18 13 31 18 13 31 75 37
41 74 37 41 74 37 41 74 37 41 74 37 41 73 37 41 73 37 41 73 36 41 73
36 41 73 36 40 72 36 40 72 36 40 72 36 40 72 36 40 72 36 40 71 36 40
71 35 40 71 35 40 71 35 39 70 35 39 70 35 39 70 35 39 70 35 39 70 35
39 69 35 39 69 35 39 69 34 39 69 34 38 69 34 38 68 34 38 68 34 38
16 10 22 16 11 22 16 11 22 16 11 22 16 11 22 16 11 22 16 11 22 16 11
22 16 11 22 16 11 22 16 11 23 16 11 23 16 11 23 16 11 23 16 11 23 16
11 23 16 11 23 68 33 32 68 33 32 69 33 32 69 33 32 69 33 32 69 33 32
69 33 33 70 34 33 70 34 33 70 34 33 70 34 33 70 34 33 71 34 33 71 34
33 71 34 33 71 34 33 72 34 33 72 35 33 72 35 34 72 35 34 72 35 34 73
35 34 73 35 34 73 35 34 73 35 34 73 35 34 74 35 34 74 36 34 74 36 34
74 36 34 75 36 35 75 36 35 75 36 35 75 36 35 75 36 35 76 36 35 76 36
35 76 37 35 76 37 35 77 37 35 77 37 35 77 37 35 77 37 36 78 37 36 78
37 36 78 37 36 78 38 36 79 38 36 79 38 36 79 38 36 79 38 36 80 38 36
80 38 37 80 38 37 80 39 37 81 39 37 81 39 37 81 39 37 81 39 37 82 39
37 82 39 37 82 39 37 82 39 37 83 40 38 83 40 38 83 40 38 83 40 38 84
40 38 84 40 38 84 40 38 84 40 38 85 41 38 85 41 39 85 41 39 86 41 39
86 41 39 86 41 39 86 41 39 87 41 39 87 42 39 87 42 39 87 42 39 88 42
40 88 42 40 88 42 40 89 42 40 89 43 40 89 43 40 89 43 40 90 43 40 90
43 40 90 43 41 91 43 41 91 43 41 91 44 41 91 44 41 92 44 41 92 44 41
92 44 41 92 44 41 93 44 42 93 44 42 93 45 42 94 45 42 94 45 42 94 45
42 94 45 42 95 45 42 95 45 43 95 46 43 96 46 43 96 46 43 96 46 43 96
46 43 97 46 43 97 46 43 97 46 43 97 47 44 98 47 44 98 47 44 98 47 44
99 47 44 99 47 44 99 47 44 99 47 44 100 48 45 100 48 45 100 48 45 100
48 45 101 48 45 101 48 45 101 48 45 101 48 45 102 49 46 102 49 46 102
49 46 102 49 46 103 49 46 103 49 46 103 49 46 103 49 46 103 49 46 104
50 47 104 50 47 104 50 47 104 50 47 105 50 47 105 50 47 105 50 47 105
50 47 105 50 47 106 51 48 106 51 48 106 51 48 106 51 48 106 51 48 106
51 48 107 51 48 107 51 48 107 51 48 107 51 49 107 51 49 107 51 49 108
52 49 108 52 49 108 52 49 108 52 49 108 52 49 108 52 49 108 52 49 108
52 50 109 52 50 109 52 50 109 52 50 109 52 50 109 52 50 109 52 50 109
52 50 109 52 50 109 52 50 109 53 51 109 53 51 109 53 51 109 53 51 110
53 51 110 53 51 110 53 51 110 53 51 110 53 51 110 53 51 110 53 51 110
53 51 110 53 51 110 53 51 110 53 52 110 53 52 110 53 52 110 53 52 110
53 52 109 53 52 109 53 52 109 53 52 109 53 52 109 53 52 109 53 52 109
53 52 109 53 52 109 53 52 109 53 52 109 53 52 109 53 52 109 53 52 109
53 52 108 53 52 108 53 52 108 52 53 108 52 53 108 52 53 108 52 53 108
52 53 108 52 53 107 52 53 107 52 53 107 52 53 107 52 53 107 52 53 107
52 53 106 52 53 106 52 53 106 52 53 106 52 53 106 52 53 106 51 53 105
51 53 105 51 53 105 51 53 105 51 53 105 51 53 104 51 53 104 51 53 104
51 53 104 51 53 103 51 53 103 51 52 103 50 52 103 50 52 103 50 52 102
50 52 102 50 52 102 50 52 102 50 52 101 50 52 101 50 52 101 50 52 101
49 52 100 49 52 100 49 52 100 49 52 100 49 52 99 49 52 99 49 52 99 49
52 99 49 52 98 48 52 98 48 51 98 48 51 98 48 51 97 48 51 97 48 51 97
48 51 97 48 51 96 47 51 96 47 51 96 47 51 95 47 51 95 47 51 19 14 37
19 14 37 19 14 37 19 14 37 19 14 37 19 14 37 19 14 37 19 14 37 19 14
37 2 42 29 2 42 29 2 42 29 2 42 29 2 42 29 2 42 29 2 42 29 2 42 29 2
42 29 2 42 29 2 42 29 2 42 29 2 42 29 2 42 29 2 42 29 2 42 29 2 42 29
2 42 29 2 42 29 2 42 29 2 42 29 2 42 29 2 42 29 2 42 29 2 42 29 2 42
29 2 42 29 2 42 29 2 42 29 2 42 29 2 42 29 2 42 29 2 42 29 2 42 29 2
42 29 2 42 29 2 42 29 2 42 29 2 42 29 2 42 29 2 42 29 2 42 29 2 42 29
2 42 29 2 42 29 2 42 29 18 13 33 18 13 33 18 13 33 18 13 33 18 13 33
18 13 33 18 13 33 18 13 33 18 13 33 18 13 33 18 13 33 18 13 32 18 13
32 18 13 32 18 13 32 18 13 32 18 13 32 18 13 32 18 13 32 76 38 42 75
38 42 75 37 42 75 37 42 75 37 42 74 37 42 74 37 41 74 37 41 74 37 41
74 37 41 73 37 41 73 36 41 73 36 41 73 36 41 72 36 40 72 36 40 72 36
40 72 36 40 72 36 40 71 36 40 71 35 40 71 35 40 71 35 40 71 35 39 70
35 39 70 35 39 70 35 39 70 35 39 70 35 39 69 35 39 69 34 39 69 34 39
69 34 38
16 11 22 16 11 22 16 11 22 16 11 22 16 11 22 16 11 22 16 11 22 16 11
22 16 11 23 16 11 23 16 11 23 16 11 23 16 11 23 16 11 23 16 11 23 16
11 23 68 33 32 69 33 32 69 33 32 69 33 32 69 33 33 69 33 33 70 34 33
70 34 33 70 34 33 70 34 33 70 34 33 71 34 33 71 34 33 71 34 33 71 34
33 72 34 33 72 35 33 72 35 34 72 35 34 72 35 34 73 35 34 73 35 34 73
35 34 73 35 34 73 35 34 74 35 34 74 36 34 74 36 34 74 36 34 75 36 35
75 36 35 75 36 35 75 36 35 75 36 35 76 36 35 76 36 35 76 37 35 76 37
35 77 37 35 77 37 35 77 37 35 77 37 36 78 37 36 78 37 36 78 37 36 78
38 36 79 38 36 79 38 36 79 38 36 79 38 36 80 38 36 80 38 37 80 38 37
80 39 37 81 39 37 81 39 37 81 39 37 81 39 37 82 39 37 82 39 37 82 39
37 82 39 38 83 40 38 83 40 38 83 40 38 83 40 38 84 40 38 84 40 38 84
40 38 85 40 38 85 41 38 85 41 39 85 41 39 86 41 39 86 41 39 86 41 39
86 41 39 87 41 39 87 42 39 87 42 39 88 42 40 88 42 40 88 42 40 88 42
40 89 42 40 89 43 40 89 43 40 89 43 40 90 43 40 90 43 41 90 43 41 91
43 41 91 43 41 91 44 41 91 44 41 92 44 41 92 44 41 92 44 41 93 44 42
93 44 42 93 45 42 93 45 42 94 45 42 94 45 42 94 45 42 95 45 42 95 45
42 95 45 43 95 46 43 96 46 43 96 46 43 96 46 43 97 46 43 97 46 43 97
46 43 97 47 44 98 47 44 98 47 44 98 47 44 98 47 44 99 47 44 99 47 44
99 47 44 100 48 45 100 48 45 100 48 45 100 48 45 101 48 45 101 48 45
101 48 45 101 48 45 102 49 45 102 49 46 102 49 46 102 49 46 103 49 46
103 49 46 103 49 46 103 49 46 104 50 46 104 50 47 104 50 47 104 50 47
104 50 47 105 50 47 105 50 47 105 50 47 105 50 47 106 50 48 106 51 48
106 51 48 106 51 48 106 51 48 107 51 48 107 51 48 107 51 48 107 51 48
107 51 49 107 51 49 108 52 49 108 52 49 108 52 49 108 52 49 108 52 49
108 52 49 109 52 49 109 52 50 109 52 50 109 52 50 109 52 50 109 52 50
109 52 50 109 53 50 110 53 50 110 53 50 110 53 50 110 53 51 110 53 51
110 53 51 110 53 51 110 53 51 110 53 51 110 53 51 110 53 51 110 53 51
110 53 51 110 53 51 110 53 51 111 53 52 111 53 52 111 53 52 111 53 52
111 53 52 111 53 52 111 53 52 111 53 52 111 53 52 111 53 52 110 53 52
110 53 52 110 53 52 110 53 52 110 53 52 110 53 53 110 53 53 110 53 53
110 53 53 110 53 53 110 53 53 110 53 53 110 53 53 110 53 53 110 53 53
109 53 53 109 53 53 109 53 53 109 53 53 109 53 53 109 53 53 109 53 53
109 53 53 108 53 53 108 53 53 108 53 53 108 53 53 108 52 53 108 52 53
107 52 53 107 52 53 107 52 53 107 52 53 107 52 53 107 52 53 106 52 53
106 52 53 106 52 53 106 52 53 106 52 53 105 52 53 105 51 53 105 51 53
105 51 53 105 51 53 104 51 53 104 51 53 104 51 53 104 51 53 103 51 53
103 51 53 103 50 53 103 50 53 102 50 53 102 50 53 102 50 53 102 50 53
101 50 53 101 50 53 101 50 53 101 50 52 100 49 52 100 49 52 100 49 52
100 49 52 99 49 52 99 49 52 99 49 52 99 49 52 98 48 52 98 48 52 98 48
52 98 48 52 97 48 52 97 48 51 97 48 51 96 48 51 96 48 51 96 47 51 96
47 51 19 15 37 19 15 37 19 15 37 19 15 37 19 15 37 19 15 37 19 15 37
19 14 37 19 14 37 19 14 37 3 43 31 2 42 29 2 42 29 2 42 29 2 42 29 2
42 29 2 42 29 2 42 29 2 42 29 2 42 29 2 42 29 2 42 29 2 42 29 2 42 29
2 42 29 2 42 29 2 42 29 2 42 29 2 42 29 2 42 29 2 42 29 2 42 29 2 42
29 2 42 29 2 42 29 2 42 29 2 42 29 2 42 29 2 42 29 2 42 29 2 42 29 2
42 29 2 42 29 2 42 29 2 42 29 2 42 29 2 42 29 2 42 29 2 42 29 2 42 29
2 42 29 18 14 34 18 14 34 18 14 34 18 14 34 18 14 34 18 14 34 18 14 33
18 14 33 18 13 33 18 13 33 18 13 33 18 13 33 18 13 33 18 13 33 18 13
33 18 13 33 18 13 33 18 13 33 18 13 32 18 13 32 18 13 32 76 38 43 76
38 42 76 38 42 76 38 42 75 38 42 75 37 42 75 37 42 75 37 42 74 37 42
74 37 42 74 37 41 74 37 41 74 37 41 73 37 41 73 36 41 73 36 41 73 36
41 72 36 41 72 36 40 72 36 40 72 36 40 72 36 40 71 36 40 71 36 40 71
35 40 71 35 40 71 35 40 70 35 39 70 35 39 70 35 39 70 35 39 70 35 39
69 35 39 69 35 39
16 11 22 16 11 22 16 11 22 16 11 22 16 11 22 16 11 23 16 11 23 16 11
23 16 11 23 16 11 23 16 11 23 16 11 23 16 11 23 16 11 23 16 11 23 69
33 32 69 33 32 69 33 32 69 33 33 69 33 33 70 34 33 70 34 33 70 34 33
70 34 33 70 34 33 71 34 33 71 34 33 71 34 33 71 34 33 72 34 33 72 35
33 72 35 34 72 35 34 72 35 34 73 35 34 73 35 34 73 35 34 73 35 34 73
35 34 74 35 34 74 36 34 74 36 34 74 36 34 75 36 35 75 36 35 75 36 35
75 36 35 76 36 35 76 36 35 76 37 35 76 37 35 76 37 35 77 37 35 77 37
35 77 37 36 77 37 36 78 37 36 78 37 36 78 37 36 78 38 36 79 38 36 79
38 36 79 38 36 79 38 36 80 38 36 80 38 37 80 38 37 80 39 37 81 39 37
81 39 37 81 39 37 81 39 37 82 39 37 82 39 37 82 39 37 82 40 38 83 40
38 83 40 38 83 40 38 83 40 38 84 40 38 84 40 38 84 40 38 85 40 38 85
41 38 85 41 39 85 41 39 86 41 39 86 41 39 86 41 39 86 41 39 87 42 39
87 42 39 87 42 39 88 42 40 88 42 40 88 42 40 88 42 40 89 42 40 89 43
40 89 43 40 90 43 40 90 43 40 90 43 41 90 43 41 91 43 41 91 43 41 91
44 41 91 44 41 92 44 41 92 44 41 92 44 41 93 44 42 93 44 42 93 45 42
93 45 42 94 45 42 94 45 42 94 45 42 95 45 42 95 45 43 95 46 43 95 46
43 96 46 43 96 46 43 96 46 43 97 46 43 97 46 43 97 46 43 97 47 44 98
47 44 98 47 44 98 47 44 99 47 44 99 47 44 99 47 44 99 48 44 100 48 45
100 48 45 100 48 45 101 48 45 101 48 45 101 48 45 101 48 45 102 49 45
102 49 46 102 49 46 102 49 46 103 49 46 103 49 46 103 49 46 103 49 46
104 50 46 104 50 47 104 50 47 104 50 47 105 50 47 105 50 47 105 50 47
105 50 47 105 50 47 106 51 48 106 51 48 106 51 48 106 51 48 107 51 48
107 51 48 107 51 48 107 51 48 107 51 48 108 51 49 108 52 49 108 52 49
108 52 49 108 52 49 108 52 49 109 52 49 109 52 49 109 52 49 109 52 50
109 52 50 109 52 50 110 53 50 110 53 50 110 53 50 110 53 50 110 53 50
110 53 50 110 53 51 110 53 51 111 53 51 111 53 51 111 53 51 111 53 51
111 53 51 111 53 51 111 53 51 111 53 51 111 53 52 111 53 52 111 54 52
111 54 52 111 54 52 111 54 52 111 54 52 111 54 52 111 54 52 111 54 52
111 54 52 111 54 52 111 54 52 111 54 53 111 54 53 111 54 53 111 54 53
111 54 53 111 54 53 111 54 53 111 54 53 111 54 53 111 54 53 111 54 53
111 54 53 111 54 53 111 54 53 111 54 53 111 54 53 111 54 53 110 54 53
110 54 54 110 53 54 110 53 54 110 53 54 110 53 54 110 53 54 110 53 54
109 53 54 109 53 54 109 53 54 109 53 54 109 53 54 109 53 54 109 53 54
108 53 54 108 53 54 108 53 54 108 53 54 108 53 54 107 52 54 107 52 54
107 52 54 107 52 54 107 52 54 106 52 54 106 52 54 106 52 54 106 52 54
106 52 54 105 52 54 105 52 54 105 51 54 105 51 54 104 51 54 104 51 54
104 51 54 104 51 53 104 51 53 103 51 53 103 51 53 103 50 53 103 50 53
102 50 53 102 50 53 102 50 53 102 50 53 101 50 53 101 50 53 101 50 53
100 49 53 100 49 53 100 49 53 100 49 53 99 49 53 99 49 52 99 49 52 99
49 52 98 49 52 98 48 52 98 48 52 97 48 52 97 48 52 97 48 52 97 48 52
96 48 52 96 48 52 19 15 38 19 15 38 19 15 38 19 15 38 19 15 38 19 15
37 19 15 37 19 15 37 19 15 37 19 15 37 19 15 37 19 15 37 3 44 35 2 42
29 2 42 29 2 42 29 2 42 29 2 42 29 2 42 29 2 42 29 2 42 29 2 42 29 2
42 29 2 42 29 2 42 29 2 42 29 2 42 29 2 42 29 2 42 29 2 42 29 2 42 29
2 42 29 2 42 29 2 42 29 2 42 29 2 42 29 2 42 29 2 42 29 2 42 29 2 42
29 2 42 29 2 42 29 2 42 29 2 42 29 2 42 29 2 42 29 2 42 29 19 14 35 19
14 34 19 14 34 19 14 34 19 14 34 19 14 34 19 14 34 18 14 34 18 14 34
18 14 34 18 14 34 18 14 34 18 14 34 18 14 33 18 14 33 18 13 33 18 13
33 18 13 33 18 13 33 18 13 33 18 13 33 18 13 33 77 39 43 77 38 43 77
38 43 77 38 43 76 38 43 76 38 43 76 38 43 76 38 42 75 38 42 75 38 42
75 37 42 75 37 42 75 37 42 74 37 42 74 37 42 74 37 41 74 37 41 73 37
41 73 37 41 73 36 41 73 36 41 73 36 41 72 36 41 72 36 40 72 36 40 72
36 40 71 36 40 71 36 40 71 35 40 71 35 40 71 35 40 70 35 40 70 35 39
70 35 39 70 35 39 70 35 39
16 11 22 16 11 22 16 11 22 16 11 23 16 11 23 16 11 23 16 11 23 16 11
23 16 11 23 16 11 23 16 11 23 16 11 23 16 11 23 16 11 23 16 11 23 69
33 32 69 33 33 69 33 33 70 34 33 70 34 33 70 34 33 70 34 33 70 34 33
71 34 33 71 34 33 71 34 33 71 34 33 72 34 33 72 35 33 72 35 34 72 35
34 72 35 34 73 35 34 73 35 34 73 35 34 73 35 34 73 35 34 74 35 34 74
36 34 74 36 34 74 36 34 75 36 35 75 36 35 75 36 35 75 36 35 75 36 35
76 36 35 76 37 35 76 37 35 76 37 35 77 37 35 77 37 35 77 37 36 77 37
36 78 37 36 78 37 36 78 37 36 78 38 36 79 38 36 79 38 36 79 38 36 79
38 36 80 38 36 80 38 37 80 38 37 80 39 37 81 39 37 81 39 37 81 39 37
81 39 37 82 39 37 82 39 37 82 39 37 82 40 38 83 40 38 83 40 38 83 40
38 83 40 38 84 40 38 84 40 38 84 40 38 85 40 38 85 41 38 85 41 39 85
41 39 86 41 39 86 41 39 86 41 39 86 41 39 87 42 39 87 42 39 87 42 39
88 42 40 88 42 40 88 42 40 88 42 40 89 42 40 89 43 40 89 43 40 90 43
40 90 43 40 90 43 41 90 43 41 91 43 41 91 44 41 91 44 41 92 44 41 92
44 41 92 44 41 92 44 41 93 44 42 93 44 42 93 45 42 94 45 42 94 45 42
94 45 42 94 45 42 95 45 42 95 45 43 95 46 43 96 46 43 96 46 43 96 46
43 96 46 43 97 46 43 97 46 43 97 46 44 98 47 44 98 47 44 98 47 44 98
47 44 99 47 44 99 47 44 99 47 44 100 48 45 100 48 45 100 48 45 100 48
45 101 48 45 101 48 45 101 48 45 101 49 45 102 49 46 102 49 46 102 49
46 103 49 46 103 49 46 103 49 46 103 49 46 104 50 46 104 50 47 104 50
47 104 50 47 105 50 47 105 50 47 105 50 47 105 50 47 106 50 47 106 51
48 106 51 48 106 51 48 106 51 48 107 51 48 107 51 48 107 51 48 107 51
48 108 51 49 108 52 49 108 52 49 108 52 49 108 52 49 109 52 49 109 52
49 109 52 49 109 52 49 109 52 50 109 52 50 110 53 50 110 53 50 110 53
50 110 53 50 110 53 50 110 53 50 111 53 50 111 53 51 111 53 51 111 53
51 111 53 51 111 53 51 111 53 51 111 53 51 111 54 51 112 54 51 112 54
51 112 54 52 112 54 52 112 54 52 112 54 52 112 54 52 112 54 52 112 54
52 112 54 52 112 54 52 112 54 52 112 54 52 112 54 53 112 54 53 112 54
53 112 54 53 112 54 53 112 54 53 112 54 53 112 54 53 112 54 53 112 54
53 112 54 53 112 54 53 112 54 53 112 54 53 112 54 54 112 54 54 112 54
54 112 54 54 112 54 54 112 54 54 112 54 54 112 54 54 111 54 54 111 54
54 111 54 54 111 54 54 111 54 54 111 54 54 111 54 54 111 54 54 110 54
54 110 54 54 110 54 54 110 54 54 110 53 54 110 53 54 110 53 54 109 53
54 109 53 54 109 53 54 109 53 54 109 53 54 108 53 54 108 53 54 108 53
54 108 53 54 108 53 54 108 53 54 107 52 54 107 52 54 107 52 54 107 52
54 106 52 54 106 52 54 106 52 54 106 52 54 106 52 54 105 52 54 105 52
54 105 51 54 105 51 54 104 51 54 104 51 54 104 51 54 104 51 54 103 51
54 103 51 54 103 51 54 103 50 54 102 50 54 102 50 54 102 50 54 102 50
53 101 50 53 101 50 53 101 50 53 100 50 53 100 49 53 100 49 53 100 49
53 99 49 53 99 49 53 99 49 53 98 49 53 98 49 53 98 48 52 98 48 52 97
48 52 97 48 52 97 48 52 97 48 52 19 15 38 19 15 38 19 15 38 19 15 38
19 15 38 19 15 38 19 15 38 19 15 38 19 15 38 19 15 38 19 15 38 19 15
38 19 15 37 19 15 37 19 15 37 4 45 43 2 42 29 2 42 29 2 42 29 2 42 29
2 42 29 2 42 29 2 42 29 2 42 29 2 42 29 2 42 29 2 42 29 2 42 29 2 42
29 2 42 29 2 42 29 2 42 29 2 42 29 2 42 29 2 42 29 2 42 29 2 42 29 2
42 29 2 42 29 2 42 29 2 42 29 2 42 29 2 43 30 19 14 35 19 14 35 19 14
35 19 14 35 19 14 35 19 14 35 19 14 35 19 14 35 19 14 34 19 14 34 19
14 34 19 14 34 19 14 34 19 14 34 18 14 34 18 14 34 18 14 34 18 14 34
18 14 34 18 14 34 18 14 33 18 14 33 18 13 33 78 39 44 78 39 44 78 39
44 78 39 44 77 39 43 77 38 43 77 38 43 77 38 43 76 38 43 76 38 43 76
38 43 76 38 43 75 38 42 75 38 42 75 37 42 75 37 42 75 37 42 74 37 42
74 37 42 74 37 42 74 37 41 73 37 41 73 37 41 73 36 41 73 36 41 73 36
41 72 36 41 72 36 41 72 36 40 72 36 40 71 36 40 71 36 40 71 36 40 71
35 40 71 35 40 70 35 40 70 35 40 70 35 39
16 11 22 16 11 23 16 11 23 16 11 23 16 11 23 16 11 23 16 11 23 16 11
23 16 11 23 16 11 23 16 11 23 16 11 23 16 11 23 69 33 32 69 33 33 69
33 33 70 34 33 70 34 33 70 34 33 70 34 33 70 34 33 71 34 33 71 34 33
71 34 33 71 34 33 72 34 33 72 35 33 72 35 34 72 35 34 72 35 34 73 35
34 73 35 34 73 35 34 73 35 34 73 35 34 74 35 34 74 36 34 74 36 34 74
36 34 75 36 35 75 36 35 75 36 35 75 36 35 75 36 35 76 36 35 76 36 35
76 37 35 76 37 35 77 37 35 77 37 35 77 37 36 77 37 36 78 37 36 78 37
36 78 37 36 78 38 36 79 38 36 79 38 36 79 38 36 79 38 36 80 38 36 80
38 37 80 38 37 80 39 37 81 39 37 81 39 37 81 39 37 81 39 37 82 39 37
82 39 37 82 39 37 82 39 38 83 40 38 83 40 38 83 40 38 83 40 38 84 40
38 84 40 38 84 40 38 85 40 38 85 41 38 85 41 39 85 41 39 86 41 39 86
41 39 86 41 39 86 41 39 87 42 39 87 42 39 87 42 39 88 42 40 88 42 40
88 42 40 88 42 40 89 42 40 89 43 40 89 43 40 90 43 40 90 43 40 90 43
41 90 43 41 91 43 41 91 44 41 91 44 41 92 44 41 92 44 41 92 44 41 92
44 41 93 44 42 93 44 42 93 45 42 94 45 42 94 45 42 94 45 42 94 45 42
95 45 42 95 45 43 95 46 43 96 46 43 96 46 43 96 46 43 97 46 43 97 46
43 97 46 43 97 47 44 98 47 44 98 47 44 98 47 44 99 47 44 99 47 44 99
47 44 99 47 44 100 48 45 100 48 45 100 48 45 101 48 45 101 48 45 101
48 45 101 48 45 102 49 45 102 49 46 102 49 46 102 49 46 103 49 46 103
49 46 103 49 46 104 49 46 104 50 46 104 50 47 104 50 47 105 50 47 105
50 47 105 50 47 105 50 47 106 50 47 106 51 48 106 51 48 106 51 48 107
51 48 107 51 48 107 51 48 107 51 48 107 51 48 108 52 49 108 52 49 108
52 49 108 52 49 109 52 49 109 52 49 109 52 49 109 52 49 109 52 49 110
52 50 110 53 50 110 53 50 110 53 50 110 53 50 110 53 50 111 53 50 111
53 50 111 53 51 111 53 51 111 53 51 111 53 51 111 53 51 112 54 51 112
54 51 112 54 51 112 54 51 112 54 52 112 54 52 112 54 52 112 54 52 112
54 52 113 54 52 113 54 52 113 54 52 113 54 52 113 54 52 113 54 53 113
54 53 113 54 53 113 54 53 113 54 53 113 54 53 113 55 53 113 55 53 113
55 53 113 55 53 113 55 53 113 55 53 113 55 54 113 55 54 113 55 54 113
55 54 113 55 54 113 55 54 113 55 54 113 55 54 113 55 54 113 55 54 113
55 54 113 55 54 113 55 54 113 55 54 112 55 54 112 54 54 112 54 54 112
54 55 112 54 55 112 54 55 112 54 55 112 54 55 112 54 55 111 54 55 111
54 55 111 54 55 111 54 55 111 54 55 111 54 55 111 54 55 110 54 55 110
54 55 110 54 55 110 54 55 110 54 55 110 53 55 109 53 55 109 53 55 109
53 55 109 53 55 109 53 55 108 53 55 108 53 55 108 53 55 108 53 55 107
53 55 107 53 55 107 52 55 107 52 55 107 52 55 106 52 55 106 52 55 106
52 55 106 52 55 105 52 55 105 52 55 105 52 55 105 51 55 104 51 54 104
51 54 104 51 54 104 51 54 103 51 54 103 51 54 103 51 54 103 51 54 102
50 54 102 50 54 102 50 54 101 50 54 101 50 54 101 50 54 101 50 54 100
50 54 100 49 53 100 49 53 100 49 53 99 49 53 99 49 53 99 49 53 98 49
53 98 49 53 98 48 53 98 48 53 97 48 53 97 48 53 19 15 39 19 15 39 19
15 38 19 15 38 19 15 38 19 15 38 19 15 38 19 15 38 19 15 38 19 15 38
19 15 38 19 15 38 19 15 38 19 15 38 19 15 38 19 15 38 19 15 38 19 15
38 19 15 37 8 53 79 5 47 52 2 42 29 2 42 29 2 42 29 2 42 29 2 42 29 2
42 29 2 42 29 2 42 29 2 42 29 2 42 29 2 42 29 2 42 29 2 42 29 2 42 29
3 43 31 19 14 36 19 14 36 19 14 36 19 14 36 19 14 36 19 14 36 19 14 36
19 14 35 19 14 35 19 14 35 19 14 35 19 14 35 19 14 35 19 14 35 19 14
35 19 14 35 19 14 35 19 14 35 19 14 35 19 14 34 19 14 34 19 14 34 19
14 34 19 14 34 18 14 34 18 14 34 18 14 34 79 40 45 79 39 44 79 39 44
79 39 44 78 39 44 78 39 44 78 39 44 78 39 44 77 39 44 77 39 43 77 38
43 77 38 43 76 38 43 76 38 43 76 38 43 76 38 43 75 38 43 75 38 42 75
37 42 75 37 42 75 37 42 74 37 42 74 37 42 74 37 42 74 37 42 73 37 41
73 37 41 73 37 41 73 36 41 73 36 41 72 36 41 72 36 41 72 36 41 72 36
40 72 36 40 71 36 40 71 36 40 71 35 40 71 35 40 70 35 40
16 11 23 16 11 23 16 11 23 16 11 23 16 11 23 16 11 23 16 11 23 16 11
23 16 11 23 16 11 23 16 11 23 16 11 23 69 33 33 69 33 33 70 34 33 70
34 33 70 34 33 70 34 33 70 34 33 71 34 33 71 34 33 71 34 33 71 34 33
72 34 33 72 35 33 72 35 34 72 35 34 72 35 34 73 35 34 73 35 34 73 35
34 73 35 34 73 35 34 74 35 34 74 36 34 74 36 34 74 36 34 75 36 35 75
36 35 75 36 35 75 36 35 75 36 35 76 36 35 76 36 35 76 37 35 76 37 35
77 37 35 77 37 35 77 37 36 77 37 36 78 37 36 78 37 36 78 37 36 78 38
36 79 38 36 79 38 36 79 38 36 79 38 36 80 38 36 80 38 37 80 38 37 80
39 37 81 39 37 81 39 37 81 39 37 81 39 37 82 39 37 82 39 37 82 39 37
82 39 38 83 40 38 83 40 38 83 40 38 83 40 38 84 40 38 84 40 38 84 40
38 84 40 38 85 41 38 85 41 39 85 41 39 86 41 39 86 41 39 86 41 39 86
41 39 87 42 39 87 42 39 87 42 39 88 42 40 88 42 40 88 42 40 88 42 40
89 42 40 89 43 40 89 43 40 90 43 40 90 43 40 90 43 41 90 43 41 91 43
41 91 44 41 91 44 41 92 44 41 92 44 41 92 44 41 92 44 42 93 44 42 93
44 42 93 45 42 94 45 42 94 45 42 94 45 42 94 45 42 95 45 42 95 45 43
95 46 43 96 46 43 96 46 43 96 46 43 97 46 43 97 46 43 97 46 43 97 47
44 98 47 44 98 47 44 98 47 44 99 47 44 99 47 44 99 47 44 99 48 44 100
48 45 100 48 45 100 48 45 101 48 45 101 48 45 101 48 45 101 48 45 102
49 46 102 49 46 102 49 46 103 49 46 103 49 46 103 49 46 103 49 46 104
50 46 104 50 47 104 50 47 105 50 47 105 50 47 105 50 47 105 50 47 106
50 47 106 51 47 106 51 48 106 51 48 107 51 48 107 51 48 107 51 48 107
51 48 108 51 48 108 52 48 108 52 49 108 52 49 108 52 49 109 52 49 109
52 49 109 52 49 109 52 49 110 52 49 110 53 50 110 53 50 110 53 50 110
53 50 111 53 50 111 53 50 111 53 50 111 53 50 111 53 51 111 53 51 112
53 51 112 54 51 112 54 51 112 54 51 112 54 51 112 54 51 112 54 52 113
54 52 113 54 52 113 54 52 113 54 52 113 54 52 113 54 52 113 54 52 113
54 52 113 55 52 113 55 53 114 55 53 114 55 53 114 55 53 114 55 53 114
55 53 114 55 53 114 55 53 114 55 53 114 55 53 114 55 54 114 55 54 114
55 54 114 55 54 114 55 54 114 55 54 114 55 54 114 55 54 114 55 54 114
55 54 114 55 54 114 55 54 114 55 54 114 55 55 114 55 55 114 55 55 114
55 55 114 55 55 113 55 55 113 55 55 113 55 55 113 55 55 113 55 55 113
55 55 113 55 55 113 55 55 113 55 55 113 55 55 112 55 55 112 55 55 112
55 55 112 55 55 112 54 55 112 54 55 112 54 55 111 54 55 111 54 55 111
54 55 111 54 56 111 54 56 111 54 56 110 54 56 110 54 56 110 54 56 110
54 56 110 54 56 109 54 56 109 53 56 109 53 56 109 53 56 108 53 56 108
53 55 108 53 55 108 53 55 108 53 55 107 53 55 107 53 55 107 52 55 107
52 55 106 52 55 106 52 55 106 52 55 106 52 55 105 52 55 105 52 55 105
52 55 105 52 55 104 51 55 104 51 55 104 51 55 104 51 55 103 51 55 103
51 55 103 51 55 102 51 55 102 50 54 102 50 54 102 50 54 101 50 54 101
50 54 101 50 54 101 50 54 100 50 54 100 49 54 100 49 54 99 49 54 99 49
54 99 49 53 99 49 53 98 49 53 98 49 53 98 48 53 97 48 53 97 48 53 20
15 39 20 15 39 19 15 39 19 15 39 19 15 39 19 15 39 19 15 39 19 15 39
19 15 38 19 15 38 19 15 38 19 15 38 19 15 38 19 15 38 19 15 38 19 15
38 19 15 38 19 15 38 19 15 38 19 15 38 19 15 38 19 15 38 19 15 37 19
15 37 19 15 37 19 15 37 19 15 37 19 15 37 19 14 37 19 14 37 19 14 37
19 14 37 19 14 37 19 14 37 19 14 36 19 14 36 19 14 36 19 14 36 19 14
36 19 14 36 19 14 36 19 14 36 19 14 36 19 14 36 19 14 36 19 14 36 19
14 35 19 14 35 19 14 35 19 14 35 19 14 35 19 14 35 19 14 35 19 14 35
19 14 35 19 14 35 19 14 35 19 14 34 81 40 45 80 40 45 80 40 45 80 40
45 80 40 45 79 40 45 79 40 45 79 39 45 79 39 44 78 39 44 78 39 44 78
39 44 78 39 44 77 39 44 77 39 44 77 38 43 77 38 43 76 38 43 76 38 43
76 38 43 76 38 43 76 38 43 75 38 43 75 38 42 75 37 42 75 37 42 74 37
42 74 37 42 74 37 42 74 37 42 73 37 42 73 37 41 73 37 41 73 36 41 73
36 41 72 36 41 72 36 41 72 36 41 72 36 41 72 36 40 71 36 40 71 36 40
71 35 40
16 11 23 16 11 23 16 11 23 16 11 23 16 11 23 16 11 23 16 11 23 16 11
23 16 11 23 16 11 23 16 11 23 69 33 33 70 34 33 70 34 33 70 34 33 70
34 33 70 34 33 71 34 33 71 34 33 71 34 33 71 34 33 71 34 33 72 35 33
72 35 34 72 35 34 72 35 34 73 35 34 73 35 34 73 35 34 73 35 34 73 35
34 74 35 34 74 36 34 74 36 34 74 36 34 75 36 35 75 36 35 75 36 35 75
36 35 75 36 35 76 36 35 76 36 35 76 37 35 76 37 35 77 37 35 77 37 35
77 37 36 77 37 36 78 37 36 78 37 36 78 37 36 78 38 36 79 38 36 79 38
36 79 38 36 79 38 36 79 38 36 80 38 37 80 38 37 80 39 37 81 39 37 81
39 37 81 39 37 81 39 37 82 39 37 82 39 37 82 39 37 82 39 38 83 40 38
83 40 38 83 40 38 83 40 38 84 40 38 84 40 38 84 40 38 84 40 38 85 41
38 85 41 39 85 41 39 86 41 39 86 41 39 86 41 39 86 41 39 87 41 39 87
42 39 87 42 39 87 42 40 88 42 40 88 42 40 88 42 40 89 42 40 89 43 40
89 43 40 89 43 40 90 43 40 90 43 41 90 43 41 91 43 41 91 44 41 91 44
41 92 44 41 92 44 41 92 44 41 92 44 42 93 44 42 93 44 42 93 45 42 94
45 42 94 45 42 94 45 42 94 45 42 95 45 42 95 45 43 95 46 43 96 46 43
96 46 43 96 46 43 97 46 43 97 46 43 97 46 43 97 47 44 98 47 44 98 47
44 98 47 44 99 47 44 99 47 44 99 47 44 100 48 45 100 48 45 100 48 45
100 48 45 101 48 45 101 48 45 101 48 45 102 49 45 102 49 46 102 49 46
102 49 46 103 49 46 103 49 46 103 49 46 104 49 46 104 50 46 104 50 47
104 50 47 105 50 47 105 50 47 105 50 47 105 50 47 106 51 47 106 51 48
106 51 48 107 51 48 107 51 48 107 51 48 107 51 48 108 51 48 108 52 48
108 52 49 108 52 49 109 52 49 109 52 49 109 52 49 109 52 49 109 52 49
110 52 49 110 53 50 110 53 50 110 53 50 111 53 50 111 53 50 111 53 50
111 53 50 111 53 50 111 53 51 112 54 51 112 54 51 112 54 51 112 54 51
112 54 51 112 54 51 113 54 51 113 54 52 113 54 52 113 54 52 113 54 52
113 54 52 113 54 52 114 55 52 114 55 52 114 55 52 114 55 53 114 55 53
114 55 53 114 55 53 114 55 53 114 55 53 114 55 53 114 55 53 115 55 53
115 55 54 115 55 54 115 55 54 115 55 54 115 55 54 115 55 54 115 55 54
115 55 54 115 55 54 115 55 54 115 55 54 115 55 54 115 55 55 115 55 55
115 55 55 115 55 55 115 55 55 115 55 55 115 55 55 115 55 55 114 55 55
114 55 55 114 55 55 114 55 55 114 55 55 114 55 55 114 55 55 114 55 56
114 55 56 114 55 56 114 55 56 113 55 56 113 55 56 113 55 56 113 55 56
113 55 56 113 55 56 113 55 56 113 55 56 112 55 56 112 55 56 112 55 56
112 55 56 112 55 56 112 54 56 111 54 56 111 54 56 111 54 56 111 54 56
111 54 56 110 54 56 110 54 56 110 54 56 110 54 56 110 54 56 109 54 56
109 53 56 109 53 56 109 53 56 108 53 56 108 53 56 108 53 56 108 53 56
107 53 56 107 53 56 107 53 56 107 52 56 106 52 56 106 52 56 106 52 56
106 52 56 105 52 56 105 52 56 105 52 55 105 52 55 104 51 55 104 51 55
104 51 55 103 51 55 103 51 55 103 51 55 103 51 55 102 51 55 102 51 55
102 50 55 102 50 55 101 50 55 101 50 55 101 50 54 100 50 54 100 50 54
100 49 54 100 49 54 99 49 54 99 49 54 99 49 54 98 49 54 98 49 54 98 49
53 97 48 53 97 48 53 20 15 39 20 15 39 20 15 39 20 15 39 20 15 39 20
15 39 20 15 39 19 15 39 19 15 39 19 15 39 19 15 39 19 15 39 19 15 39
19 15 38 19 15 38 19 15 38 19 15 38 19 15 38 19 15 38 19 15 38 19 15
38 19 15 38 19 15 38 19 15 38 19 15 38 19 15 38 19 15 37 19 15 37 19
15 37 19 15 37 19 15 37 19 14 37 19 14 37 19 14 37 19 14 37 19 14 37
19 14 37 19 14 36 19 14 36 19 14 36 19 14 36 19 14 36 19 14 36 19 14
36 19 14 36 19 14 36 19 14 36 19 14 36 19 14 35 19 14 35 19 14 35 19
14 35 19 14 35 82 41 46 82 41 46 81 41 46 81 41 46 81 40 46 81 40 46
80 40 45 80 40 45 80 40 45 80 40 45 79 40 45 79 40 45 79 39 45 79 39
45 78 39 44 78 39 44 78 39 44 78 39 44 77 39 44 77 39 44 77 38 44 77
38 43 76 38 43 76 38 43 76 38 43 76 38 43 76 38 43 75 38 43 75 38 43
75 37 42 75 37 42 74 37 42 74 37 42 74 37 42 74 37 42 74 37 42 73 37
42 73 37 41 73 36 41 73 36 41 72 36 41 72 36 41 72 36 41 72 36 41 72
36 41 71 36 40
16 11 23 16 11 23 16 11 23 16 11 23 16 11 23 16 11 23 16 11 23 16 11
23 16 11 23 69 33 33 70 34 33 70 34 33 70 34 33 70 34 33 70 34 33 71
34 33 71 34 33 71 34 33 71 34 33 71 34 33 72 35 33 72 35 34 72 35 34
72 35 34 73 35 34 73 35 34 73 35 34 73 35 34 73 35 34 74 35 34 74 36
34 74 36 34 74 36 34 74 36 35 75 36 35 75 36 35 75 36 35 75 36 35 76
36 35 76 36 35 76 37 35 76 37 35 77 37 35 77 37 35 77 37 36 77 37 36
77 37 36 78 37 36 78 37 36 78 38 36 78 38 36 79 38 36 79 38 36 79 38
36 79 38 36 80 38 37 80 38 37 80 38 37 80 39 37 81 39 37 81 39 37 81
39 37 81 39 37 82 39 37 82 39 37 82 39 38 83 40 38 83 40 38 83 40 38
83 40 38 84 40 38 84 40 38 84 40 38 84 40 38 85 41 38 85 41 39 85 41
39 85 41 39 86 41 39 86 41 39 86 41 39 87 41 39 87 42 39 87 42 39 87
42 40 88 42 40 88 42 40 88 42 40 89 42 40 89 43 40 89 43 40 89 43 40
90 43 40 90 43 41 90 43 41 91 43 41 91 43 41 91 44 41 91 44 41 92 44
41 92 44 41 92 44 42 93 44 42 93 44 42 93 45 42 94 45 42 94 45 42 94
45 42 94 45 42 95 45 42 95 45 43 95 46 43 96 46 43 96 46 43 96 46 43
97 46 43 97 46 43 97 46 43 97 47 44 98 47 44 98 47 44 98 47 44 99 47
44 99 47 44 99 47 44 100 48 45 100 48 45 100 48 45 100 48 45 101 48 45
101 48 45 101 48 45 102 49 45 102 49 46 102 49 46 103 49 46 103 49 46
103 49 46 103 49 46 104 50 46 104 50 47 104 50 47 105 50 47 105 50 47
105 50 47 105 50 47 106 50 47 106 51 47 106 51 48 106 51 48 107 51 48
107 51 48 107 51 48 107 51 48 108 52 48 108 52 49 108 52 49 109 52 49
109 52 49 109 52 49 109 52 49 109 52 49 110 52 49 110 53 50 110 53 50
110 53 50 111 53 50 111 53 50 111 53 50 111 53 50 111 53 50 112 53 51
112 54 51 112 54 51 112 54 51 112 54 51 113 54 51 113 54 51 113 54 51
113 54 52 113 54 52 113 54 52 114 54 52 114 55 52 114 55 52 114 55 52
114 55 52 114 55 53 114 55 53 114 55 53 115 55 53 115 55 53 115 55 53
115 55 53 115 55 53 115 55 53 115 55 54 115 55 54 115 56 54 115 56 54
115 56 54 115 56 54 115 56 54 116 56 54 116 56 54 116 56 54 116 56 55
116 56 55 116 56 55 116 56 55 116 56 55 116 56 55 116 56 55 116 56 55
116 56 55 116 56 55 116 56 55 115 56 55 115 56 56 115 56 56 115 56 56
115 56 56 115 56 56 115 56 56 115 56 56 115 56 56 115 56 56 115 56 56
115 56 56 115 56 56 114 56 56 114 56 56 114 56 56 114 55 56 114 55 56
114 55 56 114 55 56 113 55 57 113 55 57 113 55 57 113 55 57 113 55 57
113 55 57 112 55 57 112 55 57 112 55 57 112 55 57 112 55 57 112 55 57
111 55 57 111 54 57 111 54 57 111 54 57 111 54 57 110 54 57 110 54 57
110 54 57 110 54 57 109 54 57 109 54 57 109 54 57 109 53 57 108 53 57
108 53 57 108 53 56 108 53 56 107 53 56 107 53 56 107 53 56 107 53 56
106 52 56 106 52 56 106 52 56 106 52 56 105 52 56 105 52 56 105 52 56
104 52 56 104 52 56 104 51 56 104 51 56 103 51 56 103 51 56 103 51 55
103 51 55 102 51 55 102 51 55 102 50 55 101 50 55 101 50 55 101 50 55
100 50 55 100 50 55 100 50 55 100 49 54 99 49 54 99 49 54 99 49 54 98
49 54 98 49 54 98 49 54 98 49 54 97 48 54 97 48 54 20 15 40 20 15 40
20 15 39 20 15 39 20 15 39 20 15 39 20 15 39 20 15 39 20 15 39 20 15
39 20 15 39 19 15 39 19 15 39 19 15 39 19 15 39 19 15 39 19 15 38 19
15 38 19 15 38 19 15 38 19 15 38 19 15 38 19 15 38 19 15 38 19 15 38
19 15 38 19 15 38 19 15 38 19 15 37 19 15 37 19 15 37 19 15 37 19 15
37 19 14 37 19 14 37 19 14 37 19 14 37 19 14 37 19 14 36 19 14 36 19
14 36 19 14 36 19 14 36 19 14 36 19 14 36 19 14 36 19 14 36 83 42 47
83 42 47 83 41 47 82 41 47 82 41 47 82 41 46 82 41 46 81 41 46 81 41
46 81 40 46 81 40 46 80 40 46 80 40 45 80 40 45 80 40 45 79 40 45 79
40 45 79 39 45 79 39 45 78 39 45 78 39 44 78 39 44 78 39 44 77 39 44
77 39 44 77 39 44 77 38 44 76 38 43 76 38 43 76 38 43 76 38 43 76 38
43 75 38 43 75 38 43 75 37 43 75 37 42 74 37 42 74 37 42 74 37 42 74
37 42 74 37 42 73 37 42 73 37 42 73 36 41 73 36 41 72 36 41 72 36 41
72 36 41 72 36 41
16 11 23 16 11 23 16 11 23 16 11 23 16 11 23 16 11 23 16 11 23 69 33
33 70 34 33 70 34 33 70 34 33 70 34 33 70 34 33 71 34 33 71 34 33 71
34 33 71 34 33 71 34 33 72 35 33 72 35 34 72 35 34 72 35 34 72 35 34
73 35 34 73 35 34 73 35 34 73 35 34 74 35 34 74 35 34 74 36 34 74 36
34 74 36 35 75 36 35 75 36 35 75 36 35 75 36 35 76 36 35 76 36 35 76
37 35 76 37 35 76 37 35 77 37 35 77 37 36 77 37 36 77 37 36 78 37 36
78 37 36 78 38 36 78 38 36 79 38 36 79 38 36 79 38 36 79 38 36 80 38
37 80 38 37 80 38 37 80 39 37 81 39 37 81 39 37 81 39 37 81 39 37 82
39 37 82 39 37 82 39 38 82 40 38 83 40 38 83 40 38 83 40 38 84 40 38
84 40 38 84 40 38 84 40 38 85 41 38 85 41 39 85 41 39 85 41 39 86 41
39 86 41 39 86 41 39 87 41 39 87 42 39 87 42 39 87 42 40 88 42 40 88
42 40 88 42 40 89 42 40 89 43 40 89 43 40 89 43 40 90 43 40 90 43 41
90 43 41 91 43 41 91 43 41 91 44 41 91 44 41 92 44 41 92 44 41 92 44
42 93 44 42 93 44 42 93 45 42 94 45 42 94 45 42 94 45 42 94 45 42 95
45 42 95 45 43 95 46 43 96 46 43 96 46 43 96 46 43 97 46 43 97 46 43
97 46 44 97 47 44 98 47 44 98 47 44 98 47 44 99 47 44 99 47 44 99 47
44 100 48 45 100 48 45 100 48 45 100 48 45 101 48 45 101 48 45 101 48
45 102 49 45 102 49 46 102 49 46 103 49 46 103 49 46 103 49 46 103 49
46 104 50 46 104 50 47 104 50 47 105 50 47 105 50 47 105 50 47 105 50
47 106 51 47 106 51 47 106 51 48 107 51 48 107 51 48 107 51 48 107 51
48 108 51 48 108 52 48 108 52 49 108 52 49 109 52 49 109 52 49 109 52
49 109 52 49 110 52 49 110 53 50 110 53 50 110 53 50 111 53 50 111 53
50 111 53 50 111 53 50 112 53 50 112 54 51 112 54 51 112 54 51 112 54
51 113 54 51 113 54 51 113 54 51 113 54 51 113 54 52 113 54 52 114 55
52 114 55 52 114 55 52 114 55 52 114 55 52 114 55 52 115 55 53 115 55
53 115 55 53 115 55 53 115 55 53 115 55 53 115 55 53 115 56 53 116 56
54 116 56 54 116 56 54 116 56 54 116 56 54 116 56 54 116 56 54 116 56
54 116 56 54 116 56 55 116 56 55 116 56 55 116 56 55 116 56 55 116 56
55 116 56 55 116 56 55 116 56 55 116 56 55 116 56 55 116 56 56 116 56
56 116 56 56 116 56 56 116 56 56 116 56 56 116 56 56 116 56 56 116 56
56 116 56 56 116 56 56 116 56 56 116 56 56 116 56 56 116 56 57 116 56
57 115 56 57 115 56 57 115 56 57 115 56 57 115 56 57 115 56 57 115 56
57 115 56 57 114 56 57 114 56 57 114 56 57 114 56 57 114 56 57 114 55
57 113 55 57 113 55 57 113 55 57 113 55 57 113 55 57 113 55 57 112 55
57 112 55 57 112 55 57 112 55 57 111 55 57 111 55 57 111 55 57 111 54
57 111 54 57 110 54 57 110 54 57 110 54 57 110 54 57 109 54 57 109 54
57 109 54 57 109 54 57 108 53 57 108 53 57 108 53 57 108 53 57 107 53
57 107 53 57 107 53 57 107 53 57 106 53 57 106 52 57 106 52 57 105 52
57 105 52 56 105 52 56 105 52 56 104 52 56 104 52 56 104 51 56 104 51
56 103 51 56 103 51 56 103 51 56 102 51 56 102 51 56 102 51 56 101 50
55 101 50 55 101 50 55 101 50 55 100 50 55 100 50 55 100 50 55 99 49
55 99 49 55 99 49 55 99 49 54 98 49 54 98 49 54 98 49 54 97 48 54 97
48 54 97 48 54 96 48 54 20 15 40 20 15 40 20 15 40 20 15 40 20 15 40
20 15 39 20 15 39 20 15 39 20 15 39 20 15 39 20 15 39 20 15 39 20 15
39 19 15 39 19 15 39 19 15 39 19 15 39 19 15 38 19 15 38 19 15 38 19
15 38 19 15 38 19 15 38 19 15 38 19 15 38 19 15 38 19 15 38 19 15 38
19 15 37 19 15 37 19 15 37 19 15 37 19 15 37 19 14 37 19 14 37 19 14
37 19 14 37 19 14 37 85 43 48 85 42 48 85 42 48 84 42 48 84 42 48 84
42 48 83 42 47 83 42 47 83 42 47 83 41 47 82 41 47 82 41 47 82 41 47
82 41 46 81 41 46 81 41 46 81 41 46 81 40 46 80 40 46 80 40 46 80 40
45 80 40 45 79 40 45 79 40 45 79 40 45 79 39 45 78 39 45 78 39 45 78
39 44 78 39 44 77 39 44 77 39 44 77 39 44 77 38 44 76 38 44 76 38 43
76 38 43 76 38 43 76 38 43 75 38 43 75 38 43 75 37 43 75 37 43 74 37
42 74 37 42 74 37 42 74 37 42 74 37 42 73 37 42 73 37 42 73 37 42 73
36 41 72 36 41 72 36 41
16 11 23 16 11 23 16 11 23 16 11 23 16 11 23 69 33 33 70 34 33 70 34
33 70 34 33 70 34 33 70 34 33 71 34 33 71 34 33 71 34 33 71 34 33 71
34 33 72 34 33 72 35 34 72 35 34 72 35 34 72 35 34 73 35 34 73 35 34
73 35 34 73 35 34 74 35 34 74 35 34 74 36 34 74 36 34 74 36 35 75 36
35 75 36 35 75 36 35 75 36 35 76 36 35 76 36 35 76 37 35 76 37 35 76
37 35 77 37 35 77 37 35 77 37 36 77 37 36 78 37 36 78 37 36 78 38 36
78 38 36 79 38 36 79 38 36 79 38 36 79 38 36 80 38 37 80 38 37 80 38
37 80 39 37 81 39 37 81 39 37 81 39 37 81 39 37 82 39 37 82 39 37 82
39 38 82 40 38 83 40 38 83 40 38 83 40 38 83 40 38 84 40 38 84 40 38
84 40 38 85 41 38 85 41 39 85 41 39 85 41 39 86 41 39 86 41 39 86 41
39 86 41 39 87 42 39 87 42 39 87 42 40 88 42 40 88 42 40 88 42 40 88
42 40 89 42 40 89 43 40 89 43 40 90 43 40 90 43 41 90 43 41 90 43 41
91 43 41 91 44 41 91 44 41 92 44 41 92 44 41 92 44 41 93 44 42 93 44
42 93 45 42 93 45 42 94 45 42 94 45 42 94 45 42 95 45 42 95 45 43 95
46 43 96 46 43 96 46 43 96 46 43 96 46 43 97 46 43 97 46 43 97 47 44
98 47 44 98 47 44 98 47 44 99 47 44 99 47 44 99 47 44 100 48 45 100 48
45 100 48 45 100 48 45 101 48 45 101 48 45 101 48 45 102 49 45 102 49
46 102 49 46 103 49 46 103 49 46 103 49 46 103 49 46 104 50 46 104 50
47 104 50 47 105 50 47 105 50 47 105 50 47 106 50 47 106 51 47 106 51
48 106 51 48 107 51 48 107 51 48 107 51 48 107 51 48 108 52 48 108 52
48 108 52 49 109 52 49 109 52 49 109 52 49 109 52 49 110 52 49 110 53
49 110 53 50 110 53 50 111 53 50 111 53 50 111 53 50 111 53 50 112 53
50 112 54 51 112 54 51 112 54 51 112 54 51 113 54 51 113 54 51 113 54
51 113 54 51 113 54 52 114 54 52 114 55 52 114 55 52 114 55 52 114 55
52 115 55 52 115 55 53 115 55 53 115 55 53 115 55 53 115 55 53 115 55
53 116 56 53 116 56 53 116 56 54 116 56 54 116 56 54 116 56 54 116 56
54 116 56 54 116 56 54 117 56 54 117 56 54 117 56 55 117 56 55 117 56
55 117 56 55 117 56 55 117 56 55 117 56 55 117 57 55 117 57 55 117 57
55 117 57 56 117 57 56 117 57 56 117 57 56 117 57 56 117 57 56 117 57
56 117 57 56 117 57 56 117 57 56 117 57 56 117 57 57 117 57 57 117 57
57 117 57 57 117 57 57 117 57 57 117 57 57 116 57 57 116 57 57 116 57
57 116 56 57 116 56 57 116 56 57 116 56 57 116 56 57 116 56 57 115 56
57 115 56 58 115 56 58 115 56 58 115 56 58 115 56 58 115 56 58 114 56
58 114 56 58 114 56 58 114 56 58 114 56 58 113 56 58 113 55 58 113 55
58 113 55 58 113 55 58 112 55 58 112 55 58 112 55 58 112 55 58 112 55
58 111 55 58 111 55 58 111 55 58 111 54 58 110 54 58 110 54 58 110 54
58 110 54 58 109 54 58 109 54 58 109 54 58 109 54 58 108 54 58 108 53
58 108 53 57 108 53 57 107 53 57 107 53 57 107 53 57 106 53 57 106 53
57 106 52 57 106 52 57 105 52 57 105 52 57 105 52 57 105 52 57 104 52
57 104 52 57 104 51 57 103 51 56 103 51 56 103 51 56 102 51 56 102 51
56 102 51 56 102 51 56 101 50 56 101 50 56 101 50 56 100 50 55 100 50
55 100 50 55 99 50 55 99 49 55 99 49 55 99 49 55 98 49 55 98 49 55 98
49 54 97 49 54 97 48 54 97 48 54 96 48 54 96 48 54 96 48 54 96 48 54
20 15 40 20 15 40 20 15 40 20 15 40 20 15 40 20 15 40 20 15 39 20 15
39 20 15 39 20 15 39 20 15 39 20 15 39 20 15 39 19 15 39 19 15 39 19
15 39 19 15 39 19 15 38 19 15 38 19 15 38 19 15 38 19 15 38 19 15 38
19 15 38 19 15 38 19 15 38 19 15 38 87 44 50 87 44 50 87 43 49 86 43
49 86 43 49 86 43 49 86 43 49 85 43 49 85 43 49 85 42 48 85 42 48 84
42 48 84 42 48 84 42 48 83 42 48 83 42 48 83 42 47 83 41 47 82 41 47
82 41 47 82 41 47 82 41 47 81 41 46 81 41 46 81 41 46 81 40 46 80 40
46 80 40 46 80 40 46 80 40 45 79 40 45 79 40 45 79 40 45 79 39 45 78
39 45 78 39 45 78 39 45 78 39 44 77 39 44 77 39 44 77 39 44 77 38 44
76 38 44 76 38 44 76 38 43 76 38 43 76 38 43 75 38 43 75 38 43 75 38
43 75 37 43 74 37 43 74 37 42 74 37 42 74 37 42 74 37 42 73 37 42 73
37 42 73 37 42 73 36 41
16 11 23 16 11 23 69 33 33 69 33 33 70 34 33 70 34 33 70 34 33 70 34
33 70 34 33 71 34 33 71 34 33 71 34 33 71 34 33 71 34 33 72 34 33 72
35 34 72 35 34 72 35 34 72 35 34 73 35 34 73 35 34 73 35 34 73 35 34
73 35 34 74 35 34 74 36 34 74 36 34 74 36 35 75 36 35 75 36 35 75 36
35 75 36 35 75 36 35 76 36 35 76 36 35 76 37 35 76 37 35 77 37 35 77
37 35 77 37 36 77 37 36 78 37 36 78 37 36 78 37 36 78 38 36 79 38 36
79 38 36 79 38 36 79 38 36 79 38 37 80 38 37 80 38 37 80 39 37 81 39
37 81 39 37 81 39 37 81 39 37 82 39 37 82 39 37 82 39 37 82 39 38 83
40 38 83 40 38 83 40 38 83 40 38 84 40 38 84 40 38 84 40 38 84 40 38
85 41 39 85 41 39 85 41 39 86 41 39 86 41 39 86 41 39 86 41 39 87 42
39 87 42 39 87 42 40 87 42 40 88 42 40 88 42 40 88 42 40 89 42 40 89
43 40 89 43 40 90 43 40 90 43 41 90 43 41 90 43 41 91 43 41 91 44 41
91 44 41 92 44 41 92 44 41 92 44 41 92 44 42 93 44 42 93 45 42 93 45
42 94 45 42 94 45 42 94 45 42 95 45 42 95 45 43 95 46 43 96 46 43 96
46 43 96 46 43 96 46 43 97 46 43 97 46 43 97 47 44 98 47 44 98 47 44
98 47 44 99 47 44 99 47 44 99 47 44 99 48 45 100 48 45 100 48 45 100
48 45 101 48 45 101 48 45 101 48 45 102 49 45 102 49 46 102 49 46 103
49 46 103 49 46 103 49 46 103 49 46 104 50 46 104 50 47 104 50 47 105
50 47 105 50 47 105 50 47 106 50 47 106 51 47 106 51 48 106 51 48 107
51 48 107 51 48 107 51 48 108 51 48 108 52 48 108 52 49 108 52 49 109
52 49 109 52 49 109 52 49 109 52 49 110 52 49 110 53 50 110 53 50 111
53 50 111 53 50 111 53 50 111 53 50 112 53 50 112 53 50 112 54 51 112
54 51 112 54 51 113 54 51 113 54 51 113 54 51 113 54 51 114 54 52 114
55 52 114 55 52 114 55 52 114 55 52 115 55 52 115 55 52 115 55 53 115
55 53 115 55 53 115 55 53 116 55 53 116 56 53 116 56 53 116 56 53 116
56 54 116 56 54 116 56 54 117 56 54 117 56 54 117 56 54 117 56 54 117
56 54 117 56 55 117 56 55 117 56 55 117 57 55 117 57 55 118 57 55 118
57 55 118 57 55 118 57 55 118 57 56 118 57 56 118 57 56 118 57 56 118
57 56 118 57 56 118 57 56 118 57 56 118 57 56 118 57 56 118 57 57 118
57 57 118 57 57 118 57 57 118 57 57 118 57 57 118 57 57 118 57 57 118
57 57 118 57 57 117 57 57 117 57 57 117 57 57 117 57 58 117 57 58 117
57 58 117 57 58 117 57 58 117 57 58 117 57 58 116 57 58 116 57 58 116
57 58 116 57 58 116 57 58 116 57 58 116 56 58 115 56 58 115 56 58 115
56 58 115 56 58 115 56 58 115 56 58 114 56 58 114 56 58 114 56 58 114
56 58 114 56 58 113 56 58 113 56 58 113 55 58 113 55 58 113 55 58 112
55 58 112 55 58 112 55 58 112 55 58 111 55 58 111 55 58 111 55 58 111
55 58 110 54 58 110 54 58 110 54 58 110 54 58 109 54 58 109 54 58 109
54 58 109 54 58 108 54 58 108 53 58 108 53 58 107 53 58 107 53 58 107
53 58 107 53 58 106 53 58 106 53 58 106 52 58 105 52 57 105 52 57 105
52 57 105 52 57 104 52 57 104 52 57 104 52 57 103 51 57 103 51 57 103
51 57 103 51 57 102 51 57 102 51 56 102 51 56 101 50 56 101 50 56 101
50 56 100 50 56 100 50 56 100 50 56 100 50 56 99 49 55 99 49 55 99 49
55 98 49 55 98 49 55 98 49 55 97 49 55 97 48 55 97 48 54 96 48 54 96
48 54 96 48 54 96 48 54 95 48 54 95 47 54 95 47 54 94 47 53 94 47 53
94 47 53 93 47 53 93 47 53 93 46 53 93 46 53 92 46 52 92 46 52 92 46
52 91 46 52 91 46 52 91 45 52 90 45 52 90 45 51 90 45 51 90 45 51 89
45 51 89 45 51 89 44 51 88 44 51 88 44 50 88 44 50 88 44 50 87 44 50
87 44 50 87 43 50 86 43 49 86 43 49 86 43 49 86 43 49 85 43 49 85 43
49 85 43 49 85 42 48 84 42 48 84 42 48 84 42 48 83 42 48 83 42 48 83
42 48 83 41 47 82 41 47 82 41 47 82 41 47 82 41 47 81 41 47 81 41 46
81 41 46 81 40 46 80 40 46 80 40 46 80 40 46 80 40 46 79 40 45 79 40
45 79 40 45 79 39 45 78 39 45 78 39 45 78 39 45 78 39 45 77 39 44 77
39 44 77 39 44 77 38 44 76 38 44 76 38 44 76 38 44 76 38 43 76 38 43
75 38 43 75 38 43 75 38 43 75 37 43 74 37 43 74 37 42 74 37 42 74 37
42 74 37 42 73 37 42 73 37 42
69 33 33 69 33 33 70 34 33 70 34 33 70 34 33 70 34 33 70 34 33 70 34
33 71 34 33 71 34 33 71 34 33 71 34 33 72 34 33 72 35 34 72 35 34 72
35 34 72 35 34 73 35 34 73 35 34 73 35 34 73 35 34 73 35 34 74 35 34
74 36 34 74 36 34 74 36 35 74 36 35 75 36 35 75 36 35 75 36 35 75 36
35 76 36 35 76 36 35 76 37 35 76 37 35 77 37 35 77 37 35 77 37 36 77
37 36 77 37 36 78 37 36 78 37 36 78 38 36 78 38 36 79 38 36 79 38 36
79 38 36 79 38 36 80 38 37 80 38 37 80 38 37 80 39 37 81 39 37 81 39
37 81 39 37 81 39 37 82 39 37 82 39 37 82 39 38 82 40 38 83 40 38 83
40 38 83 40 38 84 40 38 84 40 38 84 40 38 84 40 38 85 41 39 85 41 39
85 41 39 85 41 39 86 41 39 86 41 39 86 41 39 87 41 39 87 42 39 87 42
39 87 42 40 88 42 40 88 42 40 88 42 40 89 42 40 89 43 40 89 43 40 89
43 40 90 43 41 90 43 41 90 43 41 91 43 41 91 43 41 91 44 41 91 44 41
92 44 41 92 44 41 92 44 42 93 44 42 93 44 42 93 45 42 94 45 42 94 45
42 94 45 42 94 45 42 95 45 43 95 45 43 95 46 43 96 46 43 96 46 43 96
46 43 97 46 43 97 46 43 97 46 44 98 47 44 98 47 44 98 47 44 98 47 44
99 47 44 99 47 44 99 48 45 100 48 45 100 48 45 100 48 45 101 48 45 101
48 45 101 48 45 102 49 45 102 49 46 102 49 46 103 49 46 103 49 46 103
49 46 103 49 46 104 50 46 104 50 47 104 50 47 105 50 47 105 50 47 105
50 47 106 50 47 106 51 47 106 51 48 106 51 48 107 51 48 107 51 48 107
51 48 108 51 48 108 52 48 108 52 49 108 52 49 109 52 49 109 52 49 109
52 49 110 52 49 110 53 49 110 53 50 110 53 50 111 53 50 111 53 50 111
53 50 111 53 50 112 53 50 112 54 51 112 54 51 112 54 51 113 54 51 113
54 51 113 54 51 113 54 51 114 54 52 114 55 52 114 55 52 114 55 52 114
55 52 115 55 52 115 55 52 115 55 52 115 55 53 115 55 53 116 55 53 116
56 53 116 56 53 116 56 53 116 56 53 116 56 54 117 56 54 117 56 54 117
56 54 117 56 54 117 56 54 117 56 54 117 56 54 118 57 55 118 57 55 118
57 55 118 57 55 118 57 55 118 57 55 118 57 55 118 57 55 118 57 56 118
57 56 118 57 56 118 57 56 118 57 56 119 57 56 119 57 56 119 57 56 119
57 56 119 57 57 119 57 57 119 57 57 119 57 57 119 57 57 119 57 57 119
57 57 119 57 57 119 57 57 119 57 57 118 57 57 118 57 58 118 57 58 118
57 58 118 57 58 118 57 58 118 57 58 118 57 58 118 57 58 118 57 58 118
57 58 118 57 58 118 57 58 117 57 58 117 57 58 117 57 58 117 57 59 117
57 59 117 57 59 117 57 59 116 57 59 116 57 59 116 57 59 116 57 59 116
57 59 116 57 59 115 57 59 115 56 59 115 56 59 115 56 59 115 56 59 115
56 59 114 56 59 114 56 59 114 56 59 114 56 59 113 56 59 113 56 59 113
56 59 113 56 59 113 55 59 112 55 59 112 55 59 112 55 59 112 55 59 111
55 59 111 55 59 111 55 59 111 55 59 110 55 59 110 54 59 110 54 59 110
54 59 109 54 59 109 54 59 109 54 59 108 54 59 108 54 59 108 53 58 108
53 58 107 53 58 107 53 58 107 53 58 106 53 58 106 53 58 106 53 58 106
52 58 105 52 58 105 52 58 105 52 58 104 52 58 104 52 58 104 52 57 103
52 57 103 51 57 103 51 57 103 51 57 102 51 57 102 51 57 102 51 57 101
51 57 101 50 57 101 50 56 100 50 56 100 50 56 100 50 56 100 50 56 99
50 56 99 49 56 99 49 56 98 49 55 98 49 55 98 49 55 97 49 55 97 49 55
97 48 55 96 48 55 96 48 55 96 48 54 96 48 54 95 48 54 95 48 54 95 47
54 94 47 54 94 47 54 94 47 53 93 47 53 93 47 53 93 47 53 93 46 53 92
46 53 92 46 53 92 46 52 91 46 52 91 46 52 91 45 52 90 45 52 90 45 52
90 45 51 90 45 51 89 45 51 89 45 51 89 44 51 88 44 51 88 44 51 88 44
50 88 44 50 87 44 50 87 44 50 87 44 50 86 43 50 86 43 50 86 43 49 86
43 49 85 43 49 85 43 49 85 43 49 84 42 49 84 42 48 84 42 48 84 42 48
83 42 48 83 42 48 83 42 48 83 41 48 82 41 47 82 41 47 82 41 47 82 41
47 81 41 47 81 41 47 81 41 46 81 40 46 80 40 46 80 40 46 80 40 46 80
40 46 79 40 46 79 40 45 79 40 45 79 39 45 78 39 45 78 39 45 78 39 45
78 39 45 77 39 44 77 39 44 77 39 44 77 38 44 76 38 44 76 38 44 76 38
44 76 38 44 75 38 43 75 38 43 75 38 43 75 38 43 75 37 43 74 37 43 74
37 43 74 37 42 74 37 42 74 37 42
69 34 33 70 34 33 70 34 33 70 34 33 70 34 33 70 34 33 71 34 33 71 34
33 71 34 33 71 34 33 71 34 33 72 35 34 72 35 34 72 35 34 72 35 34 72
35 34 73 35 34 73 35 34 73 35 34 73 35 34 74 35 34 74 36 34 74 36 34
74 36 35 74 36 35 75 36 35 75 36 35 75 36 35 75 36 35 76 36 35 76 36
35 76 37 35 76 37 35 76 37 35 77 37 35 77 37 36 77 37 36 77 37 36 78
37 36 78 37 36 78 38 36 78 38 36 79 38 36 79 38 36 79 38 36 79 38 36
80 38 37 80 38 37 80 38 37 80 39 37 81 39 37 81 39 37 81 39 37 81 39
37 82 39 37 82 39 37 82 39 38 82 40 38 83 40 38 83 40 38 83 40 38 83
40 38 84 40 38 84 40 38 84 40 38 85 41 38 85 41 39 85 41 39 85 41 39
86 41 39 86 41 39 86 41 39 86 41 39 87 42 39 87 42 39 87 42 40 88 42
40 88 42 40 88 42 40 88 42 40 89 42 40 89 43 40 89 43 40 90 43 40 90
43 41 90 43 41 90 43 41 91 43 41 91 44 41 91 44 41 92 44 41 92 44 41
92 44 42 93 44 42 93 44 42 93 45 42 93 45 42 94 45 42 94 45 42 94 45
42 95 45 43 95 45 43 95 46 43 96 46 43 96 46 43 96 46 43 97 46 43 97
46 43 97 46 44 97 47 44 98 47 44 98 47 44 98 47 44 99 47 44 99 47 44
99 47 45 100 48 45 100 48 45 100 48 45 101 48 45 101 48 45 101 48 45
102 49 45 102 49 46 102 49 46 102 49 46 103 49 46 103 49 46 103 49 46
104 50 46 104 50 47 104 50 47 105 50 47 105 50 47 105 50 47 106 50 47
106 51 47 106 51 48 106 51 48 107 51 48 107 51 48 107 51 48 108 51 48
108 52 48 108 52 49 108 52 49 109 52 49 109 52 49 109 52 49 110 52 49
110 53 49 110 53 50 110 53 50 111 53 50 111 53 50 111 53 50 112 53 50
112 53 50 112 54 51 112 54 51 113 54 51 113 54 51 113 54 51 113 54 51
114 54 51 114 54 52 114 55 52 114 55 52 114 55 52 115 55 52 115 55 52
115 55 52 115 55 53 115 55 53 116 55 53 116 56 53 116 56 53 116 56 53
116 56 53 117 56 54 117 56 54 117 56 54 117 56 54 117 56 54 117 56 54
118 56 54 118 57 54 118 57 55 118 57 55 118 57 55 118 57 55 118 57 55
118 57 55 119 57 55 119 57 55 119 57 56 119 57 56 119 57 56 119 57 56
119 57 56 119 57 56 119 57 56 119 58 56 119 58 57 119 58 57 119 58 57
119 58 57 119 58 57 119 58 57 119 58 57 119 58 57 119 58 57 119 58 57
119 58 58 119 58 58 119 58 58 119 58 58 119 58 58 119 58 58 119 58 58
119 58 58 119 58 58 119 58 58 119 58 58 119 58 59 119 58 59 119 58 59
118 58 59 118 58 59 118 58 59 118 58 59 118 58 59 118 58 59 118 57 59
118 57 59 117 57 59 117 57 59 117 57 59 117 57 59 117 57 59 117 57 59
117 57 59 116 57 59 116 57 60 116 57 60 116 57 60 116 57 60 115 57 60
115 57 60 115 57 60 115 56 60 115 56 60 114 56 60 114 56 60 114 56 60
114 56 60 113 56 60 113 56 60 113 56 60 113 56 60 113 56 60 112 55 60
112 55 60 112 55 60 112 55 60 111 55 60 111 55 60 111 55 59 110 55 59
110 55 59 110 54 59 110 54 59 109 54 59 109 54 59 109 54 59 109 54 59
108 54 59 108 54 59 108 53 59 107 53 59 107 53 59 107 53 59 107 53 59
106 53 59 106 53 58 106 53 58 105 52 58 105 52 58 105 52 58 104 52 58
104 52 58 104 52 58 104 52 58 103 51 58 103 51 58 103 51 57 102 51 57
102 51 57 102 51 57 101 51 57 101 50 57 101 50 57 100 50 57 100 50 57
100 50 56 100 50 56 99 50 56 99 49 56 99 49 56 98 49 56 98 49 56 98 49
56 97 49 55 97 49 55 97 48 55 96 48 55 96 48 55 96 48 55 96 48 55 95
48 54 95 48 54 95 47 54 94 47 54 94 47 54 94 47 54 93 47 54 93 47 53
93 47 53 92 46 53 92 46 53 92 46 53 92 46 53 91 46 52 91 46 52 91 46
52 90 45 52 90 45 52 90 45 52 90 45 52 89 45 51 89 45 51 89 45 51 88
44 51 88 44 51 88 44 51 88 44 50 87 44 50 87 44 50 87 44 50 86 43 50
86 43 50 86 43 50 86 43 49 85 43 49 85 43 49 85 43 49 84 42 49 84 42
49 84 42 48 84 42 48 83 42 48 83 42 48 83 42 48 83 41 48 82 41 48 82
41 47 82 41 47 82 41 47 81 41 47 81 41 47 81 41 47 81 40 46 80 40 46
80 40 46 80 40 46 80 40 46 79 40 46 79 40 46 79 40 45 79 39 45 78 39
45 78 39 45 78 39 45 78 39 45 77 39 45 77 39 44 77 39 44 77 38 44 76
38 44 76 38 44 76 38 44 76 38 44 75 38 43 75 38 43 75 38 43 75 38 43
75 37 43 74 37 43 74 37 43 74 37 43
70 34 33 70 34 33 70 34 33 70 34 33 71 34 33 71 34 33 71 34 33 71 34
33 71 34 33 72 34 34 72 35 34 72 35 34 72 35 34 72 35 34 73 35 34 73
35 34 73 35 34 73 35 34 73 35 34 74 35 34 74 36 34 74 36 34 74 36 35
75 36 35 75 36 35 75 36 35 75 36 35 75 36 35 76 36 35 76 37 35 76 37
35 76 37 35 77 37 35 77 37 36 77 37 36 77 37 36 78 37 36 78 37 36 78
37 36 78 38 36 79 38 36 79 38 36 79 38 36 79 38 36 79 38 37 80 38 37
80 38 37 80 39 37 80 39 37 81 39 37 81 39 37 81 39 37 81 39 37 82 39
37 82 39 38 82 39 38 83 40 38 83 40 38 83 40 38 83 40 38 84 40 38 84
40 38 84 40 38 84 40 38 85 41 39 85 41 39 85 41 39 85 41 39 86 41 39
86 41 39 86 41 39 87 41 39 87 42 39 87 42 40 87 42 40 88 42 40 88 42
40 88 42 40 89 42 40 89 43 40 89 43 40 89 43 40 90 43 41 90 43 41 90
43 41 91 43 41 91 44 41 91 44 41 92 44 41 92 44 41 92 44 42 92 44 42
93 44 42 93 45 42 93 45 42 94 45 42 94 45 42 94 45 42 95 45 43 95 45
43 95 46 43 95 46 43 96 46 43 96 46 43 96 46 43 97 46 43 97 46 44 97
47 44 98 47 44 98 47 44 98 47 44 99 47 44 99 47 44 99 47 44 100 48 45
100 48 45 100 48 45 100 48 45 101 48 45 101 48 45 101 48 45 102 49 46
102 49 46 102 49 46 103 49 46 103 49 46 103 49 46 104 50 46 104 50 47
104 50 47 105 50 47 105 50 47 105 50 47 105 50 47 106 51 47 106 51 48
106 51 48 107 51 48 107 51 48 107 51 48 108 51 48 108 52 48 108 52 49
108 52 49 109 52 49 109 52 49 109 52 49 110 52 49 110 53 49 110 53 50
110 53 50 111 53 50 111 53 50 111 53 50 112 53 50 112 54 50 112 54 51
112 54 51 113 54 51 113 54 51 113 54 51 113 54 51 114 54 51 114 55 52
114 55 52 114 55 52 115 55 52 115 55 52 115 55 52 115 55 52 115 55 53
116 55 53 116 56 53 116 56 53 116 56 53 116 56 53 117 56 53 117 56 54
117 56 54 117 56 54 117 56 54 118 56 54 118 57 54 118 57 54 118 57 55
118 57 55 118 57 55 118 57 55 119 57 55 119 57 55 119 57 55 119 57 56
119 57 56 119 57 56 119 57 56 119 58 56 119 58 56 120 58 56 120 58 56
120 58 57 120 58 57 120 58 57 120 58 57 120 58 57 120 58 57 120 58 57
120 58 57 120 58 57 120 58 58 120 58 58 120 58 58 120 58 58 120 58 58
120 58 58 120 58 58 120 58 58 120 58 58 120 58 58 120 58 59 120 58 59
120 58 59 120 58 59 120 58 59 119 58 59 119 58 59 119 58 59 119 58 59
119 58 59 119 58 59 119 58 59 119 58 59 119 58 60 119 58 60 118 58 60
118 58 60 118 58 60 118 58 60 118 58 60 118 58 60 118 58 60 117 58 60
117 57 60 117 57 60 117 57 60 117 57 60 116 57 60 116 57 60 116 57 60
116 57 60 116 57 60 115 57 60 115 57 60 115 57 60 115 57 60 115 56 60
114 56 60 114 56 60 114 56 60 114 56 60 113 56 60 113 56 60 113 56 60
113 56 60 112 56 60 112 55 60 112 55 60 112 55 60 111 55 60 111 55 60
111 55 60 111 55 60 110 55 60 110 55 60 110 54 60 109 54 60 109 54 60
109 54 60 109 54 60 108 54 60 108 54 60 108 54 59 107 53 59 107 53 59
107 53 59 107 53 59 106 53 59 106 53 59 106 53 59 105 53 59 105 52 59
105 52 59 104 52 59 104 52 58 104 52 58 104 52 58 103 52 58 103 51 58
103 51 58 102 51 58 102 51 58 102 51 58 101 51 57 101 51 57 101 50 57
100 50 57 100 50 57 100 50 57 100 50 57 99 50 57 99 50 56 99 49 56 98
49 56 98 49 56 98 49 56 97 49 56 97 49 56 97 49 55 96 48 55 96 48 55
96 48 55 95 48 55 95 48 55 95 48 55 95 47 54 94 47 54 94 47 54 94 47
54 93 47 54 93 47 54 93 47 53 92 46 53 92 46 53 92 46 53 92 46 53 91
46 53 91 46 53 91 46 52 90 45 52 90 45 52 90 45 52 89 45 52 89 45 52
89 45 51 89 45 51 88 44 51 88 44 51 88 44 51 87 44 51 87 44 50 87 44
50 87 44 50 86 43 50 86 43 50 86 43 50 85 43 50 85 43 49 85 43 49 85
43 49 84 42 49 84 42 49 84 42 49 84 42 48 83 42 48 83 42 48 83 42 48
83 41 48 82 41 48 82 41 48 82 41 47 81 41 47 81 41 47 81 41 47 81 41
47 80 40 47 80 40 46 80 40 46 80 40 46 79 40 46 79 40 46 79 40 46 79
40 46 78 39 45 78 39 45 78 39 45 78 39 45 78 39 45 77 39 45 77 39 45
77 39 44 77 38 44 76 38 44 76 38 44 76 38 44 76 38 44 75 38 44 75 38
43 75 38 43 75 38 43 75 37 43 74 37 43
70 34 33 70 34 33 71 34 33 71 34 33 71 34 33 71 34 33 71 34 33 72 34
34 72 35 34 72 35 34 72 35 34 72 35 34 73 35 34 73 35 34 73 35 34 73
35 34 73 35 34 74 35 34 74 36 34 74 36 34 74 36 35 74 36 35 75 36 35
75 36 35 75 36 35 75 36 35 76 36 35 76 36 35 76 37 35 76 37 35 77 37
35 77 37 36 77 37 36 77 37 36 77 37 36 78 37 36 78 37 36 78 38 36 78
38 36 79 38 36 79 38 36 79 38 36 79 38 37 80 38 37 80 38 37 80 38 37
80 39 37 81 39 37 81 39 37 81 39 37 81 39 37 82 39 37 82 39 37 82 39
38 82 40 38 83 40 38 83 40 38 83 40 38 83 40 38 84 40 38 84 40 38 84
40 38 85 41 39 85 41 39 85 41 39 85 41 39 86 41 39 86 41 39 86 41 39
86 41 39 87 42 39 87 42 40 87 42 40 88 42 40 88 42 40 88 42 40 88 42
40 89 42 40 89 43 40 89 43 40 90 43 41 90 43 41 90 43 41 90 43 41 91
43 41 91 44 41 91 44 41 92 44 41 92 44 41 92 44 42 93 44 42 93 44 42
93 45 42 94 45 42 94 45 42 94 45 42 94 45 42 95 45 43 95 45 43 95 46
43 96 46 43 96 46 43 96 46 43 97 46 43 97 46 44 97 46 44 98 47 44 98
47 44 98 47 44 98 47 44 99 47 44 99 47 44 99 48 45 100 48 45 100 48 45
100 48 45 101 48 45 101 48 45 101 48 45 102 49 46 102 49 46 102 49 46
103 49 46 103 49 46 103 49 46 104 49 46 104 50 47 104 50 47 104 50 47
105 50 47 105 50 47 105 50 47 106 51 47 106 51 48 106 51 48 107 51 48
107 51 48 107 51 48 108 51 48 108 52 48 108 52 49 108 52 49 109 52 49
109 52 49 109 52 49 110 52 49 110 53 49 110 53 50 110 53 50 111 53 50
111 53 50 111 53 50 112 53 50 112 54 50 112 54 51 112 54 51 113 54 51
113 54 51 113 54 51 113 54 51 114 54 52 114 55 52 114 55 52 114 55 52
115 55 52 115 55 52 115 55 52 115 55 53 116 55 53 116 56 53 116 56 53
116 56 53 116 56 53 117 56 53 117 56 54 117 56 54 117 56 54 117 56 54
118 57 54 118 57 54 118 57 54 118 57 55 118 57 55 119 57 55 119 57 55
119 57 55 119 57 55 119 57 55 119 57 56 119 57 56 119 58 56 120 58 56
120 58 56 120 58 56 120 58 56 120 58 56 120 58 57 120 58 57 120 58 57
120 58 57 120 58 57 120 58 57 120 58 57 121 58 57 121 58 58 121 58 58
121 58 58 121 58 58 121 58 58 121 58 58 121 58 58 121 58 58 121 58 58
121 59 59 121 59 59 121 59 59 121 59 59 121 59 59 120 59 59 120 59 59
120 59 59 120 59 59 120 59 59 120 58 59 120 58 60 120 58 60 120 58 60
120 58 60 120 58 60 120 58 60 119 58 60 119 58 60 119 58 60 119 58 60
119 58 60 119 58 60 119 58 60 119 58 60 118 58 60 118 58 61 118 58 61
118 58 61 118 58 61 118 58 61 117 58 61 117 58 61 117 57 61 117 57 61
117 57 61 116 57 61 116 57 61 116 57 61 116 57 61 115 57 61 115 57 61
115 57 61 115 57 61 115 57 61 114 56 61 114 56 61 114 56 61 114 56 61
113 56 61 113 56 61 113 56 61 113 56 61 112 56 61 112 56 61 112 55 61
112 55 61 111 55 61 111 55 61 111 55 61 110 55 61 110 55 60 110 55 60
110 54 60 109 54 60 109 54 60 109 54 60 108 54 60 108 54 60 108 54 60
108 54 60 107 53 60 107 53 60 107 53 60 106 53 60 106 53 59 106 53 59
105 53 59 105 53 59 105 52 59 104 52 59 104 52 59 104 52 59 104 52 59
103 52 59 103 52 58 103 51 58 102 51 58 102 51 58 102 51 58 101 51 58
101 51 58 101 50 58 100 50 57 100 50 57 100 50 57 99 50 57 99 50 57 99
50 57 99 49 57 98 49 56 98 49 56 98 49 56 97 49 56 97 49 56 97 49 56
96 48 56 96 48 55 96 48 55 95 48 55 95 48 55 95 48 55 95 47 55 94 47
55 94 47 54 94 47 54 93 47 54 93 47 54 93 47 54 92 46 54 92 46 53 92
46 53 91 46 53 91 46 53 91 46 53 91 46 53 90 45 52 90 45 52 90 45 52
89 45 52 89 45 52 89 45 52 89 45 51 88 44 51 88 44 51 88 44 51 87 44
51 87 44 51 87 44 51 87 44 50 86 43 50 86 43 50 86 43 50 85 43 50 85
43 50 85 43 49 85 43 49 84 42 49 84 42 49 84 42 49 84 42 49 83 42 48
83 42 48 83 42 48 82 41 48 82 41 48 82 41 48 82 41 47 81 41 47 81 41
47 81 41 47 81 41 47 80 40 47 80 40 47 80 40 46 80 40 46 79 40 46 79
40 46 79 40 46 79 40 46 78 39 46 78 39 45 78 39 45 78 39 45 77 39 45
77 39 45 77 39 45 77 39 44 77 38 44 76 38 44 76 38 44 76 38 44 76 38
44 75 38 44 75 38 44 75 38 43 75 38 43
70 34 33 71 34 33 71 34 33 71 34 33 71 34 33 71 34 34 72 35 34 72 35
34 72 35 34 72 35 34 73 35 34 73 35 34 73 35 34 73 35 34 73 35 34 74
35 34 74 36 34 74 36 34 74 36 35 74 36 35 75 36 35 75 36 35 75 36 35
75 36 35 76 36 35 76 36 35 76 37 35 76 37 35 76 37 35 77 37 35 77 37
36 77 37 36 77 37 36 78 37 36 78 37 36 78 38 36 78 38 36 79 38 36 79
38 36 79 38 36 79 38 36 80 38 37 80 38 37 80 38 37 80 39 37 81 39 37
81 39 37 81 39 37 81 39 37 82 39 37 82 39 37 82 39 38 82 39 38 83 40
38 83 40 38 83 40 38 83 40 38 84 40 38 84 40 38 84 40 38 84 40 38 85
41 39 85 41 39 85 41 39 85 41 39 86 41 39 86 41 39 86 41 39 87 42 39
87 42 39 87 42 40 87 42 40 88 42 40 88 42 40 88 42 40 89 42 40 89 43
40 89 43 40 89 43 40 90 43 41 90 43 41 90 43 41 91 43 41 91 44 41 91
44 41 92 44 41 92 44 41 92 44 42 92 44 42 93 44 42 93 45 42 93 45 42
94 45 42 94 45 42 94 45 42 95 45 43 95 45 43 95 46 43 95 46 43 96 46
43 96 46 43 96 46 43 97 46 43 97 46 44 97 47 44 98 47 44 98 47 44 98
47 44 99 47 44 99 47 44 99 47 45 100 48 45 100 48 45 100 48 45 101 48
45 101 48 45 101 48 45 101 49 45 102 49 46 102 49 46 102 49 46 103 49
46 103 49 46 103 49 46 104 50 46 104 50 47 104 50 47 105 50 47 105 50
47 105 50 47 106 50 47 106 51 47 106 51 48 107 51 48 107 51 48 107 51
48 107 51 48 108 52 48 108 52 49 108 52 49 109 52 49 109 52 49 109 52
49 110 52 49 110 53 49 110 53 50 110 53 50 111 53 50 111 53 50 111 53
50 112 53 50 112 54 50 112 54 51 112 54 51 113 54 51 113 54 51 113 54
51 114 54 51 114 54 52 114 55 52 114 55 52 115 55 52 115 55 52 115 55
52 115 55 52 116 55 53 116 55 53 116 56 53 116 56 53 116 56 53 117 56
53 117 56 53 117 56 54 117 56 54 117 56 54 118 57 54 118 57 54 118 57
54 118 57 54 118 57 55 119 57 55 119 57 55 119 57 55 119 57 55 119 57
55 119 57 55 120 58 56 120 58 56 120 58 56 120 58 56 120 58 56 120 58
56 120 58 56 120 58 57 120 58 57 121 58 57 121 58 57 121 58 57 121 58
57 121 58 57 121 58 57 121 58 58 121 59 58 121 59 58 121 59 58 121 59
58 121 59 58 121 59 58 121 59 58 121 59 59 121 59 59 121 59 59 121 59
59 121 59 59 121 59 59 121 59 59 121 59 59 121 59 59 121 59 60 121 59
60 121 59 60 121 59 60 121 59 60 121 59 60 121 59 60 121 59 60 121 59
60 120 59 60 120 59 60 120 59 60 120 59 61 120 59 61 120 59 61 120 59
61 120 59 61 119 58 61 119 58 61 119 58 61 119 58 61 119 58 61 119 58
61 119 58 61 118 58 61 118 58 61 118 58 61 118 58 61 118 58 61 117 58
61 117 58 61 117 58 61 117 58 61 117 57 62 116 57 62 116 57 62 116 57
62 116 57 62 115 57 62 115 57 62 115 57 62 115 57 62 114 57 62 114 57
62 114 56 62 114 56 61 113 56 61 113 56 61 113 56 61 113 56 61 112 56
61 112 56 61 112 56 61 112 55 61 111 55 61 111 55 61 111 55 61 110 55
61 110 55 61 110 55 61 110 55 61 109 54 61 109 54 61 109 54 61 108 54
61 108 54 61 108 54 60 108 54 60 107 54 60 107 53 60 107 53 60 106 53
60 106 53 60 106 53 60 105 53 60 105 53 60 105 52 59 104 52 59 104 52
59 104 52 59 104 52 59 103 52 59 103 52 59 103 51 59 102 51 59 102 51
58 102 51 58 101 51 58 101 51 58 101 51 58 100 50 58 100 50 58 100 50
58 99 50 57 99 50 57 99 50 57 98 49 57 98 49 57 98 49 57 98 49 56 97
49 56 97 49 56 97 49 56 96 48 56 96 48 56 96 48 56 95 48 55 95 48 55
95 48 55 94 48 55 94 47 55 94 47 55 94 47 54 93 47 54 93 47 54 93 47
54 92 46 54 92 46 54 92 46 53 91 46 53 91 46 53 91 46 53 91 46 53 90
45 53 90 45 52 90 45 52 89 45 52 89 45 52 89 45 52 88 45 52 88 44 52
88 44 51 88 44 51 87 44 51 87 44 51 87 44 51 86 44 51 86 43 50 86 43
50 86 43 50 85 43 50 85 43 50 85 43 50 85 43 49 84 42 49 84 42 49 84
42 49 83 42 49 83 42 49 83 42 48 83 42 48 82 41 48 82 41 48 82 41 48
82 41 48 81 41 47 81 41 47 81 41 47 81 41 47 80 40 47 80 40 47 80 40
47 80 40 46 79 40 46 79 40 46 79 40 46 79 40 46 78 39 46 78 39 45 78
39 45 78 39 45 77 39 45 77 39 45 77 39 45 77 39 45 77 38 44 76 38 44
76 38 44 76 38 44 76 38 44 75 38 44 75 38 44
71 34 33 71 34 33 71 34 33 71 34 33 72 35 34 72 35 34 72 35 34 72 35
34 72 35 34 73 35 34 73 35 34 73 35 34 73 35 34 73 35 34 74 35 34 74
36 34 74 36 35 74 36 35 75 36 35 75 36 35 75 36 35 75 36 35 75 36 35
76 36 35 76 36 35 76 37 35 76 37 35 77 37 35 77 37 36 77 37 36 77 37
36 77 37 36 78 37 36 78 37 36 78 38 36 78 38 36 79 38 36 79 38 36 79
38 36 79 38 37 80 38 37 80 38 37 80 38 37 80 39 37 81 39 37 81 39 37
81 39 37 81 39 37 82 39 37 82 39 38 82 39 38 82 40 38 83 40 38 83 40
38 83 40 38 83 40 38 84 40 38 84 40 38 84 40 38 85 41 39 85 41 39 85
41 39 85 41 39 86 41 39 86 41 39 86 41 39 86 41 39 87 42 39 87 42 40
87 42 40 88 42 40 88 42 40 88 42 40 88 42 40 89 42 40 89 43 40 89 43
40 90 43 41 90 43 41 90 43 41 90 43 41 91 43 41 91 44 41 91 44 41 92
44 41 92 44 42 92 44 42 93 44 42 93 44 42 93 45 42 93 45 42 94 45 42
94 45 42 94 45 43 95 45 43 95 45 43 95 46 43 96 46 43 96 46 43 96 46
43 97 46 43 97 46 44 97 46 44 98 47 44 98 47 44 98 47 44 98 47 44 99
47 44 99 47 44 99 48 45 100 48 45 100 48 45 100 48 45 101 48 45 101 48
45 101 48 45 102 49 46 102 49 46 102 49 46 103 49 46 103 49 46 103 49
46 104 50 46 104 50 47 104 50 47 105 50 47 105 50 47 105 50 47 105 50
47 106 51 47 106 51 48 106 51 48 107 51 48 107 51 48 107 51 48 108 51
48 108 52 48 108 52 49 109 52 49 109 52 49 109 52 49 109 52 49 110 53
49 110 53 50 110 53 50 111 53 50 111 53 50 111 53 50 112 53 50 112 54
50 112 54 51 112 54 51 113 54 51 113 54 51 113 54 51 114 54 51 114 54
52 114 55 52 114 55 52 115 55 52 115 55 52 115 55 52 115 55 52 116 55
53 116 56 53 116 56 53 116 56 53 117 56 53 117 56 53 117 56 54 117 56
54 117 56 54 118 56 54 118 57 54 118 57 54 118 57 54 118 57 55 119 57
55 119 57 55 119 57 55 119 57 55 119 57 55 120 57 55 120 58 56 120 58
56 120 58 56 120 58 56 120 58 56 120 58 56 121 58 56 121 58 57 121 58
57 121 58 57 121 58 57 121 58 57 121 58 57 121 59 57 121 59 58 121 59
58 122 59 58 122 59 58 122 59 58 122 59 58 122 59 58 122 59 58 122 59
59 122 59 59 122 59 59 122 59 59 122 59 59 122 59 59 122 59 59 122 59
59 122 59 59 122 59 60 122 59 60 122 59 60 122 59 60 122 59 60 122 59
60 122 59 60 122 59 60 121 59 60 121 59 60 121 59 61 121 59 61 121 59
61 121 59 61 121 59 61 121 59 61 121 59 61 121 59 61 120 59 61 120 59
61 120 59 61 120 59 61 120 59 61 120 59 62 120 59 62 119 59 62 119 59
62 119 59 62 119 58 62 119 58 62 119 58 62 118 58 62 118 58 62 118 58
62 118 58 62 118 58 62 117 58 62 117 58 62 117 58 62 117 58 62 117 58
62 116 57 62 116 57 62 116 57 62 116 57 62 115 57 62 115 57 62 115 57
62 115 57 62 114 57 62 114 57 62 114 57 62 114 56 62 113 56 62 113 56
62 113 56 62 112 56 62 112 56 62 112 56 62 112 56 62 111 55 62 111 55
62 111 55 62 111 55 62 110 55 62 110 55 61 110 55 61 109 55 61 109 54
61 109 54 61 108 54 61 108 54 61 108 54 61 108 54 61 107 54 61 107 54
61 107 53 61 106 53 60 106 53 60 106 53 60 105 53 60 105 53 60 105 53
60 104 52 60 104 52 60 104 52 60 103 52 59 103 52 59 103 52 59 103 51
59 102 51 59 102 51 59 102 51 59 101 51 59 101 51 58 101 51 58 100 50
58 100 50 58 100 50 58 99 50 58 99 50 58 99 50 57 98 50 57 98 49 57 98
49 57 97 49 57 97 49 57 97 49 56 97 49 56 96 48 56 96 48 56 96 48 56
95 48 56 95 48 56 95 48 55 94 48 55 94 47 55 94 47 55 93 47 55 93 47
55 93 47 54 93 47 54 92 46 54 92 46 54 92 46 54 91 46 54 91 46 53 91
46 53 90 46 53 90 45 53 90 45 53 90 45 53 89 45 52 89 45 52 89 45 52
88 45 52 88 44 52 88 44 52 88 44 51 87 44 51 87 44 51 87 44 51 86 44
51 86 43 50 86 43 50 86 43 50 85 43 50 85 43 50 85 43 50 84 43 49 84
42 49 84 42 49 84 42 49 83 42 49 83 42 49 83 42 49 83 42 48 82 41 48
82 41 48 82 41 48 82 41 48 81 41 48 81 41 47 81 41 47 81 41 47 80 40
47 80 40 47 80 40 47 80 40 46 79 40 46 79 40 46 79 40 46 79 40 46 78
39 46 78 39 46 78 39 45 78 39 45 77 39 45 77 39 45 77 39 45 77 39 45
76 38 45 76 38 44 76 38 44 76 38 44 76 38 44
71 34 33 71 34 33 72 34 34 72 35 34 72 35 34 72 35 34 72 35 34 73 35
34 73 35 34 73 35 34 73 35 34 73 35 34 74 35 34 74 36 34 74 36 35 74
36 35 74 36 35 75 36 35 75 36 35 75 36 35 75 36 35 76 36 35 76 36 35
76 37 35 76 37 35 76 37 35 77 37 36 77 37 36 77 37 36 77 37 36 78 37
36 78 37 36 78 38 36 78 38 36 79 38 36 79 38 36 79 38 36 79 38 37 80
38 37 80 38 37 80 38 37 80 39 37 81 39 37 81 39 37 81 39 37 81 39 37
82 39 37 82 39 38 82 39 38 82 39 38 83 40 38 83 40 38 83 40 38 83 40
38 84 40 38 84 40 38 84 40 38 84 40 39 85 41 39 85 41 39 85 41 39 85
41 39 86 41 39 86 41 39 86 41 39 87 41 39 87 42 39 87 42 40 87 42 40
88 42 40 88 42 40 88 42 40 89 42 40 89 43 40 89 43 40 89 43 41 90 43
41 90 43 41 90 43 41 91 43 41 91 44 41 91 44 41 91 44 41 92 44 41 92
44 42 92 44 42 93 44 42 93 45 42 93 45 42 94 45 42 94 45 42 94 45 42
95 45 43 95 45 43 95 46 43 95 46 43 96 46 43 96 46 43 96 46 43 97 46
43 97 46 44 97 47 44 98 47 44 98 47 44 98 47 44 99 47 44 99 47 44 99
47 45 100 48 45 100 48 45 100 48 45 101 48 45 101 48 45 101 48 45 101
49 46 102 49 46 102 49 46 102 49 46 103 49 46 103 49 46 103 49 46 104
50 47 104 50 47 104 50 47 105 50 47 105 50 47 105 50 47 106 51 47 106
51 48 106 51 48 107 51 48 107 51 48 107 51 48 108 51 48 108 52 48 108
52 49 108 52 49 109 52 49 109 52 49 109 52 49 110 52 49 110 53 50 110
53 50 111 53 50 111 53 50 111 53 50 111 53 50 112 53 50 112 54 51 112
54 51 113 54 51 113 54 51 113 54 51 113 54 51 114 54 52 114 55 52 114
55 52 115 55 52 115 55 52 115 55 52 115 55 52 116 55 53 116 56 53 116
56 53 116 56 53 117 56 53 117 56 53 117 56 54 117 56 54 118 56 54 118
57 54 118 57 54 118 57 54 118 57 54 119 57 55 119 57 55 119 57 55 119
57 55 119 57 55 120 57 55 120 58 55 120 58 56 120 58 56 120 58 56 120
58 56 121 58 56 121 58 56 121 58 57 121 58 57 121 58 57 121 58 57 121
59 57 121 59 57 122 59 57 122 59 58 122 59 58 122 59 58 122 59 58 122
59 58 122 59 58 122 59 58 122 59 58 122 59 59 122 59 59 122 59 59 122
59 59 122 59 59 122 59 59 122 59 59 122 59 59 122 59 60 122 59 60 122
59 60 122 59 60 122 59 60 122 60 60 122 60 60 122 60 60 122 60 60 122
60 61 122 60 61 122 60 61 122 60 61 122 60 61 122 59 61 122 59 61 122
59 61 122 59 61 122 59 61 121 59 62 121 59 62 121 59 62 121 59 62 121
59 62 121 59 62 121 59 62 121 59 62 120 59 62 120 59 62 120 59 62 120
59 62 120 59 62 120 59 62 119 59 62 119 59 62 119 59 63 119 59 63 119
58 63 118 58 63 118 58 63 118 58 63 118 58 63 118 58 63 117 58 63 117
58 63 117 58 63 117 58 63 116 58 63 116 58 63 116 57 63 116 57 63 115
57 63 115 57 63 115 57 63 115 57 63 114 57 63 114 57 63 114 57 63 114
57 63 113 56 63 113 56 63 113 56 63 113 56 63 112 56 62 112 56 62 112
56 62 111 56 62 111 55 62 111 55 62 111 55 62 110 55 62 110 55 62 110
55 62 109 55 62 109 55 62 109 54 62 108 54 62 108 54 62 108 54 61 107
54 61 107 54 61 107 54 61 107 53 61 106 53 61 106 53 61 106 53 61 105
53 61 105 53 60 105 53 60 104 52 60 104 52 60 104 52 60 103 52 60 103
52 60 103 52 60 102 52 59 102 51 59 102 51 59 102 51 59 101 51 59 101
51 59 101 51 59 100 50 58 100 50 58 100 50 58 99 50 58 99 50 58 99 50
58 98 50 58 98 49 57 98 49 57 97 49 57 97 49 57 97 49 57 96 49 57 96
48 56 96 48 56 95 48 56 95 48 56 95 48 56 95 48 56 94 48 55 94 47 55
94 47 55 93 47 55 93 47 55 93 47 55 92 47 54 92 46 54 92 46 54 92 46
54 91 46 54 91 46 54 91 46 53 90 46 53 90 45 53 90 45 53 89 45 53 89
45 53 89 45 52 89 45 52 88 45 52 88 44 52 88 44 52 87 44 51 87 44 51
87 44 51 87 44 51 86 44 51 86 43 51 86 43 50 85 43 50 85 43 50 85 43
50 85 43 50 84 43 50 84 42 49 84 42 49 84 42 49 83 42 49 83 42 49 83
42 49 83 42 48 82 41 48 82 41 48 82 41 48 81 41 48 81 41 48 81 41 47
81 41 47 80 41 47 80 40 47 80 40 47 80 40 47 79 40 47 79 40 46 79 40
46 79 40 46 79 40 46 78 39 46 78 39 46 78 39 45 78 39 45 77 39 45 77
39 45 77 39 45 77 39 45 76 38 45 76 38 44 76 38 44
71 34 34 72 35 34 72 35 34 72 35 34 72 35 34 72 35 34 73 35 34 73 35
34 73 35 34 73 35 34 74 35 34 74 35 34 74 36 34 74 36 35 74 36 35 75
36 35 75 36 35 75 36 35 75 36 35 75 36 35 76 36 35 76 37 35 76 37 35
76 37 35 77 37 36 77 37 36 77 37 36 77 37 36 77 37 36 78 37 36 78 37
36 78 38 36 78 38 36 79 38 36 79 38 36 79 38 37 79 38 37 80 38 37 80
38 37 80 38 37 80 39 37 81 39 37 81 39 37 81 39 37 81 39 37 82 39 37
51 60 95 48 59 94 46 58 93 45 58 96 43 58 98 43 58 101 43 59 104 44 60
107 45 61 109 47 62 112 49 63 114 51 64 115 54 65 115 85 41 39 86 41
39 86 41 39 86 41 39 86 41 39 87 42 39 87 42 40 87 42 40 88 42 40 88
42 40 88 42 40 88 42 40 89 42 40 89 43 40 89 43 40 90 43 41 90 43 41
90 43 41 90 43 41 91 43 41 91 44 41 91 44 41 92 44 41 92 44 42 92 44
42 93 44 42 93 44 42 93 45 42 93 45 42 94 45 42 94 45 42 94 45 43 95
45 43 95 45 43 95 46 43 96 46 43 96 46 43 96 46 43 97 46 43 97 46 44
97 46 44 97 47 44 98 47 44 98 47 44 98 47 44 99 47 44 99 47 45 99 48
45 100 48 45 100 48 45 100 48 45 101 48 45 101 48 45 101 48 45 102 49
46 102 49 46 102 49 46 103 49 46 103 49 46 103 49 46 104 50 46 104 50
47 104 50 47 104 50 47 105 50 47 105 50 47 105 50 47 106 51 48 106 51
48 106 51 48 107 51 48 107 51 48 107 51 48 108 52 48 108 52 49 108 52
49 109 52 49 109 52 49 109 52 49 110 52 49 110 53 49 110 53 50 110 53
50 111 53 50 111 53 50 111 53 50 112 53 50 112 54 51 112 54 51 113 54
51 113 54 51 113 54 51 113 54 51 114 54 51 114 55 52 114 55 52 115 55
52 115 55 52 115 55 52 115 55 52 116 55 53 116 56 53 116 56 53 116 56
53 117 56 53 117 56 53 117 56 54 117 56 54 118 56 54 118 57 54 118 57
54 118 57 54 118 57 54 119 57 55 119 57 55 119 57 55 119 57 55 120 57
55 120 58 55 120 58 56 120 58 56 120 58 56 120 58 56 121 58 56 121 58
56 121 58 56 121 58 57 121 58 57 121 58 57 121 59 57 122 59 57 122 59
57 122 59 57 122 59 58 122 59 58 122 59 58 122 59 58 122 59 58 122 59
58 123 59 58 123 59 59 123 59 59 123 59 59 123 59 59 123 59 59 123 60
59 123 60 59 123 60 60 123 60 60 123 60 60 123 60 60 123 60 60 123 60
60 123 60 60 123 60 60 123 60 61 123 60 61 123 60 61 123 60 61 123 60
61 123 60 61 123 60 61 123 60 61 123 60 61 123 60 61 122 60 62 122 60
62 122 60 62 122 60 62 122 60 62 122 60 62 122 60 62 122 60 62 122 60
62 122 60 62 121 60 62 121 60 63 121 59 63 121 59 63 121 59 63 121 59
63 120 59 63 120 59 63 120 59 63 120 59 63 120 59 63 120 59 63 119 59
63 119 59 63 119 59 63 119 59 63 119 59 63 118 59 63 118 58 63 118 58
63 118 58 63 118 58 63 117 58 63 117 58 63 117 58 63 117 58 63 116 58
63 116 58 63 116 58 63 116 57 63 115 57 63 115 57 63 115 57 63 114 57
63 114 57 63 114 57 63 114 57 63 113 57 63 113 56 63 113 56 63 113 56
63 112 56 63 112 56 63 112 56 63 111 56 63 111 56 63 111 55 63 111 55
63 110 55 63 110 55 63 110 55 62 109 55 62 109 55 62 109 54 62 108 54
62 108 54 62 108 54 62 107 54 62 107 54 62 107 54 62 107 53 61 106 53
61 106 53 61 106 53 61 105 53 61 105 53 61 105 53 61 104 52 61 104 52
61 104 52 60 103 52 60 103 52 60 103 52 60 102 52 60 102 51 60 102 51
60 101 51 59 101 51 59 101 51 59 100 51 59 100 50 59 100 50 59 99 50
59 99 50 58 99 50 58 99 50 58 98 50 58 98 49 58 98 49 58 97 49 57 97
49 57 97 49 57 96 49 57 96 48 57 96 48 57 95 48 56 95 48 56 95 48 56
94 48 56 94 48 56 94 47 56 94 47 55 93 47 55 93 47 55 93 47 55 92 47
55 92 46 54 92 46 54 91 46 54 91 46 54 91 46 54 91 46 54 90 46 53 90
45 53 90 45 53 89 45 53 89 45 53 89 45 53 88 45 52 88 45 52 88 44 52
88 44 52 87 44 52 87 44 51 87 44 51 86 44 51 86 44 51 86 43 51 86 43
51 85 43 50 85 43 50 85 43 50 85 43 50 84 43 50 84 42 50 84 42 49 83
42 49 83 42 49 83 42 49 83 42 49 82 42 49 82 41 48 82 41 48 82 41 48
81 41 48 81 41 48 81 41 48 81 41 47 80 41 47 80 40 47 80 40 47 80 40
47 79 40 47 79 40 46 79 40 46 79 40 46 78 40 46 78 39 46 78 39 46 78
39 46 77 39 45 77 39 45 77 39 45 77 39 45 77 39 45 76 38 45
72 35 34 72 35 34 72 35 34 72 35 34 73 35 34 73 35 34 73 35 34 73 35
34 73 35 34 74 35 34 74 36 34 74 36 35 74 36 35 74 36 35 75 36 35 75
36 35 75 36 35 75 36 35 76 36 35 76 36 35 76 37 35 76 37 35 76 37 35
77 37 36 77 37 36 77 37 36 77 37 36 78 37 36 78 37 36 78 38 36 78 38
36 79 38 36 79 38 36 79 38 36 79 38 37 80 38 37 80 38 37 80 38 37 80
39 37 80 39 37 81 39 37 51 60 95 46 58 93 41 55 91 29 50 87 24 47 82
24 48 85 25 49 88 25 49 92 25 50 95 25 51 98 25 51 100 25 52 103 25 52
106 25 53 108 26 53 110 26 54 112 26 54 114 31 57 119 37 60 123 43 63
126 48 66 129 53 68 130 87 42 40 87 42 40 87 42 40 88 42 40 88 42 40
88 42 40 88 42 40 89 43 40 89 43 40 89 43 41 90 43 41 90 43 41 90 43
41 91 43 41 91 43 41 91 44 41 91 44 41 92 44 41 92 44 42 92 44 42 93
44 42 93 44 42 93 45 42 94 45 42 94 45 42 94 45 42 94 45 43 95 45 43
95 45 43 95 46 43 96 46 43 96 46 43 96 46 43 97 46 44 97 46 44 97 47
44 98 47 44 98 47 44 98 47 44 99 47 44 99 47 44 99 47 45 99 48 45 100
48 45 100 48 45 100 48 45 101 48 45 101 48 45 101 48 46 102 49 46 102
49 46 102 49 46 103 49 46 103 49 46 103 49 46 104 50 47 104 50 47 104
50 47 105 50 47 105 50 47 105 50 47 106 50 47 106 51 48 106 51 48 107
51 48 107 51 48 107 51 48 108 51 48 108 52 48 108 52 49 108 52 49 109
52 49 109 52 49 109 52 49 110 52 49 110 53 50 110 53 50 111 53 50 111
53 50 111 53 50 112 53 50 112 54 51 112 54 51 112 54 51 113 54 51 113
54 51 113 54 51 114 54 51 114 55 52 114 55 52 114 55 52 115 55 52 115
55 52 115 55 52 116 55 53 116 56 53 116 56 53 116 56 53 117 56 53 117
56 53 117 56 54 117 56 54 118 56 54 118 57 54 118 57 54 118 57 54 119
57 54 119 57 55 119 57 55 119 57 55 119 57 55 120 57 55 120 58 55 120
58 56 120 58 56 120 58 56 121 58 56 121 58 56 121 58 56 121 58 57 121
58 57 121 58 57 122 59 57 122 59 57 122 59 57 122 59 57 122 59 58 122
59 58 122 59 58 122 59 58 123 59 58 123 59 58 123 59 58 123 59 59 123
59 59 123 60 59 123 60 59 123 60 59 123 60 59 123 60 59 123 60 60 123
60 60 123 60 60 123 60 60 124 60 60 124 60 60 124 60 60 124 60 60 124
60 61 124 60 61 124 60 61 124 60 61 123 60 61 123 60 61 123 60 61 123
60 61 123 60 62 123 60 62 123 60 62 123 60 62 123 60 62 123 60 62 123
60 62 123 60 62 123 60 62 123 60 62 123 60 63 122 60 63 122 60 63 122
60 63 122 60 63 122 60 63 122 60 63 122 60 63 122 60 63 121 60 63 121
60 63 121 60 63 121 60 63 121 59 64 121 59 64 120 59 64 120 59 64 120
59 64 120 59 64 120 59 64 119 59 64 119 59 64 119 59 64 119 59 64 119
59 64 118 59 64 118 59 64 118 58 64 118 58 64 117 58 64 117 58 64 117
58 64 117 58 64 116 58 64 116 58 64 116 58 64 116 58 64 115 57 64 115
57 64 115 57 64 115 57 64 114 57 64 114 57 64 114 57 64 113 57 64 113
57 64 113 56 64 113 56 64 112 56 64 112 56 64 112 56 63 111 56 63 111
56 63 111 56 63 110 55 63 110 55 63 110 55 63 110 55 63 109 55 63 109
55 63 109 55 63 108 54 63 108 54 62 108 54 62 107 54 62 107 54 62 107
54 62 106 54 62 106 53 62 106 53 62 105 53 62 105 53 61 105 53 61 105
53 61 104 53 61 104 52 61 104 52 61 103 52 61 103 52 60 103 52 60 102
52 60 102 51 60 102 51 60 101 51 60 101 51 60 101 51 59 100 51 59 100
51 59 100 50 59 99 50 59 99 50 59 99 50 58 98 50 58 98 50 58 98 49 58
97 49 58 97 49 58 97 49 57 97 49 57 96 49 57 96 48 57 96 48 57 95 48
57 95 48 56 95 48 56 94 48 56 94 48 56 94 47 56 93 47 56 93 47 55 93
47 55 93 47 55 92 47 55 92 46 55 92 46 54 91 46 54 91 46 54 91 46 54
90 46 54 90 46 54 90 45 53 90 45 53 89 45 53 89 45 53 89 45 53 88 45
52 88 45 52 88 44 52 88 44 52 87 44 52 87 44 52 87 44 51 86 44 51 86
44 51 86 43 51 86 43 51 85 43 51 85 43 50 85 43 50 84 43 50 84 43 50
84 42 50 84 42 50 83 42 49 83 42 49 83 42 49 83 42 49 82 42 49 82 41
49 82 41 48 82 41 48 81 41 48 81 41 48 81 41 48 81 41 48 80 41 47 80
40 47 80 40 47 80 40 47 79 40 47 79 40 47 79 40 46 79 40 46 78 40 46
78 39 46 78 39 46 78 39 46 77 39 45 77 39 45 77 39 45 77 39 45
72 35 34 72 35 34 72 35 34 73 35 34 73 35 34 73 35 34 73 35 34 74 35
34 74 36 34 74 36 35 74 36 35 74 36 35 75 36 35 75 36 35 75 36 35 75
36 35 75 36 35 76 36 35 76 37 35 76 37 35 76 37 35 77 37 36 77 37 36
77 37 36 77 37 36 77 37 36 78 37 36 78 37 36 78 38 36 78 38 36 79 38
36 79 38 36 79 38 37 79 38 37 80 38 37 80 38 37 80 38 37 80 39 37 50
60 94 43 56 91 29 50 87 24 47 82 24 47 82 24 47 82 24 48 84 24 48 88
25 49 91 25 50 94 25 51 97 25 51 100 25 52 103 25 52 106 25 53 109 26
54 111 26 54 114 26 55 116 26 55 118 26 55 120 26 56 122 26 56 124 26
57 125 26 57 127 26 57 128 39 64 135 47 67 138 53 70 139 88 42 40 88
42 40 89 42 40 89 43 40 89 43 40 89 43 41 90 43 41 90 43 41 90 43 41
91 43 41 91 44 41 91 44 41 91 44 41 92 44 42 92 44 42 92 44 42 93 44
42 93 45 42 93 45 42 94 45 42 94 45 42 94 45 43 95 45 43 95 45 43 95
46 43 95 46 43 96 46 43 96 46 43 96 46 43 97 46 44 97 46 44 97 47 44
98 47 44 98 47 44 98 47 44 99 47 44 99 47 45 99 47 45 100 48 45 100 48
45 100 48 45 101 48 45 101 48 45 101 48 45 101 49 46 102 49 46 102 49
46 102 49 46 103 49 46 103 49 46 103 49 46 104 50 47 104 50 47 104 50
47 105 50 47 105 50 47 105 50 47 106 51 48 106 51 48 106 51 48 107 51
48 107 51 48 107 51 48 108 51 48 108 52 49 108 52 49 109 52 49 109 52
49 109 52 49 110 52 49 110 53 50 110 53 50 110 53 50 111 53 50 111 53
50 111 53 50 112 53 50 112 54 51 112 54 51 113 54 51 113 54 51 113 54
51 113 54 51 114 54 52 114 55 52 114 55 52 115 55 52 115 55 52 115 55
52 115 55 53 116 55 53 116 56 53 116 56 53 117 56 53 117 56 53 117 56
53 117 56 54 118 56 54 118 57 54 118 57 54 118 57 54 119 57 54 119 57
55 119 57 55 119 57 55 119 57 55 120 58 55 120 58 55 120 58 56 120 58
56 120 58 56 121 58 56 121 58 56 121 58 56 121 58 57 121 58 57 122 59
57 122 59 57 122 59 57 122 59 57 122 59 57 122 59 58 122 59 58 123 59
58 123 59 58 123 59 58 123 59 58 123 59 59 123 60 59 123 60 59 123 60
59 123 60 59 124 60 59 124 60 59 124 60 60 124 60 60 124 60 60 124 60
60 124 60 60 124 60 60 124 60 60 124 60 61 124 60 61 124 60 61 124 60
61 124 60 61 124 60 61 124 60 61 124 60 61 124 60 62 124 60 62 124 60
62 124 60 62 124 60 62 124 60 62 124 60 62 124 60 62 124 60 62 124 60
63 123 60 63 123 60 63 123 60 63 123 60 63 123 60 63 123 60 63 123 60
63 123 60 63 123 60 63 122 60 64 122 60 64 122 60 64 122 60 64 122 60
64 122 60 64 122 60 64 121 60 64 121 60 64 121 60 64 121 60 64 121 60
64 121 60 64 120 59 64 120 59 64 120 59 64 120 59 65 120 59 65 119 59
65 119 59 65 119 59 65 119 59 65 118 59 65 118 59 65 118 59 65 118 59
65 117 58 65 117 58 65 117 58 65 117 58 65 116 58 65 116 58 65 116 58
65 116 58 65 115 58 65 115 57 65 115 57 65 115 57 65 114 57 65 114 57
64 114 57 64 113 57 64 113 57 64 113 57 64 113 56 64 112 56 64 112 56
64 112 56 64 111 56 64 111 56 64 111 56 64 110 55 64 110 55 64 110 55
64 109 55 63 109 55 63 109 55 63 109 55 63 108 54 63 108 54 63 108 54
63 107 54 63 107 54 63 107 54 62 106 54 62 106 53 62 106 53 62 105 53
62 105 53 62 105 53 62 104 53 62 104 53 61 104 52 61 103 52 61 103 52
61 103 52 61 102 52 61 102 52 61 102 51 60 102 51 60 101 51 60 101 51
60 101 51 60 100 51 60 100 51 59 100 50 59 99 50 59 99 50 59 99 50 59
98 50 59 98 50 58 98 49 58 97 49 58 97 49 58 97 49 58 96 49 58 96 49
57 96 48 57 95 48 57 95 48 57 95 48 57 95 48 56 94 48 56 94 48 56 94
47 56 93 47 56 93 47 56 93 47 55 92 47 55 92 47 55 92 46 55 91 46 55
91 46 54 91 46 54 91 46 54 90 46 54 90 46 54 90 45 54 89 45 53 89 45
53 89 45 53 89 45 53 88 45 53 88 45 52 88 44 52 87 44 52 87 44 52 87
44 52 87 44 52 86 44 51 86 43 51 86 43 51 85 43 51 85 43 51 85 43 50
85 43 50 84 43 50 84 43 50 84 42 50 84 42 50 83 42 49 83 42 49 83 42
49 83 42 49 82 42 49 82 41 49 82 41 48 81 41 48 81 41 48 81 41 48 81
41 48 80 41 48 80 41 47 80 40 47 80 40 47 79 40 47 79 40 47 79 40 47
79 40 46 79 40 46 78 40 46 78 39 46 78 39 46 78 39 46 77 39 46 77 39
45
72 35 34 73 35 34 73 35 34 73 35 34 73 35 34 73 35 34 74 35 34 74 36
34 74 36 35 74 36 35 74 36 35 75 36 35 75 36 35 75 36 35 75 36 35 76
36 35 76 36 35 76 37 35 76 37 35 76 37 35 77 37 36 77 37 36 77 37 36
77 37 36 78 37 36 78 37 36 78 38 36 78 38 36 79 38 36 79 38 36 79 38
36 79 38 37 79 38 37 80 38 37 80 38 37 80 39 37 45 57 92 29 50 88 24
47 82 24 47 82 24 47 82 24 47 82 24 47 82 24 48 86 25 49 89 25 49 92
25 50 96 25 51 99 25 51 102 25 52 105 25 53 107 26 53 110 26 54 113 26
54 115 26 55 118 26 56 120 26 56 123 26 56 125 26 57 127 26 57 129 26
58 131 27 58 132 27 58 134 27 59 135 27 59 136 34 63 141 44 67 145 52
71 147 90 125 172 89 43 41 90 43 41 90 43 41 90 43 41 90 43 41 91 43
41 91 44 41 91 44 41 92 44 41 92 44 42 92 44 42 92 44 42 93 44 42 93
45 42 93 45 42 94 45 42 94 45 42 94 45 43 95 45 43 95 45 43 95 46 43
96 46 43 96 46 43 96 46 43 96 46 44 97 46 44 97 46 44 97 47 44 98 47
44 98 47 44 98 47 44 99 47 44 99 47 45 99 48 45 100 48 45 100 48 45
100 48 45 101 48 45 101 48 45 101 48 46 102 49 46 102 49 46 102 49 46
103 49 46 103 49 46 103 49 46 104 50 47 104 50 47 104 50 47 104 50 47
105 50 47 105 50 47 105 50 47 106 51 48 106 51 48 106 51 48 107 51 48
107 51 48 107 51 48 108 52 49 108 52 49 108 52 49 109 52 49 109 52 49
109 52 49 110 52 49 110 53 50 110 53 50 111 53 50 111 53 50 111 53 50
111 53 50 112 54 51 112 54 51 112 54 51 113 54 51 113 54 51 113 54 51
114 54 52 114 55 52 114 55 52 114 55 52 115 55 52 115 55 52 115 55 52
116 55 53 116 56 53 116 56 53 116 56 53 117 56 53 117 56 53 117 56 54
117 56 54 118 57 54 118 57 54 118 57 54 118 57 54 119 57 55 119 57 55
119 57 55 119 57 55 120 58 55 120 58 55 120 58 56 120 58 56 121 58 56
121 58 56 121 58 56 121 58 56 121 58 57 121 59 57 122 59 57 122 59 57
122 59 57 122 59 57 122 59 58 123 59 58 123 59 58 123 59 58 123 59 58
123 59 58 123 60 58 123 60 59 123 60 59 124 60 59 124 60 59 124 60 59
124 60 59 124 60 60 124 60 60 124 60 60 124 60 60 124 60 60 124 60 60
124 60 60 124 60 61 124 60 61 124 60 61 124 60 61 125 61 61 125 61 61
125 61 61 125 61 61 125 61 62 125 61 62 125 61 62 124 61 62 124 61 62
124 61 62 124 61 62 124 61 63 124 61 63 124 61 63 124 61 63 124 61 63
124 61 63 124 61 63 124 61 63 124 61 63 124 61 64 124 61 64 123 61 64
123 61 64 123 61 64 123 61 64 123 60 64 123 60 64 123 60 64 123 60 64
122 60 64 122 60 64 122 60 65 122 60 65 122 60 65 122 60 65 121 60 65
121 60 65 121 60 65 121 60 65 121 60 65 120 60 65 120 60 65 120 60 65
120 59 65 120 59 65 119 59 65 119 59 65 119 59 65 119 59 65 118 59 65
118 59 65 118 59 65 118 59 65 117 59 65 117 58 65 117 58 65 117 58 65
116 58 65 116 58 65 116 58 65 116 58 65 115 58 65 115 58 65 115 57 65
114 57 65 114 57 65 114 57 65 114 57 65 113 57 65 113 57 65 113 57 65
112 56 65 112 56 65 112 56 65 112 56 65 111 56 64 111 56 64 111 56 64
110 56 64 110 55 64 110 55 64 109 55 64 109 55 64 109 55 64 108 55 64
108 55 64 108 54 63 108 54 63 107 54 63 107 54 63 107 54 63 106 54 63
106 53 63 106 53 63 105 53 62 105 53 62 105 53 62 104 53 62 104 53 62
104 52 62 103 52 62 103 52 61 103 52 61 102 52 61 102 52 61 102 51 61
101 51 61 101 51 60 101 51 60 100 51 60 100 51 60 100 51 60 99 50 60
99 50 59 99 50 59 98 50 59 98 50 59 98 50 59 98 49 59 97 49 58 97 49
58 97 49 58 96 49 58 96 49 58 96 48 57 95 48 57 95 48 57 95 48 57 94
48 57 94 48 57 94 48 56 93 47 56 93 47 56 93 47 56 93 47 56 92 47 55
92 47 55 92 46 55 91 46 55 91 46 55 91 46 54 90 46 54 90 46 54 90 46
54 90 45 54 89 45 54 89 45 53 89 45 53 88 45 53 88 45 53 88 44 53 88
44 52 87 44 52 87 44 52 87 44 52 86 44 52 86 44 51 86 43 51 86 43 51
85 43 51 85 43 51 85 43 51 85 43 50 84 43 50 84 42 50 84 42 50 83 42
50 83 42 50 83 42 49 83 42 49 82 42 49 82 42 49 82 41 49 82 41 49 81
41 48 81 41 48 81 41 48 81 41 48 80 41 48 80 40 48 80 40 47 80 40 47
79 40 47 79 40 47 79 40 47 79 40 47 78 40 46 78 39 46 78 39 46 78 39
46 78 39 46
73 35 34 73 35 34 73 35 34 73 35 34 74 35 34 74 36 34 74 36 35 74 36
35 74 36 35 75 36 35 75 36 35 75 36 35 75 36 35 75 36 35 76 36 35 76
37 35 76 37 35 76 37 35 77 37 36 77 37 36 77 37 36 77 37 36 77 37 36
78 37 36 78 37 36 78 38 36 78 38 36 79 38 36 79 38 36 79 38 37 79 38
37 80 38 37 80 38 37 52 61 95 43 56 91 29 50 87 24 47 82 24 47 82 24
47 82 24 47 82 24 47 82 24 47 83 24 48 86 25 49 90 25 50 93 25 50 96
25 51 99 25 52 102 25 52 105 25 53 108 26 54 111 26 54 114 26 55 116
26 55 119 26 56 121 26 56 124 26 57 126 26 57 128 26 58 131 27 58 133
27 59 135 27 59 136 27 59 138 27 60 140 27 60 141 27 60 142 27 60 143
33 63 147 44 69 152 89 129 183 92 128 179 90 43 41 90 43 41 91 43 41
91 44 41 91 44 41 92 44 42 92 44 42 92 44 42 93 44 42 93 44 42 93 45
42 93 45 42 94 45 42 94 45 43 94 45 43 95 45 43 95 45 43 95 46 43 96
46 43 96 46 43 96 46 43 97 46 44 97 46 44 97 46 44 97 47 44 98 47 44
98 47 44 98 47 44 99 47 45 99 47 45 99 48 45 100 48 45 100 48 45 100
48 45 101 48 45 101 48 45 101 48 46 102 49 46 102 49 46 102 49 46 103
49 46 103 49 46 103 49 46 104 50 47 104 50 47 104 50 47 105 50 47 105
50 47 105 50 47 106 50 48 106 51 48 106 51 48 107 51 48 107 51 48 107
51 48 107 51 48 108 52 49 108 52 49 108 52 49 109 52 49 109 52 49 109
52 49 110 53 50 110 53 50 110 53 50 111 53 50 111 53 50 111 53 50 112
53 50 112 54 51 112 54 51 113 54 51 113 54 51 113 54 51 113 54 51 114
54 52 114 55 52 114 55 52 115 55 52 115 55 52 115 55 52 115 55 53 116
55 53 116 56 53 116 56 53 117 56 53 117 56 53 117 56 54 117 56 54 118
56 54 118 57 54 118 57 54 118 57 54 119 57 55 119 57 55 119 57 55 119
57 55 120 57 55 120 58 55 120 58 56 120 58 56 121 58 56 121 58 56 121
58 56 121 58 56 121 58 57 122 59 57 122 59 57 122 59 57 122 59 57 122
59 57 122 59 58 123 59 58 123 59 58 123 59 58 123 59 58 123 59 58 123
60 58 124 60 59 124 60 59 124 60 59 124 60 59 124 60 59 124 60 59 124
60 60 124 60 60 124 60 60 124 60 60 125 60 60 125 60 60 125 60 61 125
61 61 125 61 61 125 61 61 125 61 61 125 61 61 125 61 61 125 61 62 125
61 62 125 61 62 125 61 62 125 61 62 125 61 62 125 61 62 125 61 62 125
61 63 125 61 63 125 61 63 125 61 63 125 61 63 125 61 63 125 61 63 125
61 63 125 61 64 124 61 64 124 61 64 124 61 64 124 61 64 124 61 64 124
61 64 124 61 64 124 61 64 124 61 65 123 61 65 123 61 65 123 61 65 123
61 65 123 61 65 123 61 65 123 61 65 122 60 65 122 60 65 122 60 65 122
60 65 122 60 65 122 60 66 121 60 66 121 60 66 121 60 66 121 60 66 121
60 66 120 60 66 120 60 66 120 60 66 120 60 66 119 59 66 119 59 66 119
59 66 119 59 66 118 59 66 118 59 66 118 59 66 118 59 66 117 59 66 117
59 66 117 58 66 117 58 66 116 58 66 116 58 66 116 58 66 116 58 66 115
58 66 115 58 66 115 58 66 114 57 66 114 57 66 114 57 66 114 57 66 113
57 66 113 57 65 113 57 65 112 57 65 112 56 65 112 56 65 111 56 65 111
56 65 111 56 65 111 56 65 110 56 65 110 55 65 110 55 65 109 55 64 109
55 64 109 55 64 108 55 64 108 55 64 108 54 64 107 54 64 107 54 64 107
54 63 106 54 63 106 54 63 106 54 63 105 53 63 105 53 63 105 53 63 104
53 63 104 53 62 104 53 62 104 52 62 103 52 62 103 52 62 103 52 62 102
52 61 102 52 61 102 51 61 101 51 61 101 51 61 101 51 61 100 51 60 100
51 60 100 51 60 99 50 60 99 50 60 99 50 60 98 50 59 98 50 59 98 50 59
97 49 59 97 49 59 97 49 58 96 49 58 96 49 58 96 49 58 95 48 58 95 48
57 95 48 57 95 48 57 94 48 57 94 48 57 94 47 57 93 47 56 93 47 56 93
47 56 92 47 56 92 47 56 92 47 55 92 46 55 91 46 55 91 46 55 91 46 55
90 46 54 90 46 54 90 45 54 89 45 54 89 45 54 89 45 53 89 45 53 88 45
53 88 45 53 88 44 53 87 44 53 87 44 52 87 44 52 87 44 52 86 44 52 86
44 52 86 43 51 85 43 51 85 43 51 85 43 51 85 43 51 84 43 51 84 43 50
84 42 50 84 42 50 83 42 50 83 42 50 83 42 49 83 42 49 82 42 49 82 42
49 82 41 49 82 41 49 81 41 48 81 41 48 81 41 48 81 41 48 80 41 48 80
40 48 80 40 47 80 40 47 79 40 47 79 40 47 79 40 47 79 40 47 78 40 46
78 39 46 78 39 46
73 35 34 73 35 34 73 35 34 74 35 34 74 36 35 74 36 35 74 36 35 74 36
35 75 36 35 75 36 35 75 36 35 75 36 35 76 36 35 76 36 35 76 37 35 76
37 35 76 37 36 77 37 36 77 37 36 77 37 36 77 37 36 78 37 36 78 37 36
78 38 36 78 38 36 78 38 36 79 38 36 79 38 36 79 38 37 79 38 37 80 38
37 80 38 37 43 57 92 29 50 86 24 47 82 24 47 82 24 47 82 24 47 82 24
47 82 24 47 82 24 47 83 24 48 86 25 49 90 25 50 93 25 50 96 25 51 99
25 52 102 25 52 105 25 53 108 26 54 111 26 54 114 26 55 117 26 55 119
26 56 122 26 56 124 26 57 127 26 57 129 26 58 132 27 58 134 27 59 136
27 59 138 27 60 140 27 60 142 27 61 143 27 61 145 27 61 146 27 61 148
27 62 148 27 62 149 73 124 184 84 129 188 92 131 189 91 44 41 91 44 41
91 44 41 92 44 42 92 44 42 92 44 42 93 44 42 93 44 42 93 45 42 94 45
42 94 45 42 94 45 43 94 45 43 95 45 43 95 45 43 95 46 43 96 46 43 96
46 43 96 46 43 97 46 44 97 46 44 97 47 44 98 47 44 98 47 44 98 47 44
98 47 44 99 47 45 99 47 45 99 48 45 100 48 45 100 48 45 100 48 45 101
48 45 101 48 46 101 49 46 102 49 46 102 49 46 102 49 46 103 49 46 103
49 46 103 49 47 104 50 47 104 50 47 104 50 47 105 50 47 105 50 47 105
50 47 106 51 48 106 51 48 106 51 48 107 51 48 107 51 48 107 51 48 108
51 49 108 52 49 108 52 49 109 52 49 109 52 49 109 52 49 109 52 49 110
53 50 110 53 50 110 53 50 111 53 50 111 53 50 111 53 50 112 53 51 112
54 51 112 54 51 113 54 51 113 54 51 113 54 51 114 54 52 114 55 52 114
55 52 114 55 52 115 55 52 115 55 52 115 55 53 116 55 53 116 56 53 116
56 53 116 56 53 117 56 53 117 56 54 117 56 54 118 56 54 118 57 54 118
57 54 118 57 54 119 57 55 119 57 55 119 57 55 119 57 55 120 57 55 120
58 55 120 58 56 120 58 56 120 58 56 121 58 56 121 58 56 121 58 56 121
58 57 122 59 57 122 59 57 122 59 57 122 59 57 122 59 57 123 59 58 123
59 58 123 59 58 123 59 58 123 59 58 123 60 58 124 60 59 124 60 59 124
60 59 124 60 59 124 60 59 124 60 59 124 60 59 124 60 60 125 60 60 125
60 60 125 60 60 125 60 60 125 61 60 125 61 61 125 61 61 125 61 61 125
61 61 125 61 61 125 61 61 125 61 61 125 61 62 125 61 62 125 61 62 125
61 62 125 61 62 125 61 62 125 61 63 125 61 63 125 61 63 125 61 63 125
61 63 125 61 63 125 61 63 125 61 63 125 61 64 125 61 64 125 61 64 125
61 64 125 61 64 125 61 64 125 61 64 125 61 64 125 61 65 125 61 65 124
61 65 124 61 65 124 61 65 124 61 65 124 61 65 124 61 65 124 61 65 124
61 65 123 61 66 123 61 66 123 61 66 123 61 66 123 61 66 123 61 66 122
61 66 122 61 66 122 60 66 122 60 66 122 60 66 121 60 66 121 60 66 121
60 66 121 60 66 121 60 66 120 60 67 120 60 67 120 60 67 120 60 67 119
60 67 119 59 67 119 59 67 119 59 67 118 59 67 118 59 67 118 59 67 118
59 67 117 59 67 117 59 67 117 59 67 117 58 67 116 58 67 116 58 67 116
58 67 116 58 67 115 58 66 115 58 66 115 58 66 114 58 66 114 57 66 114
57 66 113 57 66 113 57 66 113 57 66 113 57 66 112 57 66 112 56 66 112
56 66 111 56 66 111 56 66 111 56 65 110 56 65 110 56 65 110 55 65 109
55 65 109 55 65 109 55 65 109 55 65 108 55 65 108 55 64 108 54 64 107
54 64 107 54 64 107 54 64 106 54 64 106 54 64 106 54 63 105 53 63 105
53 63 105 53 63 104 53 63 104 53 63 104 53 63 103 52 62 103 52 62 103
52 62 102 52 62 102 52 62 102 52 62 101 51 61 101 51 61 101 51 61 100
51 61 100 51 61 100 51 60 99 51 60 99 50 60 99 50 60 98 50 60 98 50 60
98 50 59 98 50 59 97 49 59 97 49 59 97 49 59 96 49 58 96 49 58 96 49
58 95 48 58 95 48 58 95 48 57 94 48 57 94 48 57 94 48 57 93 47 57 93
47 56 93 47 56 93 47 56 92 47 56 92 47 56 92 47 56 91 46 55 91 46 55
91 46 55 90 46 55 90 46 55 90 46 54 90 45 54 89 45 54 89 45 54 89 45
54 88 45 53 88 45 53 88 45 53 88 44 53 87 44 53 87 44 52 87 44 52 86
44 52 86 44 52 86 44 52 86 43 52 85 43 51 85 43 51 85 43 51 85 43 51
84 43 51 84 43 50 84 42 50 83 42 50 83 42 50 83 42 50 83 42 50 82 42
49 82 42 49 82 41 49 82 41 49 81 41 49 81 41 48 81 41 48 81 41 48 80
41 48 80 41 48 80 40 48 80 40 47 79 40 47 79 40 47 79 40 47 79 40 47
78 40 47 78 40 47
73 35 34 74 35 34 74 36 34 74 36 35 74 36 35 74 36 35 75 36 35 75 36
35 75 36 35 75 36 35 75 36 35 76 36 35 76 36 35 76 37 35 76 37 35 76
37 36 77 37 36 77 37 36 77 37 36 77 37 36 78 37 36 78 37 36 78 38 36
78 38 36 79 38 36 79 38 36 79 38 37 79 38 37 79 38 37 80 38 37 30 51
90 34 52 88 24 47 82 24 47 82 24 47 82 24 47 82 24 47 82 24 47 82 24
47 82 24 47 83 24 48 86 25 49 89 25 50 93 25 50 96 25 51 99 25 52 102
25 52 105 25 53 108 26 54 111 26 54 114 26 55 117 26 55 119 26 56 122
26 56 125 26 57 127 26 58 130 27 58 132 27 59 134 27 59 137 27 60 139
27 60 141 27 60 143 27 61 145 27 61 147 27 62 148 27 62 150 27 62 151
27 62 153 27 63 153 28 63 154 65 121 185 80 129 192 90 133 195 94 133
192 92 44 42 92 44 42 92 44 42 93 44 42 93 45 42 93 45 42 94 45 42 94
45 43 94 45 43 94 45 43 95 45 43 95 46 43 95 46 43 96 46 43 96 46 43
96 46 44 97 46 44 97 46 44 97 47 44 98 47 44 98 47 44 98 47 44 99 47
44 99 47 45 99 47 45 99 48 45 100 48 45 100 48 45 100 48 45 101 48 45
101 48 46 101 49 46 102 49 46 102 49 46 102 49 46 103 49 46 103 49 46
103 49 47 104 50 47 104 50 47 104 50 47 105 50 47 105 50 47 105 50 47
106 51 48 106 51 48 106 51 48 107 51 48 107 51 48 107 51 48 108 51 49
108 52 49 108 52 49 109 52 49 109 52 49 109 52 49 110 52 50 110 53 50
110 53 50 110 53 50 111 53 50 111 53 50 111 53 50 112 54 51 112 54 51
112 54 51 113 54 51 113 54 51 113 54 51 114 54 52 114 55 52 114 55 52
114 55 52 115 55 52 115 55 52 115 55 53 116 55 53 116 56 53 116 56 53
117 56 53 117 56 53 117 56 54 117 56 54 118 56 54 118 57 54 118 57 54
118 57 54 119 57 55 119 57 55 119 57 55 119 57 55 120 58 55 120 58 55
120 58 56 120 58 56 121 58 56 121 58 56 121 58 56 121 58 56 122 59 57
122 59 57 122 59 57 122 59 57 122 59 57 123 59 58 123 59 58 123 59 58
123 59 58 123 59 58 123 60 58 124 60 59 124 60 59 124 60 59 124 60 59
124 60 59 124 60 59 124 60 60 125 60 60 125 60 60 125 60 60 125 60 60
125 61 60 125 61 60 125 61 61 125 61 61 125 61 61 125 61 61 126 61 61
126 61 61 126 61 62 126 61 62 126 61 62 126 61 62 126 61 62 126 61 62
126 61 63 126 61 63 126 61 63 126 61 63 126 61 63 126 61 63 126 61 63
126 61 64 126 61 64 126 61 64 126 62 64 126 62 64 126 62 64 126 62 64
125 62 64 125 62 65 125 62 65 125 61 65 125 61 65 125 61 65 125 61 65
125 61 65 125 61 65 125 61 65 125 61 66 124 61 66 124 61 66 124 61 66
124 61 66 124 61 66 124 61 66 124 61 66 123 61 66 123 61 66 123 61 66
123 61 67 123 61 67 122 61 67 122 61 67 122 61 67 122 61 67 122 61 67
121 60 67 121 60 67 121 60 67 121 60 67 121 60 67 120 60 67 120 60 67
120 60 67 120 60 67 119 60 67 119 60 67 119 59 67 119 59 67 118 59 67
118 59 67 118 59 67 118 59 67 117 59 67 117 59 67 117 59 67 117 59 67
116 58 67 116 58 67 116 58 67 115 58 67 115 58 67 115 58 67 115 58 67
114 58 67 114 57 67 114 57 67 113 57 67 113 57 67 113 57 67 112 57 67
112 57 66 112 57 66 112 56 66 111 56 66 111 56 66 111 56 66 110 56 66
110 56 66 110 56 66 109 55 66 109 55 65 109 55 65 108 55 65 108 55 65
108 55 65 107 54 65 107 54 65 107 54 64 106 54 64 106 54 64 106 54 64
105 54 64 105 53 64 105 53 64 104 53 63 104 53 63 104 53 63 104 53 63
103 52 63 103 52 63 103 52 62 102 52 62 102 52 62 102 52 62 101 51 62
101 51 62 101 51 61 100 51 61 100 51 61 100 51 61 99 50 61 99 50 60 99
50 60 98 50 60 98 50 60 98 50 60 97 50 59 97 49 59 97 49 59 96 49 59
96 49 59 96 49 58 95 49 58 95 48 58 95 48 58 95 48 58 94 48 57 94 48
57 94 48 57 93 47 57 93 47 57 93 47 56 92 47 56 92 47 56 92 47 56 91
46 56 91 46 55 91 46 55 91 46 55 90 46 55 90 46 55 90 46 54 89 45 54
89 45 54 89 45 54 89 45 54 88 45 54 88 45 53 88 45 53 87 44 53 87 44
53 87 44 53 87 44 52 86 44 52 86 44 52 86 44 52 85 43 52 85 43 51 85
43 51 85 43 51 84 43 51 84 43 51 84 43 50 84 42 50 83 42 50 83 42 50
83 42 50 83 42 50 82 42 49 82 42 49 82 41 49 82 41 49 81 41 49 81 41
49 81 41 48 81 41 48 80 41 48 80 41 48 80 40 48 80 40 48 79 40 47 79
40 47 79 40 47 79 40 47
74 35 34 74 36 35 74 36 35 74 36 35 74 36 35 75 36 35 75 36 35 75 36
35 75 36 35 75 36 35 76 36 35 76 37 35 76 37 35 76 37 36 77 37 36 77
37 36 77 37 36 77 37 36 77 37 36 78 37 36 78 37 36 78 38 36 78 38 36
79 38 36 79 38 37 79 38 37 79 38 37 80 38 37 50 60 94 40 55 90 24 47
82 24 47 82 24 47 82 24 47 82 24 47 82 24 47 82 24 47 82 24 47 82 24
47 82 24 48 85 25 49 89 25 49 92 25 50 95 25 51 99 25 51 102 25 52 105
25 53 108 26 53 111 26 54 113 26 55 116 26 55 119 26 56 122 26 56 124
26 57 127 26 58 130 27 58 132 27 59 134 27 59 137 27 60 139 27 60 141
27 61 143 32 68 150 36 76 162 36 77 168 35 72 168 32 67 158 28 63 155
28 63 156 28 63 157 28 64 158 66 123 190 66 123 190 77 129 196 89 134
200 95 135 199 92 44 42 93 44 42 93 45 42 93 45 42 94 45 42 94 45 43
94 45 43 94 45 43 95 45 43 95 46 43 95 46 43 96 46 43 96 46 43 96 46
44 97 46 44 97 46 44 97 47 44 98 47 44 98 47 44 98 47 44 99 47 45 99
47 45 99 47 45 100 48 45 100 48 45 100 48 45 100 48 45 101 48 45 101
48 46 101 49 46 102 49 46 102 49 46 102 49 46 103 49 46 103 49 47 103
49 47 104 50 47 104 50 47 104 50 47 105 50 47 105 50 47 105 50 48 106
51 48 106 51 48 106 51 48 107 51 48 107 51 48 107 51 48 108 52 49 108
52 49 108 52 49 109 52 49 109 52 49 109 52 49 110 52 50 110 53 50 110
53 50 111 53 50 111 53 50 111 53 50 111 53 51 112 54 51 112 54 51 112
54 51 113 54 51 113 54 51 113 54 52 114 54 52 114 55 52 114 55 52 115
55 52 115 55 52 115 55 53 115 55 53 116 56 53 116 56 53 116 56 53 117
56 53 117 56 54 117 56 54 117 56 54 118 57 54 118 57 54 118 57 54 119
57 55 119 57 55 119 57 55 119 57 55 120 57 55 120 58 55 120 58 56 120
58 56 121 58 56 121 58 56 121 58 56 121 58 56 121 58 57 122 59 57 122
59 57 122 59 57 122 59 57 123 59 57 123 59 58 123 59 58 123 59 58 123
59 58 123 60 58 124 60 59 124 60 59 124 60 59 124 60 59 124 60 59 124
60 59 125 60 60 125 60 60 125 60 60 125 60 60 125 61 60 125 61 60 125
61 61 125 61 61 125 61 61 126 61 61 126 61 61 126 61 61 126 61 62 126
61 62 126 61 62 126 61 62 126 61 62 126 61 62 126 61 62 126 61 63 126
61 63 126 62 63 126 62 63 126 62 63 126 62 63 126 62 64 126 62 64 126
62 64 126 62 64 126 62 64 126 62 64 126 62 64 126 62 65 126 62 65 126
62 65 126 62 65 126 62 65 126 62 65 126 62 65 126 62 65 125 62 66 125
62 66 125 62 66 125 62 66 125 62 66 125 62 66 125 62 66 125 62 66 125
62 66 124 61 67 124 61 67 124 61 67 124 61 67 124 61 67 124 61 67 123
61 67 123 61 67 123 61 67 123 61 67 123 61 67 123 61 67 122 61 67 122
61 68 122 61 68 122 61 68 122 61 68 121 60 68 121 60 68 121 60 68 121
60 68 120 60 68 120 60 68 120 60 68 120 60 68 119 60 68 119 60 68 119
60 68 119 60 68 118 59 68 118 59 68 118 59 68 118 59 68 117 59 68 117
59 68 117 59 68 116 59 68 116 59 68 116 58 68 116 58 68 115 58 68 115
58 68 115 58 68 114 58 68 114 58 68 114 58 67 114 57 67 113 57 67 113
57 67 113 57 67 112 57 67 112 57 67 112 57 67 111 56 67 111 56 67 111
56 67 110 56 66 110 56 66 110 56 66 110 56 66 109 55 66 109 55 66 109
55 66 108 55 66 108 55 65 108 55 65 107 54 65 107 54 65 107 54 65 106
54 65 106 54 65 106 54 64 105 54 64 105 53 64 105 53 64 104 53 64 104
53 64 104 53 63 103 53 63 103 52 63 103 52 63 102 52 63 102 52 63 102
52 62 101 52 62 101 51 62 101 51 62 100 51 62 100 51 61 100 51 61 99
51 61 99 50 61 99 50 61 98 50 60 98 50 60 98 50 60 98 50 60 97 49 60
97 49 59 97 49 59 96 49 59 96 49 59 96 49 59 95 49 58 95 48 58 95 48
58 94 48 58 94 48 58 94 48 57 93 48 57 93 47 57 93 47 57 93 47 57 92
47 56 92 47 56 92 47 56 91 46 56 91 46 56 91 46 55 90 46 55 90 46 55
90 46 55 90 46 55 89 45 54 89 45 54 89 45 54 88 45 54 88 45 54 88 45
53 88 44 53 87 44 53 87 44 53 87 44 53 86 44 52 86 44 52 86 44 52 86
43 52 85 43 52 85 43 51 85 43 51 85 43 51 84 43 51 84 43 51 84 42 51
83 42 50 83 42 50 83 42 50 83 42 50 82 42 50 82 42 49 82 42 49 82 41
49 81 41 49 81 41 49 81 41 49 81 41 48 80 41 48 80 41 48 80 40 48 80
40 48 79 40 48 79 40 47 79 40 47
74 36 35 74 36 35 74 36 35 74 36 35 75 36 35 75 36 35 75 36 35 75 36
35 76 36 35 76 36 35 76 37 35 76 37 35 76 37 36 77 37 36 77 37 36 77
37 36 77 37 36 78 37 36 78 37 36 78 38 36 78 38 36 78 38 36 79 38 36
79 38 37 79 38 37 79 38 37 80 38 37 30 51 90 34 52 88 24 47 82 24 47
82 24 47 82 24 47 82 24 47 82 24 47 82 24 47 82 24 47 82 24 47 82 24
48 85 25 49 88 25 49 91 25 50 95 25 51 98 25 51 101 25 52 104 25 53
107 25 53 110 26 54 113 26 55 116 26 55 118 26 56 121 26 56 124 26 57
126 26 57 129 26 58 132 27 59 134 27 59 137 27 60 139 33 77 177 30 76
178 32 77 182 37 80 186 39 81 188 38 81 190 52 106 197 53 99 197 38 80
183 28 64 159 28 64 160 28 64 161 66 124 193 66 124 194 66 124 194 76
129 200 88 135 204 95 137 204 93 45 42 93 45 42 94 45 42 94 45 43 94
45 43 95 45 43 95 45 43 95 46 43 95 46 43 96 46 43 96 46 43 96 46 44
97 46 44 97 46 44 97 47 44 98 47 44 98 47 44 98 47 44 99 47 45 99 47
45 99 47 45 100 48 45 100 48 45 100 48 45 100 48 45 101 48 46 101 48
46 101 49 46 102 49 46 102 49 46 102 49 46 103 49 46 103 49 47 103 49
47 104 50 47 104 50 47 104 50 47 105 50 47 105 50 47 105 50 48 106 51
48 106 51 48 106 51 48 107 51 48 107 51 48 107 51 49 108 52 49 108 52
49 108 52 49 109 52 49 109 52 49 109 52 49 110 52 50 110 53 50 110 53
50 111 53 50 111 53 50 111 53 50 111 53 51 112 54 51 112 54 51 112 54
51 113 54 51 113 54 51 113 54 52 114 54 52 114 55 52 114 55 52 115 55
52 115 55 52 115 55 53 115 55 53 116 56 53 116 56 53 116 56 53 117 56
53 117 56 54 117 56 54 117 56 54 118 57 54 118 57 54 118 57 54 119 57
55 119 57 55 119 57 55 119 57 55 120 58 55 120 58 56 120 58 56 120 58
56 121 58 56 121 58 56 121 58 56 121 58 57 122 59 57 122 59 57 122 59
57 122 59 57 122 59 57 123 59 58 123 59 58 123 59 58 123 59 58 123 60
58 124 60 58 124 60 59 124 60 59 124 60 59 124 60 59 124 60 59 125 60
60 125 60 60 125 60 60 125 61 60 125 61 60 125 61 60 125 61 61 126 61
61 126 61 61 126 61 61 126 61 61 126 61 61 126 61 62 126 61 62 126 61
62 126 61 62 126 61 62 126 61 62 126 62 63 126 62 63 126 62 63 127 62
63 127 62 63 127 62 63 127 62 63 127 62 64 127 62 64 127 62 64 127 62
64 127 62 64 127 62 64 127 62 65 126 62 65 126 62 65 126 62 65 126 62
65 126 62 65 126 62 65 126 62 66 126 62 66 126 62 66 126 62 66 126 62
66 126 62 66 126 62 66 126 62 66 125 62 67 125 62 67 125 62 67 125 62
67 125 62 67 125 62 67 125 62 67 125 62 67 124 62 67 124 62 67 124 62
68 124 61 68 124 61 68 124 61 68 123 61 68 123 61 68 123 61 68 123 61
68 123 61 68 122 61 68 122 61 68 122 61 68 122 61 68 121 61 68 121 61
68 121 61 69 121 60 69 121 60 69 120 60 69 120 60 69 120 60 69 120 60
69 119 60 69 119 60 69 119 60 69 119 60 69 118 60 69 118 59 69 118 59
69 117 59 69 117 59 69 117 59 69 117 59 69 116 59 69 116 59 69 116 58
68 116 58 68 115 58 68 115 58 68 115 58 68 114 58 68 114 58 68 114 58
68 113 57 68 113 57 68 113 57 68 112 57 68 112 57 68 112 57 68 112 57
67 111 56 67 111 56 67 111 56 67 110 56 67 110 56 67 110 56 67 109 56
67 109 55 66 109 55 66 108 55 66 108 55 66 108 55 66 107 55 66 107 54
66 107 54 65 106 54 65 106 54 65 106 54 65 105 54 65 105 54 65 105 53
64 104 53 64 104 53 64 104 53 64 103 53 64 103 53 64 103 52 63 102 52
63 102 52 63 102 52 63 102 52 63 101 52 62 101 51 62 101 51 62 100 51
62 100 51 62 100 51 61 99 51 61 99 50 61 99 50 61 98 50 61 98 50 60 98
50 60 97 50 60 97 49 60 97 49 60 96 49 59 96 49 59 96 49 59 95 49 59
95 48 59 95 48 58 94 48 58 94 48 58 94 48 58 94 48 58 93 48 57 93 47
57 93 47 57 92 47 57 92 47 57 92 47 56 91 47 56 91 46 56 91 46 56 91
46 56 90 46 55 90 46 55 90 46 55 89 45 55 89 45 55 89 45 54 89 45 54
88 45 54 88 45 54 88 45 54 87 44 53 87 44 53 87 44 53 87 44 53 86 44
53 86 44 52 86 44 52 85 43 52 85 43 52 85 43 52 85 43 51 84 43 51 84
43 51 84 43 51 84 42 51 83 42 50 83 42 50 83 42 50 83 42 50 82 42 50
82 42 50 82 41 49 82 41 49 81 41 49 81 41 49 81 41 49 81 41 48 80 41
48 80 41 48 80 40 48 80 40 48 79 40 48
74 36 35 74 36 35 75 36 35 75 36 35 75 36 35 75 36 35 75 36 35 76 36
35 76 37 35 76 37 35 76 37 36 76 37 36 77 37 36 77 37 36 77 37 36 77
37 36 78 37 36 78 37 36 78 38 36 78 38 36 79 38 36 79 38 36 79 38 37
79 38 37 79 38 37 80 38 37 30 51 89 30 50 86 24 47 82 24 47 82 24 47
82 24 47 82 24 47 82 24 47 82 24 47 82 24 47 82 24 47 82 24 48 83 24
48 87 25 49 90 25 50 93 25 50 97 25 51 100 25 52 103 25 52 106 25 53
109 26 54 112 26 54 115 26 55 118 26 56 120 26 56 123 26 57 126 26 57
128 26 58 131 27 58 134 27 59 136 27 59 139 27 60 141 27 60 143 30 77
180 30 77 182 32 79 190 41 97 217 42 86 205 42 86 207 30 80 198 28 64
160 28 64 161 28 65 163 28 65 164 66 124 196 66 125 197 66 125 198 66
125 198 76 130 204 89 136 208 96 138 208 96 134 200 94 45 43 94 45 43
95 45 43 95 45 43 95 46 43 95 46 43 96 46 43 96 46 44 96 46 44 97 46
44 97 46 44 97 47 44 98 47 44 98 47 44 98 47 44 99 47 45 99 47 45 99
48 45 100 48 45 100 48 45 100 48 45 100 48 45 101 48 46 101 48 46 101
49 46 102 49 46 102 49 46 102 49 46 103 49 46 103 49 47 103 49 47 104
50 47 104 50 47 104 50 47 105 50 47 105 50 47 105 50 48 106 51 48 106
51 48 106 51 48 107 51 48 107 51 48 107 51 49 108 52 49 108 52 49 108
52 49 109 52 49 109 52 49 109 52 50 110 52 50 110 53 50 110 53 50 111
53 50 111 53 50 111 53 50 111 53 51 112 54 51 112 54 51 112 54 51 113
54 51 113 54 51 113 54 52 114 55 52 114 55 52 114 55 52 115 55 52 115
55 52 115 55 53 116 55 53 116 56 53 116 56 53 116 56 53 117 56 53 117
56 54 117 56 54 118 56 54 118 57 54 118 57 54 118 57 55 119 57 55 119
57 55 119 57 55 119 57 55 120 58 55 120 58 56 120 58 56 120 58 56 121
58 56 121 58 56 121 58 56 121 58 57 122 59 57 122 59 57 122 59 57 122
59 57 123 59 58 123 59 58 123 59 58 123 59 58 123 60 58 124 60 58 124
60 59 124 60 59 124 60 59 124 60 59 124 60 59 125 60 59 125 60 60 125
60 60 125 61 60 125 61 60 125 61 60 125 61 61 126 61 61 126 61 61 126
61 61 126 61 61 126 61 61 126 61 62 126 61 62 126 61 62 126 61 62 126
62 62 127 62 62 127 62 63 127 62 63 127 62 63 127 62 63 127 62 63 127
62 63 127 62 64 127 62 64 127 62 64 127 62 64 127 62 64 127 62 64 127
62 65 127 62 65 127 62 65 127 62 65 127 62 65 127 62 65 127 62 65 127
62 66 127 62 66 127 62 66 127 62 66 126 62 66 126 62 66 126 62 66 126
62 67 126 62 67 126 62 67 126 62 67 126 62 67 126 62 67 126 62 67 125
62 67 125 62 67 125 62 68 125 62 68 125 62 68 125 62 68 125 62 68 124
62 68 124 62 68 124 62 68 124 62 68 124 62 68 124 62 69 123 61 69 123
61 69 123 61 69 123 61 69 123 61 69 122 61 69 122 61 69 122 61 69 122
61 69 121 61 69 121 61 69 121 61 69 121 61 69 121 60 69 120 60 69 120
60 69 120 60 69 120 60 69 119 60 69 119 60 69 119 60 69 118 60 69 118
60 69 118 59 69 118 59 69 117 59 69 117 59 69 117 59 69 117 59 69 116
59 69 116 59 69 116 59 69 115 58 69 115 58 69 115 58 69 114 58 69 114
58 69 114 58 69 114 58 69 113 57 69 113 57 68 113 57 68 112 57 68 112
57 68 112 57 68 111 57 68 111 56 68 111 56 68 110 56 68 110 56 67 110
56 67 109 56 67 109 56 67 109 55 67 108 55 67 108 55 67 108 55 66 108
55 66 107 55 66 107 54 66 107 54 66 106 54 66 106 54 65 106 54 65 105
54 65 105 54 65 105 53 65 104 53 65 104 53 64 104 53 64 103 53 64 103
53 64 103 52 64 102 52 64 102 52 63 102 52 63 101 52 63 101 52 63 101
51 63 100 51 62 100 51 62 100 51 62 99 51 62 99 51 62 99 50 61 98 50
61 98 50 61 98 50 61 97 50 60 97 50 60 97 49 60 96 49 60 96 49 60 96
49 59 96 49 59 95 49 59 95 48 59 95 48 59 94 48 58 94 48 58 94 48 58
93 48 58 93 47 58 93 47 57 92 47 57 92 47 57 92 47 57 92 47 56 91 47
56 91 46 56 91 46 56 90 46 56 90 46 55 90 46 55 90 46 55 89 45 55 89
45 55 89 45 54 88 45 54 88 45 54 88 45 54 88 45 54 87 44 53 87 44 53
87 44 53 86 44 53 86 44 53 86 44 52 86 44 52 85 43 52 85 43 52 85 43
52 85 43 51 84 43 51 84 43 51 84 43 51 83 42 51 83 42 50 83 42 50 83
42 50 82 42 50 82 42 50 82 42 50 82 41 49 81 41 49 81 41 49 81 41 49
81 41 49 80 41 49 80 41 48 80 41 48 80 40 48
74 36 35 75 36 35 75 36 35 75 36 35 75 36 35 75 36 35 76 36 35 76 37
35 76 37 35 76 37 36 77 37 36 77 37 36 77 37 36 77 37 36 77 37 36 78
37 36 78 37 36 78 38 36 78 38 36 79 38 36 79 38 37 79 38 37 79 38 37
79 38 37 51 60 95 30 51 89 24 47 82 24 47 82 24 47 82 24 47 82 24 47
82 24 47 82 24 47 82 24 47 82 24 47 82 24 47 82 24 47 82 24 48 86 25
49 89 25 49 92 25 50 95 25 51 99 25 51 102 25 52 105 25 53 108 26 53
111 26 54 114 26 55 116 26 55 119 26 56 122 26 56 125 26 57 127 26 58
130 27 58 133 27 59 135 27 59 138 27 60 140 27 60 143 27 61 145 27 61
147 37 91 208 30 81 209 35 86 222 41 90 231 44 92 236 42 91 236 28 65
162 28 65 164 28 65 165 28 66 167 66 124 198 66 125 200 66 126 201 66
126 202 67 126 202 78 132 208 91 137 212 97 139 212 96 135 204 95 45
43 95 45 43 95 46 43 95 46 43 96 46 43 96 46 44 96 46 44 97 46 44 97
46 44 97 47 44 98 47 44 98 47 44 98 47 45 99 47 45 99 47 45 99 48 45
100 48 45 100 48 45 100 48 45 100 48 45 101 48 46 101 48 46 101 49 46
102 49 46 102 49 46 102 49 46 103 49 46 103 49 47 103 49 47 104 50 47
104 50 47 104 50 47 105 50 47 105 50 48 105 50 48 106 51 48 106 51 48
106 51 48 107 51 48 107 51 48 107 51 49 108 52 49 108 52 49 108 52 49
109 52 49 109 52 49 109 52 50 110 52 50 110 53 50 110 53 50 111 53 50
111 53 50 111 53 51 111 53 51 112 54 51 112 54 51 112 54 51 113 54 51
113 54 52 113 54 52 114 55 52 114 55 52 114 55 52 115 55 52 115 55 53
115 55 53 116 55 53 116 56 53 116 56 53 116 56 53 117 56 54 117 56 54
117 56 54 118 56 54 118 57 54 118 57 54 118 57 55 119 57 55 119 57 55
119 57 55 119 57 55 120 58 55 120 58 56 120 58 56 121 58 56 121 58 56
121 58 56 121 58 57 121 58 57 122 59 57 122 59 57 122 59 57 122 59 57
123 59 58 123 59 58 123 59 58 123 59 58 123 60 58 124 60 59 124 60 59
124 60 59 124 60 59 124 60 59 125 60 59 125 60 60 125 60 60 125 61 60
125 61 60 125 61 60 125 61 61 126 61 61 126 61 61 126 61 61 126 61 61
126 61 61 126 61 62 126 61 62 126 61 62 127 61 62 127 62 62 127 62 62
127 62 63 127 62 63 127 62 63 127 62 63 127 62 63 127 62 63 127 62 64
127 62 64 127 62 64 127 62 64 127 62 64 127 62 64 127 62 65 127 62 65
127 62 65 127 62 65 127 62 65 127 62 65 127 62 66 127 62 66 127 62 66
127 62 66 127 62 66 127 62 66 127 62 66 127 62 67 127 62 67 127 62 67
127 62 67 126 62 67 126 62 67 126 62 67 126 62 68 126 62 68 126 62 68
126 62 68 126 62 68 126 62 68 125 62 68 125 62 68 125 62 68 125 62 69
125 62 69 125 62 69 124 62 69 124 62 69 124 62 69 124 62 69 124 62 69
124 62 69 123 62 69 123 62 69 123 61 70 123 61 70 123 61 70 122 61 70
122 61 70 122 61 70 122 61 70 121 61 70 121 61 70 121 61 70 121 61 70
120 61 70 120 60 70 120 60 70 120 60 70 119 60 70 119 60 70 119 60 70
119 60 70 118 60 70 118 60 70 118 60 70 118 59 70 117 59 70 117 59 70
117 59 70 116 59 70 116 59 70 116 59 70 116 59 70 115 58 70 115 58 70
115 58 69 114 58 69 114 58 69 114 58 69 113 58 69 113 58 69 113 57 69
112 57 69 112 57 69 112 57 69 112 57 69 111 57 68 111 57 68 111 56 68
110 56 68 110 56 68 110 56 68 109 56 68 109 56 67 109 55 67 108 55 67
108 55 67 108 55 67 107 55 67 107 55 67 107 54 66 106 54 66 106 54 66
106 54 66 105 54 66 105 54 66 105 54 65 104 53 65 104 53 65 104 53 65
103 53 65 103 53 64 103 53 64 102 52 64 102 52 64 102 52 64 101 52 63
101 52 63 101 52 63 100 51 63 100 51 63 100 51 62 99 51 62 99 51 62 99
51 62 98 50 62 98 50 61 98 50 61 98 50 61 97 50 61 97 50 60 97 49 60
96 49 60 96 49 60 96 49 60 95 49 59 95 49 59 95 48 59 94 48 59 94 48
59 94 48 58 93 48 58 93 48 58 93 47 58 93 47 57 92 47 57 92 47 57 92
47 57 91 47 57 91 46 56 91 46 56 90 46 56 90 46 56 90 46 56 90 46 55
89 46 55 89 45 55 89 45 55 88 45 54 88 45 54 88 45 54 88 45 54 87 44
54 87 44 53 87 44 53 87 44 53 86 44 53 86 44 53 86 44 52 85 43 52 85
43 52 85 43 52 85 43 52 84 43 51 84 43 51 84 43 51 84 42 51 83 42 51
83 42 51 83 42 50 83 42 50 82 42 50 82 42 50 82 42 50 82 41 49 81 41
49 81 41 49 81 41 49 81 41 49 80 41 49 80 41 48
75 36 35 75 36 35 75 36 35 75 36 35 76 36 35 76 36 35 76 37 35 76 37
36 76 37 36 77 37 36 77 37 36 77 37 36 77 37 36 78 37 36 78 37 36 78
38 36 78 38 36 78 38 36 79 38 36 79 38 37 79 38 37 79 38 37 80 38 37
50 60 94 40 55 90 24 47 82 24 47 82 24 47 82 24 47 82 24 47 82 24 47
82 24 47 82 24 47 82 24 47 82 24 47 82 24 47 82 24 48 84 24 48 87 25
49 91 25 50 94 25 51 97 25 51 100 25 52 103 25 53 106 25 53 109 26 54
112 26 54 115 26 55 118 26 56 121 26 56 124 26 57 126 26 57 129 26 58
132 27 59 134 27 59 137 27 60 139 27 60 142 27 61 144 27 61 147 27 62
149 27 62 151 34 88 230 35 92 245 31 98 255 29 97 255 30 99 255 28 65
164 28 65 166 28 66 167 28 66 169 65 124 201 66 125 202 66 126 203 66
126 204 67 127 205 67 127 205 81 134 213 93 139 216 98 140 215 96 134
204 95 46 43 95 46 43 96 46 43 96 46 44 96 46 44 97 46 44 97 46 44 97
47 44 98 47 44 98 47 44 98 47 45 99 47 45 99 47 45 99 48 45 100 48 45
100 48 45 100 48 45 100 48 46 101 48 46 101 48 46 101 49 46 102 49 46
102 49 46 102 49 46 103 49 47 103 49 47 103 49 47 104 50 47 104 50 47
104 50 47 105 50 47 105 50 48 105 50 48 106 51 48 106 51 48 106 51 48
107 51 48 107 51 48 107 51 49 108 52 49 108 52 49 108 52 49 109 52 49
109 52 49 109 52 50 110 52 50 110 53 50 110 53 50 110 53 50 111 53 50
111 53 51 111 53 51 112 54 51 112 54 51 112 54 51 113 54 51 113 54 52
113 54 52 114 55 52 114 55 52 114 55 52 115 55 52 115 55 53 115 55 53
115 55 53 116 56 53 116 56 53 116 56 53 117 56 54 117 56 54 117 56 54
118 56 54 118 57 54 118 57 54 118 57 55 119 57 55 119 57 55 119 57 55
119 57 55 120 58 56 120 58 56 120 58 56 121 58 56 121 58 56 121 58 56
121 58 57 122 59 57 122 59 57 122 59 57 122 59 57 122 59 58 123 59 58
123 59 58 123 59 58 123 60 58 124 60 58 124 60 59 124 60 59 124 60 59
124 60 59 124 60 59 125 60 60 125 60 60 125 60 60 125 61 60 125 61 60
125 61 60 126 61 61 126 61 61 126 61 61 126 61 61 126 61 61 126 61 62
126 61 62 127 61 62 127 62 62 127 62 62 127 62 62 127 62 63 127 62 63
127 62 63 127 62 63 127 62 63 127 62 63 127 62 64 127 62 64 127 62 64
127 62 64 127 62 64 127 62 65 128 62 65 128 62 65 128 62 65 128 62 65
128 63 65 128 63 66 128 63 66 127 63 66 127 63 66 127 63 66 127 63 66
127 63 66 127 63 67 127 63 67 127 63 67 127 63 67 127 63 67 127 63 67
127 63 67 127 63 68 127 63 68 127 63 68 126 63 68 126 63 68 126 63 68
126 63 68 126 62 69 126 62 69 126 62 69 126 62 69 125 62 69 125 62 69
125 62 69 125 62 69 125 62 69 125 62 70 124 62 70 124 62 70 124 62 70
124 62 70 124 62 70 124 62 70 123 62 70 123 62 70 123 62 70 123 62 70
122 61 70 122 61 70 122 61 70 122 61 71 122 61 71 121 61 71 121 61 71
121 61 71 121 61 71 120 61 71 120 61 71 120 60 71 120 60 71 119 60 71
119 60 71 119 60 71 118 60 71 118 60 71 118 60 71 118 60 71 117 60 71
117 59 71 117 59 71 117 59 71 116 59 70 116 59 70 116 59 70 115 59 70
115 59 70 115 58 70 114 58 70 114 58 70 114 58 70 114 58 70 113 58 70
113 58 70 113 57 69 112 57 69 112 57 69 112 57 69 111 57 69 111 57 69
111 57 69 110 56 69 110 56 69 110 56 68 109 56 68 109 56 68 109 56 68
108 55 68 108 55 68 108 55 67 107 55 67 107 55 67 107 55 67 106 54 67
106 54 67 106 54 66 105 54 66 105 54 66 105 54 66 104 53 66 104 53 65
104 53 65 103 53 65 103 53 65 103 53 65 102 52 64 102 52 64 102 52 64
102 52 64 101 52 64 101 52 63 101 51 63 100 51 63 100 51 63 100 51 63
99 51 62 99 51 62 99 50 62 98 50 62 98 50 61 98 50 61 97 50 61 97 50
61 97 49 61 96 49 60 96 49 60 96 49 60 95 49 60 95 49 60 95 48 59 95
48 59 94 48 59 94 48 59 94 48 58 93 48 58 93 48 58 93 47 58 92 47 58
92 47 57 92 47 57 91 47 57 91 47 57 91 46 56 91 46 56 90 46 56 90 46
56 90 46 56 89 46 55 89 45 55 89 45 55 89 45 55 88 45 55 88 45 54 88
45 54 87 45 54 87 44 54 87 44 54 87 44 53 86 44 53 86 44 53 86 44 53
86 44 53 85 43 52 85 43 52 85 43 52 84 43 52 84 43 52 84 43 51 84 43
51 83 42 51 83 42 51 83 42 51 83 42 50 82 42 50 82 42 50 82 42 50 82
41 50 81 41 49 81 41 49 81 41 49 81 41 49 80 41 49
75 36 35 75 36 35 75 36 35 76 36 35 76 37 35 76 37 35 76 37 36 76 37
36 77 37 36 77 37 36 77 37 36 77 37 36 78 37 36 78 37 36 78 38 36 78
38 36 78 38 36 79 38 37 79 38 37 79 38 37 79 38 37 80 38 37 50 60 94
30 51 89 24 47 82 24 47 82 24 47 82 24 47 82 24 47 82 24 47 82 24 47
82 24 47 82 24 47 82 24 47 82 24 47 82 24 47 82 24 48 86 25 49 89 25
49 92 25 50 96 25 51 99 25 52 102 25 52 105 25 53 108 26 53 111 26 54
114 26 55 117 26 55 120 26 56 122 26 57 125 26 57 128 26 58 130 27 58
133 27 59 136 27 59 138 27 60 141 27 61 143 27 61 146 27 62 148 27 62
151 27 63 153 28 63 155 28 64 157 28 64 159 28 64 162 28 65 164 28 65
165 28 66 167 28 66 169 65 123 200 65 124 202 66 125 204 66 126 205 66
127 207 67 127 207 67 127 208 72 130 212 86 137 217 96 140 219 98 140
217 95 46 43 96 46 43 96 46 44 96 46 44 97 46 44 97 46 44 97 47 44 98
47 44 98 47 44 98 47 45 99 47 45 99 47 45 99 48 45 99 48 45 100 48 45
100 48 45 100 48 46 101 48 46 101 48 46 101 49 46 102 49 46 102 49 46
102 49 46 103 49 47 103 49 47 103 49 47 104 50 47 104 50 47 104 50 47
105 50 47 105 50 48 105 50 48 106 51 48 106 51 48 106 51 48 107 51 48
107 51 49 107 51 49 108 52 49 108 52 49 108 52 49 109 52 49 109 52 49
109 52 50 109 52 50 110 53 50 110 53 50 110 53 50 111 53 50 111 53 51
111 53 51 112 54 51 112 54 51 112 54 51 113 54 51 113 54 52 113 54 52
114 54 52 114 55 52 114 55 52 115 55 52 115 55 53 115 55 53 115 55 53
116 56 53 116 56 53 116 56 53 117 56 54 117 56 54 117 56 54 118 56 54
118 57 54 118 57 55 118 57 55 119 57 55 119 57 55 119 57 55 119 57 55
120 58 56 120 58 56 120 58 56 121 58 56 121 58 56 121 58 57 121 58 57
122 59 57 122 59 57 122 59 57 122 59 57 122 59 58 123 59 58 123 59 58
123 59 58 123 60 58 124 60 59 124 60 59 124 60 59 124 60 59 124 60 59
125 60 59 125 60 60 125 60 60 125 61 60 125 61 60 125 61 60 126 61 61
126 61 61 126 61 61 126 61 61 126 61 61 126 61 61 126 61 62 127 61 62
127 62 62 127 62 62 127 62 62 127 62 63 127 62 63 127 62 63 127 62 63
127 62 63 127 62 63 127 62 64 128 62 64 128 62 64 128 62 64 128 62 64
128 62 65 128 62 65 128 63 65 128 63 65 128 63 65 128 63 65 128 63 66
128 63 66 128 63 66 128 63 66 128 63 66 128 63 66 128 63 67 128 63 67
128 63 67 128 63 67 128 63 67 127 63 67 127 63 68 127 63 68 127 63 68
127 63 68 127 63 68 127 63 68 127 63 68 127 63 69 127 63 69 127 63 69
126 63 69 126 63 69 126 63 69 126 63 69 126 63 69 126 63 70 126 63 70
125 63 70 125 62 70 125 62 70 125 62 70 125 62 70 125 62 70 124 62 70
124 62 70 124 62 71 124 62 71 124 62 71 123 62 71 123 62 71 123 62 71
123 62 71 123 62 71 122 62 71 122 61 71 122 61 71 122 61 71 121 61 71
121 61 71 121 61 71 121 61 71 120 61 71 120 61 71 120 61 71 120 61 71
119 60 71 119 60 71 119 60 71 119 60 71 118 60 71 118 60 71 118 60 71
117 60 71 117 60 71 117 59 71 117 59 71 116 59 71 116 59 71 116 59 71
115 59 71 115 59 71 115 59 71 115 58 71 114 58 71 114 58 71 114 58 70
113 58 70 113 58 70 113 58 70 112 57 70 112 57 70 112 57 70 111 57 70
111 57 70 111 57 69 110 57 69 110 56 69 110 56 69 109 56 69 109 56 69
109 56 68 108 56 68 108 55 68 108 55 68 108 55 68 107 55 68 107 55 67
107 55 67 106 54 67 106 54 67 106 54 67 105 54 67 105 54 66 105 54 66
104 53 66 104 53 66 104 53 66 103 53 65 103 53 65 103 53 65 102 52 65
102 52 65 102 52 64 101 52 64 101 52 64 101 52 64 100 51 63 100 51 63
100 51 63 99 51 63 99 51 63 99 51 62 98 50 62 98 50 62 98 50 62 97 50
61 97 50 61 97 50 61 96 49 61 96 49 61 96 49 60 96 49 60 95 49 60 95
49 60 95 48 59 94 48 59 94 48 59 94 48 59 93 48 59 93 48 58 93 47 58
92 47 58 92 47 58 92 47 57 92 47 57 91 47 57 91 46 57 91 46 57 90 46
56 90 46 56 90 46 56 90 46 56 89 46 55 89 45 55 89 45 55 88 45 55 88
45 55 88 45 54 88 45 54 87 45 54 87 44 54 87 44 54 86 44 53 86 44 53
86 44 53 86 44 53 85 43 53 85 43 52 85 43 52 85 43 52 84 43 52 84 43
52 84 43 51 84 43 51 83 42 51 83 42 51 83 42 51 83 42 50 82 42 50 82
42 50 82 42 50 82 41 50 81 41 50 81 41 49 81 41 49
75 36 35 75 36 35 76 36 35 76 37 35 76 37 36 76 37 36 77 37 36 77 37
36 77 37 36 77 37 36 77 37 36 78 37 36 78 37 36 78 38 36 78 38 36 78
38 36 79 38 37 79 38 37 79 38 37 79 38 37 80 38 37 50 60 94 30 51 89
24 47 82 24 47 82 24 47 82 24 47 82 24 47 82 24 47 82 24 47 82 24 47
82 24 47 82 24 47 82 24 47 82 24 47 82 24 48 84 24 48 87 25 49 91 25
50 94 25 51 97 25 51 100 25 52 103 25 53 106 25 53 109 26 54 112 26 54
115 26 55 118 26 56 121 26 56 124 26 57 126 26 57 129 26 58 132 27 59
134 27 59 137 27 60 140 27 60 142 27 61 145 27 61 147 27 62 150 27 62
152 28 63 154 28 63 157 28 64 159 28 64 161 28 65 163 28 65 165 28 66
167 28 66 169 28 66 171 64 123 202 65 124 204 65 125 205 66 126 207 66
126 208 66 127 209 66 127 210 67 128 211 78 133 217 91 139 222 98 141
222 98 140 218 96 46 44 96 46 44 97 46 44 97 46 44 97 47 44 98 47 44
98 47 44 98 47 45 99 47 45 99 47 45 99 47 45 99 48 45 100 48 45 100 48
45 100 48 46 101 48 46 101 48 46 101 49 46 102 49 46 102 49 46 102 49
46 103 49 47 103 49 47 103 49 47 104 50 47 104 50 47 104 50 47 105 50
47 105 50 48 105 50 48 106 51 48 106 51 48 106 51 48 107 51 48 107 51
49 107 51 49 107 52 49 108 52 49 108 52 49 108 52 49 109 52 49 109 52
50 109 52 50 110 53 50 110 53 50 110 53 50 111 53 50 111 53 51 111 53
51 112 54 51 112 54 51 112 54 51 113 54 51 113 54 52 113 54 52 114 54
52 114 55 52 114 55 52 114 55 52 115 55 53 115 55 53 115 55 53 116 56
53 116 56 53 116 56 54 117 56 54 117 56 54 117 56 54 117 56 54 118 57
54 118 57 55 118 57 55 119 57 55 119 57 55 119 57 55 119 57 55 120 58
56 120 58 56 120 58 56 120 58 56 121 58 56 121 58 57 121 58 57 122 59
57 122 59 57 122 59 57 122 59 57 122 59 58 123 59 58 123 59 58 123 59
58 123 60 58 124 60 59 124 60 59 124 60 59 124 60 59 124 60 59 125 60
60 125 60 60 125 60 60 125 61 60 125 61 60 125 61 60 126 61 61 126 61
61 126 61 61 126 61 61 126 61 61 126 61 62 127 61 62 127 62 62 127 62
62 127 62 62 127 62 63 127 62 63 127 62 63 127 62 63 127 62 63 127 62
63 128 62 64 128 62 64 128 62 64 128 62 64 128 62 64 128 62 65 128 63
65 128 63 65 128 63 65 128 63 65 128 63 65 128 63 66 128 63 66 128 63
66 128 63 66 128 63 66 128 63 66 128 63 67 128 63 67 128 63 67 128 63
67 128 63 67 128 63 67 128 63 68 128 63 68 128 63 68 128 63 68 128 63
68 127 63 68 127 63 69 127 63 69 127 63 69 127 63 69 127 63 69 127 63
69 127 63 69 127 63 70 126 63 70 126 63 70 126 63 70 126 63 70 126 63
70 126 63 70 126 63 70 125 63 71 125 63 71 125 63 71 125 63 71 125 62
71 125 62 71 124 62 71 124 62 71 124 62 71 124 62 71 124 62 72 123 62
72 123 62 72 123 62 72 123 62 72 122 62 72 122 62 72 122 62 72 122 61
72 122 61 72 121 61 72 121 61 72 121 61 72 121 61 72 120 61 72 120 61
72 120 61 72 120 61 72 119 61 72 119 60 72 119 60 72 118 60 72 118 60
72 118 60 72 118 60 72 117 60 72 117 60 72 117 59 72 116 59 72 116 59
72 116 59 72 116 59 72 115 59 72 115 59 71 115 59 71 114 58 71 114 58
71 114 58 71 113 58 71 113 58 71 113 58 71 112 58 71 112 57 71 112 57
70 111 57 70 111 57 70 111 57 70 111 57 70 110 57 70 110 56 70 110 56
69 109 56 69 109 56 69 109 56 69 108 56 69 108 55 69 108 55 68 107 55
68 107 55 68 107 55 68 106 55 68 106 54 67 106 54 67 105 54 67 105 54
67 105 54 67 104 54 66 104 53 66 104 53 66 103 53 66 103 53 66 103 53
65 102 53 65 102 52 65 102 52 65 101 52 65 101 52 64 101 52 64 100 52
64 100 51 64 100 51 63 99 51 63 99 51 63 99 51 63 98 51 63 98 50 62 98
50 62 97 50 62 97 50 62 97 50 61 97 50 61 96 49 61 96 49 61 96 49 60
95 49 60 95 49 60 95 49 60 94 48 60 94 48 59 94 48 59 93 48 59 93 48
59 93 48 58 93 47 58 92 47 58 92 47 58 92 47 58 91 47 57 91 47 57 91
46 57 90 46 57 90 46 56 90 46 56 90 46 56 89 46 56 89 46 56 89 45 55
88 45 55 88 45 55 88 45 55 88 45 54 87 45 54 87 44 54 87 44 54 87 44
54 86 44 53 86 44 53 86 44 53 85 44 53 85 43 53 85 43 52 85 43 52 84
43 52 84 43 52 84 43 52 84 43 51 83 42 51 83 42 51 83 42 51 83 42 51
82 42 50 82 42 50 82 42 50 82 42 50 81 41 50 81 41 50
76 36 35 76 36 35 76 37 35 76 37 36 76 37 36 77 37 36 77 37 36 77 37
36 77 37 36 77 37 36 78 37 36 78 37 36 78 38 36 78 38 36 79 38 37 79
38 37 79 38 37 79 38 37 79 38 37 80 38 37 51 60 95 30 51 89 24 47 82
24 47 82 24 47 82 24 47 82 24 47 82 24 47 82 24 47 82 24 47 82 24 47
82 24 47 82 24 47 82 24 47 82 24 47 82 24 48 86 25 49 89 25 49 92 25
50 95 25 51 98 25 51 102 25 52 105 25 53 108 26 53 111 26 54 113 26 55
116 26 55 119 26 56 122 26 57 125 26 57 128 26 58 130 27 58 133 27 59
136 27 59 138 27 60 141 27 61 143 27 61 146 27 62 148 27 62 151 33 66
161 34 67 163 34 67 165 34 68 168 28 65 162 28 65 164 28 65 166 28 66
168 28 66 170 28 67 172 64 123 203 65 124 205 65 125 207 65 125 208 66
126 210 66 127 211 66 127 212 66 128 213 71 130 217 85 137 222 96 141
225 99 142 224 98 138 218 97 46 44 97 46 44 97 47 44 98 47 44 98 47 44
98 47 45 98 47 45 99 47 45 99 47 45 99 48 45 100 48 45 100 48 45 100
48 46 101 48 46 101 48 46 101 49 46 102 49 46 102 49 46 102 49 46 103
49 47 103 49 47 103 49 47 104 50 47 104 50 47 104 50 47 104 50 47 105
50 48 105 50 48 105 51 48 106 51 48 106 51 48 106 51 48 107 51 49 107
51 49 107 51 49 108 52 49 108 52 49 108 52 49 109 52 49 109 52 50 109
52 50 110 53 50 110 53 50 110 53 50 111 53 50 111 53 51 111 53 51 112
54 51 112 54 51 112 54 51 113 54 51 113 54 52 113 54 52 113 54 52 114
55 52 114 55 52 114 55 52 115 55 53 115 55 53 115 55 53 116 56 53 116
56 53 116 56 54 117 56 54 117 56 54 117 56 54 117 56 54 118 57 54 118
57 55 118 57 55 119 57 55 119 57 55 119 57 55 119 57 56 120 58 56 120
58 56 120 58 56 120 58 56 121 58 56 121 58 57 121 58 57 121 59 57 122
59 57 122 59 57 122 59 58 122 59 58 123 59 58 123 59 58 123 59 58 123
60 58 124 60 59 124 60 59 124 60 59 124 60 59 124 60 59 125 60 60 125
60 60 125 60 60 125 61 60 125 61 60 126 61 61 126 61 61 126 61 61 126
61 61 126 61 61 126 61 62 126 61 62 127 61 62 127 62 62 127 62 62 127
62 62 127 62 63 127 62 63 127 62 63 127 62 63 128 62 63 128 62 64 128
62 64 128 62 64 128 62 64 128 62 64 128 63 65 128 63 65 128 63 65 128
63 65 128 63 65 128 63 65 128 63 66 128 63 66 128 63 66 128 63 66 128
63 66 128 63 67 128 63 67 128 63 67 128 63 67 128 63 67 128 63 67 128
63 68 128 63 68 128 63 68 128 63 68 128 63 68 128 63 68 128 63 69 128
63 69 128 63 69 128 63 69 128 63 69 127 63 69 127 63 70 127 63 70 127
63 70 127 63 70 127 63 70 127 63 70 127 63 70 126 63 70 126 63 71 126
63 71 126 63 71 126 63 71 126 63 71 126 63 71 125 63 71 125 63 71 125
63 72 125 63 72 125 63 72 124 63 72 124 62 72 124 62 72 124 62 72 124
62 72 123 62 72 123 62 72 123 62 72 123 62 72 123 62 73 122 62 73 122
62 73 122 62 73 122 62 73 121 61 73 121 61 73 121 61 73 121 61 73 120
61 73 120 61 73 120 61 73 120 61 73 119 61 73 119 61 73 119 60 73 119
60 73 118 60 73 118 60 73 118 60 73 117 60 73 117 60 73 117 60 73 117
60 72 116 59 72 116 59 72 116 59 72 115 59 72 115 59 72 115 59 72 114
59 72 114 58 72 114 58 72 113 58 72 113 58 72 113 58 71 113 58 71 112
58 71 112 57 71 112 57 71 111 57 71 111 57 71 111 57 70 110 57 70 110
56 70 110 56 70 109 56 70 109 56 70 109 56 69 108 56 69 108 56 69 108
55 69 107 55 69 107 55 69 107 55 68 106 55 68 106 55 68 106 54 68 105
54 68 105 54 67 105 54 67 104 54 67 104 54 67 104 53 67 103 53 66 103
53 66 103 53 66 102 53 66 102 52 65 102 52 65 101 52 65 101 52 65 101
52 65 100 52 64 100 51 64 100 51 64 99 51 64 99 51 63 99 51 63 99 51
63 98 50 63 98 50 62 98 50 62 97 50 62 97 50 62 97 50 62 96 49 61 96
49 61 96 49 61 95 49 61 95 49 60 95 49 60 94 48 60 94 48 60 94 48 59
94 48 59 93 48 59 93 48 59 93 47 58 92 47 58 92 47 58 92 47 58 91 47
58 91 47 57 91 47 57 91 46 57 90 46 57 90 46 56 90 46 56 89 46 56 89
46 56 89 45 56 89 45 55 88 45 55 88 45 55 88 45 55 87 45 55 87 45 54
87 44 54 87 44 54 86 44 54 86 44 53 86 44 53 86 44 53 85 44 53 85 43
53 85 43 52 84 43 52 84 43 52 84 43 52 84 43 52 83 43 51 83 42 51 83
42 51 83 42 51 82 42 51 82 42 50 82 42 50 82 42 50 81 41 50
76 36 35 76 37 36 76 37 36 76 37 36 77 37 36 77 37 36 77 37 36 77 37
36 77 37 36 78 37 36 78 38 36 78 38 36 78 38 36 79 38 37 79 38 37 79
38 37 79 38 37 79 38 37 80 38 37 80 38 37 30 51 89 32 51 87 24 47 82
24 47 82 24 47 82 24 47 82 24 47 82 24 47 82 24 47 82 24 47 82 24 47
82 24 47 82 24 47 82 24 47 82 24 48 84 24 48 87 25 49 90 25 50 93 25
50 97 25 51 100 25 52 103 25 52 106 25 53 109 26 54 112 26 54 115 26
55 118 26 56 120 26 56 123 26 57 126 26 57 129 26 58 131 27 59 134 27
59 137 27 60 139 27 60 142 27 61 144 27 61 147 27 62 149 33 66 159 33
67 162 35 68 165 35 68 168 37 75 189 38 71 173 34 69 173 28 66 168 28
66 170 28 67 172 65 122 202 64 123 204 64 123 206 65 124 208 65 125
210 65 126 211 66 127 213 66 127 214 66 127 215 66 128 215 79 134 222
93 140 227 99 142 228 99 141 225 96 135 213 97 47 44 97 47 44 98 47 44
98 47 45 98 47 45 99 47 45 99 47 45 99 48 45 100 48 45 100 48 45 100
48 46 101 48 46 101 48 46 101 49 46 102 49 46 102 49 46 102 49 46 103
49 47 103 49 47 103 49 47 103 50 47 104 50 47 104 50 47 104 50 47 105
50 48 105 50 48 105 51 48 106 51 48 106 51 48 106 51 48 107 51 49 107
51 49 107 51 49 108 52 49 108 52 49 108 52 49 109 52 50 109 52 50 109
52 50 110 53 50 110 53 50 110 53 50 111 53 50 111 53 51 111 53 51 111
53 51 112 54 51 112 54 51 112 54 51 113 54 52 113 54 52 113 54 52 114
55 52 114 55 52 114 55 53 115 55 53 115 55 53 115 55 53 116 55 53 116
56 53 116 56 54 116 56 54 117 56 54 117 56 54 117 56 54 118 57 54 118
57 55 118 57 55 118 57 55 119 57 55 119 57 55 119 57 56 120 58 56 120
58 56 120 58 56 120 58 56 121 58 56 121 58 57 121 58 57 121 59 57 122
59 57 122 59 57 122 59 58 122 59 58 123 59 58 123 59 58 123 59 58 123
60 59 124 60 59 124 60 59 124 60 59 124 60 59 124 60 59 125 60 60 125
60 60 125 61 60 125 61 60 125 61 60 126 61 61 126 61 61 126 61 61 126
61 61 126 61 61 126 61 62 126 61 62 127 62 62 127 62 62 127 62 62 127
62 63 127 62 63 127 62 63 127 62 63 127 62 63 128 62 64 128 62 64 128
62 64 128 62 64 128 62 64 128 63 64 128 63 65 128 63 65 128 63 65 128
63 65 128 63 65 128 63 66 128 63 66 128 63 66 128 63 66 128 63 66 128
63 67 128 63 67 128 63 67 128 63 67 128 63 67 128 63 67 128 63 68 128
63 68 128 63 68 128 63 68 128 63 68 128 63 69 128 63 69 128 63 69 128
63 69 128 63 69 128 63 69 128 63 70 128 63 70 128 63 70 128 63 70 127
63 70 127 63 70 127 63 70 127 63 71 127 63 71 127 63 71 127 63 71 127
63 71 126 63 71 126 63 71 126 63 72 126 63 72 126 63 72 126 63 72 125
63 72 125 63 72 125 63 72 125 63 72 125 63 72 125 63 73 124 63 73 124
63 73 124 63 73 124 62 73 124 62 73 123 62 73 123 62 73 123 62 73 123
62 73 122 62 73 122 62 73 122 62 73 122 62 73 121 62 73 121 62 73 121
61 74 121 61 74 120 61 74 120 61 74 120 61 74 120 61 74 119 61 74 119
61 74 119 61 74 119 61 73 118 60 73 118 60 73 118 60 73 117 60 73 117
60 73 117 60 73 117 60 73 116 60 73 116 59 73 116 59 73 115 59 73 115
59 73 115 59 73 114 59 73 114 59 72 114 58 72 114 58 72 113 58 72 113
58 72 113 58 72 112 58 72 112 58 72 112 57 71 111 57 71 111 57 71 111
57 71 110 57 71 110 57 71 110 56 71 109 56 70 109 56 70 109 56 70 108
56 70 108 56 70 108 55 69 107 55 69 107 55 69 107 55 69 106 55 69 106
55 68 106 54 68 105 54 68 105 54 68 105 54 68 104 54 67 104 54 67 104
53 67 103 53 67 103 53 67 103 53 66 102 53 66 102 53 66 102 52 66 101
52 65 101 52 65 101 52 65 101 52 65 100 52 64 100 51 64 100 51 64 99
51 64 99 51 64 99 51 63 98 51 63 98 50 63 98 50 63 97 50 62 97 50 62
97 50 62 96 50 62 96 49 61 96 49 61 95 49 61 95 49 61 95 49 60 95 49
60 94 48 60 94 48 60 94 48 60 93 48 59 93 48 59 93 48 59 92 47 59 92
47 58 92 47 58 92 47 58 91 47 58 91 47 57 91 46 57 90 46 57 90 46 57
90 46 57 89 46 56 89 46 56 89 46 56 89 45 56 88 45 55 88 45 55 88 45
55 88 45 55 87 45 55 87 44 54 87 44 54 86 44 54 86 44 54 86 44 53 86
44 53 85 44 53 85 43 53 85 43 53 85 43 52 84 43 52 84 43 52 84 43 52
84 43 52 83 42 51 83 42 51 83 42 51 83 42 51 82 42 51 82 42 50 82 42
50
76 37 36 76 37 36 76 37 36 77 37 36 77 37 36 77 37 36 77 37 36 78 37
36 78 37 36 78 38 36 78 38 36 78 38 36 79 38 37 79 38 37 79 38 37 79
38 37 80 38 37 80 38 37 80 38 37 30 51 90 36 53 89 24 47 82 24 47 82
24 47 82 24 47 82 24 47 82 24 47 82 24 47 82 24 47 82 24 47 82 24 47
82 24 47 82 24 47 82 24 47 82 24 48 85 25 49 88 25 49 91 25 50 95 25
51 98 25 51 101 25 52 104 25 53 107 26 53 110 26 54 113 26 55 116 26
55 119 26 56 121 26 56 124 26 57 127 26 58 130 27 58 132 27 59 135 27
59 138 27 60 140 27 60 143 27 61 145 27 62 148 33 66 158 33 66 160 34
67 163 35 68 167 35 68 168 41 72 173 42 73 176 41 73 178 34 70 178 28
66 171 28 67 173 67 123 204 65 123 205 64 123 207 64 124 209 65 125
211 65 125 212 65 126 214 66 127 215 66 127 216 66 127 217 74 132 222
89 138 228 98 142 230 100 142 229 99 140 224 97 47 44 98 47 45 98 47
45 98 47 45 99 47 45 99 47 45 99 48 45 100 48 45 100 48 45 100 48 46
101 48 46 101 48 46 101 48 46 101 49 46 102 49 46 102 49 46 102 49 47
103 49 47 103 49 47 103 50 47 104 50 47 104 50 47 104 50 47 105 50 48
105 50 48 105 50 48 106 51 48 106 51 48 106 51 48 107 51 49 107 51 49
107 51 49 108 52 49 108 52 49 108 52 49 109 52 50 109 52 50 109 52 50
109 53 50 110 53 50 110 53 50 110 53 50 111 53 51 111 53 51 111 53 51
112 54 51 112 54 51 112 54 51 113 54 52 113 54 52 113 54 52 114 55 52
114 55 52 114 55 53 115 55 53 115 55 53 115 55 53 115 55 53 116 56 53
116 56 54 116 56 54 117 56 54 117 56 54 117 56 54 118 57 54 118 57 55
118 57 55 118 57 55 119 57 55 119 57 55 119 57 56 119 58 56 120 58 56
120 58 56 120 58 56 121 58 56 121 58 57 121 58 57 121 59 57 122 59 57
122 59 57 122 59 58 122 59 58 123 59 58 123 59 58 123 59 58 123 60 59
123 60 59 124 60 59 124 60 59 124 60 59 124 60 60 125 60 60 125 60 60
125 61 60 125 61 60 125 61 61 126 61 61 126 61 61 126 61 61 126 61 61
126 61 61 126 61 62 126 61 62 127 62 62 127 62 62 127 62 62 127 62 63
127 62 63 127 62 63 127 62 63 128 62 63 128 62 64 128 62 64 128 62 64
128 62 64 128 63 64 128 63 65 128 63 65 128 63 65 128 63 65 128 63 65
128 63 66 128 63 66 129 63 66 129 63 66 129 63 66 129 63 67 129 63 67
129 63 67 129 63 67 129 63 67 129 63 67 129 63 68 129 63 68 129 63 68
129 63 68 129 63 68 129 64 69 128 64 69 128 64 69 128 64 69 128 64 69
128 64 69 128 64 70 128 64 70 128 64 70 128 64 70 128 64 70 128 64 70
128 64 71 128 64 71 127 64 71 127 64 71 127 63 71 127 63 71 127 63 72
127 63 72 127 63 72 127 63 72 126 63 72 126 63 72 126 63 72 126 63 72
126 63 73 126 63 73 125 63 73 125 63 73 125 63 73 125 63 73 125 63 73
124 63 73 124 63 73 124 63 74 124 63 74 124 63 74 123 62 74 123 62 74
123 62 74 123 62 74 123 62 74 122 62 74 122 62 74 122 62 74 122 62 74
121 62 74 121 62 74 121 62 74 121 61 74 120 61 74 120 61 74 120 61 74
119 61 74 119 61 74 119 61 74 119 61 74 118 61 74 118 60 74 118 60 74
118 60 74 117 60 74 117 60 74 117 60 74 116 60 74 116 60 74 116 59 74
115 59 74 115 59 73 115 59 73 115 59 73 114 59 73 114 59 73 114 58 73
113 58 73 113 58 73 113 58 73 112 58 72 112 58 72 112 58 72 111 57 72
111 57 72 111 57 72 110 57 71 110 57 71 110 57 71 109 56 71 109 56 71
109 56 71 108 56 70 108 56 70 108 56 70 107 55 70 107 55 70 107 55 69
106 55 69 106 55 69 106 55 69 105 54 69 105 54 68 105 54 68 105 54 68
104 54 68 104 54 67 104 53 67 103 53 67 103 53 67 103 53 67 102 53 66
102 53 66 102 52 66 101 52 66 101 52 65 101 52 65 100 52 65 100 52 65
100 51 64 99 51 64 99 51 64 99 51 64 98 51 63 98 50 63 98 50 63 97 50
63 97 50 62 97 50 62 96 50 62 96 49 62 96 49 62 96 49 61 95 49 61 95
49 61 95 49 61 94 48 60 94 48 60 94 48 60 93 48 60 93 48 59 93 48 59
92 47 59 92 47 59 92 47 58 92 47 58 91 47 58 91 47 58 91 47 57 90 46
57 90 46 57 90 46 57 90 46 57 89 46 56 89 46 56 89 45 56 88 45 56 88
45 55 88 45 55 88 45 55 87 45 55 87 45 55 87 44 54 87 44 54 86 44 54
86 44 54 86 44 53 85 44 53 85 44 53 85 43 53 85 43 53 84 43 52 84 43
52 84 43 52 84 43 52 83 43 52 83 42 51 83 42 51 83 42 51 82 42 51 82
42 51
76 37 36 76 37 36 77 37 36 77 37 36 77 37 36 77 37 36 78 37 36 78 37
36 78 38 36 78 38 36 78 38 37 79 38 37 79 38 37 79 38 37 79 38 37 80
38 37 80 38 37 80 38 37 49 59 94 30 51 89 24 47 82 24 47 82 24 47 82
24 47 82 24 47 82 24 47 82 24 47 82 24 47 82 24 47 82 24 47 82 24 47
82 24 47 82 24 47 82 24 47 83 24 48 86 25 49 89 25 50 93 25 50 96 25
51 99 25 52 102 25 52 105 25 53 108 26 53 111 26 54 114 26 55 117 26
55 119 26 56 122 26 57 125 26 57 128 26 58 131 27 58 133 27 59 136 27
59 139 27 60 141 27 61 144 27 61 146 27 62 149 27 62 151 33 67 161 34
67 164 35 68 168 35 69 171 42 73 175 43 74 177 44 75 183 40 74 188 28
67 172 28 67 174 69 123 205 67 123 206 65 123 208 64 123 210 64 124
211 64 125 213 65 126 215 65 126 216 65 127 217 66 127 218 71 130 222
85 137 228 96 142 232 100 143 232 100 141 229 97 136 220 98 47 45 98
47 45 99 47 45 99 47 45 99 48 45 100 48 45 100 48 45 100 48 46 100 48
46 101 48 46 101 48 46 101 49 46 102 49 46 102 49 46 102 49 47 103 49
47 103 49 47 103 50 47 104 50 47 104 50 47 104 50 48 105 50 48 105 50
48 105 50 48 106 51 48 106 51 48 106 51 48 106 51 49 107 51 49 107 51
49 107 52 49 108 52 49 108 52 49 108 52 50 109 52 50 109 52 50 109 52
50 110 53 50 110 53 50 110 53 50 111 53 51 111 53 51 111 53 51 112 54
51 112 54 51 112 54 52 113 54 52 113 54 52 113 54 52 113 54 52 114 55
52 114 55 53 114 55 53 115 55 53 115 55 53 115 55 53 116 56 53 116 56
54 116 56 54 117 56 54 117 56 54 117 56 54 117 56 54 118 57 55 118 57
55 118 57 55 119 57 55 119 57 55 119 57 56 119 57 56 120 58 56 120 58
56 120 58 56 120 58 57 121 58 57 121 58 57 121 58 57 122 59 57 122 59
57 122 59 58 122 59 58 122 59 58 123 59 58 123 59 58 123 60 59 123 60
59 124 60 59 124 60 59 124 60 59 124 60 60 124 60 60 125 60 60 125 60
60 125 61 60 125 61 61 125 61 61 126 61 61 126 61 61 126 61 61 126 61
62 126 61 62 126 61 62 127 62 62 127 62 62 127 62 63 127 62 63 127 62
63 127 62 63 127 62 63 128 62 64 128 62 64 128 62 64 128 62 64 128 62
64 128 63 65 128 63 65 128 63 65 128 63 65 128 63 65 128 63 66 129 63
66 129 63 66 129 63 66 129 63 66 129 63 67 129 63 67 129 63 67 129 63
67 129 63 67 129 63 67 129 63 68 129 63 68 129 64 68 129 64 68 129 64
68 129 64 69 129 64 69 129 64 69 129 64 69 129 64 69 129 64 70 129 64
70 128 64 70 128 64 70 128 64 70 128 64 70 128 64 71 128 64 71 128 64
71 128 64 71 128 64 71 128 64 71 128 64 72 127 64 72 127 64 72 127 64
72 127 64 72 127 64 72 127 64 72 127 64 73 126 63 73 126 63 73 126 63
73 126 63 73 126 63 73 126 63 73 125 63 74 125 63 74 125 63 74 125 63
74 125 63 74 125 63 74 124 63 74 124 63 74 124 63 74 124 63 74 123 63
74 123 63 75 123 62 75 123 62 75 123 62 75 122 62 75 122 62 75 122 62
75 122 62 75 121 62 75 121 62 75 121 62 75 121 62 75 120 61 75 120 61
75 120 61 75 120 61 75 119 61 75 119 61 75 119 61 75 118 61 75 118 61
75 118 60 75 118 60 75 117 60 75 117 60 75 117 60 75 116 60 74 116 60
74 116 60 74 115 59 74 115 59 74 115 59 74 115 59 74 114 59 74 114 59
74 114 59 74 113 58 73 113 58 73 113 58 73 112 58 73 112 58 73 112 58
73 111 58 73 111 57 72 111 57 72 110 57 72 110 57 72 110 57 72 109 57
72 109 56 71 109 56 71 108 56 71 108 56 71 108 56 71 108 56 70 107 55
70 107 55 70 107 55 70 106 55 70 106 55 69 106 55 69 105 54 69 105 54
69 105 54 68 104 54 68 104 54 68 104 54 68 103 53 67 103 53 67 103 53
67 102 53 67 102 53 67 102 52 66 101 52 66 101 52 66 101 52 66 100 52
65 100 52 65 100 51 65 99 51 65 99 51 64 99 51 64 98 51 64 98 51 64 98
50 63 97 50 63 97 50 63 97 50 63 96 50 62 96 50 62 96 49 62 96 49 62
95 49 61 95 49 61 95 49 61 94 49 61 94 48 60 94 48 60 93 48 60 93 48
60 93 48 59 93 48 59 92 47 59 92 47 59 92 47 58 91 47 58 91 47 58 91
47 58 90 46 58 90 46 57 90 46 57 90 46 57 89 46 57 89 46 56 89 46 56
88 45 56 88 45 56 88 45 55 88 45 55 87 45 55 87 45 55 87 44 55 87 44
54 86 44 54 86 44 54 86 44 54 86 44 54 85 44 53 85 43 53 85 43 53 84
43 53 84 43 52 84 43 52 84 43 52 83 43 52 83 42 52 83 42 51 83 42 51
82 42 51
77 37 36 77 37 36 77 37 36 77 37 36 77 37 36 78 37 36 78 37 36 78 38
36 78 38 36 78 38 37 79 38 37 79 38 37 79 38 37 79 38 37 80 38 37 80
38 37 80 38 37 51 60 95 30 51 89 32 51 87 24 47 82 24 47 82 24 47 82
24 47 82 24 47 82 24 47 82 24 47 82 24 47 82 24 47 82 24 47 82 24 47
82 24 47 82 24 47 82 24 48 84 24 48 87 25 49 90 25 50 94 25 50 97 25
51 100 25 52 103 25 52 106 25 53 109 26 54 112 26 54 115 26 55 117 26
56 120 26 56 123 26 57 126 26 57 129 26 58 131 27 59 134 27 59 137 27
60 139 27 60 142 27 61 145 27 61 147 27 62 150 27 62 152 34 67 162 34
67 165 37 69 169 40 71 172 42 73 178 44 75 185 46 77 193 39 75 200 28
67 173 74 125 205 71 124 206 68 123 207 66 123 209 64 123 210 64 123
212 64 124 214 64 125 215 65 126 217 65 126 218 65 127 219 65 127 220
82 135 229 95 141 233 100 143 234 101 142 232 99 139 227 98 47 45 99
47 45 99 47 45 99 48 45 99 48 45 100 48 45 100 48 46 100 48 46 101 48
46 101 48 46 101 49 46 102 49 46 102 49 46 102 49 47 103 49 47 103 49
47 103 49 47 104 50 47 104 50 47 104 50 48 104 50 48 105 50 48 105 50
48 105 51 48 106 51 48 106 51 48 106 51 49 107 51 49 107 51 49 107 51
49 108 52 49 108 52 49 108 52 50 109 52 50 109 52 50 109 52 50 110 53
50 110 53 50 110 53 50 111 53 51 111 53 51 111 53 51 111 54 51 112 54
51 112 54 52 112 54 52 113 54 52 113 54 52 113 54 52 114 55 52 114 55
53 114 55 53 115 55 53 115 55 53 115 55 53 115 56 53 116 56 54 116 56
54 116 56 54 117 56 54 117 56 54 117 56 54 118 57 55 118 57 55 118 57
55 118 57 55 119 57 55 119 57 56 119 57 56 120 58 56 120 58 56 120 58
56 120 58 57 121 58 57 121 58 57 121 58 57 121 59 57 122 59 57 122 59
58 122 59 58 122 59 58 123 59 58 123 59 58 123 59 59 123 60 59 124 60
59 124 60 59 124 60 59 124 60 60 124 60 60 125 60 60 125 60 60 125 61
60 125 61 61 125 61 61 126 61 61 126 61 61 126 61 61 126 61 62 126 61
62 126 61 62 127 62 62 127 62 62 127 62 63 127 62 63 127 62 63 127 62
63 127 62 63 128 62 64 128 62 64 128 62 64 128 62 64 128 63 64 128 63
65 128 63 65 128 63 65 128 63 65 128 63 65 129 63 66 129 63 66 129 63
66 129 63 66 129 63 66 129 63 67 129 63 67 129 63 67 129 63 67 129 63
67 129 63 68 129 64 68 129 64 68 129 64 68 129 64 68 129 64 69 129 64
69 129 64 69 129 64 69 129 64 69 129 64 70 129 64 70 129 64 70 129 64
70 129 64 70 129 64 71 128 64 71 128 64 71 128 64 71 128 64 71 128 64
71 128 64 72 128 64 72 128 64 72 128 64 72 128 64 72 127 64 72 127 64
73 127 64 73 127 64 73 127 64 73 127 64 73 127 64 73 127 64 73 126 64
74 126 64 74 126 64 74 126 63 74 126 63 74 126 63 74 125 63 74 125 63
74 125 63 75 125 63 75 125 63 75 124 63 75 124 63 75 124 63 75 124 63
75 124 63 75 123 63 75 123 63 75 123 63 75 123 62 75 122 62 75 122 62
76 122 62 76 122 62 76 121 62 76 121 62 76 121 62 76 121 62 76 120 62
76 120 62 76 120 61 76 120 61 76 119 61 76 119 61 76 119 61 76 118 61
76 118 61 76 118 61 75 118 60 75 117 60 75 117 60 75 117 60 75 116 60
75 116 60 75 116 60 75 116 60 75 115 59 75 115 59 75 115 59 75 114 59
74 114 59 74 114 59 74 113 59 74 113 58 74 113 58 74 112 58 74 112 58
73 112 58 73 111 58 73 111 57 73 111 57 73 110 57 73 110 57 72 110 57
72 110 57 72 109 57 72 109 56 72 109 56 72 108 56 71 108 56 71 108 56
71 107 56 71 107 55 70 107 55 70 106 55 70 106 55 70 106 55 70 105 54
69 105 54 69 105 54 69 104 54 69 104 54 68 104 54 68 103 53 68 103 53
68 103 53 67 102 53 67 102 53 67 102 53 67 101 52 66 101 52 66 101 52
66 100 52 66 100 52 65 100 52 65 99 51 65 99 51 65 99 51 64 98 51 64
98 51 64 98 50 64 97 50 63 97 50 63 97 50 63 97 50 63 96 50 62 96 49
62 96 49 62 95 49 62 95 49 61 95 49 61 94 49 61 94 48 61 94 48 60 93
48 60 93 48 60 93 48 60 93 48 59 92 47 59 92 47 59 92 47 59 91 47 58
91 47 58 91 47 58 91 47 58 90 46 58 90 46 57 90 46 57 89 46 57 89 46
57 89 46 56 89 45 56 88 45 56 88 45 56 88 45 55 87 45 55 87 45 55 87
45 55 87 44 55 86 44 54 86 44 54 86 44 54 86 44 54 85 44 54 85 44 53
85 43 53 85 43 53 84 43 53 84 43 52 84 43 52 84 43 52 83 43 52 83 42
52 83 42 51
77 37 36 77 37 36 77 37 36 77 37 36 78 37 36 78 37 36 78 38 36 78 38
36 78 38 37 79 38 37 79 38 37 79 38 37 79 38 37 80 38 37 80 38 37 80
39 37 80 39 37 30 51 90 29 50 88 24 47 82 24 47 82 24 47 82 24 47 82
24 47 82 24 47 82 24 47 82 24 47 82 24 47 82 24 47 82 24 47 82 24 47
82 24 47 82 24 47 82 24 48 85 25 49 88 25 49 91 25 50 94 25 51 98 25
51 101 25 52 104 25 53 107 25 53 110 26 54 113 26 54 115 26 55 118 26
56 121 26 56 124 26 57 127 26 57 129 27 58 132 27 59 135 27 59 138 27
60 140 27 60 143 27 61 145 27 61 148 27 62 150 27 63 153 28 63 155 34
67 165 34 68 169 38 71 177 41 74 186 44 76 195 44 78 206 38 76 206 28
67 173 75 125 206 72 124 207 69 123 208 66 123 209 64 122 211 64 123
212 63 123 214 64 124 216 64 125 217 64 126 219 65 126 220 65 126 220
80 134 229 94 140 234 100 143 236 101 143 235 100 141 231 96 135 222
99 47 45 99 47 45 99 48 45 100 48 45 100 48 46 100 48 46 101 48 46 101
48 46 101 49 46 102 49 46 102 49 46 102 49 47 102 49 47 103 49 47 103
49 47 103 50 47 104 50 47 104 50 48 104 50 48 105 50 48 105 50 48 105
51 48 106 51 48 106 51 48 106 51 49 107 51 49 107 51 49 107 51 49 108
52 49 108 52 49 108 52 50 108 52 50 109 52 50 109 52 50 109 53 50 110
53 50 110 53 50 110 53 51 111 53 51 111 53 51 111 53 51 112 54 51 112
54 51 112 54 52 113 54 52 113 54 52 113 54 52 114 55 52 114 55 53 114
55 53 114 55 53 115 55 53 115 55 53 115 55 53 116 56 54 116 56 54 116
56 54 117 56 54 117 56 54 117 56 54 117 57 55 118 57 55 118 57 55 118
57 55 119 57 55 119 57 56 119 57 56 119 58 56 120 58 56 120 58 56 120
58 57 120 58 57 121 58 57 121 58 57 121 59 57 122 59 57 122 59 58 122
59 58 122 59 58 123 59 58 123 59 58 123 59 59 123 60 59 123 60 59 124
60 59 124 60 59 124 60 60 124 60 60 125 60 60 125 60 60 125 61 60 125
61 61 125 61 61 126 61 61 126 61 61 126 61 61 126 61 62 126 61 62 126
61 62 127 62 62 127 62 62 127 62 63 127 62 63 127 62 63 127 62 63 127
62 63 128 62 64 128 62 64 128 62 64 128 62 64 128 63 65 128 63 65 128
63 65 128 63 65 128 63 65 128 63 66 129 63 66 129 63 66 129 63 66 129
63 66 129 63 67 129 63 67 129 63 67 129 63 67 129 63 67 129 64 68 129
64 68 129 64 68 129 64 68 129 64 68 129 64 69 129 64 69 129 64 69 129
64 69 129 64 69 129 64 70 129 64 70 129 64 70 129 64 70 129 64 70 129
64 71 129 64 71 129 64 71 129 64 71 129 64 71 128 64 71 128 64 72 128
64 72 128 64 72 128 64 72 128 64 72 128 64 73 128 64 73 128 64 73 128
64 73 127 64 73 127 64 73 127 64 74 127 64 74 127 64 74 127 64 74 127
64 74 126 64 74 126 64 74 126 64 75 126 64 75 126 64 75 126 64 75 125
63 75 125 63 75 125 63 75 125 63 75 125 63 75 124 63 76 124 63 76 124
63 76 124 63 76 124 63 76 123 63 76 123 63 76 123 63 76 123 63 76 122
63 76 122 62 76 122 62 76 122 62 76 121 62 76 121 62 76 121 62 76 121
62 76 120 62 76 120 62 76 120 62 76 120 61 76 119 61 76 119 61 76 119
61 76 118 61 76 118 61 76 118 61 76 118 61 76 117 61 76 117 60 76 117
60 76 116 60 76 116 60 76 116 60 76 116 60 76 115 60 75 115 59 75 115
59 75 114 59 75 114 59 75 114 59 75 113 59 75 113 59 75 113 58 74 112
58 74 112 58 74 112 58 74 111 58 74 111 58 74 111 57 73 111 57 73 110
57 73 110 57 73 110 57 73 109 57 72 109 56 72 109 56 72 108 56 72 108
56 72 108 56 71 107 56 71 107 55 71 107 55 71 106 55 71 106 55 70 106
55 70 105 55 70 105 54 70 105 54 69 104 54 69 104 54 69 104 54 69 103
54 68 103 53 68 103 53 68 102 53 68 102 53 67 102 53 67 101 52 67 101
52 67 101 52 66 100 52 66 100 52 66 100 52 66 99 51 65 99 51 65 99 51
65 98 51 65 98 51 64 98 51 64 98 50 64 97 50 64 97 50 63 97 50 63 96
50 63 96 50 63 96 49 62 95 49 62 95 49 62 95 49 61 94 49 61 94 49 61
94 48 61 94 48 60 93 48 60 93 48 60 93 48 60 92 48 59 92 47 59 92 47
59 91 47 59 91 47 59 91 47 58 91 47 58 90 46 58 90 46 58 90 46 57 89
46 57 89 46 57 89 46 57 89 45 56 88 45 56 88 45 56 88 45 56 88 45 55
87 45 55 87 45 55 87 44 55 86 44 55 86 44 54 86 44 54 86 44 54 85 44
54 85 44 54 85 43 53 85 43 53 84 43 53 84 43 53 84 43 52 84 43 52 83
43 52 83 42 52
77 37 36 77 37 36 77 37 36 78 37 36 78 37 36 78 38 36 78 38 37 78 38
37 79 38 37 79 38 37 79 38 37 79 38 37 80 38 37 80 38 37 80 39 37 80
39 37 50 60 94 30 51 89 31 51 87 24 47 82 24 47 82 24 47 82 24 47 82
24 47 82 24 47 82 24 47 82 24 47 82 24 47 82 24 47 82 24 47 82 24 47
82 24 47 82 24 47 82 24 48 86 25 49 89 25 49 92 25 50 95 25 51 98 25
51 101 25 52 104 25 53 107 26 53 110 26 54 113 26 55 116 26 55 119 26
56 122 26 56 125 26 57 127 26 58 130 27 58 133 27 59 136 27 59 138 27
60 141 27 61 143 27 61 146 27 62 149 27 62 151 27 63 154 28 63 156 28
64 158 28 64 161 36 71 186 37 79 196 37 74 201 28 66 170 28 67 172 73
123 203 73 123 206 71 123 207 68 122 208 66 122 210 64 122 211 63 122
213 63 123 215 63 123 216 63 124 218 64 125 219 64 125 220 64 126 221
79 133 230 93 140 236 100 143 238 101 143 237 100 141 234 97 138 228
99 47 45 99 48 45 100 48 45 100 48 46 100 48 46 100 48 46 101 48 46
101 48 46 101 49 46 102 49 46 102 49 47 102 49 47 103 49 47 103 49 47
103 50 47 104 50 47 104 50 48 104 50 48 105 50 48 105 50 48 105 50 48
105 51 48 106 51 48 106 51 49 106 51 49 107 51 49 107 51 49 107 52 49
108 52 49 108 52 50 108 52 50 109 52 50 109 52 50 109 52 50 110 53 50
110 53 50 110 53 51 111 53 51 111 53 51 111 53 51 111 54 51 112 54 51
112 54 52 112 54 52 113 54 52 113 54 52 113 54 52 114 55 53 114 55 53
114 55 53 115 55 53 115 55 53 115 55 53 115 56 54 116 56 54 116 56 54
116 56 54 117 56 54 117 56 54 117 56 55 118 57 55 118 57 55 118 57 55
118 57 55 119 57 56 119 57 56 119 57 56 120 58 56 120 58 56 120 58 57
120 58 57 121 58 57 121 58 57 121 58 57 121 59 57 122 59 58 122 59 58
122 59 58 122 59 58 123 59 58 123 59 59 123 60 59 123 60 59 124 60 59
124 60 59 124 60 60 124 60 60 124 60 60 125 60 60 125 61 60 125 61 61
125 61 61 125 61 61 126 61 61 126 61 61 126 61 62 126 61 62 126 61 62
126 62 62 127 62 63 127 62 63 127 62 63 127 62 63 127 62 63 127 62 64
128 62 64 128 62 64 128 62 64 128 62 64 128 63 65 128 63 65 128 63 65
128 63 65 128 63 65 128 63 66 129 63 66 129 63 66 129 63 66 129 63 66
129 63 67 129 63 67 129 63 67 129 63 67 129 64 68 129 64 68 129 64 68
129 64 68 129 64 68 129 64 69 129 64 69 129 64 69 129 64 69 129 64 69
129 64 70 129 64 70 129 64 70 129 64 70 129 64 70 129 64 71 129 64 71
129 64 71 129 64 71 129 64 71 129 64 72 129 64 72 129 64 72 129 64 72
128 64 72 128 64 72 128 64 73 128 64 73 128 64 73 128 64 73 128 64 73
128 64 74 128 64 74 127 64 74 127 64 74 127 64 74 127 64 74 127 64 75
127 64 75 127 64 75 126 64 75 126 64 75 126 64 75 126 64 75 126 64 75
126 64 76 125 64 76 125 64 76 125 64 76 125 63 76 125 63 76 124 63 76
124 63 76 124 63 76 124 63 77 124 63 77 123 63 77 123 63 77 123 63 77
123 63 77 122 63 77 122 63 77 122 62 77 122 62 77 121 62 77 121 62 77
121 62 77 121 62 77 120 62 77 120 62 77 120 62 77 120 62 77 119 61 77
119 61 77 119 61 77 118 61 77 118 61 77 118 61 77 118 61 77 117 61 77
117 61 77 117 60 77 116 60 77 116 60 76 116 60 76 116 60 76 115 60 76
115 60 76 115 59 76 114 59 76 114 59 76 114 59 75 113 59 75 113 59 75
113 59 75 112 58 75 112 58 75 112 58 75 111 58 74 111 58 74 111 58 74
111 57 74 110 57 74 110 57 73 110 57 73 109 57 73 109 57 73 109 56 73
108 56 72 108 56 72 108 56 72 107 56 72 107 56 71 107 55 71 106 55 71
106 55 71 106 55 71 105 55 70 105 55 70 105 54 70 104 54 70 104 54 69
104 54 69 103 54 69 103 53 69 103 53 68 102 53 68 102 53 68 102 53 68
101 53 67 101 52 67 101 52 67 100 52 66 100 52 66 100 52 66 99 52 66
99 51 65 99 51 65 98 51 65 98 51 65 98 51 64 98 50 64 97 50 64 97 50
64 97 50 63 96 50 63 96 50 63 96 49 63 95 49 62 95 49 62 95 49 62 94
49 62 94 49 61 94 48 61 94 48 61 93 48 61 93 48 60 93 48 60 92 48 60
92 47 60 92 47 59 91 47 59 91 47 59 91 47 59 91 47 58 90 46 58 90 46
58 90 46 58 89 46 57 89 46 57 89 46 57 89 46 57 88 45 56 88 45 56 88
45 56 88 45 56 87 45 55 87 45 55 87 45 55 86 44 55 86 44 55 86 44 54
86 44 54 85 44 54 85 44 54 85 43 53 85 43 53 84 43 53 84 43 53 84 43
53 84 43 52 83 43 52
77 37 36 77 37 36 78 37 36 78 37 36 78 38 36 78 38 37 79 38 37 79 38
37 79 38 37 79 38 37 79 38 37 80 38 37 80 38 37 80 39 37 80 39 37 80
39 37 30 51 90 29 50 88 24 47 82 24 47 82 24 47 82 24 47 82 24 47 82
24 47 82 24 47 82 24 47 82 24 47 82 24 47 82 24 47 82 24 47 82 24 47
82 24 47 82 24 48 83 24 48 86 25 49 90 25 50 93 25 50 96 25 51 99 25
52 102 25 52 105 25 53 108 26 54 111 26 54 114 26 55 117 26 55 120 26
56 122 26 57 125 26 57 128 26 58 131 27 58 133 27 59 136 27 60 139 27
60 141 27 61 144 27 61 147 27 62 149 27 62 152 27 63 154 28 63 157 28
64 159 28 64 161 28 65 164 28 65 166 28 66 168 28 66 170 68 118 200 69
120 203 69 121 205 68 121 207 66 121 208 64 121 210 63 121 211 62 121
213 62 122 215 63 123 216 63 123 218 63 124 219 63 125 221 64 125 222
79 133 231 93 140 237 101 143 239 102 143 239 101 141 236 98 139 232
99 48 45 99 48 45 100 48 46 100 48 46 100 48 46 101 48 46 101 48 46
101 49 46 102 49 46 102 49 47 102 49 47 103 49 47 103 49 47 103 49 47
103 50 47 104 50 47 104 50 48 104 50 48 105 50 48 105 50 48 105 51 48
106 51 48 106 51 49 106 51 49 107 51 49 107 51 49 107 51 49 108 52 49
108 52 50 108 52 50 109 52 50 109 52 50 109 52 50 109 53 50 110 53 50
110 53 51 110 53 51 111 53 51 111 53 51 111 53 51 112 54 51 112 54 52
112 54 52 113 54 52 113 54 52 113 54 52 113 55 53 114 55 53 114 55 53
114 55 53 115 55 53 115 55 53 115 55 54 116 56 54 116 56 54 116 56 54
117 56 54 117 56 54 117 56 55 117 57 55 118 57 55 118 57 55 118 57 55
119 57 56 119 57 56 119 57 56 119 58 56 120 58 56 120 58 57 120 58 57
120 58 57 121 58 57 121 58 57 121 59 57 121 59 58 122 59 58 122 59 58
122 59 58 122 59 58 123 59 59 123 59 59 123 60 59 123 60 59 124 60 59
124 60 60 124 60 60 124 60 60 124 60 60 125 60 60 125 61 61 125 61 61
125 61 61 125 61 61 126 61 61 126 61 62 126 61 62 126 61 62 126 61 62
127 62 63 127 62 63 127 62 63 127 62 63 127 62 63 127 62 64 127 62 64
128 62 64 128 62 64 128 62 64 128 63 65 128 63 65 128 63 65 128 63 65
128 63 65 128 63 66 129 63 66 129 63 66 129 63 66 129 63 67 129 63 67
129 63 67 129 63 67 129 63 67 129 64 68 129 64 68 129 64 68 129 64 68
129 64 68 129 64 69 129 64 69 129 64 69 129 64 69 129 64 70 129 64 70
129 64 70 129 64 70 129 64 70 129 64 71 129 64 71 129 64 71 129 64 71
129 64 71 129 64 72 129 64 72 129 64 72 129 64 72 129 64 72 129 64 73
129 64 73 128 64 73 128 64 73 128 64 73 128 64 73 128 64 74 128 64 74
128 64 74 128 64 74 128 64 74 127 64 75 127 64 75 127 64 75 127 64 75
127 64 75 127 64 75 127 64 76 126 64 76 126 64 76 126 64 76 126 64 76
126 64 76 126 64 76 125 64 76 125 64 77 125 64 77 125 64 77 125 64 77
124 63 77 124 63 77 124 63 77 124 63 77 124 63 77 123 63 77 123 63 78
123 63 78 123 63 78 122 63 78 122 63 78 122 63 78 122 63 78 121 62 78
121 62 78 121 62 78 121 62 78 120 62 78 120 62 78 120 62 78 120 62 78
119 62 78 119 62 78 119 61 78 118 61 78 118 61 78 118 61 78 118 61 78
117 61 77 117 61 77 117 61 77 116 60 77 116 60 77 116 60 77 116 60 77
115 60 77 115 60 77 115 60 77 114 59 76 114 59 76 114 59 76 113 59 76
113 59 76 113 59 76 112 58 75 112 58 75 112 58 75 112 58 75 111 58 75
111 58 75 111 58 74 110 57 74 110 57 74 110 57 74 109 57 74 109 57 73
109 57 73 108 56 73 108 56 73 108 56 72 107 56 72 107 56 72 107 55 72
106 55 72 106 55 71 106 55 71 105 55 71 105 55 71 105 54 70 104 54 70
104 54 70 104 54 70 103 54 69 103 54 69 103 53 69 102 53 68 102 53 68
102 53 68 101 53 68 101 52 67 101 52 67 100 52 67 100 52 67 100 52 66
99 52 66 99 51 66 99 51 66 99 51 65 98 51 65 98 51 65 98 51 64 97 50
64 97 50 64 97 50 64 96 50 63 96 50 63 96 50 63 95 49 63 95 49 62 95
49 62 94 49 62 94 49 62 94 48 61 94 48 61 93 48 61 93 48 61 93 48 60
92 48 60 92 48 60 92 47 60 92 47 59 91 47 59 91 47 59 91 47 59 90 47
58 90 46 58 90 46 58 90 46 58 89 46 57 89 46 57 89 46 57 88 45 57 88
45 56 88 45 56 88 45 56 87 45 56 87 45 55 87 45 55 87 44 55 86 44 55
86 44 55 86 44 54 85 44 54 85 44 54 85 44 54 85 43 53 84 43 53 84 43
53 84 43 53 84 43 53
74 33 21 75 33 21 75 33 21 75 33 21 75 34 21 75 34 21 79 38 37 79 38
37 79 38 37 79 38 37 80 38 37 80 38 37 80 39 37 80 39 37 80 39 37 49
59 94 30 51 89 33 52 88 24 47 82 24 47 82 24 47 82 24 47 82 24 47 82
24 47 82 24 47 82 24 47 82 24 47 82 24 47 82 24 47 82 24 47 82 24 47
82 24 47 82 24 48 84 24 48 87 25 49 90 25 50 93 25 50 97 25 51 100 25
52 103 25 52 106 25 53 109 26 54 112 26 54 114 26 55 117 26 55 120 26
56 123 26 57 126 26 57 128 26 58 131 27 58 134 27 59 137 27 60 139 27
60 142 27 61 144 27 61 147 27 62 150 27 62 152 28 63 155 28 63 157 28
64 159 28 65 162 28 65 164 28 66 167 28 66 169 28 66 171 64 115 199 65
117 201 65 118 204 65 119 206 64 119 208 63 119 210 62 120 211 62 120
213 102 135 227 80 129 224 62 122 218 63 123 220 63 124 221 63 124 222
80 133 232 94 140 238 101 143 240 102 143 240 101 141 238 99 139 234
95 134 226 100 48 46 100 48 46 100 48 46 101 48 46 101 48 46 101 49 46
101 49 46 102 49 47 102 49 47 102 49 47 103 49 47 103 49 47 103 50 47
104 50 47 104 50 48 104 50 48 105 50 48 105 50 48 105 50 48 106 51 48
106 51 49 106 51 49 106 51 49 107 51 49 107 51 49 107 52 49 108 52 49
108 52 50 108 52 50 109 52 50 109 52 50 109 52 50 110 53 50 110 53 51
110 53 51 111 53 51 111 53 51 111 53 51 111 54 51 112 54 52 112 54 52
112 54 52 113 54 52 113 54 52 113 54 52 114 55 53 114 55 53 114 55 53
115 55 53 115 55 53 115 55 54 115 56 54 116 56 54 116 56 54 116 56 54
117 56 54 117 56 55 117 56 55 117 57 55 118 57 55 118 57 55 118 57 56
119 57 56 119 57 56 119 57 56 119 58 56 120 58 57 120 58 57 120 58 57
121 58 57 121 58 57 121 58 57 121 59 58 122 59 58 122 59 58 122 59 58
122 59 58 123 59 59 123 59 59 123 60 59 123 60 59 123 60 59 124 60 60
124 60 60 124 60 60 124 60 60 125 60 60 125 61 61 125 61 61 125 61 61
125 61 61 126 61 61 126 61 62 126 61 62 126 61 62 126 61 62 126 62 63
127 62 63 127 62 63 127 62 63 127 62 63 127 62 64 127 62 64 127 62 64
128 62 64 128 62 64 128 63 65 128 63 65 128 63 65 128 63 65 128 63 66
128 63 66 129 63 66 129 63 66 129 63 66 129 63 67 129 63 67 129 63 67
129 63 67 129 63 67 129 64 68 129 64 68 129 64 68 129 64 68 129 64 69
129 64 69 129 64 69 129 64 69 129 64 69 129 64 70 129 64 70 129 64 70
129 64 70 129 64 70 129 64 71 129 64 71 129 64 71 129 64 71 129 64 72
129 64 72 129 64 72 129 64 72 129 64 72 129 64 73 129 64 73 129 64 73
129 64 73 129 64 73 128 64 74 128 64 74 128 64 74 128 64 74 128 64 74
128 64 75 128 64 75 128 64 75 128 64 75 127 64 75 127 64 75 127 64 76
127 64 76 127 64 76 127 64 76 127 64 76 126 64 76 126 64 76 126 64 77
126 64 77 126 64 77 126 64 77 125 64 77 125 64 77 125 64 77 125 64 78
125 64 78 124 64 78 124 64 78 124 63 78 124 63 78 124 63 78 123 63 78
123 63 78 123 63 78 123 63 78 122 63 78 122 63 78 122 63 78 122 63 79
121 63 79 121 62 79 121 62 79 121 62 79 120 62 79 120 62 79 120 62 79
120 62 79 119 62 79 119 62 78 119 62 78 118 61 78 118 61 78 118 61 78
118 61 78 117 61 78 117 61 78 117 61 78 116 61 78 116 60 78 116 60 78
116 60 78 115 60 77 115 60 77 115 60 77 114 60 77 114 59 77 114 59 77
113 59 77 113 59 76 113 59 76 112 59 76 112 58 76 112 58 76 112 58 76
111 58 75 111 58 75 111 58 75 110 57 75 110 57 75 110 57 74 109 57 74
109 57 74 109 57 74 108 56 73 108 56 73 108 56 73 107 56 73 107 56 72
107 56 72 106 55 72 106 55 72 106 55 71 105 55 71 105 55 71 105 55 71
104 54 70 104 54 70 104 54 70 103 54 70 103 54 69 103 53 69 102 53 69
102 53 69 102 53 68 101 53 68 101 53 68 101 52 68 100 52 67 100 52 67
100 52 67 99 52 66 99 51 66 99 51 66 99 51 66 98 51 65 98 51 65 98 51
65 97 50 65 97 50 64 97 50 64 96 50 64 96 50 63 96 50 63 95 49 63 95
49 63 95 49 62 95 49 62 94 49 62 94 49 62 94 48 61 93 48 61 93 48 61
93 48 61 92 48 60 92 48 60 92 47 60 92 47 60 91 47 59 91 47 59 91 47
59 90 47 59 90 46 58 90 46 58 90 46 58 89 46 58 89 46 57 89 46 57 88
46 57 88 45 57 88 45 56 88 45 56 87 45 56 87 45 56 87 45 55 87 44 55
86 44 55 86 44 55 86 44 55 86 44 54 85 44 54 85 44 54 85 43 54 85 43
53 84 43 53 84 43 53
75 33 21 75 33 21 75 33 21 75 34 21 75 34 21 76 34 21 76 34 21 76 34
21 76 34 21 76 34 21 77 34 21 77 34 21 77 34 22 80 39 37 81 39 38 47
58 93 30 51 89 24 47 82 24 47 82 24 47 82 24 47 82 24 47 82 24 47 82
24 47 82 24 47 82 24 47 82 24 47 82 24 47 82 24 47 82 24 47 82 24 47
82 24 47 82 24 48 85 25 48 88 25 49 91 25 50 94 25 51 97 25 51 100 25
52 103 25 52 106 25 53 109 26 54 112 26 54 115 26 55 118 26 56 121 26
56 123 26 57 126 26 57 129 26 58 132 27 59 134 27 59 137 27 60 140 27
60 142 27 61 145 27 61 147 27 62 150 27 62 153 28 63 155 28 64 157 28
64 160 28 65 162 28 65 165 28 66 167 28 66 169 59 111 195 60 113 198
61 114 201 62 116 203 62 117 206 62 117 208 61 118 210 61 119 211 61
119 213 108 138 240 90 131 228 62 122 218 62 122 220 62 123 221 69 127
226 83 133 233 96 140 239 102 143 241 102 142 241 101 141 239 99 139
236 96 135 229 100 48 46 100 48 46 100 48 46 101 48 46 101 48 46 101
49 46 102 49 47 102 49 47 102 49 47 103 49 47 103 49 47 103 50 47 103
50 47 104 50 48 104 50 48 104 50 48 105 50 48 105 50 48 105 51 48 106
51 49 106 51 49 106 51 49 107 51 49 107 51 49 107 51 49 108 52 49 108
52 50 108 52 50 108 52 50 109 52 50 109 52 50 109 53 50 110 53 51 110
53 51 110 53 51 111 53 51 111 53 51 111 53 51 112 54 52 112 54 52 112
54 52 113 54 52 113 54 52 113 54 52 113 55 53 114 55 53 114 55 53 114
55 53 115 55 53 115 55 54 115 55 54 116 56 54 116 56 54 116 56 54 116
56 54 117 56 55 117 56 55 117 57 55 118 57 55 118 57 55 118 57 56 118
57 56 119 57 56 119 57 56 119 58 56 120 58 56 120 58 57 120 58 57 120
58 57 121 58 57 121 58 57 121 59 58 121 59 58 122 59 58 122 59 58 122
59 58 122 59 59 123 59 59 123 59 59 123 60 59 123 60 59 124 60 60 124
60 60 124 60 60 124 60 60 124 60 60 125 60 61 125 61 61 125 61 61 125
61 61 125 61 61 126 61 62 126 61 62 126 61 62 126 61 62 126 61 63 126
62 63 127 62 63 127 62 63 127 62 63 127 62 64 127 62 64 127 62 64 128
62 64 128 62 64 128 62 65 128 63 65 128 63 65 128 63 65 128 63 66 128
63 66 128 63 66 129 63 66 129 63 66 129 63 67 129 63 67 129 63 67 129
63 67 129 63 68 129 64 68 129 64 68 129 64 68 129 64 68 129 64 69 129
64 69 129 64 69 129 64 69 129 64 70 129 64 70 129 64 70 129 64 70 129
64 70 129 64 71 129 64 71 129 64 71 129 64 71 129 64 71 129 64 72 129
64 72 129 64 72 129 64 72 129 64 73 129 64 73 129 65 73 129 65 73 129
65 73 129 65 74 129 65 74 129 65 74 128 65 74 128 65 74 128 65 75 128
65 75 128 65 75 128 65 75 128 65 75 128 64 76 128 64 76 127 64 76 127
64 76 127 64 76 127 64 76 127 64 77 127 64 77 127 64 77 126 64 77 126
64 77 126 64 77 126 64 77 126 64 78 126 64 78 125 64 78 125 64 78 125
64 78 125 64 78 125 64 78 124 64 78 124 64 79 124 64 79 124 64 79 124
63 79 123 63 79 123 63 79 123 63 79 123 63 79 122 63 79 122 63 79 122
63 79 122 63 79 121 63 79 121 63 79 121 63 79 121 62 79 120 62 79 120
62 79 120 62 79 120 62 79 119 62 79 119 62 79 119 62 79 118 62 79 118
61 79 118 61 79 118 61 79 117 61 79 117 61 79 117 61 79 116 61 79 116
60 78 116 60 78 116 60 78 115 60 78 115 60 78 115 60 78 114 60 78 114
59 78 114 59 77 113 59 77 113 59 77 113 59 77 112 59 77 112 59 77 112
58 76 111 58 76 111 58 76 111 58 76 111 58 76 110 58 75 110 57 75 110
57 75 109 57 75 109 57 74 109 57 74 108 57 74 108 56 74 108 56 73 107
56 73 107 56 73 107 56 73 106 55 72 106 55 72 106 55 72 105 55 72 105
55 71 105 55 71 104 54 71 104 54 71 104 54 70 103 54 70 103 54 70 103
54 70 102 53 69 102 53 69 102 53 69 101 53 68 101 53 68 101 52 68 100
52 68 100 52 67 100 52 67 99 52 67 99 52 66 99 51 66 99 51 66 98 51 66
98 51 65 98 51 65 97 50 65 97 50 65 97 50 64 96 50 64 96 50 64 96 50
63 95 49 63 95 49 63 95 49 63 95 49 62 94 49 62 94 49 62 94 48 62 93
48 61 93 48 61 93 48 61 92 48 61 92 48 60 92 47 60 92 47 60 91 47 60
91 47 59 91 47 59 90 47 59 90 47 59 90 46 58 90 46 58 89 46 58 89 46
58 89 46 57 88 46 57 88 45 57 88 45 57 88 45 56 87 45 56 87 45 56 87
45 56 87 45 55 86 44 55 86 44 55 86 44 55 86 44 55 85 44 54 85 44 54
85 44 54 85 43 54 84 43 53
75 33 21 75 33 21 75 34 21 75 34 21 76 34 21 76 34 21 76 34 21 76 34
21 76 34 21 77 34 21 77 34 21 77 34 22 77 34 22 77 35 22 50 60 94 30
51 90 29 50 88 24 47 82 24 47 82 24 47 82 24 47 82 24 47 82 24 47 82
24 47 82 24 47 82 24 47 82 24 47 82 24 47 82 24 47 82 24 47 82 24 47
82 24 47 82 24 48 85 25 49 88 25 49 91 25 50 95 25 51 98 25 51 101 25
52 104 25 53 107 25 53 110 26 54 112 26 54 115 26 55 118 26 56 121 26
56 124 26 57 127 26 57 129 27 58 132 27 59 135 27 59 137 27 60 140 27
60 143 27 61 145 27 61 148 27 62 150 27 63 153 28 63 155 28 64 158 28
64 160 28 65 163 28 65 165 28 66 167 56 108 191 57 110 194 58 111 197
59 112 200 59 114 203 60 115 206 60 116 208 60 117 210 60 117 212 60
118 213 60 119 215 84 130 240 69 124 224 61 121 220 61 122 221 71 127
228 86 134 235 98 140 241 102 142 242 102 142 242 101 141 240 99 139
237 96 136 232 100 48 46 100 48 46 101 48 46 101 48 46 101 49 46 102
49 47 102 49 47 102 49 47 102 49 47 103 49 47 103 49 47 103 50 47 104
50 48 104 50 48 104 50 48 105 50 48 105 50 48 105 51 48 106 51 49 106
51 49 106 51 49 106 51 49 107 51 49 107 51 49 107 52 49 108 52 50 108
52 50 108 52 50 109 52 50 109 52 50 109 52 50 110 53 51 110 53 51 110
53 51 110 53 51 111 53 51 111 53 51 111 54 52 112 54 52 112 54 52 112
54 52 113 54 52 113 54 52 113 54 53 114 55 53 114 55 53 114 55 53 114
55 53 115 55 53 115 55 54 115 56 54 116 56 54 116 56 54 116 56 54 116
56 55 117 56 55 117 56 55 117 57 55 118 57 55 118 57 56 118 57 56 118
57 56 119 57 56 119 57 56 119 58 56 120 58 57 120 58 57 120 58 57 120
58 57 121 58 57 121 58 58 121 59 58 121 59 58 122 59 58 122 59 58 122
59 59 122 59 59 123 59 59 123 60 59 123 60 59 123 60 60 124 60 60 124
60 60 124 60 60 124 60 60 124 60 61 125 61 61 125 61 61 125 61 61 125
61 61 125 61 62 126 61 62 126 61 62 126 61 62 126 61 63 126 62 63 126
62 63 127 62 63 127 62 63 127 62 64 127 62 64 127 62 64 127 62 64 128
62 64 128 62 65 128 63 65 128 63 65 128 63 65 128 63 66 128 63 66 128
63 66 128 63 66 129 63 66 129 63 67 129 63 67 129 63 67 129 63 67 129
63 68 129 64 68 129 64 68 129 64 68 129 64 68 129 64 69 129 64 69 129
64 69 129 64 69 129 64 70 129 64 70 129 64 70 129 64 70 129 64 71 129
64 71 129 64 71 129 64 71 129 64 71 129 64 72 129 64 72 129 64 72 129
64 72 129 65 72 129 65 73 129 65 73 129 65 73 129 65 73 129 65 74 129
65 74 129 65 74 129 65 74 129 65 74 129 65 75 128 65 75 128 65 75 128
65 75 128 65 75 128 65 76 128 65 76 128 65 76 128 65 76 128 65 76 127
65 77 127 65 77 127 65 77 127 65 77 127 64 77 127 64 77 127 64 78 126
64 78 126 64 78 126 64 78 126 64 78 126 64 78 126 64 78 125 64 79 125
64 79 125 64 79 125 64 79 125 64 79 124 64 79 124 64 79 124 64 79 124
64 79 123 64 80 123 64 80 123 63 80 123 63 80 123 63 80 122 63 80 122
63 80 122 63 80 122 63 80 121 63 80 121 63 80 121 63 80 121 63 80 120
62 80 120 62 80 120 62 80 120 62 80 119 62 80 119 62 80 119 62 80 118
62 80 118 62 80 118 61 80 118 61 80 117 61 80 117 61 79 117 61 79 116
61 79 116 61 79 116 60 79 116 60 79 115 60 79 115 60 79 115 60 78 114
60 78 114 60 78 114 59 78 113 59 78 113 59 78 113 59 77 112 59 77 112
59 77 112 58 77 111 58 77 111 58 76 111 58 76 111 58 76 110 58 76 110
57 76 110 57 75 109 57 75 109 57 75 109 57 75 108 57 74 108 56 74 108
56 74 107 56 74 107 56 73 107 56 73 106 56 73 106 55 73 106 55 72 105
55 72 105 55 72 105 55 72 104 54 71 104 54 71 104 54 71 103 54 70 103
54 70 103 54 70 102 53 70 102 53 69 102 53 69 101 53 69 101 53 69 101
53 68 100 52 68 100 52 68 100 52 67 99 52 67 99 52 67 99 51 67 99 51
66 98 51 66 98 51 66 98 51 65 97 51 65 97 50 65 97 50 65 96 50 64 96
50 64 96 50 64 95 50 63 95 49 63 95 49 63 95 49 63 94 49 62 94 49 62
94 49 62 93 48 62 93 48 61 93 48 61 92 48 61 92 48 61 92 48 60 92 47
60 91 47 60 91 47 59 91 47 59 90 47 59 90 47 59 90 46 58 90 46 58 89
46 58 89 46 58 89 46 58 89 46 57 88 45 57 88 45 57 88 45 57 87 45 56
87 45 56 87 45 56 87 45 56 86 44 55 86 44 55 86 44 55 86 44 55 85 44
54 85 44 54 85 44 54 85 43 54
75 33 21 75 34 21 75 34 21 76 34 21 76 34 21 76 34 21 76 34 21 76 34
21 77 34 21 77 34 21 77 34 22 77 34 22 77 35 22 78 35 22 48 59 94 30
51 89 34 52 88 24 47 82 24 47 82 24 47 82 24 47 82 24 47 82 24 47 82
24 47 82 24 47 82 24 47 82 24 47 82 24 47 82 24 47 82 24 47 82 24 47
82 24 47 82 24 48 86 25 49 89 25 49 92 25 50 95 25 51 98 25 51 101 25
52 104 25 53 107 26 53 110 26 54 113 26 55 116 26 55 119 26 56 121 26
56 124 26 57 127 26 58 130 27 58 132 27 59 135 27 59 138 27 60 140 27
60 143 27 61 146 27 62 148 27 62 151 27 63 153 28 63 156 28 64 158 28
64 161 28 65 163 28 65 165 28 66 168 54 107 191 55 108 194 56 110 197
57 111 200 58 112 203 58 114 206 59 115 209 59 116 211 59 116 212 59
117 213 60 118 215 60 119 216 60 119 218 60 120 220 61 121 221 75 128
230 90 136 238 100 141 242 103 142 243 102 141 242 101 140 241 99 138
238 96 136 233 92 129 222 100 48 46 101 48 46 101 49 46 101 49 47 102
49 47 102 49 47 102 49 47 103 49 47 103 49 47 103 50 47 103 50 48 104
50 48 104 50 48 104 50 48 105 50 48 105 50 48 105 51 48 106 51 49 106
51 49 106 51 49 107 51 49 107 51 49 107 51 49 107 52 50 108 52 50 108
52 50 108 52 50 109 52 50 109 52 50 109 53 51 110 53 51 110 53 51 110
53 51 111 53 51 111 53 51 111 53 52 111 54 52 112 54 52 112 54 52 112
54 52 113 54 52 113 54 53 113 55 53 114 55 53 114 55 53 114 55 53 115
55 53 115 55 54 115 55 54 115 56 54 116 56 54 116 56 54 116 56 55 117
56 55 117 56 55 117 56 55 117 57 55 118 57 55 118 57 56 118 57 56 119
57 56 119 57 56 119 57 56 119 58 57 120 58 57 120 58 57 120 58 57 120
58 57 121 58 58 121 58 58 121 59 58 121 59 58 122 59 58 122 59 59 122
59 59 122 59 59 123 59 59 123 60 59 123 60 60 123 60 60 124 60 60 124
60 60 124 60 60 124 60 61 124 60 61 125 61 61 125 61 61 125 61 61 125
61 62 125 61 62 126 61 62 126 61 62 126 61 63 126 61 63 126 62 63 126
62 63 127 62 63 127 62 64 127 62 64 127 62 64 127 62 64 127 62 64 128
62 65 128 62 65 128 63 65 128 63 65 128 63 66 128 63 66 128 63 66 128
63 66 128 63 66 129 63 67 129 63 67 129 63 67 129 63 67 129 63 68 129
64 68 129 64 68 129 64 68 129 64 69 129 64 69 129 64 69 129 64 69 129
64 69 129 64 70 129 64 70 129 64 70 129 64 70 129 64 71 129 64 71 129
64 71 129 64 71 129 64 72 129 64 72 129 64 72 129 65 72 129 65 72 129
65 73 129 65 73 129 65 73 129 65 73 129 65 74 129 65 74 129 65 74 129
65 74 129 65 74 129 65 75 129 65 75 129 65 75 129 65 75 128 65 75 128
65 76 128 65 76 128 65 76 128 65 76 128 65 76 128 65 77 128 65 77 128
65 77 127 65 77 127 65 77 127 65 78 127 65 78 127 65 78 127 65 78 126
65 78 126 64 78 126 64 79 126 64 79 126 64 79 126 64 79 125 64 79 125
64 79 125 64 79 125 64 80 125 64 80 124 64 80 124 64 80 124 64 80 124
64 80 124 64 80 123 64 80 123 64 80 123 64 80 123 63 80 123 63 81 122
63 81 122 63 81 122 63 81 122 63 81 121 63 81 121 63 81 121 63 81 121
63 81 120 63 81 120 62 81 120 62 81 120 62 81 119 62 81 119 62 81 119
62 81 118 62 81 118 62 80 118 62 80 118 61 80 117 61 80 117 61 80 117
61 80 116 61 80 116 61 80 116 61 80 115 60 80 115 60 79 115 60 79 115
60 79 114 60 79 114 60 79 114 60 79 113 59 78 113 59 78 113 59 78 112
59 78 112 59 78 112 59 77 111 58 77 111 58 77 111 58 77 110 58 77 110
58 76 110 58 76 110 57 76 109 57 76 109 57 75 109 57 75 108 57 75 108
57 75 108 56 74 107 56 74 107 56 74 107 56 74 106 56 73 106 55 73 106
55 73 105 55 73 105 55 72 105 55 72 104 55 72 104 54 71 104 54 71 103
54 71 103 54 71 103 54 70 102 53 70 102 53 70 102 53 69 101 53 69 101
53 69 101 53 69 100 52 68 100 52 68 100 52 68 99 52 67 99 52 67 99 51
67 99 51 67 98 51 66 98 51 66 98 51 66 97 51 65 97 50 65 97 50 65 96
50 65 96 50 64 96 50 64 95 50 64 95 49 63 95 49 63 95 49 63 94 49 63
94 49 62 94 49 62 93 48 62 93 48 62 93 48 61 92 48 61 92 48 61 92 48
61 92 47 60 91 47 60 91 47 60 91 47 59 90 47 59 90 47 59 90 46 59 90
46 58 89 46 58 89 46 58 89 46 58 89 46 57 88 46 57 88 45 57 88 45 57
87 45 57 87 45 56 87 45 56 87 45 56 86 44 56 86 44 55 86 44 55 86 44
55 85 44 55 85 44 54 85 44 54
75 34 21 75 34 21 76 34 21 76 34 21 76 34 21 76 34 21 76 34 21 77 34
21 77 34 21 77 34 22 77 34 22 77 35 22 78 35 22 51 59 90 30 51 90 30
51 89 32 51 87 24 47 82 24 47 82 24 47 82 24 47 82 24 47 82 24 47 82
24 47 82 24 47 82 24 47 82 24 47 82 24 47 82 24 47 82 24 47 82 24 47
82 24 47 83 24 48 86 25 49 89 25 49 92 25 50 95 25 51 98 25 51 101 25
52 104 25 53 107 26 53 110 26 54 113 26 55 116 26 55 119 26 56 122 26
56 124 26 57 127 26 58 130 27 58 133 27 59 135 27 59 138 27 60 141 27
60 143 27 61 146 27 62 148 27 62 151 27 63 153 28 63 156 28 64 158 28
64 161 28 65 163 28 65 166 53 104 188 53 106 191 54 107 194 55 108 197
56 110 201 56 111 204 57 113 208 58 114 210 58 115 212 58 115 213 59
116 214 59 117 215 59 118 216 59 118 218 60 119 219 67 123 225 80 130
232 95 137 240 102 141 243 103 141 243 102 140 242 100 139 241 98 138
238 96 135 234 93 130 225 101 48 46 101 48 46 101 49 47 102 49 47 102
49 47 102 49 47 102 49 47 103 49 47 103 49 47 103 50 48 104 50 48 104
50 48 104 50 48 105 50 48 105 50 48 105 51 48 105 51 49 106 51 49 106
51 49 106 51 49 107 51 49 107 51 49 107 52 50 108 52 50 108 52 50 108
52 50 109 52 50 109 52 50 109 52 51 109 53 51 110 53 51 110 53 51 110
53 51 111 53 51 111 53 52 111 54 52 112 54 52 112 54 52 112 54 52 112
54 52 113 54 53 113 54 53 113 55 53 114 55 53 114 55 53 114 55 53 115
55 54 115 55 54 115 55 54 115 56 54 116 56 54 116 56 54 116 56 55 117
56 55 117 56 55 117 57 55 117 57 55 118 57 56 118 57 56 118 57 56 119
57 56 119 57 56 119 58 57 119 58 57 120 58 57 120 58 57 120 58 57 120
58 58 121 58 58 121 59 58 121 59 58 121 59 58 122 59 59 122 59 59 122
59 59 122 59 59 123 59 59 123 60 60 123 60 60 123 60 60 124 60 60 124
60 60 124 60 61 124 60 61 124 60 61 125 61 61 125 61 61 125 61 62 125
61 62 125 61 62 126 61 62 126 61 62 126 61 63 126 61 63 126 62 63 126
62 63 127 62 64 127 62 64 127 62 64 127 62 64 127 62 64 127 62 65 127
62 65 128 63 65 128 63 65 128 63 66 128 63 66 128 63 66 128 63 66 128
63 66 128 63 67 129 63 67 129 63 67 129 63 67 129 63 68 129 64 68 129
64 68 129 64 68 129 64 69 129 64 69 129 64 69 129 64 69 129 64 69 129
64 70 129 64 70 129 64 70 129 64 70 129 64 71 129 64 71 129 64 71 129
64 71 129 64 72 129 64 72 129 65 72 129 65 72 129 65 73 129 65 73 129
65 73 129 65 73 129 65 73 129 65 74 129 65 74 129 65 74 129 65 74 129
65 75 129 65 75 129 65 75 129 65 75 129 65 75 129 65 76 128 65 76 128
65 76 128 65 76 128 65 77 128 65 77 128 65 77 128 65 77 128 65 77 128
65 78 127 65 78 127 65 78 127 65 78 127 65 78 127 65 78 127 65 79 127
65 79 126 65 79 126 65 79 126 65 79 126 65 79 126 64 80 126 64 80 125
64 80 125 64 80 125 64 80 125 64 80 125 64 80 124 64 81 124 64 81 124
64 81 124 64 81 124 64 81 123 64 81 123 64 81 123 64 81 123 64 81 122
64 81 122 63 81 122 63 81 122 63 81 122 63 81 121 63 81 121 63 81 121
63 81 121 63 81 120 63 81 120 63 81 120 62 81 119 62 81 119 62 81 119
62 81 119 62 81 118 62 81 118 62 81 118 62 81 118 61 81 117 61 81 117
61 81 117 61 81 116 61 81 116 61 80 116 61 80 115 61 80 115 60 80 115
60 80 115 60 80 114 60 80 114 60 79 114 60 79 113 59 79 113 59 79 113
59 79 112 59 78 112 59 78 112 59 78 111 59 78 111 58 78 111 58 77 110
58 77 110 58 77 110 58 77 109 57 76 109 57 76 109 57 76 108 57 76 108
57 75 108 57 75 108 56 75 107 56 75 107 56 74 107 56 74 106 56 74 106
56 74 106 55 73 105 55 73 105 55 73 105 55 72 104 55 72 104 54 72 104
54 72 103 54 71 103 54 71 103 54 71 102 54 70 102 53 70 102 53 70 101
53 70 101 53 69 101 53 69 100 52 69 100 52 68 100 52 68 99 52 68 99 52
67 99 52 67 99 51 67 98 51 67 98 51 66 98 51 66 97 51 66 97 50 65 97
50 65 96 50 65 96 50 65 96 50 64 95 50 64 95 49 64 95 49 63 95 49 63
94 49 63 94 49 63 94 49 62 93 48 62 93 48 62 93 48 62 92 48 61 92 48
61 92 48 61 92 47 60 91 47 60 91 47 60 91 47 60 90 47 59 90 47 59 90
46 59 90 46 59 89 46 58 89 46 58 89 46 58 89 46 58 88 46 57 88 45 57
88 45 57 87 45 57 87 45 56 87 45 56 87 45 56 86 45 56 86 44 56 86 44
55 86 44 55 85 44 55 85 44 55
75 34 21 76 34 21 76 34 21 76 34 21 76 34 21 76 34 21 77 34 21 77 34
21 77 34 22 77 34 22 77 35 22 78 35 22 78 35 22 49 58 89 30 51 90 30
51 89 30 50 86 24 47 82 24 47 82 24 47 82 24 47 82 24 47 82 24 47 82
24 47 82 24 47 82 24 47 82 24 47 82 24 47 82 24 47 82 24 47 82 24 47
82 24 48 83 24 48 86 25 49 90 25 50 93 25 50 96 25 51 99 25 52 102 25
52 105 25 53 108 26 53 111 26 54 113 26 55 116 26 55 119 26 56 122 26
56 125 26 57 127 26 58 130 27 58 133 27 59 136 27 59 138 27 60 141 27
61 143 27 61 146 27 62 149 27 62 151 27 63 154 28 63 156 28 64 158 28
64 161 28 65 163 51 102 185 52 128 199 53 135 203 54 138 206 54 107
198 55 109 202 56 110 206 57 112 210 57 113 213 58 114 215 58 115 215
58 115 215 58 116 215 58 117 216 59 117 217 59 118 219 72 125 227 66
123 232 99 139 242 103 140 244 102 140 243 101 139 242 99 138 241 98
137 239 96 134 235 93 130 227 101 48 46 101 49 47 101 49 47 102 49 47
102 49 47 102 49 47 103 49 47 103 49 47 103 50 48 103 50 48 104 50 48
104 50 48 104 50 48 105 50 48 105 50 48 105 51 49 106 51 49 106 51 49
106 51 49 106 51 49 107 51 49 107 51 50 107 52 50 108 52 50 108 52 50
108 52 50 109 52 50 109 52 50 109 53 51 110 53 51 110 53 51 110 53 51
110 53 51 111 53 51 111 53 52 111 54 52 112 54 52 112 54 52 112 54 52
113 54 52 113 54 53 113 54 53 113 55 53 114 55 53 114 55 53 114 55 54
115 55 54 115 55 54 115 56 54 116 56 54 116 56 54 116 56 55 116 56 55
117 56 55 117 56 55 117 57 55 117 57 56 118 57 56 118 57 56 118 57 56
119 57 56 119 57 57 119 58 57 119 58 57 120 58 57 120 58 57 120 58 57
120 58 58 121 58 58 121 59 58 121 59 58 121 59 58 122 59 59 122 59 59
122 59 59 122 59 59 123 59 59 123 60 60 123 60 60 123 60 60 124 60 60
124 60 61 124 60 61 124 60 61 124 60 61 125 61 61 125 61 62 125 61 62
125 61 62 125 61 62 126 61 62 126 61 63 126 61 63 126 62 63 126 62 63
126 62 64 127 62 64 127 62 64 127 62 64 127 62 64 127 62 65 127 62 65
127 62 65 128 63 65 128 63 66 128 63 66 128 63 66 128 63 66 128 63 66
128 63 67 128 63 67 128 63 67 129 63 67 129 63 68 129 63 68 129 64 68
129 64 68 129 64 69 129 64 69 129 64 69 129 64 69 129 64 70 129 64 70
129 64 70 129 64 70 129 64 70 129 64 71 129 64 71 129 64 71 129 64 71
129 64 72 129 64 72 129 65 72 129 65 72 129 65 73 129 65 73 129 65 73
129 65 73 129 65 74 129 65 74 129 65 74 129 65 74 129 65 74 129 65 75
129 65 75 129 65 75 129 65 75 129 65 76 129 65 76 129 65 76 129 65 76
128 65 77 128 65 77 128 65 77 128 65 77 128 65 77 128 65 78 128 65 78
128 65 78 128 65 78 127 65 78 127 65 79 127 65 79 127 65 79 127 65 79
127 65 79 127 65 80 126 65 80 126 65 80 126 65 80 126 65 80 126 65 80
126 65 80 125 65 81 125 64 81 125 64 81 125 64 81 125 64 81 124 64 81
124 64 81 124 64 81 124 64 82 124 64 82 123 64 82 123 64 82 123 64 82
123 64 82 122 64 82 122 64 82 122 63 82 122 63 82 121 63 82 121 63 82
121 63 82 121 63 82 120 63 82 120 63 82 120 63 82 120 63 82 119 62 82
119 62 82 119 62 82 119 62 82 118 62 82 118 62 82 118 62 82 117 62 82
117 61 82 117 61 81 117 61 81 116 61 81 116 61 81 116 61 81 115 61 81
115 60 81 115 60 81 114 60 80 114 60 80 114 60 80 114 60 80 113 60 80
113 59 79 113 59 79 112 59 79 112 59 79 112 59 79 111 59 78 111 58 78
111 58 78 110 58 78 110 58 77 110 58 77 109 58 77 109 57 77 109 57 76
108 57 76 108 57 76 108 57 76 107 56 75 107 56 75 107 56 75 107 56 75
106 56 74 106 56 74 106 55 74 105 55 73 105 55 73 105 55 73 104 55 73
104 55 72 104 54 72 103 54 72 103 54 71 103 54 71 102 54 71 102 53 70
102 53 70 101 53 70 101 53 70 101 53 69 100 52 69 100 52 69 100 52 68
99 52 68 99 52 68 99 52 68 98 51 67 98 51 67 98 51 67 98 51 66 97 51
66 97 51 66 97 50 65 96 50 65 96 50 65 96 50 65 95 50 64 95 49 64 95
49 64 95 49 63 94 49 63 94 49 63 94 49 63 93 48 62 93 48 62 93 48 62
92 48 61 92 48 61 92 48 61 92 47 61 91 47 60 91 47 60 91 47 60 90 47
60 90 47 59 90 47 59 90 46 59 89 46 59 89 46 58 89 46 58 89 46 58 88
46 58 88 45 57 88 45 57 88 45 57 87 45 57 87 45 56 87 45 56 86 45 56
86 44 56 86 44 55 86 44 55 85 44 55
76 34 21 76 34 21 76 34 21 76 34 21 76 34 21 77 34 21 77 34 21 77 34
22 77 34 22 77 35 22 78 35 22 78 35 22 78 35 22 29 50 86 29 50 86 30
51 88 29 50 86 24 47 82 24 47 82 24 47 82 24 47 82 24 47 82 24 47 82
24 47 82 24 47 82 24 47 82 24 47 82 24 47 82 24 47 82 24 47 82 24 47
82 24 48 84 24 48 87 25 49 90 25 50 93 25 50 96 25 51 99 25 52 102 25
52 105 25 53 108 26 53 111 26 54 114 26 55 116 26 55 119 26 56 122 26
57 125 26 57 128 26 58 130 27 58 133 27 59 136 27 59 138 27 60 141 27
61 144 27 61 146 27 62 149 27 62 151 27 63 154 28 63 156 28 64 159 28
64 161 28 65 163 51 115 193 52 124 198 52 130 202 53 134 207 54 137
216 54 108 203 55 110 208 56 111 213 57 113 216 57 114 218 57 114 218
57 115 217 57 115 216 58 115 216 58 116 217 66 121 223 79 128 231 94
135 240 101 139 243 103 140 244 102 139 243 100 138 242 99 137 241 97
136 238 95 134 235 92 130 228 101 48 46 101 49 47 101 49 47 102 49 47
102 49 47 102 49 47 103 49 47 103 49 48 103 50 48 104 50 48 104 50 48
104 50 48 104 50 48 105 50 48 105 51 49 105 51 49 106 51 49 106 51 49
106 51 49 107 51 49 107 51 49 107 52 50 108 52 50 108 52 50 108 52 50
108 52 50 109 52 50 109 52 51 109 53 51 110 53 51 110 53 51 110 53 51
111 53 51 111 53 52 111 53 52 111 54 52 112 54 52 112 54 52 112 54 52
113 54 53 113 54 53 113 55 53 114 55 53 114 55 53 114 55 53 114 55 54
115 55 54 115 55 54 115 56 54 116 56 54 116 56 55 116 56 55 116 56 55
117 56 55 117 56 55 117 57 56 118 57 56 118 57 56 118 57 56 118 57 56
119 57 56 119 57 57 119 58 57 119 58 57 120 58 57 120 58 57 120 58 58
120 58 58 121 58 58 121 59 58 121 59 58 121 59 59 122 59 59 122 59 59
122 59 59 122 59 59 123 59 60 123 60 60 123 60 60 123 60 60 124 60 60
124 60 61 124 60 61 124 60 61 124 60 61 125 61 62 125 61 62 125 61 62
125 61 62 125 61 62 126 61 63 126 61 63 126 61 63 126 62 63 126 62 64
126 62 64 127 62 64 127 62 64 127 62 64 127 62 65 127 62 65 127 62 65
127 62 65 128 63 66 128 63 66 128 63 66 128 63 66 128 63 66 128 63 67
128 63 67 128 63 67 128 63 67 129 63 68 129 63 68 129 63 68 129 64 68
129 64 69 129 64 69 129 64 69 129 64 69 129 64 70 129 64 70 129 64 70
129 64 70 129 64 71 129 64 71 129 64 71 129 64 71 129 64 71 129 64 72
129 64 72 129 65 72 129 65 72 129 65 73 129 65 73 129 65 73 129 65 73
129 65 74 129 65 74 129 65 74 129 65 74 129 65 75 129 65 75 129 65 75
129 65 75 129 65 76 129 65 76 129 65 76 129 65 76 129 65 76 129 65 77
128 65 77 128 65 77 128 65 77 128 65 78 128 65 78 128 65 78 128 65 78
128 65 78 128 65 79 127 65 79 127 65 79 127 65 79 127 65 79 127 65 80
127 65 80 127 65 80 126 65 80 126 65 80 126 65 81 126 65 81 126 65 81
126 65 81 125 65 81 125 65 81 125 65 81 125 65 82 125 64 82 124 64 82
124 64 82 124 64 82 124 64 82 124 64 82 123 64 82 123 64 82 123 64 83
123 64 83 123 64 83 122 64 83 122 64 83 122 64 83 122 63 83 121 63 83
121 63 83 121 63 83 121 63 83 120 63 83 120 63 83 120 63 83 120 63 83
119 63 83 119 62 83 119 62 83 119 62 83 118 62 83 118 62 83 118 62 82
117 62 82 117 62 82 117 61 82 117 61 82 116 61 82 116 61 82 116 61 82
115 61 81 115 61 81 115 60 81 114 60 81 114 60 81 114 60 81 114 60 80
113 60 80 113 59 80 113 59 80 112 59 80 112 59 79 112 59 79 111 59 79
111 59 79 111 58 78 110 58 78 110 58 78 110 58 78 109 58 77 109 57 77
109 57 77 108 57 77 108 57 76 108 57 76 107 57 76 107 56 76 107 56 75
106 56 75 106 56 75 106 56 74 105 55 74 105 55 74 105 55 74 105 55 73
104 55 73 104 55 73 104 54 72 103 54 72 103 54 72 103 54 71 102 54 71
102 53 71 102 53 71 101 53 70 101 53 70 101 53 70 100 53 69 100 52 69
100 52 69 99 52 68 99 52 68 99 52 68 98 51 67 98 51 67 98 51 67 98 51
67 97 51 66 97 51 66 97 50 66 96 50 65 96 50 65 96 50 65 95 50 65 95
50 64 95 49 64 95 49 64 94 49 63 94 49 63 94 49 63 93 49 63 93 48 62
93 48 62 92 48 62 92 48 61 92 48 61 92 48 61 91 47 61 91 47 60 91 47
60 90 47 60 90 47 60 90 47 59 90 46 59 89 46 59 89 46 59 89 46 58 89
46 58 88 46 58 88 45 58 88 45 57 88 45 57 87 45 57 87 45 57 87 45 56
86 45 56 86 44 56 86 44 56 86 44 55
76 34 21 76 34 21 76 34 21 76 34 21 77 34 21 77 34 21 77 34 22 77 34
22 77 35 22 78 35 22 78 35 22 78 35 22 78 35 22 29 50 86 29 50 86 29
50 88 29 50 86 24 47 82 24 47 82 24 47 82 24 47 82 24 47 82 24 47 82
24 47 82 24 47 82 24 47 82 24 47 82 24 47 82 24 47 82 24 47 82 24 47
82 24 48 84 24 48 87 25 49 90 25 50 93 25 50 96 25 51 99 25 52 102 25
52 105 25 53 108 26 53 111 26 54 114 26 55 117 26 55 119 26 56 122 26
57 125 26 57 128 26 58 130 27 58 133 27 59 136 27 59 138 27 60 141 27
61 144 27 61 146 27 62 149 27 62 151 27 63 154 28 63 156 28 64 159 28
64 161 49 98 181 50 114 193 51 118 196 52 122 200 52 128 207 53 132
219 54 107 204 55 109 210 56 111 215 56 112 219 57 113 221 57 113 220
57 114 218 57 114 216 57 114 216 57 115 217 73 123 226 64 121 232 99
137 242 102 139 244 102 138 243 101 138 242 99 137 241 98 136 240 96
134 238 94 132 235 92 129 228 101 49 47 101 49 47 102 49 47 102 49 47
102 49 47 102 49 47 103 49 47 103 50 48 103 50 48 104 50 48 104 50 48
104 50 48 105 50 48 105 50 49 105 51 49 105 51 49 106 51 49 106 51 49
106 51 49 107 51 49 107 51 50 107 52 50 108 52 50 108 52 50 108 52 50
108 52 50 109 52 51 109 52 51 109 53 51 110 53 51 110 53 51 110 53 51
111 53 52 111 53 52 111 54 52 111 54 52 112 54 52 112 54 52 112 54 53
113 54 53 113 54 53 113 55 53 114 55 53 114 55 53 114 55 54 114 55 54
115 55 54 115 55 54 115 56 54 116 56 55 116 56 55 116 56 55 116 56 55
117 56 55 117 56 55 117 57 56 118 57 56 118 57 56 118 57 56 118 57 56
119 57 57 119 57 57 119 58 57 119 58 57 120 58 57 120 58 58 120 58 58
120 58 58 121 58 58 121 59 58 121 59 59 121 59 59 122 59 59 122 59 59
122 59 59 122 59 60 123 60 60 123 60 60 123 60 60 123 60 60 123 60 61
124 60 61 124 60 61 124 60 61 124 61 61 125 61 62 125 61 62 125 61 62
125 61 62 125 61 63 125 61 63 126 61 63 126 61 63 126 62 63 126 62 64
126 62 64 126 62 64 127 62 64 127 62 65 127 62 65 127 62 65 127 62 65
127 62 66 127 63 66 128 63 66 128 63 66 128 63 66 128 63 67 128 63 67
128 63 67 128 63 67 128 63 68 128 63 68 129 63 68 129 63 68 129 64 69
129 64 69 129 64 69 129 64 69 129 64 70 129 64 70 129 64 70 129 64 70
129 64 71 129 64 71 129 64 71 129 64 71 129 64 71 129 64 72 129 64 72
129 65 72 129 65 72 129 65 73 129 65 73 129 65 73 129 65 73 129 65 74
129 65 74 129 65 74 129 65 74 129 65 75 129 65 75 129 65 75 129 65 75
129 65 76 129 65 76 129 65 76 129 65 76 129 65 77 129 65 77 129 65 77
128 65 77 128 65 78 128 65 78 128 65 78 128 65 78 128 65 78 128 65 79
128 65 79 128 65 79 127 65 79 127 65 80 127 65 80 127 65 80 127 65 80
127 65 80 127 65 81 127 65 81 126 65 81 126 65 81 126 65 81 126 65 81
126 65 82 126 65 82 125 65 82 125 65 82 125 65 82 125 65 82 125 65 82
124 65 83 124 64 83 124 64 83 124 64 83 124 64 83 123 64 83 123 64 83
123 64 83 123 64 83 122 64 83 122 64 83 122 64 84 122 64 84 122 64 84
121 63 84 121 63 84 121 63 84 121 63 84 120 63 84 120 63 84 120 63 84
120 63 84 119 63 84 119 63 83 119 62 83 118 62 83 118 62 83 118 62 83
118 62 83 117 62 83 117 62 83 117 62 83 116 61 83 116 61 83 116 61 82
116 61 82 115 61 82 115 61 82 115 61 82 114 60 82 114 60 81 114 60 81
113 60 81 113 60 81 113 60 81 113 59 80 112 59 80 112 59 80 112 59 80
111 59 79 111 59 79 111 58 79 110 58 79 110 58 78 110 58 78 109 58 78
109 58 78 109 57 77 108 57 77 108 57 77 108 57 77 107 57 76 107 56 76
107 56 76 106 56 75 106 56 75 106 56 75 105 56 75 105 55 74 105 55 74
104 55 74 104 55 73 104 55 73 103 54 73 103 54 72 103 54 72 103 54 72
102 54 71 102 54 71 102 53 71 101 53 71 101 53 70 101 53 70 100 53 70
100 52 69 100 52 69 99 52 69 99 52 68 99 52 68 98 52 68 98 51 67 98 51
67 98 51 67 97 51 67 97 51 66 97 50 66 96 50 66 96 50 65 96 50 65 95
50 65 95 50 64 95 49 64 94 49 64 94 49 64 94 49 63 94 49 63 93 49 63
93 48 62 93 48 62 92 48 62 92 48 62 92 48 61 92 48 61 91 47 61 91 47
61 91 47 60 90 47 60 90 47 60 90 47 60 90 46 59 89 46 59 89 46 59 89
46 58 89 46 58 88 46 58 88 46 58 88 45 57 88 45 57 87 45 57 87 45 57
87 45 56 86 45 56 86 44 56 86 44 56
76 34 21 76 34 21 76 34 21 76 34 21 77 34 21 77 34 22 77 34 22 77 34
22 78 35 22 78 35 22 78 35 22 78 35 22 29 50 86 29 50 86 29 50 86 29
50 88 30 50 86 24 47 82 24 47 82 24 47 82 24 47 82 24 47 82 24 47 82
24 47 82 24 47 82 24 47 82 24 47 82 24 47 82 24 47 82 24 47 82 24 47
82 24 48 84 24 48 87 25 49 90 25 50 93 25 50 96 25 51 99 25 52 102 25
52 105 25 53 108 26 54 111 26 54 114 26 55 117 26 55 119 26 56 122 26
57 125 26 57 128 26 58 130 27 58 133 27 59 136 27 59 138 27 60 141 27
61 144 27 61 146 27 62 149 27 62 151 27 63 154 28 63 156 28 64 159 48
96 177 49 97 180 49 113 192 50 114 195 51 116 198 52 120 207 52 126
219 53 106 204 54 108 211 55 110 217 56 111 221 56 112 223 56 113 221
56 113 219 56 113 216 56 113 216 68 120 223 82 127 232 95 134 241 101
137 243 102 137 243 101 137 242 100 136 242 98 136 241 97 135 239 95
133 237 94 131 234 91 128 228 101 49 47 101 49 47 102 49 47 102 49 47
102 49 47 103 49 47 103 49 48 103 50 48 103 50 48 104 50 48 104 50 48
104 50 48 105 50 48 105 50 49 105 51 49 106 51 49 106 51 49 106 51 49
106 51 49 107 51 50 107 52 50 107 52 50 108 52 50 108 52 50 108 52 50
109 52 51 109 52 51 109 53 51 109 53 51 110 53 51 110 53 51 110 53 51
111 53 52 111 53 52 111 54 52 112 54 52 112 54 52 112 54 53 112 54 53
113 54 53 113 54 53 113 55 53 114 55 53 114 55 54 114 55 54 114 55 54
115 55 54 115 55 54 115 56 54 116 56 55 116 56 55 116 56 55 116 56 55
117 56 55 117 57 56 117 57 56 118 57 56 118 57 56 118 57 56 118 57 57
119 57 57 119 58 57 119 58 57 119 58 57 120 58 58 120 58 58 120 58 58
120 58 58 121 58 58 121 59 58 121 59 59 121 59 59 122 59 59 122 59 59
122 59 60 122 59 60 123 60 60 123 60 60 123 60 60 123 60 61 123 60 61
124 60 61 124 60 61 124 60 61 124 61 62 124 61 62 125 61 62 125 61 62
125 61 63 125 61 63 125 61 63 126 61 63 126 61 63 126 62 64 126 62 64
126 62 64 126 62 64 127 62 65 127 62 65 127 62 65 127 62 65 127 62 65
127 62 66 127 63 66 128 63 66 128 63 66 128 63 67 128 63 67 128 63 67
128 63 67 128 63 68 128 63 68 128 63 68 128 63 68 129 64 69 129 64 69
129 64 69 129 64 69 129 64 70 129 64 70 129 64 70 129 64 70 129 64 71
129 64 71 129 64 71 129 64 71 129 64 72 129 64 72 129 64 72 129 64 72
129 65 73 129 65 73 129 65 73 129 65 73 129 65 74 129 65 74 129 65 74
129 65 74 129 65 75 129 65 75 129 65 75 129 65 75 129 65 76 129 65 76
129 65 76 129 65 76 129 65 77 129 65 77 129 65 77 129 65 77 129 65 77
128 65 78 128 65 78 128 65 78 128 65 78 128 65 79 128 65 79 128 65 79
128 65 79 128 65 80 128 65 80 127 65 80 127 65 80 127 65 80 127 65 81
127 65 81 127 65 81 127 65 81 126 65 81 126 65 82 126 65 82 126 65 82
126 65 82 126 65 82 125 65 82 125 65 83 125 65 83 125 65 83 125 65 83
125 65 83 124 65 83 124 65 83 124 65 84 124 64 84 123 64 84 123 64 84
123 64 84 123 64 84 123 64 84 122 64 84 122 64 84 122 64 84 122 64 84
121 64 84 121 64 84 121 63 84 121 63 84 120 63 84 120 63 84 120 63 84
120 63 84 119 63 84 119 63 84 119 63 84 119 63 84 118 62 84 118 62 84
118 62 84 118 62 84 117 62 84 117 62 84 117 62 83 116 61 83 116 61 83
116 61 83 115 61 83 115 61 83 115 61 83 115 61 82 114 60 82 114 60 82
114 60 82 113 60 82 113 60 81 113 60 81 112 59 81 112 59 81 112 59 80
111 59 80 111 59 80 111 59 80 111 58 79 110 58 79 110 58 79 110 58 79
109 58 78 109 58 78 109 57 78 108 57 78 108 57 77 108 57 77 107 57 77
107 57 76 107 56 76 106 56 76 106 56 76 106 56 75 105 56 75 105 55 75
105 55 74 104 55 74 104 55 74 104 55 73 103 54 73 103 54 73 103 54 72
102 54 72 102 54 72 102 54 71 102 53 71 101 53 71 101 53 71 101 53 70
100 53 70 100 52 70 100 52 69 99 52 69 99 52 69 99 52 68 98 52 68 98
51 68 98 51 67 97 51 67 97 51 67 97 51 67 97 50 66 96 50 66 96 50 66
96 50 65 95 50 65 95 50 65 95 49 64 94 49 64 94 49 64 94 49 64 94 49
63 93 49 63 93 48 63 93 48 62 92 48 62 92 48 62 92 48 62 92 48 61 91
47 61 91 47 61 91 47 60 90 47 60 90 47 60 90 47 60 90 46 59 89 46 59
89 46 59 89 46 59 89 46 58 88 46 58 88 46 58 88 45 58 88 45 57 87 45
57 87 45 57 87 45 57 86 45 56 86 45 56
14 7 10 76 34 21 76 34 21 77 34 21 77 34 21 77 34 22 77 34 22 77 35 22
78 35 22 78 35 22 78 35 22 78 35 22 29 50 86 29 50 86 29 50 86 29 50
86 29 50 86 24 47 82 24 47 82 24 47 82 24 47 82 24 47 82 24 47 82 24
47 82 24 47 82 24 47 82 24 47 82 24 47 82 24 47 82 24 47 82 24 47 82
24 48 84 24 48 87 25 49 90 25 50 93 25 50 96 25 51 99 25 52 102 25 52
105 25 53 108 26 54 111 26 54 114 26 55 117 26 55 119 26 56 122 26 57
125 26 57 128 26 58 130 27 58 133 27 59 136 27 59 138 27 60 141 27 61
144 27 61 146 27 62 149 27 62 151 27 63 154 28 63 156 47 93 174 47 95
177 48 96 180 48 97 182 49 113 194 50 114 198 51 119 207 51 103 198 52
105 204 53 107 211 54 109 217 55 110 221 56 111 222 56 111 221 55 111
218 55 111 216 65 117 221 78 124 228 92 131 239 100 135 243 101 136
242 101 136 242 99 135 241 98 135 240 97 134 240 96 133 238 94 132 237
93 130 233 90 126 227 101 49 47 102 49 47 102 49 47 102 49 47 102 49
47 103 49 48 103 50 48 103 50 48 104 50 48 104 50 48 104 50 48 104 50
48 105 50 49 105 51 49 105 51 49 106 51 49 106 51 49 106 51 49 107 51
50 107 51 50 107 52 50 107 52 50 108 52 50 108 52 50 108 52 50 109 52
51 109 52 51 109 53 51 110 53 51 110 53 51 110 53 51 110 53 52 111 53
52 111 53 52 111 54 52 112 54 52 112 54 52 112 54 53 112 54 53 113 54
53 113 54 53 113 55 53 114 55 54 114 55 54 114 55 54 114 55 54 115 55
54 115 56 54 115 56 55 116 56 55 116 56 55 116 56 55 116 56 55 117 56
56 117 57 56 117 57 56 118 57 56 118 57 56 118 57 56 118 57 57 119 57
57 119 58 57 119 58 57 119 58 57 120 58 58 120 58 58 120 58 58 120 58
58 121 58 58 121 59 59 121 59 59 121 59 59 122 59 59 122 59 59 122 59
60 122 59 60 122 60 60 123 60 60 123 60 60 123 60 61 123 60 61 124 60
61 124 60 61 124 60 62 124 61 62 124 61 62 125 61 62 125 61 62 125 61
63 125 61 63 125 61 63 125 61 63 126 61 64 126 62 64 126 62 64 126 62
64 126 62 64 126 62 65 127 62 65 127 62 65 127 62 65 127 62 66 127 62
66 127 63 66 127 63 66 128 63 67 128 63 67 128 63 67 128 63 67 128 63
68 128 63 68 128 63 68 128 63 68 128 63 69 128 64 69 129 64 69 129 64
69 129 64 69 129 64 70 129 64 70 129 64 70 129 64 70 129 64 71 129 64
71 129 64 71 129 64 71 129 64 72 129 64 72 129 64 72 129 64 73 129 65
73 129 65 73 129 65 73 129 65 74 129 65 74 129 65 74 129 65 74 129 65
75 129 65 75 129 65 75 129 65 75 129 65 76 129 65 76 129 65 76 129 65
76 129 65 77 129 65 77 129 65 77 129 65 77 129 65 78 128 65 78 128 65
78 128 65 78 128 65 79 128 65 79 128 65 79 128 65 79 128 65 80 128 65
80 128 65 80 128 65 80 127 65 80 127 65 81 127 65 81 127 65 81 127 65
81 127 65 82 127 65 82 126 65 82 126 65 82 126 65 82 126 65 82 126 65
83 126 65 83 125 65 83 125 65 83 125 65 83 125 65 83 125 65 84 125 65
84 124 65 84 124 65 84 124 65 84 124 65 84 124 65 84 123 64 84 123 64
85 123 64 85 123 64 85 123 64 85 122 64 85 122 64 85 122 64 85 122 64
85 121 64 85 121 64 85 121 64 85 121 63 85 120 63 85 120 63 85 120 63
85 120 63 85 119 63 85 119 63 85 119 63 85 119 63 85 118 62 85 118 62
85 118 62 85 117 62 84 117 62 84 117 62 84 117 62 84 116 62 84 116 61
84 116 61 84 115 61 83 115 61 83 115 61 83 115 61 83 114 61 83 114 60
83 114 60 82 113 60 82 113 60 82 113 60 82 112 60 81 112 59 81 112 59
81 111 59 81 111 59 80 111 59 80 110 59 80 110 58 80 110 58 79 110 58
79 109 58 79 109 58 79 109 57 78 108 57 78 108 57 78 108 57 77 107 57
77 107 57 77 107 56 77 106 56 76 106 56 76 106 56 76 105 56 75 105 55
75 105 55 75 104 55 74 104 55 74 104 55 74 103 55 73 103 54 73 103 54
73 102 54 72 102 54 72 102 54 72 101 53 71 101 53 71 101 53 71 101 53
71 100 53 70 100 52 70 100 52 70 99 52 69 99 52 69 99 52 69 98 52 68
98 51 68 98 51 68 97 51 67 97 51 67 97 51 67 97 51 66 96 50 66 96 50
66 96 50 66 95 50 65 95 50 65 95 49 65 94 49 64 94 49 64 94 49 64 94
49 63 93 49 63 93 48 63 93 48 63 92 48 62 92 48 62 92 48 62 92 48 61
91 47 61 91 47 61 91 47 61 90 47 60 90 47 60 90 47 60 90 47 60 89 46
59 89 46 59 89 46 59 89 46 59 88 46 58 88 46 58 88 45 58 88 45 58 87
45 57 87 45 57 87 45 57 86 45 57
14 7 10 14 7 10 77 34 21 77 34 21 77 34 22 77 34 22 77 35 22 78 35 22
78 35 22 78 35 22 78 35 22 78 35 22 29 50 86 29 50 86 29 50 86 29 50
86 29 50 87 24 47 82 24 47 82 24 47 82 24 47 82 24 47 82 24 47 82 24
47 82 24 47 82 24 47 82 24 47 82 24 47 82 24 47 82 24 47 82 24 47 82
24 48 84 24 48 87 25 49 90 25 50 93 25 50 96 25 51 99 25 52 102 25 52
105 25 53 108 26 54 111 26 54 114 26 55 117 26 55 119 26 56 122 26 57
125 26 57 128 26 58 130 27 58 133 27 59 136 27 59 138 27 60 141 27 61
143 27 61 146 27 62 149 27 62 151 27 63 154 28 63 156 46 92 173 46 93
176 47 95 179 48 96 182 48 97 185 49 99 188 50 100 192 51 102 197 52
104 203 53 106 209 54 107 215 54 109 219 55 110 220 55 110 219 55 110
217 64 115 220 75 121 226 89 129 236 98 133 242 100 135 242 100 134
241 99 134 240 98 134 240 97 133 239 96 132 239 94 131 237 93 130 235
92 128 232 89 125 226 101 49 47 102 49 47 102 49 47 102 49 47 103 49
48 103 49 48 103 50 48 103 50 48 104 50 48 104 50 48 104 50 48 105 50
49 105 50 49 105 51 49 105 51 49 106 51 49 106 51 49 106 51 49 107 51
50 107 51 50 107 52 50 107 52 50 108 52 50 108 52 50 108 52 51 109 52
51 109 52 51 109 53 51 110 53 51 110 53 51 110 53 52 110 53 52 111 53
52 111 53 52 111 54 52 112 54 52 112 54 53 112 54 53 112 54 53 113 54
53 113 55 53 113 55 53 114 55 54 114 55 54 114 55 54 114 55 54 115 55
54 115 56 55 115 56 55 116 56 55 116 56 55 116 56 55 116 56 55 117 56
56 117 57 56 117 57 56 117 57 56 118 57 56 118 57 57 118 57 57 119 57
57 119 58 57 119 58 57 119 58 58 120 58 58 120 58 58 120 58 58 120 58
58 121 58 59 121 59 59 121 59 59 121 59 59 121 59 59 122 59 60 122 59
60 122 59 60 122 60 60 123 60 60 123 60 61 123 60 61 123 60 61 123 60
61 124 60 61 124 60 62 124 61 62 124 61 62 124 61 62 125 61 63 125 61
63 125 61 63 125 61 63 125 61 63 126 61 64 126 62 64 126 62 64 126 62
64 126 62 65 126 62 65 127 62 65 127 62 65 127 62 66 127 62 66 127 62
66 127 63 66 127 63 67 127 63 67 128 63 67 128 63 67 128 63 67 128 63
68 128 63 68 128 63 68 128 63 68 128 63 69 128 63 69 128 64 69 128 64
69 129 64 70 129 64 70 129 64 70 129 64 70 129 64 71 129 64 71 129 64
71 129 64 71 129 64 72 129 64 72 129 64 72 129 64 73 129 65 73 129 65
73 129 65 73 129 65 74 129 65 74 129 65 74 129 65 74 129 65 75 129 65
75 129 65 75 129 65 75 129 65 76 129 65 76 129 65 76 129 65 76 129 65
77 129 65 77 129 65 77 129 65 77 129 65 78 129 65 78 128 65 78 128 65
78 128 65 79 128 65 79 128 65 79 128 65 79 128 65 80 128 65 80 128 65
80 128 65 80 127 65 81 127 65 81 127 65 81 127 65 81 127 65 82 127 65
82 127 65 82 127 65 82 126 65 82 126 65 83 126 65 83 126 65 83 126 65
83 126 65 83 126 65 84 125 65 84 125 65 84 125 65 84 125 65 84 125 65
84 124 65 84 124 65 85 124 65 85 124 65 85 124 65 85 123 65 85 123 65
85 123 64 85 123 64 85 123 64 85 122 64 86 122 64 86 122 64 86 122 64
86 121 64 86 121 64 86 121 64 86 121 64 86 121 64 86 120 63 86 120 63
86 120 63 86 120 63 86 119 63 86 119 63 86 119 63 85 118 63 85 118 63
85 118 62 85 118 62 85 117 62 85 117 62 85 117 62 85 116 62 85 116 62
85 116 62 84 116 61 84 115 61 84 115 61 84 115 61 84 114 61 83 114 61
83 114 60 83 114 60 83 113 60 83 113 60 82 113 60 82 112 60 82 112 59
82 112 59 81 111 59 81 111 59 81 111 59 81 110 59 80 110 58 80 110 58
80 109 58 80 109 58 79 109 58 79 108 58 79 108 57 78 108 57 78 108 57
78 107 57 78 107 57 77 107 56 77 106 56 77 106 56 76 106 56 76 105 56
76 105 55 75 105 55 75 104 55 75 104 55 74 104 55 74 103 55 74 103 54
73 103 54 73 102 54 73 102 54 72 102 54 72 101 53 72 101 53 71 101 53
71 100 53 71 100 53 70 100 53 70 100 52 70 99 52 70 99 52 69 99 52 69
98 52 69 98 51 68 98 51 68 97 51 68 97 51 67 97 51 67 96 51 67 96 50
66 96 50 66 96 50 66 95 50 65 95 50 65 95 49 65 94 49 65 94 49 64 94
49 64 94 49 64 93 49 63 93 48 63 93 48 63 92 48 63 92 48 62 92 48 62
92 48 62 91 47 61 91 47 61 91 47 61 90 47 61 90 47 60 90 47 60 90 47
60 89 46 60 89 46 59 89 46 59 89 46 59 88 46 58 88 46 58 88 45 58 88
45 58 87 45 57 87 45 57 87 45 57
14 7 10 14 7 10 14 7 10 77 34 22 77 34 22 77 35 22 78 35 22 78 35 22
78 35 22 78 35 22 78 35 22 79 35 22 29 50 86 29 50 86 29 50 86 29 50
86 29 50 87 24 47 82 24 47 82 24 47 82 24 47 82 24 47 82 24 47 82 24
47 82 24 47 82 24 47 82 24 47 82 24 47 82 24 47 82 24 47 82 24 47 82
24 48 84 24 48 87 25 49 90 25 50 93 25 50 96 25 51 99 25 52 102 25 52
105 25 53 108 26 53 111 26 54 114 26 55 117 26 55 119 26 56 122 26 57
125 26 57 128 26 58 130 27 58 133 27 59 136 27 59 138 27 60 141 27 60
143 27 61 146 27 62 148 27 62 151 27 63 153 44 89 169 45 91 172 46 92
175 46 93 178 47 95 181 48 96 184 48 97 187 49 99 191 50 100 195 51
102 200 52 104 206 52 106 211 53 107 215 53 108 216 53 108 216 63 113
220 74 119 225 87 126 235 96 132 242 99 133 241 99 133 239 98 132 239
97 132 238 96 132 238 95 131 238 94 131 237 93 130 236 92 128 234 90
127 231 88 123 225 101 49 47 102 49 47 102 49 47 102 49 47 103 49 48
103 49 48 103 50 48 103 50 48 104 50 48 104 50 48 104 50 48 105 50 49
105 50 49 105 51 49 105 51 49 106 51 49 106 51 49 106 51 50 107 51 50
107 51 50 107 52 50 108 52 50 108 52 50 108 52 51 108 52 51 109 52 51
109 53 51 109 53 51 110 53 51 110 53 51 110 53 52 110 53 52 111 53 52
111 54 52 111 54 52 112 54 52 112 54 53 112 54 53 112 54 53 113 54 53
113 55 53 113 55 54 114 55 54 114 55 54 114 55 54 114 55 54 115 55 54
115 56 55 115 56 55 116 56 55 116 56 55 116 56 55 116 56 56 117 56 56
117 57 56 117 57 56 117 57 56 118 57 56 118 57 57 118 57 57 118 57 57
119 58 57 119 58 57 119 58 58 120 58 58 120 58 58 120 58 58 120 58 58
120 58 59 121 59 59 121 59 59 121 59 59 121 59 59 122 59 60 122 59 60
122 59 60 122 60 60 123 60 61 123 60 61 123 60 61 123 60 61 123 60 61
124 60 62 124 60 62 124 60 62 124 61 62 124 61 62 125 61 63 125 61 63
125 61 63 125 61 63 125 61 64 125 61 64 126 62 64 126 62 64 126 62 65
126 62 65 126 62 65 126 62 65 127 62 65 127 62 66 127 62 66 127 62 66
127 63 66 127 63 67 127 63 67 127 63 67 128 63 67 128 63 68 128 63 68
128 63 68 128 63 68 128 63 69 128 63 69 128 63 69 128 64 69 128 64 70
128 64 70 129 64 70 129 64 70 129 64 71 129 64 71 129 64 71 129 64 71
129 64 72 129 64 72 129 64 72 129 64 72 129 64 73 129 65 73 129 65 73
129 65 74 129 65 74 129 65 74 129 65 74 129 65 75 129 65 75 129 65 75
129 65 75 129 65 76 129 65 76 129 65 76 129 65 76 129 65 77 129 65 77
129 65 77 129 65 78 129 65 78 129 65 78 128 65 78 128 65 79 128 65 79
128 65 79 128 65 79 128 65 80 128 65 80 128 65 80 128 65 80 128 65 81
128 65 81 127 65 81 127 65 81 127 65 82 127 65 82 127 65 82 127 65 82
127 65 82 127 65 83 126 65 83 126 65 83 126 65 83 126 65 83 126 65 84
126 65 84 126 65 84 125 65 84 125 65 84 125 65 85 125 65 85 125 65 85
125 65 85 124 65 85 124 65 85 124 65 85 124 65 86 124 65 86 123 65 86
123 65 86 123 65 86 123 65 86 123 64 86 122 64 86 122 64 86 122 64 86
122 64 86 121 64 86 121 64 86 121 64 86 121 64 86 120 64 86 120 64 86
120 63 86 120 63 86 119 63 86 119 63 86 119 63 86 119 63 86 118 63 86
118 63 86 118 63 86 118 62 86 117 62 86 117 62 86 117 62 85 116 62 85
116 62 85 116 62 85 116 61 85 115 61 85 115 61 84 115 61 84 114 61 84
114 61 84 114 61 84 113 60 83 113 60 83 113 60 83 112 60 83 112 60 82
112 60 82 112 59 82 111 59 82 111 59 81 111 59 81 110 59 81 110 58 81
110 58 80 109 58 80 109 58 80 109 58 79 108 58 79 108 57 79 108 57 79
107 57 78 107 57 78 107 57 78 106 56 77 106 56 77 106 56 77 105 56 76
105 56 76 105 56 76 105 55 75 104 55 75 104 55 75 104 55 74 103 55 74
103 54 74 103 54 73 102 54 73 102 54 73 102 54 72 101 53 72 101 53 72
101 53 71 100 53 71 100 53 71 100 53 70 99 52 70 99 52 70 99 52 69 99
52 69 98 52 69 98 51 68 98 51 68 97 51 68 97 51 68 97 51 67 96 51 67
96 50 67 96 50 66 96 50 66 95 50 66 95 50 65 95 50 65 94 49 65 94 49
64 94 49 64 94 49 64 93 49 64 93 48 63 93 48 63 92 48 63 92 48 62 92
48 62 92 48 62 91 48 62 91 47 61 91 47 61 90 47 61 90 47 60 90 47 60
90 47 60 89 46 60 89 46 59 89 46 59 89 46 59 88 46 59 88 46 58 88 45
58 88 45 58 87 45 58 87 45 57
14 7 10 14 7 10 14 7 10 14 7 10 14 7 10 78 35 22 78 35 22 78 35 22 78
35 22 78 35 22 79 35 22 79 35 22 29 50 86 29 50 86 29 50 86 29 50 86
29 50 88 24 47 82 24 47 82 24 47 82 24 47 82 24 47 82 24 47 82 24 47
82 24 47 82 24 47 82 24 47 82 24 47 82 24 47 82 24 47 82 24 47 82 24
48 84 24 48 87 25 49 90 25 50 93 25 50 96 25 51 99 25 52 102 25 52 105
25 53 108 26 53 111 26 54 114 26 55 116 26 55 119 26 56 122 26 56 125
26 57 127 26 58 130 27 58 133 27 59 135 27 59 138 27 60 141 27 60 143
27 61 146 27 62 148 27 62 151 43 87 166 44 88 169 44 90 171 45 91 174
46 92 177 46 93 180 47 95 183 47 96 186 48 97 189 49 99 193 50 100 198
50 102 203 51 104 207 52 105 210 52 106 212 63 111 218 74 117 224 86
125 235 95 130 242 98 131 239 98 131 238 97 131 237 96 130 237 95 130
237 95 130 237 94 129 236 93 129 236 92 128 235 91 127 233 89 125 229
87 121 223 102 49 47 102 49 47 102 49 47 102 49 48 103 49 48 103 50 48
103 50 48 104 50 48 104 50 48 104 50 48 104 50 49 105 50 49 105 51 49
105 51 49 106 51 49 106 51 49 106 51 50 106 51 50 107 51 50 107 52 50
107 52 50 108 52 50 108 52 50 108 52 51 108 52 51 109 52 51 109 53 51
109 53 51 110 53 51 110 53 52 110 53 52 110 53 52 111 53 52 111 54 52
111 54 52 112 54 53 112 54 53 112 54 53 112 54 53 113 54 53 113 55 53
113 55 54 114 55 54 114 55 54 114 55 54 114 55 54 115 55 55 115 56 55
115 56 55 116 56 55 116 56 55 116 56 55 116 56 56 117 56 56 117 57 56
117 57 56 117 57 56 118 57 57 118 57 57 118 57 57 118 57 57 119 58 57
119 58 58 119 58 58 119 58 58 120 58 58 120 58 58 120 58 59 120 58 59
121 59 59 121 59 59 121 59 59 121 59 60 122 59 60 122 59 60 122 59 60
122 59 60 122 60 61 123 60 61 123 60 61 123 60 61 123 60 62 123 60 62
124 60 62 124 60 62 124 61 62 124 61 63 124 61 63 125 61 63 125 61 63
125 61 64 125 61 64 125 61 64 125 61 64 126 62 64 126 62 65 126 62 65
126 62 65 126 62 65 126 62 66 127 62 66 127 62 66 127 62 66 127 63 67
127 63 67 127 63 67 127 63 67 127 63 68 128 63 68 128 63 68 128 63 68
128 63 69 128 63 69 128 63 69 128 63 69 128 64 70 128 64 70 128 64 70
128 64 70 128 64 71 129 64 71 129 64 71 129 64 71 129 64 72 129 64 72
129 64 72 129 64 72 129 64 73 129 64 73 129 65 73 129 65 73 129 65 74
129 65 74 129 65 74 129 65 75 129 65 75 129 65 75 129 65 75 129 65 76
129 65 76 129 65 76 129 65 76 129 65 77 129 65 77 129 65 77 129 65 78
129 65 78 128 65 78 128 65 78 128 65 79 128 65 79 128 65 79 128 65 79
128 65 80 128 65 80 128 65 80 128 65 80 128 65 81 128 65 81 128 65 81
127 65 81 127 66 82 127 66 82 127 66 82 127 66 82 127 65 83 127 65 83
127 65 83 126 65 83 126 65 84 126 65 84 126 65 84 126 65 84 126 65 84
126 65 85 125 65 85 125 65 85 125 65 85 125 65 85 125 65 85 125 65 86
124 65 86 124 65 86 124 65 86 124 65 86 124 65 86 123 65 86 123 65 87
123 65 87 123 65 87 123 65 87 122 65 87 122 64 87 122 64 87 122 64 87
121 64 87 121 64 87 121 64 87 121 64 87 121 64 87 120 64 87 120 64 87
120 64 87 120 63 87 119 63 87 119 63 87 119 63 87 119 63 87 118 63 87
118 63 87 118 63 87 117 62 86 117 62 86 117 62 86 117 62 86 116 62 86
116 62 86 116 62 86 115 62 85 115 61 85 115 61 85 115 61 85 114 61 85
114 61 84 114 61 84 113 60 84 113 60 84 113 60 83 112 60 83 112 60 83
112 60 83 111 59 82 111 59 82 111 59 82 111 59 82 110 59 81 110 59 81
110 58 81 109 58 80 109 58 80 109 58 80 108 58 80 108 57 79 108 57 79
107 57 79 107 57 78 107 57 78 106 56 78 106 56 77 106 56 77 105 56 77
105 56 76 105 56 76 104 55 76 104 55 75 104 55 75 103 55 75 103 55 74
103 54 74 103 54 74 102 54 73 102 54 73 102 54 73 101 53 72 101 53 72
101 53 72 100 53 71 100 53 71 100 53 71 99 52 70 99 52 70 99 52 70 98
52 69 98 52 69 98 51 69 98 51 68 97 51 68 97 51 68 97 51 67 96 51 67
96 50 67 96 50 67 96 50 66 95 50 66 95 50 66 95 50 65 94 49 65 94 49
65 94 49 64 93 49 64 93 49 64 93 49 63 93 48 63 92 48 63 92 48 63 92
48 62 92 48 62 91 48 62 91 47 61 91 47 61 90 47 61 90 47 61 90 47 60
90 47 60 89 46 60 89 46 60 89 46 59 89 46 59 88 46 59 88 46 59 88 46
58 88 45 58 87 45 58
14 7 10 14 7 10 14 7 10 14 7 10 14 7 10 14 7 10 78 35 22 78 35 22 78
35 22 79 35 22 79 35 22 79 35 22 29 50 86 29 50 86 29 50 86 29 50 86
29 50 88 29 50 87 24 47 82 24 47 82 24 47 82 24 47 82 24 47 82 24 47
82 24 47 82 24 47 82 24 47 82 24 47 82 24 47 82 24 47 82 24 47 82 24
48 84 24 48 87 25 49 90 25 50 93 25 50 96 25 51 99 25 52 102 25 52 105
25 53 108 26 53 111 26 54 113 26 55 116 26 55 119 26 56 122 26 56 124
26 57 127 26 58 130 27 58 132 27 59 135 27 59 138 27 60 140 27 60 143
27 61 145 27 61 148 42 84 162 42 86 165 43 87 168 43 88 170 44 90 173
45 91 176 45 92 179 46 93 182 47 95 184 47 96 188 48 97 191 49 99 195
49 100 199 50 102 203 50 103 206 63 110 215 74 116 222 86 124 235 94
128 241 96 129 237 96 129 235 96 128 235 95 128 235 94 128 235 94 128
235 93 128 235 92 128 235 91 127 234 91 126 233 89 125 231 88 123 227
86 119 220 102 49 47 102 49 47 102 49 48 102 49 48 103 49 48 103 50 48
103 50 48 104 50 48 104 50 48 104 50 49 104 50 49 105 50 49 105 51 49
105 51 49 106 51 49 106 51 49 106 51 50 106 51 50 107 51 50 107 52 50
107 52 50 108 52 50 108 52 51 108 52 51 108 52 51 109 52 51 109 53 51
109 53 51 110 53 52 110 53 52 110 53 52 110 53 52 111 53 52 111 54 52
111 54 53 112 54 53 112 54 53 112 54 53 112 54 53 113 54 53 113 55 54
113 55 54 114 55 54 114 55 54 114 55 54 114 55 54 115 55 55 115 56 55
115 56 55 115 56 55 116 56 55 116 56 56 116 56 56 117 56 56 117 57 56
117 57 56 117 57 57 118 57 57 118 57 57 118 57 57 118 57 57 119 58 57
119 58 58 119 58 58 119 58 58 120 58 58 120 58 58 120 58 59 120 58 59
121 59 59 121 59 59 121 59 60 121 59 60 121 59 60 122 59 60 122 59 60
122 59 61 122 60 61 123 60 61 123 60 61 123 60 61 123 60 62 123 60 62
124 60 62 124 60 62 124 61 63 124 61 63 124 61 63 125 61 63 125 61 63
125 61 64 125 61 64 125 61 64 125 61 64 126 62 65 126 62 65 126 62 65
126 62 65 126 62 66 126 62 66 126 62 66 127 62 66 127 62 66 127 62 67
127 63 67 127 63 67 127 63 67 127 63 68 127 63 68 127 63 68 128 63 68
128 63 69 128 63 69 128 63 69 128 63 69 128 64 70 128 64 70 128 64 70
128 64 71 128 64 71 128 64 71 128 64 71 128 64 72 129 64 72 129 64 72
129 64 72 129 64 73 129 64 73 129 64 73 129 64 73 129 65 74 129 65 74
129 65 74 129 65 75 129 65 75 129 65 75 129 65 75 129 65 76 129 65 76
129 65 76 129 65 76 129 65 77 129 65 77 129 65 77 129 65 78 129 65 78
128 65 78 128 65 78 128 65 79 128 65 79 128 65 79 128 65 79 128 65 80
128 65 80 128 65 80 128 65 81 128 66 81 128 66 81 128 66 81 127 66 82
127 66 82 127 66 82 127 66 82 127 66 83 127 66 83 127 66 83 127 66 83
127 66 84 126 66 84 126 66 84 126 66 84 126 66 84 126 65 85 126 65 85
126 65 85 125 65 85 125 65 85 125 65 86 125 65 86 125 65 86 125 65 86
124 65 86 124 65 86 124 65 87 124 65 87 124 65 87 123 65 87 123 65 87
123 65 87 123 65 87 123 65 87 122 65 87 122 65 88 122 65 88 122 64 88
122 64 88 121 64 88 121 64 88 121 64 88 121 64 88 120 64 88 120 64 88
120 64 88 120 64 88 119 64 88 119 63 88 119 63 88 119 63 88 118 63 87
118 63 87 118 63 87 118 63 87 117 63 87 117 62 87 117 62 87 116 62 87
116 62 86 116 62 86 116 62 86 115 62 86 115 61 86 115 61 86 114 61 85
114 61 85 114 61 85 114 61 85 113 60 84 113 60 84 113 60 84 112 60 84
112 60 83 112 60 83 111 59 83 111 59 83 111 59 82 110 59 82 110 59 82
110 59 81 109 58 81 109 58 81 109 58 81 109 58 80 108 58 80 108 57 80
108 57 79 107 57 79 107 57 79 107 57 78 106 57 78 106 56 78 106 56 77
105 56 77 105 56 77 105 56 76 104 55 76 104 55 76 104 55 75 103 55 75
103 55 75 103 54 74 102 54 74 102 54 74 102 54 73 102 54 73 101 54 73
101 53 72 101 53 72 100 53 72 100 53 71 100 53 71 99 52 71 99 52 70 99
52 70 98 52 70 98 52 69 98 51 69 98 51 69 97 51 68 97 51 68 97 51 68
96 51 67 96 50 67 96 50 67 95 50 66 95 50 66 95 50 66 95 50 65 94 49
65 94 49 65 94 49 65 93 49 64 93 49 64 93 49 64 93 48 63 92 48 63 92
48 63 92 48 62 91 48 62 91 48 62 91 47 62 91 47 61 90 47 61 90 47 61
90 47 61 90 47 60 89 46 60 89 46 60 89 46 59 89 46 59 88 46 59 88 46
59 88 46 58 87 45 58
14 7 10 14 7 10 14 7 10 14 7 10 14 7 10 14 7 10 14 7 10 78 35 22 78 35
22 79 35 22 79 35 22 79 35 22 29 50 86 29 50 86 29 50 86 29 50 86 29
50 86 29 50 87 24 47 82 24 47 82 24 47 82 24 47 82 24 47 82 24 47 82
24 47 82 24 47 82 24 47 82 24 47 82 24 47 82 24 47 82 24 47 82 24 48
84 24 48 87 25 49 90 25 50 93 25 50 96 25 51 99 25 52 102 25 52 105 25
53 108 26 53 110 26 54 113 26 55 116 26 55 119 26 56 121 26 56 124 26
57 127 26 58 130 27 58 132 27 59 135 27 59 137 27 60 140 27 60 142 27
61 145 40 82 158 41 83 161 41 84 164 42 86 167 43 87 169 43 88 172 44
90 175 44 91 178 45 92 180 46 93 183 46 95 186 47 96 189 47 97 193 48
98 196 56 103 204 65 108 211 76 115 220 86 122 235 92 126 238 94 126
234 94 126 232 94 126 232 94 126 232 93 126 232 93 126 233 92 126 233
91 126 233 91 126 233 90 125 232 89 124 231 88 123 229 87 121 225 84
116 217 102 49 47 102 49 47 102 49 48 103 49 48 103 49 48 103 50 48
103 50 48 104 50 48 104 50 48 104 50 49 105 50 49 105 50 49 105 51 49
105 51 49 106 51 49 106 51 50 106 51 50 107 51 50 107 51 50 107 52 50
107 52 50 108 52 50 108 52 51 108 52 51 108 52 51 109 52 51 109 53 51
109 53 51 110 53 52 110 53 52 110 53 52 110 53 52 111 53 52 111 54 52
111 54 53 112 54 53 112 54 53 112 54 53 112 54 53 113 54 53 113 55 54
113 55 54 114 55 54 114 55 54 114 55 54 114 55 55 115 55 55 115 56 55
115 56 55 115 56 55 116 56 55 116 56 56 116 56 56 117 56 56 117 57 56
117 57 56 117 57 57 118 57 57 118 57 57 118 57 57 118 57 57 119 58 58
119 58 58 119 58 58 119 58 58 120 58 58 120 58 59 120 58 59 120 58 59
120 59 59 121 59 59 121 59 60 121 59 60 121 59 60 122 59 60 122 59 60
122 59 61 122 60 61 122 60 61 123 60 61 123 60 62 123 60 62 123 60 62
123 60 62 124 60 62 124 61 63 124 61 63 124 61 63 124 61 63 125 61 64
125 61 64 125 61 64 125 61 64 125 61 64 125 62 65 126 62 65 126 62 65
126 62 65 126 62 66 126 62 66 126 62 66 126 62 66 127 62 67 127 62 67
127 63 67 127 63 67 127 63 68 127 63 68 127 63 68 127 63 68 127 63 69
128 63 69 128 63 69 128 63 69 128 63 70 128 63 70 128 64 70 128 64 70
128 64 71 128 64 71 128 64 71 128 64 71 128 64 72 128 64 72 128 64 72
128 64 73 128 64 73 129 64 73 129 64 73 129 64 74 129 65 74 129 65 74
129 65 74 129 65 75 129 65 75 129 65 75 129 65 76 129 65 76 129 65 76
129 65 76 129 65 77 129 65 77 129 65 77 128 65 78 128 65 78 128 65 78
128 65 78 128 65 79 128 65 79 128 65 79 128 65 79 128 65 80 128 65 80
128 65 80 128 66 81 128 66 81 128 66 81 128 66 81 128 66 82 127 66 82
127 66 82 127 66 82 127 66 83 127 66 83 127 66 83 127 66 83 127 66 84
127 66 84 126 66 84 126 66 84 126 66 85 126 66 85 126 66 85 126 66 85
126 66 86 125 66 86 125 65 86 125 65 86 125 65 86 125 65 86 125 65 87
124 65 87 124 65 87 124 65 87 124 65 87 124 65 87 124 65 88 123 65 88
123 65 88 123 65 88 123 65 88 123 65 88 122 65 88 122 65 88 122 65 88
122 65 88 121 64 88 121 64 88 121 64 88 121 64 88 121 64 88 120 64 88
120 64 88 120 64 88 120 64 88 119 64 88 119 63 88 119 63 88 119 63 88
118 63 88 118 63 88 118 63 88 117 63 88 117 63 88 117 62 87 117 62 87
116 62 87 116 62 87 116 62 87 115 62 87 115 62 86 115 61 86 115 61 86
114 61 86 114 61 86 114 61 85 113 61 85 113 61 85 113 60 85 112 60 84
112 60 84 112 60 84 112 60 84 111 59 83 111 59 83 111 59 83 110 59 82
110 59 82 110 59 82 109 58 82 109 58 81 109 58 81 108 58 81 108 58 80
108 57 80 107 57 80 107 57 79 107 57 79 107 57 79 106 57 78 106 56 78
106 56 78 105 56 77 105 56 77 105 56 77 104 55 76 104 55 76 104 55 76
103 55 75 103 55 75 103 54 75 102 54 74 102 54 74 102 54 74 101 54 73
101 54 73 101 53 73 101 53 72 100 53 72 100 53 72 100 53 71 99 52 71
99 52 70 99 52 70 98 52 70 98 52 69 98 52 69 97 51 69 97 51 69 97 51
68 97 51 68 96 51 68 96 50 67 96 50 67 95 50 67 95 50 66 95 50 66 95
50 66 94 49 65 94 49 65 94 49 65 93 49 64 93 49 64 93 49 64 93 48 64
92 48 63 92 48 63 92 48 63 91 48 62 91 48 62 91 47 62 91 47 61 90 47
61 90 47 61 90 47 61 90 47 60 89 46 60 89 46 60 89 46 60 88 46 59 88
46 59 88 46 59 88 46 59
14 7 10 14 7 10 14 7 10 14 7 10 14 7 10 14 7 10 14 7 10 14 7 10 79 35
22 79 35 22 79 35 22 79 35 22 29 50 86 29 50 86 29 50 86 29 50 86 29
50 86 29 50 88 29 50 87 24 47 82 24 47 82 24 47 82 24 47 82 24 47 82
24 47 82 24 47 82 24 47 82 24 47 82 24 47 82 24 47 82 24 47 82 24 48
83 24 48 87 25 49 90 25 50 93 25 50 96 25 51 99 25 51 101 25 52 104 25
53 107 26 53 110 26 54 113 26 55 116 26 55 118 26 56 121 26 56 124 26
57 127 26 57 129 26 58 132 27 59 134 27 59 137 27 60 140 27 60 142 27
61 145 39 80 157 40 82 160 41 83 163 41 84 166 42 86 168 42 87 171 43
88 174 44 89 177 44 91 179 45 92 182 45 93 185 46 94 187 47 95 190 58
102 200 67 108 208 77 114 219 86 121 232 90 123 233 92 123 230 92 123
229 92 124 229 92 124 229 92 124 230 91 124 230 91 124 231 90 124 231
90 124 231 89 124 231 89 123 230 88 122 229 87 121 227 85 118 222 82
113 213 102 49 47 102 49 48 102 49 48 103 49 48 103 50 48 103 50 48
103 50 48 104 50 48 104 50 49 104 50 49 105 50 49 105 50 49 105 51 49
105 51 49 106 51 49 106 51 50 106 51 50 107 51 50 107 51 50 107 52 50
107 52 50 108 52 51 108 52 51 108 52 51 109 52 51 109 52 51 109 53 51
109 53 52 110 53 52 110 53 52 110 53 52 110 53 52 111 53 52 111 54 53
111 54 53 112 54 53 112 54 53 112 54 53 112 54 53 113 54 54 113 55 54
113 55 54 114 55 54 114 55 54 114 55 54 114 55 55 115 55 55 115 56 55
115 56 55 115 56 55 116 56 56 116 56 56 116 56 56 116 56 56 117 57 56
117 57 57 117 57 57 117 57 57 118 57 57 118 57 57 118 57 57 118 57 58
119 58 58 119 58 58 119 58 58 119 58 58 120 58 59 120 58 59 120 58 59
120 59 59 121 59 60 121 59 60 121 59 60 121 59 60 121 59 60 122 59 61
122 59 61 122 60 61 122 60 61 123 60 61 123 60 62 123 60 62 123 60 62
123 60 62 123 60 63 124 60 63 124 61 63 124 61 63 124 61 63 124 61 64
125 61 64 125 61 64 125 61 64 125 61 65 125 61 65 125 62 65 126 62 65
126 62 66 126 62 66 126 62 66 126 62 66 126 62 67 126 62 67 126 62 67
127 62 67 127 63 67 127 63 68 127 63 68 127 63 68 127 63 68 127 63 69
127 63 69 127 63 69 128 63 70 128 63 70 128 63 70 128 64 70 128 64 71
128 64 71 128 64 71 128 64 71 128 64 72 128 64 72 128 64 72 128 64 72
128 64 73 128 64 73 128 64 73 128 64 74 128 64 74 128 65 74 128 65 74
128 65 75 128 65 75 128 65 75 128 65 76 128 65 76 128 65 76 128 65 76
128 65 77 128 65 77 128 65 77 128 65 78 128 65 78 128 65 78 128 65 78
128 65 79 128 65 79 128 65 79 128 65 80 128 65 80 128 65 80 128 65 80
128 65 81 128 66 81 128 66 81 128 66 81 128 66 82 127 66 82 127 66 82
127 66 83 127 66 83 127 66 83 127 66 83 127 66 84 127 66 84 127 66 84
127 66 84 126 66 85 126 66 85 126 66 85 126 66 85 126 66 86 126 66 86
126 66 86 125 66 86 125 66 86 125 66 87 125 66 87 125 65 87 125 65 87
124 65 87 124 65 87 124 65 88 124 65 88 124 65 88 124 65 88 123 65 88
123 65 88 123 65 88 123 65 89 123 65 89 122 65 89 122 65 89 122 65 89
122 65 89 122 65 89 121 65 89 121 64 89 121 64 89 121 64 89 120 64 89
120 64 89 120 64 89 120 64 89 119 64 89 119 64 89 119 64 89 119 63 89
118 63 89 118 63 89 118 63 89 118 63 88 117 63 88 117 63 88 117 63 88
116 62 88 116 62 88 116 62 88 116 62 87 115 62 87 115 62 87 115 62 87
114 61 87 114 61 86 114 61 86 114 61 86 113 61 86 113 61 85 113 60 85
112 60 85 112 60 85 112 60 84 111 60 84 111 60 84 111 59 83 111 59 83
110 59 83 110 59 83 110 59 82 109 58 82 109 58 82 109 58 81 108 58 81
108 58 81 108 58 80 107 57 80 107 57 80 107 57 79 106 57 79 106 57 79
106 56 78 105 56 78 105 56 78 105 56 77 104 56 77 104 55 77 104 55 76
104 55 76 103 55 76 103 55 75 103 54 75 102 54 74 102 54 74 102 54 74
101 54 73 101 54 73 101 53 73 100 53 72 100 53 72 100 53 72 100 53 71
99 52 71 99 52 71 99 52 70 98 52 70 98 52 70 98 52 69 97 51 69 97 51
69 97 51 68 97 51 68 96 51 68 96 50 67 96 50 67 95 50 67 95 50 66 95
50 66 94 50 66 94 49 65 94 49 65 94 49 65 93 49 65 93 49 64 93 49 64
92 48 64 92 48 63 92 48 63 92 48 63 91 48 62 91 48 62 91 47 62 91 47
62 90 47 61 90 47 61 90 47 61 90 47 61 89 46 60 89 46 60 89 46 60 88
46 59 88 46 59 88 46 59
14 7 10 14 7 10 14 7 10 14 7 10 14 7 10 14 7 10 14 7 10 14 7 10 14 7
10 79 35 22 79 35 22 14 7 10 29 50 86 29 50 86 29 50 86 29 50 86 29 50
86 30 51 89 29 50 88 29 50 86 24 47 82 24 47 82 24 47 82 24 47 82 24
47 82 24 47 82 24 47 82 24 47 82 24 47 82 24 47 82 24 47 82 24 48 83
24 48 86 25 49 89 25 49 92 25 50 95 25 51 98 25 51 101 25 52 104 25 53
107 25 53 110 26 54 113 26 54 115 26 55 118 26 56 121 26 56 123 26 57
126 26 57 129 26 58 131 27 58 134 27 59 137 27 60 139 27 60 142 38 78
153 39 79 156 39 80 159 40 82 162 40 83 164 41 84 167 42 86 170 42 87
173 43 88 175 43 89 178 44 90 181 44 92 183 53 97 191 61 102 198 70
107 207 79 114 218 85 118 226 88 119 226 89 120 225 90 121 225 90 121
225 90 121 226 90 122 227 90 122 227 89 122 228 89 122 229 89 122 229
88 122 229 88 122 229 87 121 228 86 120 227 85 119 224 84 116 219 79
109 205 102 49 48 102 49 48 102 49 48 103 49 48 103 50 48 103 50 48
103 50 48 104 50 49 104 50 49 104 50 49 105 50 49 105 51 49 105 51 49
105 51 49 106 51 50 106 51 50 106 51 50 107 51 50 107 51 50 107 52 50
107 52 51 108 52 51 108 52 51 108 52 51 109 52 51 109 52 51 109 53 51
109 53 52 110 53 52 110 53 52 110 53 52 110 53 52 111 53 52 111 54 53
111 54 53 112 54 53 112 54 53 112 54 53 112 54 53 113 54 54 113 55 54
113 55 54 113 55 54 114 55 54 114 55 55 114 55 55 115 55 55 115 56 55
115 56 55 115 56 55 116 56 56 116 56 56 116 56 56 116 56 56 117 57 56
117 57 57 117 57 57 117 57 57 118 57 57 118 57 57 118 57 58 118 57 58
119 58 58 119 58 58 119 58 58 119 58 59 120 58 59 120 58 59 120 58 59
120 59 59 120 59 60 121 59 60 121 59 60 121 59 60 121 59 60 122 59 61
122 59 61 122 60 61 122 60 61 122 60 62 123 60 62 123 60 62 123 60 62
123 60 62 123 60 63 124 60 63 124 61 63 124 61 63 124 61 64 124 61 64
124 61 64 125 61 64 125 61 64 125 61 65 125 61 65 125 62 65 125 62 65
125 62 66 126 62 66 126 62 66 126 62 66 126 62 67 126 62 67 126 62 67
126 62 67 127 63 68 127 63 68 127 63 68 127 63 68 127 63 69 127 63 69
127 63 69 127 63 69 127 63 70 127 63 70 128 63 70 128 63 70 128 64 71
128 64 71 128 64 71 128 64 72 128 64 72 128 64 72 128 64 72 128 64 73
128 64 73 128 64 73 128 64 73 128 64 74 128 64 74 128 64 74 128 65 75
128 65 75 128 65 75 128 65 75 128 65 76 128 65 76 128 65 76 128 65 77
128 65 77 128 65 77 128 65 77 128 65 78 128 65 78 128 65 78 128 65 79
128 65 79 128 65 79 128 65 79 128 65 80 128 65 80 128 65 80 128 65 81
128 66 81 128 66 81 128 66 81 128 66 82 127 66 82 127 66 82 127 66 83
127 66 83 127 66 83 127 66 83 127 66 84 127 66 84 127 66 84 127 66 84
126 66 85 126 66 85 126 66 85 126 66 85 126 66 86 126 66 86 126 66 86
126 66 86 125 66 87 125 66 87 125 66 87 125 66 87 125 66 87 125 66 88
124 66 88 124 65 88 124 65 88 124 65 88 124 65 88 124 65 89 123 65 89
123 65 89 123 65 89 123 65 89 123 65 89 122 65 89 122 65 89 122 65 89
122 65 90 122 65 90 121 65 90 121 65 90 121 64 90 121 64 90 120 64 90
120 64 90 120 64 90 120 64 90 120 64 90 119 64 90 119 64 90 119 64 89
119 63 89 118 63 89 118 63 89 118 63 89 117 63 89 117 63 89 117 63 89
117 63 89 116 62 88 116 62 88 116 62 88 115 62 88 115 62 88 115 62 87
115 62 87 114 61 87 114 61 87 114 61 87 113 61 86 113 61 86 113 61 86
113 60 86 112 60 85 112 60 85 112 60 85 111 60 84 111 60 84 111 59 84
110 59 84 110 59 83 110 59 83 109 59 83 109 58 82 109 58 82 108 58 82
108 58 81 108 58 81 108 58 81 107 57 80 107 57 80 107 57 80 106 57 79
106 57 79 106 56 79 105 56 78 105 56 78 105 56 78 104 56 77 104 55 77
104 55 77 103 55 76 103 55 76 103 55 75 103 54 75 102 54 75 102 54 74
102 54 74 101 54 74 101 54 73 101 53 73 100 53 73 100 53 72 100 53 72
99 53 72 99 52 71 99 52 71 99 52 71 98 52 70 98 52 70 98 52 70 97 51
69 97 51 69 97 51 69 96 51 68 96 51 68 96 50 68 96 50 67 95 50 67 95
50 67 95 50 66 94 50 66 94 49 66 94 49 65 94 49 65 93 49 65 93 49 64
93 49 64 92 48 64 92 48 64 92 48 63 92 48 63 91 48 63 91 48 62 91 47
62 91 47 62 90 47 61 90 47 61 90 47 61 89 47 61 89 46 60 89 46 60 89
46 60 88 46 60 88 46 59
14 7 10 14 7 10 14 7 10 14 7 10 14 7 10 14 7 10 14 7 10 14 7 10 14 7
10 14 7 10 14 7 10 14 7 10 29 50 86 29 50 86 29 50 86 29 50 86 29 50
86 30 51 89 30 51 89 29 50 88 29 50 86 24 47 82 24 47 82 24 47 82 24
47 82 24 47 82 24 47 82 24 47 82 24 47 82 24 47 82 24 47 82 24 47 83
24 48 86 25 49 89 25 49 92 25 50 95 25 51 98 25 51 101 25 52 104 25 53
106 25 53 109 26 54 112 26 54 115 26 55 118 26 56 120 26 56 123 26 57
126 26 57 128 26 58 131 27 58 134 27 59 136 27 59 139 36 75 149 37 76
152 38 78 155 38 79 158 39 80 160 40 82 163 40 83 166 41 84 169 41 85
171 42 87 174 43 88 177 50 93 184 57 97 190 65 102 197 73 107 207 80
112 215 84 115 219 86 116 220 87 117 220 88 118 221 88 118 221 88 119
222 88 119 223 88 119 224 88 120 225 88 120 226 87 120 226 87 120 227
87 120 227 86 120 227 86 119 226 85 118 224 84 116 221 82 113 216 102
49 47 102 49 48 102 49 48 102 49 48 103 49 48 103 50 48 103 50 48 103
50 48 104 50 49 104 50 49 104 50 49 105 50 49 105 51 49 105 51 49 105
51 50 106 51 50 106 51 50 106 51 50 107 51 50 107 52 50 107 52 50 107
52 51 108 52 51 108 52 51 108 52 51 108 52 51 109 52 51 109 53 52 109
53 52 110 53 52 110 53 52 110 53 52 110 53 52 111 53 53 111 54 53 111
54 53 112 54 53 112 54 53 112 54 53 112 54 54 113 54 54 113 55 54 113
55 54 113 55 54 114 55 54 114 55 55 114 55 55 114 55 55 115 56 55 115
56 55 115 56 56 116 56 56 116 56 56 116 56 56 116 56 56 117 57 57 117
57 57 117 57 57 117 57 57 118 57 57 118 57 57 118 57 58 118 57 58 118
58 58 119 58 58 119 58 58 119 58 59 119 58 59 120 58 59 120 58 59 120
58 59 120 59 60 121 59 60 121 59 60 121 59 60 121 59 61 121 59 61 122
59 61 122 59 61 122 60 61 122 60 62 122 60 62 123 60 62 123 60 62 123
60 62 123 60 63 123 60 63 124 61 63 124 61 63 124 61 64 124 61 64 124
61 64 124 61 64 125 61 65 125 61 65 125 61 65 125 62 65 125 62 66 125
62 66 125 62 66 126 62 66 126 62 66 126 62 67 126 62 67 126 62 67 126
62 67 126 62 68 126 63 68 127 63 68 127 63 69 127 63 69 127 63 69 127
63 69 127 63 70 127 63 70 127 63 70 127 63 70 127 63 71 127 64 71 128
64 71 128 64 71 128 64 72 128 64 72 128 64 72 128 64 73 128 64 73 128
64 73 128 64 73 128 64 74 128 64 74 128 64 74 128 64 74 128 65 75 128
65 75 128 65 75 128 65 76 128 65 76 128 65 76 128 65 77 128 65 77 128
65 77 128 65 77 128 65 78 128 65 78 128 65 78 128 65 79 128 65 79 128
65 79 128 65 79 128 65 80 128 65 80 128 65 80 128 65 81 128 65 81 128
66 81 128 66 81 127 66 82 127 66 82 127 66 82 127 66 83 127 66 83 127
66 83 127 66 83 127 66 84 127 66 84 127 66 84 127 66 85 126 66 85 126
66 85 126 66 85 126 66 86 126 66 86 126 66 86 126 66 86 126 66 87 126
66 87 125 66 87 125 66 87 125 66 87 125 66 88 125 66 88 125 66 88 124
66 88 124 66 88 124 66 89 124 66 89 124 65 89 124 65 89 123 65 89 123
65 89 123 65 90 123 65 90 123 65 90 122 65 90 122 65 90 122 65 90 122
65 90 122 65 90 121 65 90 121 65 90 121 65 90 121 65 90 121 64 90 120
64 90 120 64 90 120 64 90 120 64 90 119 64 90 119 64 90 119 64 90 119
64 90 118 64 90 118 63 90 118 63 90 118 63 90 117 63 90 117 63 89 117
63 89 116 63 89 116 62 89 116 62 89 116 62 89 115 62 88 115 62 88 115
62 88 114 62 88 114 61 88 114 61 87 114 61 87 113 61 87 113 61 87 113
61 86 112 60 86 112 60 86 112 60 85 111 60 85 111 60 85 111 60 85 111
59 84 110 59 84 110 59 84 110 59 83 109 59 83 109 58 83 109 58 82 108
58 82 108 58 82 108 58 81 107 58 81 107 57 81 107 57 80 106 57 80 106
57 80 106 57 79 106 56 79 105 56 79 105 56 78 105 56 78 104 56 77 104
55 77 104 55 77 103 55 76 103 55 76 103 55 76 102 54 75 102 54 75 102
54 75 101 54 74 101 54 74 101 54 74 101 53 73 100 53 73 100 53 72 100
53 72 99 53 72 99 52 71 99 52 71 98 52 71 98 52 70 98 52 70 98 52 70
97 51 69 97 51 69 97 51 69 96 51 68 96 51 68 96 50 68 95 50 67 95 50
67 95 50 67 95 50 66 94 50 66 94 49 66 94 49 65 93 49 65 93 49 65 93
49 65 93 49 64 92 48 64 92 48 64 92 48 63 92 48 63 91 48 63 91 48 62
91 47 62 90 47 62 90 47 62 90 47 61 90 47 61 89 47 61 89 46 61 89 46
60 89 46 60 88 46 60
14 7 10 14 7 10 14 7 10 14 7 10 14 7 10 14 7 10 14 7 10 14 7 10 14 7
10 14 7 10 14 7 10 14 7 10 29 50 86 29 50 86 29 50 86 29 50 86 29 50
86 30 51 90 30 51 89 30 51 88 29 50 88 29 50 86 24 47 82 24 47 82 24
47 82 24 47 82 24 47 82 24 47 82 24 47 82 24 47 82 24 47 82 24 47 82
24 48 85 25 49 89 25 49 92 25 50 94 25 51 97 25 51 100 25 52 103 25 52
106 25 53 109 26 54 112 26 54 114 26 55 117 26 55 120 26 56 123 26 57
125 26 57 128 26 58 130 27 58 133 27 59 136 35 72 145 36 74 148 36 75
151 37 76 154 38 78 156 38 79 159 39 80 162 39 82 165 40 83 167 41 84
170 48 89 177 55 93 183 62 97 190 69 102 197 75 106 205 79 110 210 82
111 212 84 113 214 85 114 215 85 115 216 86 115 217 86 116 218 86 116
220 86 117 221 86 117 222 86 118 223 86 118 224 86 118 224 86 118 225
85 118 225 85 117 224 84 117 223 83 116 221 82 114 218 80 110 211 102
49 48 102 49 48 102 49 48 102 49 48 103 49 48 103 50 48 103 50 48 104
50 49 104 50 49 104 50 49 104 50 49 105 50 49 105 51 49 105 51 49 105
51 50 106 51 50 106 51 50 106 51 50 107 51 50 107 52 50 107 52 51 107
52 51 108 52 51 108 52 51 108 52 51 108 52 51 109 53 51 109 53 52 109
53 52 110 53 52 110 53 52 110 53 52 110 53 52 111 53 53 111 54 53 111
54 53 111 54 53 112 54 53 112 54 53 112 54 54 113 54 54 113 55 54 113
55 54 113 55 54 114 55 55 114 55 55 114 55 55 114 55 55 115 56 55 115
56 55 115 56 56 115 56 56 116 56 56 116 56 56 116 56 56 116 56 57 117
57 57 117 57 57 117 57 57 117 57 57 118 57 58 118 57 58 118 57 58 118
58 58 119 58 58 119 58 59 119 58 59 119 58 59 120 58 59 120 58 59 120
58 60 120 59 60 120 59 60 121 59 60 121 59 60 121 59 61 121 59 61 121
59 61 122 59 61 122 60 61 122 60 62 122 60 62 122 60 62 123 60 62 123
60 63 123 60 63 123 60 63 123 60 63 124 61 63 124 61 64 124 61 64 124
61 64 124 61 64 124 61 65 125 61 65 125 61 65 125 61 65 125 62 66 125
62 66 125 62 66 125 62 66 126 62 67 126 62 67 126 62 67 126 62 67 126
62 68 126 62 68 126 63 68 126 63 68 126 63 69 127 63 69 127 63 69 127
63 69 127 63 70 127 63 70 127 63 70 127 63 70 127 63 71 127 63 71 127
64 71 127 64 72 127 64 72 128 64 72 128 64 72 128 64 73 128 64 73 128
64 73 128 64 74 128 64 74 128 64 74 128 64 74 128 64 75 128 64 75 128
65 75 128 65 76 128 65 76 128 65 76 128 65 76 128 65 77 128 65 77 128
65 77 128 65 78 128 65 78 128 65 78 128 65 78 128 65 79 128 65 79 128
65 79 128 65 80 128 65 80 128 65 80 128 65 81 128 65 81 128 65 81 127
66 81 127 66 82 127 66 82 127 66 82 127 66 83 127 66 83 127 66 83 127
66 83 127 66 84 127 66 84 127 66 84 127 66 85 127 66 85 126 66 85 126
66 85 126 66 86 126 66 86 126 66 86 126 66 86 126 66 87 126 66 87 125
66 87 125 66 87 125 66 88 125 66 88 125 66 88 125 66 88 125 66 89 124
66 89 124 66 89 124 66 89 124 66 89 124 66 89 124 66 90 123 65 90 123
65 90 123 65 90 123 65 90 123 65 90 123 65 90 122 65 91 122 65 91 122
65 91 122 65 91 121 65 91 121 65 91 121 65 91 121 65 91 121 65 91 120
65 91 120 64 91 120 64 91 120 64 91 119 64 91 119 64 91 119 64 91 119
64 91 118 64 91 118 64 91 118 63 90 118 63 90 117 63 90 117 63 90 117
63 90 117 63 90 116 63 90 116 63 89 116 62 89 115 62 89 115 62 89 115
62 89 115 62 88 114 62 88 114 61 88 114 61 88 113 61 87 113 61 87 113
61 87 113 61 87 112 60 86 112 60 86 112 60 86 111 60 86 111 60 85 111
60 85 110 59 85 110 59 84 110 59 84 109 59 84 109 59 83 109 58 83 109
58 83 108 58 82 108 58 82 108 58 82 107 58 81 107 57 81 107 57 81 106
57 80 106 57 80 106 57 80 105 56 79 105 56 79 105 56 78 104 56 78 104
56 78 104 55 77 104 55 77 103 55 77 103 55 76 103 55 76 102 54 76 102
54 75 102 54 75 101 54 74 101 54 74 101 54 74 100 53 73 100 53 73 100
53 73 100 53 72 99 53 72 99 52 72 99 52 71 98 52 71 98 52 71 98 52 70
97 52 70 97 51 70 97 51 69 97 51 69 96 51 69 96 51 68 96 50 68 95 50
68 95 50 67 95 50 67 95 50 67 94 50 66 94 49 66 94 49 66 93 49 65 93
49 65 93 49 65 93 49 64 92 48 64 92 48 64 92 48 63 92 48 63 91 48 63
91 48 63 91 47 62 90 47 62 90 47 62 90 47 61 90 47 61 89 47 61 89 46
61 89 46 60 89 46 60
14 7 10 14 7 10 14 7 10 14 7 10 14 7 10 14 7 10 14 7 10 14 7 10 14 7
10 14 7 10 14 7 10 14 7 10 29 50 86 29 50 86 29 50 86 29 50 86 29 50
86 30 51 90 30 51 90 30 51 89 30 51 89 29 50 88 29 50 87 24 47 82 24
47 82 24 47 82 24 47 82 24 47 82 24 47 82 24 47 82 24 47 82 24 47 82
24 48 85 25 49 88 25 49 91 25 50 94 25 50 97 25 51 100 25 52 103 25 52
106 25 53 108 26 54 111 26 54 114 26 55 117 26 55 119 26 56 122 26 56
125 26 57 127 26 58 130 27 58 132 34 69 141 34 71 144 35 72 147 35 74
149 36 75 152 37 76 155 37 78 158 38 79 161 39 80 163 48 86 171 45 86
175 60 94 183 66 98 190 71 101 196 75 104 201 78 107 204 80 108 207 81
109 208 82 111 210 83 111 211 84 112 213 84 113 214 84 114 216 84 114
217 84 115 218 85 115 220 84 116 221 84 116 221 84 116 222 84 116 222
84 116 222 83 115 222 83 114 220 82 113 218 80 111 214 78 106 205 102
49 48 102 49 48 102 49 48 102 49 48 103 50 48 103 50 48 103 50 48 104
50 49 104 50 49 104 50 49 104 50 49 105 50 49 105 51 49 105 51 50 105
51 50 106 51 50 106 51 50 106 51 50 107 51 50 107 52 50 107 52 51 107
52 51 108 52 51 108 52 51 108 52 51 108 52 51 109 53 52 109 53 52 109
53 52 110 53 52 110 53 52 110 53 52 110 53 53 111 53 53 111 54 53 111
54 53 111 54 53 112 54 53 112 54 54 112 54 54 112 54 54 113 55 54 113
55 54 113 55 54 114 55 55 114 55 55 114 55 55 114 55 55 115 56 55 115
56 56 115 56 56 115 56 56 116 56 56 116 56 56 116 56 56 116 56 57 117
57 57 117 57 57 117 57 57 117 57 57 118 57 58 118 57 58 118 57 58 118
58 58 118 58 58 119 58 59 119 58 59 119 58 59 119 58 59 120 58 59 120
58 60 120 59 60 120 59 60 120 59 60 121 59 60 121 59 61 121 59 61 121
59 61 122 59 61 122 59 62 122 60 62 122 60 62 122 60 62 122 60 62 123
60 63 123 60 63 123 60 63 123 60 63 123 61 64 124 61 64 124 61 64 124
61 64 124 61 65 124 61 65 124 61 65 125 61 65 125 61 65 125 61 66 125
62 66 125 62 66 125 62 66 125 62 67 125 62 67 126 62 67 126 62 67 126
62 68 126 62 68 126 62 68 126 63 68 126 63 69 126 63 69 126 63 69 127
63 70 127 63 70 127 63 70 127 63 70 127 63 71 127 63 71 127 63 71 127
63 71 127 64 72 127 64 72 127 64 72 127 64 73 127 64 73 128 64 73 128
64 73 128 64 74 128 64 74 128 64 74 128 64 75 128 64 75 128 64 75 128
64 75 128 65 76 128 65 76 128 65 76 128 65 77 128 65 77 128 65 77 128
65 77 128 65 78 128 65 78 128 65 78 128 65 79 128 65 79 128 65 79 128
65 80 128 65 80 128 65 80 128 65 80 127 65 81 127 65 81 127 65 81 127
66 82 127 66 82 127 66 82 127 66 83 127 66 83 127 66 83 127 66 83 127
66 84 127 66 84 127 66 84 127 66 85 126 66 85 126 66 85 126 66 85 126
66 86 126 66 86 126 66 86 126 66 87 126 66 87 126 66 87 126 66 87 125
66 88 125 66 88 125 66 88 125 66 88 125 66 89 125 66 89 125 66 89 124
66 89 124 66 89 124 66 90 124 66 90 124 66 90 124 66 90 123 66 90 123
66 90 123 65 91 123 65 91 123 65 91 123 65 91 122 65 91 122 65 91 122
65 91 122 65 91 122 65 91 121 65 91 121 65 91 121 65 91 121 65 92 120
65 92 120 65 92 120 64 92 120 64 92 120 64 91 119 64 91 119 64 91 119
64 91 119 64 91 118 64 91 118 64 91 118 63 91 118 63 91 117 63 91 117
63 91 117 63 90 116 63 90 116 63 90 116 63 90 116 62 90 115 62 90 115
62 89 115 62 89 114 62 89 114 62 89 114 61 88 114 61 88 113 61 88 113
61 88 113 61 87 112 61 87 112 60 87 112 60 87 112 60 86 111 60 86 111
60 86 111 60 85 110 59 85 110 59 85 110 59 84 109 59 84 109 59 84 109
58 83 108 58 83 108 58 83 108 58 82 107 58 82 107 58 82 107 57 81 107
57 81 106 57 80 106 57 80 106 57 80 105 56 79 105 56 79 105 56 79 104
56 78 104 56 78 104 55 78 103 55 77 103 55 77 103 55 76 102 55 76 102
54 76 102 54 75 102 54 75 101 54 75 101 54 74 101 54 74 100 53 74 100
53 73 100 53 73 99 53 72 99 53 72 99 52 72 99 52 71 98 52 71 98 52 71
98 52 70 97 52 70 97 51 70 97 51 69 96 51 69 96 51 69 96 51 68 96 50
68 95 50 68 95 50 67 95 50 67 94 50 67 94 50 66 94 49 66 94 49 66 93
49 65 93 49 65 93 49 65 93 49 65 92 48 64 92 48 64 92 48 64 91 48 63
91 48 63 91 48 63 91 47 62 90 47 62 90 47 62 90 47 62 90 47 61 89 47
61 89 47 61 89 46 60
14 7 10 14 7 10 14 7 10 14 7 10 14 7 10 14 7 10 14 7 10 14 7 10 14 7
10 14 7 10 14 7 10 14 7 10 29 50 86 29 50 86 29 50 86 29 50 86 29 50
86 30 51 90 30 51 90 30 51 90 30 51 89 30 51 89 29 50 88 29 50 87 29
50 86 24 47 82 24 47 82 24 47 82 24 47 82 24 47 82 24 47 82 24 47 82
24 48 84 24 48 88 25 49 90 25 50 93 25 50 96 25 51 99 25 52 102 25 52
105 25 53 108 26 53 111 26 54 113 26 55 116 26 55 119 26 56 121 26 56
124 26 57 127 26 57 129 32 67 136 33 68 139 33 70 142 34 71 145 35 72
148 35 74 151 36 75 154 41 79 161 42 80 165 43 82 169 59 90 177 64 94
183 68 97 188 72 100 193 74 102 196 77 104 199 78 105 201 79 106 203
80 107 205 81 108 207 81 109 209 82 110 210 82 111 212 83 112 213 83
112 215 83 113 216 83 113 217 83 113 218 83 114 219 83 114 220 83 114
220 82 113 220 82 113 219 81 112 217 80 110 215 79 108 210 101 49 48
102 49 48 102 49 48 102 49 48 102 49 48 103 50 48 103 50 48 103 50 49
104 50 49 104 50 49 104 50 49 104 50 49 105 50 49 105 51 49 105 51 50
105 51 50 106 51 50 106 51 50 106 51 50 107 51 50 107 52 51 107 52 51
107 52 51 108 52 51 108 52 51 108 52 51 108 52 51 109 53 52 109 53 52
109 53 52 110 53 52 110 53 52 110 53 52 110 53 53 111 53 53 111 54 53
111 54 53 111 54 53 112 54 53 112 54 54 112 54 54 112 54 54 113 55 54
113 55 54 113 55 55 113 55 55 114 55 55 114 55 55 114 55 55 114 55 55
115 56 56 115 56 56 115 56 56 115 56 56 116 56 56 116 56 57 116 56 57
116 57 57 117 57 57 117 57 57 117 57 58 117 57 58 118 57 58 118 57 58
118 57 58 118 58 58 119 58 59 119 58 59 119 58 59 119 58 59 119 58 60
120 58 60 120 58 60 120 59 60 120 59 60 121 59 61 121 59 61 121 59 61
121 59 61 121 59 61 122 59 62 122 60 62 122 60 62 122 60 62 122 60 63
122 60 63 123 60 63 123 60 63 123 60 63 123 60 64 123 61 64 124 61 64
124 61 64 124 61 65 124 61 65 124 61 65 124 61 65 124 61 66 125 61 66
125 62 66 125 62 66 125 62 67 125 62 67 125 62 67 125 62 67 126 62 68
126 62 68 126 62 68 126 62 68 126 62 69 126 63 69 126 63 69 126 63 69
126 63 70 126 63 70 127 63 70 127 63 70 127 63 71 127 63 71 127 63 71
127 63 72 127 64 72 127 64 72 127 64 72 127 64 73 127 64 73 127 64 73
127 64 73 127 64 74 127 64 74 127 64 74 127 64 75 128 64 75 128 64 75
128 64 76 128 64 76 128 65 76 128 65 76 128 65 77 128 65 77 128 65 77
128 65 78 128 65 78 128 65 78 128 65 79 128 65 79 128 65 79 128 65 79
127 65 80 127 65 80 127 65 80 127 65 81 127 65 81 127 65 81 127 65 82
127 65 82 127 66 82 127 66 83 127 66 83 127 66 83 127 66 83 127 66 84
127 66 84 127 66 84 127 66 85 126 66 85 126 66 85 126 66 86 126 66 86
126 66 86 126 66 86 126 66 87 126 66 87 126 66 87 126 66 87 125 66 88
125 66 88 125 66 88 125 66 88 125 66 89 125 66 89 125 66 89 125 66 89
124 66 90 124 66 90 124 66 90 124 66 90 124 66 90 124 66 91 123 66 91
123 66 91 123 66 91 123 66 91 123 65 91 123 65 91 122 65 92 122 65 92
122 65 92 122 65 92 122 65 92 121 65 92 121 65 92 121 65 92 121 65 92
120 65 92 120 65 92 120 65 92 120 64 92 120 64 92 119 64 92 119 64 92
119 64 92 119 64 92 118 64 92 118 64 92 118 64 92 118 64 91 117 63 91
117 63 91 117 63 91 117 63 91 116 63 91 116 63 91 116 63 90 115 62 90
115 62 90 115 62 90 115 62 90 114 62 89 114 62 89 114 61 89 113 61 89
113 61 88 113 61 88 113 61 88 112 61 87 112 60 87 112 60 87 111 60 87
111 60 86 111 60 86 110 60 86 110 59 85 110 59 85 110 59 85 109 59 84
109 59 84 109 58 84 108 58 83 108 58 83 108 58 83 107 58 82 107 58 82
107 57 81 106 57 81 106 57 81 106 57 80 105 57 80 105 56 80 105 56 79
105 56 79 104 56 79 104 56 78 104 55 78 103 55 77 103 55 77 103 55 77
102 55 76 102 54 76 102 54 76 101 54 75 101 54 75 101 54 74 101 54 74
100 53 74 100 53 73 100 53 73 99 53 73 99 53 72 99 52 72 98 52 72 98
52 71 98 52 71 98 52 71 97 51 70 97 51 70 97 51 69 96 51 69 96 51 69
96 51 68 96 50 68 95 50 68 95 50 67 95 50 67 94 50 67 94 50 67 94 49
66 94 49 66 93 49 66 93 49 65 93 49 65 92 49 65 92 48 64 92 48 64 92
48 64 91 48 63 91 48 63 91 48 63 91 47 63 90 47 62 90 47 62 90 47 62
90 47 61 89 47 61 89 47 61
14 7 10 14 7 10 14 7 10 14 7 10 14 7 10 14 7 10 14 7 10 14 7 10 14 7
10 14 7 10 14 7 10 14 7 10 29 50 86 29 50 86 29 50 86 29 50 86 29 50
86 30 51 91 30 51 90 30 51 90 30 51 90 30 51 89 30 51 89 30 51 89 29
50 88 29 50 87 29 50 86 24 47 82 24 47 82 24 47 82 24 47 82 24 47 82
24 48 84 24 48 87 25 49 90 25 50 93 25 50 96 25 51 99 25 51 101 25 52
104 25 53 107 26 53 110 26 54 113 26 54 115 26 55 118 26 56 121 26 56
123 26 57 126 31 64 132 31 65 135 32 67 138 33 68 141 33 69 144 39 74
151 40 75 155 40 77 159 54 84 166 58 87 171 62 90 176 66 93 181 69 95
185 71 97 188 73 99 191 75 101 194 76 102 196 77 103 198 78 104 200 79
105 202 79 106 204 80 107 206 80 108 208 81 109 209 81 109 211 81 110
212 81 111 214 81 111 215 81 111 216 81 112 217 81 112 217 81 111 217
81 111 217 80 110 216 80 109 214 78 108 211 77 104 205 101 49 48 102
49 48 102 49 48 102 49 48 102 49 48 103 50 48 103 50 48 103 50 49 104
50 49 104 50 49 104 50 49 104 50 49 105 50 49 105 51 50 105 51 50 105
51 50 106 51 50 106 51 50 106 51 50 107 51 50 107 52 51 107 52 51 107
52 51 108 52 51 108 52 51 108 52 51 108 52 52 109 53 52 109 53 52 109
53 52 109 53 52 110 53 52 110 53 53 110 53 53 111 53 53 111 54 53 111
54 53 111 54 53 112 54 54 112 54 54 112 54 54 112 54 54 113 55 54 113
55 54 113 55 55 113 55 55 114 55 55 114 55 55 114 55 55 114 55 55 115
56 56 115 56 56 115 56 56 115 56 56 116 56 56 116 56 57 116 56 57 116
57 57 117 57 57 117 57 57 117 57 58 117 57 58 118 57 58 118 57 58 118
57 58 118 58 59 118 58 59 119 58 59 119 58 59 119 58 59 119 58 60 120
58 60 120 58 60 120 59 60 120 59 60 120 59 61 121 59 61 121 59 61 121
59 61 121 59 61 121 59 62 122 60 62 122 60 62 122 60 62 122 60 63 122
60 63 122 60 63 123 60 63 123 60 64 123 60 64 123 61 64 123 61 64 123
61 64 124 61 65 124 61 65 124 61 65 124 61 65 124 61 66 124 61 66 125
61 66 125 62 66 125 62 67 125 62 67 125 62 67 125 62 67 125 62 68 125
62 68 126 62 68 126 62 68 126 62 69 126 63 69 126 63 69 126 63 69 126
63 70 126 63 70 126 63 70 126 63 71 127 63 71 127 63 71 127 63 71 127
63 72 127 63 72 127 64 72 127 64 72 127 64 73 127 64 73 127 64 73 127
64 74 127 64 74 127 64 74 127 64 74 127 64 75 127 64 75 127 64 75 127
64 76 127 64 76 127 64 76 127 65 77 127 65 77 127 65 77 127 65 77 127
65 78 127 65 78 127 65 78 127 65 79 127 65 79 127 65 79 127 65 80 127
65 80 127 65 80 127 65 81 127 65 81 127 65 81 127 65 82 127 65 82 127
65 82 127 65 82 127 66 83 127 66 83 127 66 83 127 66 84 127 66 84 127
66 84 127 66 85 126 66 85 126 66 85 126 66 85 126 66 86 126 66 86 126
66 86 126 66 87 126 66 87 126 66 87 126 66 87 125 66 88 125 66 88 125
66 88 125 66 89 125 66 89 125 66 89 125 66 89 125 66 89 124 66 90 124
66 90 124 66 90 124 66 90 124 66 91 124 66 91 124 66 91 123 66 91 123
66 91 123 66 91 123 66 92 123 66 92 123 66 92 122 65 92 122 65 92 122
65 92 122 65 92 122 65 92 121 65 92 121 65 93 121 65 93 121 65 93 121
65 93 120 65 93 120 65 93 120 65 93 120 65 93 119 64 93 119 64 93 119
64 92 119 64 92 118 64 92 118 64 92 118 64 92 118 64 92 117 64 92 117
63 92 117 63 92 117 63 92 116 63 91 116 63 91 116 63 91 116 63 91 115
62 91 115 62 90 115 62 90 114 62 90 114 62 90 114 62 89 114 61 89 113
61 89 113 61 89 113 61 88 112 61 88 112 61 88 112 60 88 111 60 87 111
60 87 111 60 87 111 60 86 110 60 86 110 59 86 110 59 85 109 59 85 109
59 85 109 59 84 108 58 84 108 58 84 108 58 83 108 58 83 107 58 82 107
58 82 107 57 82 106 57 81 106 57 81 106 57 81 105 57 80 105 56 80 105
56 79 104 56 79 104 56 79 104 56 78 103 55 78 103 55 78 103 55 77 103
55 77 102 55 76 102 54 76 102 54 76 101 54 75 101 54 75 101 54 75 100
54 74 100 53 74 100 53 74 100 53 73 99 53 73 99 53 72 99 52 72 98 52
72 98 52 71 98 52 71 97 52 71 97 51 70 97 51 70 97 51 70 96 51 69 96
51 69 96 51 69 95 50 68 95 50 68 95 50 68 95 50 67 94 50 67 94 50 67
94 49 66 93 49 66 93 49 66 93 49 65 93 49 65 92 49 65 92 48 64 92 48
64 92 48 64 91 48 64 91 48 63 91 48 63 91 47 63 90 47 62 90 47 62 90
47 62 89 47 61 89 47 61
14 7 10 14 7 10 14 7 10 14 7 10 14 7 10 14 7 10 14 7 10 14 7 10 14 7
10 14 7 10 14 7 10 14 7 10 29 50 86 29 50 86 29 50 86 29 50 86 29 50
86 29 50 86 30 51 91 30 51 90 30 51 90 30 51 90 30 51 90 30 51 89 30
51 89 30 51 89 29 50 88 29 50 88 29 50 87 29 50 86 24 47 82 24 47 82
24 48 83 24 48 86 25 49 89 25 49 92 25 50 95 25 51 98 25 51 101 25 52
104 25 53 106 25 53 109 26 54 112 26 54 115 26 55 117 26 55 120 26 56
123 29 61 128 35 65 134 38 68 138 41 70 143 44 73 147 48 76 151 51 79
156 55 81 160 58 84 165 61 86 169 64 89 173 66 91 177 68 93 180 70 95
183 72 96 186 73 98 188 74 99 191 75 100 193 76 101 196 77 102 198 77
103 200 78 104 202 78 105 204 79 106 205 79 107 207 79 107 209 80 108
210 80 108 211 80 109 212 80 109 213 80 109 214 80 109 214 80 109 214
79 109 214 79 108 213 78 107 210 77 104 206 74 99 196 101 49 48 102 49
48 102 49 48 102 49 48 103 49 48 103 50 48 103 50 49 103 50 49 104 50
49 104 50 49 104 50 49 104 50 49 105 50 49 105 51 50 105 51 50 105 51
50 106 51 50 106 51 50 106 51 50 106 51 51 107 52 51 107 52 51 107 52
51 108 52 51 108 52 51 108 52 51 108 52 52 109 53 52 109 53 52 109 53
52 109 53 52 110 53 52 110 53 53 110 53 53 110 53 53 111 54 53 111 54
53 111 54 53 111 54 54 112 54 54 112 54 54 112 54 54 113 55 54 113 55
54 113 55 55 113 55 55 114 55 55 114 55 55 114 55 55 114 55 56 115 56
56 115 56 56 115 56 56 115 56 56 115 56 56 116 56 57 116 56 57 116 56
57 116 57 57 117 57 57 117 57 58 117 57 58 117 57 58 118 57 58 118 57
58 118 58 59 118 58 59 118 58 59 119 58 59 119 58 59 119 58 60 119 58
60 120 58 60 120 58 60 120 59 60 120 59 61 120 59 61 121 59 61 121 59
61 121 59 62 121 59 62 121 59 62 122 60 62 122 60 62 122 60 63 122 60
63 122 60 63 122 60 63 123 60 64 123 60 64 123 60 64 123 61 64 123 61
65 123 61 65 124 61 65 124 61 65 124 61 65 124 61 66 124 61 66 124 61
66 124 61 66 125 62 67 125 62 67 125 62 67 125 62 67 125 62 68 125 62
68 125 62 68 125 62 68 126 62 69 126 62 69 126 63 69 126 63 70 126 63
70 126 63 70 126 63 70 126 63 71 126 63 71 126 63 71 126 63 71 126 63
72 127 63 72 127 63 72 127 64 73 127 64 73 127 64 73 127 64 73 127 64
74 127 64 74 127 64 74 127 64 75 127 64 75 127 64 75 127 64 75 127 64
76 127 64 76 127 64 76 127 65 77 127 65 77 127 65 77 127 65 78 127 65
78 127 65 78 127 65 79 127 65 79 127 65 79 127 65 79 127 65 80 127 65
80 127 65 80 127 65 81 127 65 81 127 65 81 127 65 82 127 65 82 127 65
82 127 65 83 127 66 83 127 66 83 127 66 84 127 66 84 126 66 84 126 66
85 126 66 85 126 66 85 126 66 85 126 66 86 126 66 86 126 66 86 126 66
87 126 66 87 126 66 87 126 66 87 125 66 88 125 66 88 125 66 88 125 66
89 125 66 89 125 66 89 125 66 89 125 66 90 125 66 90 124 66 90 124 66
90 124 66 91 124 66 91 124 66 91 124 66 91 123 66 91 123 66 92 123 66
92 123 66 92 123 66 92 123 66 92 122 66 92 122 66 92 122 65 93 122 65
93 122 65 93 122 65 93 121 65 93 121 65 93 121 65 93 121 65 93 121 65
93 120 65 93 120 65 93 120 65 93 120 65 93 119 65 93 119 64 93 119 64
93 119 64 93 118 64 93 118 64 93 118 64 93 118 64 93 117 64 93 117 64
92 117 63 92 117 63 92 116 63 92 116 63 92 116 63 92 116 63 91 115 63
91 115 62 91 115 62 91 115 62 91 114 62 90 114 62 90 114 62 90 113 61
90 113 61 89 113 61 89 113 61 89 112 61 88 112 61 88 112 60 88 111 60
88 111 60 87 111 60 87 110 60 87 110 60 86 110 59 86 110 59 86 109 59
85 109 59 85 109 59 84 108 58 84 108 58 84 108 58 83 107 58 83 107 58
83 107 58 82 106 57 82 106 57 82 106 57 81 105 57 81 105 57 80 105 56
80 105 56 80 104 56 79 104 56 79 104 56 79 103 55 78 103 55 78 103 55
77 102 55 77 102 55 77 102 54 76 102 54 76 101 54 76 101 54 75 101 54
75 100 53 74 100 53 74 100 53 74 99 53 73 99 53 73 99 53 73 99 52 72
98 52 72 98 52 71 98 52 71 97 52 71 97 51 70 97 51 70 96 51 70 96 51
69 96 51 69 96 51 69 95 50 68 95 50 68 95 50 68 95 50 67 94 50 67 94
50 67 94 49 66 93 49 66 93 49 66 93 49 65 93 49 65 92 49 65 92 48 65
92 48 64 92 48 64 91 48 64 91 48 63 91 48 63 90 47 63 90 47 62 90 47
62 90 47 62 89 47 62
14 7 10 14 7 10 14 7 10 14 7 10 14 7 10 14 7 10 14 7 10 14 7 10 14 7
10 14 7 10 14 7 10 14 7 10 14 7 10 29 50 86 29 50 86 29 50 86 29 50 86
29 50 86 30 51 91 30 51 91 30 51 91 30 51 90 30 51 90 30 51 90 30 51
90 30 51 90 30 51 89 30 51 89 30 51 89 30 51 88 29 50 88 29 50 88 34
52 88 33 52 91 32 53 93 31 53 96 31 53 98 30 53 101 30 54 104 31 55
107 31 55 110 32 56 113 33 57 116 34 58 119 35 59 122 37 61 126 40 64
130 42 67 134 45 69 138 47 71 142 50 74 146 52 76 150 55 78 154 57 81
158 60 83 162 62 85 165 64 87 169 66 88 172 67 90 175 69 92 178 70 93
181 71 95 184 72 96 186 73 97 189 74 98 191 75 99 193 75 100 195 76
101 197 76 102 199 77 103 201 77 104 203 78 105 205 78 105 206 78 106
208 78 106 209 78 107 210 78 107 211 78 107 211 78 107 211 78 107 211
78 106 210 77 105 209 76 104 206 74 101 201 101 49 48 101 49 48 102 49
48 102 49 48 102 49 48 103 49 48 103 50 48 103 50 49 103 50 49 104 50
49 104 50 49 104 50 49 104 50 49 105 51 50 105 51 50 105 51 50 105 51
50 106 51 50 106 51 50 106 51 50 106 51 51 107 52 51 107 52 51 107 52
51 108 52 51 108 52 51 108 52 52 108 52 52 109 52 52 109 53 52 109 53
52 109 53 52 110 53 52 110 53 53 110 53 53 110 53 53 111 54 53 111 54
53 111 54 54 111 54 54 112 54 54 112 54 54 112 54 54 112 54 54 113 55
55 113 55 55 113 55 55 113 55 55 114 55 55 114 55 55 114 55 56 114 56
56 115 56 56 115 56 56 115 56 56 115 56 57 116 56 57 116 56 57 116 56
57 116 57 57 117 57 58 117 57 58 117 57 58 117 57 58 117 57 58 118 57
58 118 57 59 118 58 59 118 58 59 119 58 59 119 58 60 119 58 60 119 58
60 119 58 60 120 58 60 120 59 61 120 59 61 120 59 61 120 59 61 121 59
61 121 59 62 121 59 62 121 59 62 121 59 62 122 60 63 122 60 63 122 60
63 122 60 63 122 60 63 122 60 64 123 60 64 123 60 64 123 60 64 123 61
65 123 61 65 123 61 65 124 61 65 124 61 66 124 61 66 124 61 66 124 61
66 124 61 67 124 62 67 124 62 67 125 62 67 125 62 68 125 62 68 125 62
68 125 62 68 125 62 69 125 62 69 125 62 69 126 62 69 126 63 70 126 63
70 126 63 70 126 63 70 126 63 71 126 63 71 126 63 71 126 63 72 126 63
72 126 63 72 126 63 72 126 63 73 127 64 73 127 64 73 127 64 74 127 64
74 127 64 74 127 64 74 127 64 75 127 64 75 127 64 75 127 64 76 127 64
76 127 64 76 127 64 77 127 64 77 127 65 77 127 65 77 127 65 78 127 65
78 127 65 78 127 65 79 127 65 79 127 65 79 127 65 80 127 65 80 127 65
80 127 65 81 127 65 81 127 65 81 127 65 82 127 65 82 127 65 82 127 65
83 127 65 83 127 65 83 127 66 83 126 66 84 126 66 84 126 66 84 126 66
85 126 66 85 126 66 85 126 66 86 126 66 86 126 66 86 126 66 87 126 66
87 126 66 87 126 66 87 125 66 88 125 66 88 125 66 88 125 66 89 125 66
89 125 66 89 125 66 89 125 66 90 125 66 90 124 66 90 124 66 90 124 66
91 124 66 91 124 66 91 124 66 91 124 66 92 123 66 92 123 66 92 123 66
92 123 66 92 123 66 92 123 66 93 122 66 93 122 66 93 122 66 93 122 66
93 122 65 93 122 65 93 121 65 93 121 65 93 121 65 94 121 65 94 121 65
94 120 65 94 120 65 94 120 65 94 120 65 94 119 65 94 119 65 94 119 64
94 119 64 94 119 64 93 118 64 93 118 64 93 118 64 93 118 64 93 117 64
93 117 64 93 117 63 93 117 63 93 116 63 92 116 63 92 116 63 92 115 63
92 115 63 92 115 62 91 115 62 91 114 62 91 114 62 91 114 62 90 114 62
90 113 61 90 113 61 90 113 61 89 112 61 89 112 61 89 112 61 88 111 60
88 111 60 88 111 60 87 111 60 87 110 60 87 110 60 86 110 59 86 109 59
86 109 59 85 109 59 85 108 59 85 108 58 84 108 58 84 107 58 84 107 58
83 107 58 83 107 57 82 106 57 82 106 57 82 106 57 81 105 57 81 105 57
81 105 56 80 104 56 80 104 56 79 104 56 79 104 56 79 103 55 78 103 55
78 103 55 78 102 55 77 102 55 77 102 54 76 101 54 76 101 54 76 101 54
75 100 54 75 100 53 75 100 53 74 100 53 74 99 53 73 99 53 73 99 53 73
98 52 72 98 52 72 98 52 72 98 52 71 97 52 71 97 51 71 97 51 70 96 51
70 96 51 70 96 51 69 96 51 69 95 50 68 95 50 68 95 50 68 94 50 67 94
50 67 94 50 67 94 49 67 93 49 66 93 49 66 93 49 66 93 49 65 92 49 65
92 48 65 92 48 64 91 48 64 91 48 64 91 48 63 91 48 63 90 47 63 90 47
63 90 47 62 90 47 62
14 7 10 14 7 10 14 7 10 14 7 10 14 7 10 14 7 10 14 7 10 14 7 10 14 7
10 14 7 10 14 7 10 14 7 10 14 7 10 29 50 86 29 50 86 29 50 86 29 50 86
29 50 86 30 51 91 30 51 91 30 51 91 30 51 91 30 51 91 30 51 91 30 51
90 30 51 90 30 51 90 30 51 90 30 51 90 30 51 90 30 51 89 30 51 89 30
51 89 40 56 93 40 56 96 40 57 99 39 57 102 39 58 105 40 58 107 40 59
110 40 60 113 41 61 116 42 61 119 43 62 123 44 64 126 45 65 129 47 67
133 49 69 136 51 71 140 53 73 144 55 75 147 56 77 151 58 79 154 60 81
158 62 82 161 63 84 164 65 86 167 66 87 170 67 89 173 68 90 176 69 92
179 70 93 181 71 94 184 72 95 186 73 96 189 73 98 191 74 99 193 75 99
195 75 100 197 75 101 199 76 102 201 76 103 202 76 103 204 77 104 205
77 104 206 77 105 207 77 105 208 77 105 208 77 105 208 76 104 208 76
104 207 75 102 205 74 100 201 72 96 193 101 49 48 101 49 48 102 49 48
102 49 48 102 49 48 103 49 48 103 50 49 103 50 49 103 50 49 104 50 49
104 50 49 104 50 49 104 50 49 105 51 50 105 51 50 105 51 50 105 51 50
106 51 50 106 51 50 106 51 50 106 51 51 107 52 51 107 52 51 107 52 51
107 52 51 108 52 51 108 52 52 108 52 52 108 52 52 109 53 52 109 53 52
109 53 52 110 53 53 110 53 53 110 53 53 110 53 53 111 54 53 111 54 53
111 54 54 111 54 54 112 54 54 112 54 54 112 54 54 112 54 54 113 55 55
113 55 55 113 55 55 113 55 55 114 55 55 114 55 56 114 55 56 114 56 56
115 56 56 115 56 56 115 56 56 115 56 57 115 56 57 116 56 57 116 56 57
116 57 57 116 57 58 117 57 58 117 57 58 117 57 58 117 57 58 118 57 59
118 57 59 118 58 59 118 58 59 118 58 59 119 58 60 119 58 60 119 58 60
119 58 60 119 58 60 120 58 61 120 59 61 120 59 61 120 59 61 120 59 61
121 59 62 121 59 62 121 59 62 121 59 62 121 60 63 121 60 63 122 60 63
122 60 63 122 60 63 122 60 64 122 60 64 123 60 64 123 60 64 123 61 65
123 61 65 123 61 65 123 61 65 123 61 66 124 61 66 124 61 66 124 61 66
124 61 67 124 61 67 124 62 67 124 62 67 124 62 68 125 62 68 125 62 68
125 62 68 125 62 69 125 62 69 125 62 69 125 62 69 125 62 70 125 63 70
126 63 70 126 63 71 126 63 71 126 63 71 126 63 71 126 63 72 126 63 72
126 63 72 126 63 72 126 63 73 126 63 73 126 64 73 126 64 74 126 64 74
126 64 74 127 64 75 127 64 75 127 64 75 127 64 75 127 64 76 127 64 76
127 64 76 127 64 77 127 64 77 127 64 77 127 64 78 127 65 78 127 65 78
127 65 79 127 65 79 127 65 79 127 65 79 127 65 80 127 65 80 127 65 80
127 65 81 127 65 81 127 65 81 127 65 82 127 65 82 127 65 82 126 65 83
126 65 83 126 65 83 126 65 84 126 66 84 126 66 84 126 66 85 126 66 85
126 66 85 126 66 86 126 66 86 126 66 86 126 66 86 126 66 87 126 66 87
125 66 87 125 66 88 125 66 88 125 66 88 125 66 89 125 66 89 125 66 89
125 66 89 125 66 90 125 66 90 124 66 90 124 66 90 124 66 91 124 66 91
124 66 91 124 66 91 124 66 92 124 66 92 123 66 92 123 66 92 123 66 92
123 66 93 123 66 93 123 66 93 122 66 93 122 66 93 122 66 93 122 66 94
122 66 94 122 65 94 121 65 94 121 65 94 121 65 94 121 65 94 121 65 94
120 65 94 120 65 94 120 65 94 120 65 94 119 65 94 119 65 94 119 65 94
119 64 94 119 64 94 118 64 94 118 64 94 118 64 94 118 64 94 117 64 93
117 64 93 117 64 93 117 63 93 116 63 93 116 63 93 116 63 93 116 63 92
115 63 92 115 63 92 115 62 92 114 62 91 114 62 91 114 62 91 114 62 91
113 62 90 113 61 90 113 61 90 112 61 90 112 61 89 112 61 89 112 61 89
111 60 88 111 60 88 111 60 88 110 60 87 110 60 87 110 60 87 109 59 86
109 59 86 109 59 86 109 59 85 108 59 85 108 58 85 108 58 84 107 58 84
107 58 83 107 58 83 106 57 83 106 57 82 106 57 82 105 57 82 105 57 81
105 56 81 105 56 80 104 56 80 104 56 80 104 56 79 103 56 79 103 55 78
103 55 78 102 55 78 102 55 77 102 55 77 102 54 77 101 54 76 101 54 76
101 54 75 100 54 75 100 53 75 100 53 74 99 53 74 99 53 74 99 53 73 99
53 73 98 52 72 98 52 72 98 52 72 97 52 71 97 52 71 97 51 71 97 51 70
96 51 70 96 51 70 96 51 69 95 51 69 95 50 69 95 50 68 95 50 68 94 50
68 94 50 67 94 50 67 94 49 67 93 49 66 93 49 66 93 49 66 92 49 65 92
49 65 92 48 65 92 48 64 91 48 64 91 48 64 91 48 63 91 48 63 90 47 63
90 47 63 90 47 62
14 7 10 14 7 10 14 7 10 14 7 10 14 7 10 14 7 10 14 7 10 14 7 10 14 7
10 14 7 10 14 7 10 14 7 10 14 7 10 29 50 86 29 50 86 29 50 86 29 50 86
29 50 86 30 51 91 30 51 91 30 51 91 30 51 91 30 51 91 30 51 91 30 51
91 30 51 91 30 51 91 30 51 91 30 51 91 30 51 90 30 51 90 30 51 90 30
51 90 30 51 92 30 52 95 45 59 100 45 59 103 45 60 106 45 61 109 46 61
112 46 62 115 47 63 118 47 64 121 48 65 124 49 66 127 50 67 130 51 68
133 52 69 137 54 71 140 55 73 144 57 75 147 58 76 150 59 78 153 61 80
157 62 81 160 63 83 163 64 84 166 66 86 168 67 87 171 68 89 174 68 90
177 69 91 179 70 92 182 71 93 184 71 95 186 72 96 188 73 97 191 73 97
193 74 98 194 74 99 196 74 100 198 75 101 200 75 101 201 75 102 202 75
102 203 75 102 204 75 102 205 75 102 205 75 102 205 75 102 204 74 101
203 73 99 200 72 96 195 101 49 48 101 49 48 101 49 48 102 49 48 102 49
48 102 49 48 102 49 48 103 50 49 103 50 49 103 50 49 104 50 49 104 50
49 104 50 49 104 50 50 105 51 50 105 51 50 105 51 50 105 51 50 106 51
50 106 51 50 106 51 51 106 51 51 107 52 51 107 52 51 107 52 51 107 52
51 108 52 51 108 52 52 108 52 52 108 52 52 109 53 52 109 53 52 109 53
52 109 53 53 110 53 53 110 53 53 110 53 53 110 54 53 111 54 53 111 54
54 111 54 54 111 54 54 112 54 54 112 54 54 112 54 54 112 55 55 113 55
55 113 55 55 113 55 55 113 55 55 114 55 56 114 55 56 114 55 56 114 56
56 115 56 56 115 56 56 115 56 57 115 56 57 116 56 57 116 56 57 116 56
57 116 57 58 116 57 58 117 57 58 117 57 58 117 57 58 117 57 59 118 57
59 118 57 59 118 58 59 118 58 59 118 58 60 119 58 60 119 58 60 119 58
60 119 58 60 119 58 61 120 59 61 120 59 61 120 59 61 120 59 62 120 59
62 121 59 62 121 59 62 121 59 62 121 59 63 121 60 63 121 60 63 122 60
63 122 60 64 122 60 64 122 60 64 122 60 64 122 60 64 123 60 65 123 61
65 123 61 65 123 61 65 123 61 66 123 61 66 123 61 66 124 61 66 124 61
67 124 61 67 124 61 67 124 62 67 124 62 68 124 62 68 124 62 68 125 62
68 125 62 69 125 62 69 125 62 69 125 62 69 125 62 70 125 62 70 125 63
70 125 63 71 125 63 71 126 63 71 126 63 71 126 63 72 126 63 72 126 63
72 126 63 73 126 63 73 126 63 73 126 63 73 126 64 74 126 64 74 126 64
74 126 64 75 126 64 75 126 64 75 126 64 75 126 64 76 126 64 76 126 64
76 126 64 77 126 64 77 127 64 77 127 64 78 127 64 78 127 65 78 127 65
79 127 65 79 127 65 79 127 65 80 127 65 80 126 65 80 126 65 81 126 65
81 126 65 81 126 65 82 126 65 82 126 65 82 126 65 82 126 65 83 126 65
83 126 65 83 126 65 84 126 65 84 126 66 84 126 66 85 126 66 85 126 66
85 126 66 86 126 66 86 126 66 86 126 66 87 125 66 87 125 66 87 125 66
88 125 66 88 125 66 88 125 66 89 125 66 89 125 66 89 125 66 89 125 66
90 125 66 90 124 66 90 124 66 90 124 66 91 124 66 91 124 66 91 124 66
91 124 66 92 124 66 92 123 66 92 123 66 92 123 66 93 123 66 93 123 66
93 123 66 93 123 66 93 122 66 93 122 66 94 122 66 94 122 66 94 122 66
94 121 66 94 121 65 94 121 65 94 121 65 94 121 65 94 121 65 95 120 65
95 120 65 95 120 65 95 120 65 95 119 65 95 119 65 95 119 65 95 119 65
95 119 64 94 118 64 94 118 64 94 118 64 94 118 64 94 117 64 94 117 64
94 117 64 94 117 64 94 116 63 93 116 63 93 116 63 93 116 63 93 115 63
93 115 63 92 115 63 92 115 62 92 114 62 92 114 62 92 114 62 91 113 62
91 113 62 91 113 61 90 113 61 90 112 61 90 112 61 90 112 61 89 111 61
89 111 60 89 111 60 88 110 60 88 110 60 88 110 60 87 110 59 87 109 59
87 109 59 86 109 59 86 108 59 85 108 59 85 108 58 85 107 58 84 107 58
84 107 58 84 107 58 83 106 57 83 106 57 82 106 57 82 105 57 82 105 57
81 105 56 81 104 56 81 104 56 80 104 56 80 104 56 79 103 55 79 103 55
79 103 55 78 102 55 78 102 55 77 102 55 77 101 54 77 101 54 76 101 54
76 101 54 76 100 54 75 100 53 75 100 53 74 99 53 74 99 53 74 99 53 73
98 52 73 98 52 73 98 52 72 98 52 72 97 52 71 97 52 71 97 51 71 96 51
70 96 51 70 96 51 70 96 51 69 95 51 69 95 50 69 95 50 68 94 50 68 94
50 68 94 50 67 94 49 67 93 49 67 93 49 66 93 49 66 93 49 66 92 49 65
92 48 65 92 48 65 92 48 64 91 48 64 91 48 64 91 48 64 91 48 63 90 47
63 90 47 63
14 7 10 14 7 10 14 7 10 14 7 10 14 7 10 14 7 10 14 7 10 14 7 10 14 7
10 14 7 10 14 7 10 14 7 10 14 7 10 14 7 10 29 50 86 29 50 86 29 50 86
29 50 86 29 50 86 30 51 91 30 51 91 30 51 91 30 51 91 30 51 91 30 51
91 30 51 91 30 51 91 30 51 91 30 51 91 30 51 91 30 51 91 30 51 91 30
51 91 30 51 92 30 52 95 30 53 98 48 61 104 48 61 107 48 62 110 49 63
113 49 64 116 50 64 119 50 65 122 51 66 125 52 67 127 52 68 130 53 69
133 54 69 136 55 71 139 56 72 142 57 74 146 58 75 149 60 77 152 61 79
155 62 80 158 63 82 161 64 83 164 65 84 166 66 86 169 67 87 172 67 88
174 68 89 177 69 90 179 70 92 182 70 93 184 71 94 186 71 95 188 72 95
190 72 96 192 73 97 194 73 98 195 73 98 197 74 99 198 74 99 200 74 100
201 74 100 201 74 100 202 74 100 202 74 100 201 73 99 200 72 98 198 71
96 195 69 91 186 101 49 48 101 49 48 101 49 48 102 49 48 102 49 48 102
49 48 102 49 49 103 50 49 103 50 49 103 50 49 104 50 49 104 50 49 104
50 49 104 50 50 105 51 50 105 51 50 105 51 50 105 51 50 106 51 50 106
51 50 106 51 51 106 51 51 107 52 51 107 52 51 107 52 51 107 52 51 108
52 52 108 52 52 108 52 52 108 52 52 109 53 52 109 53 52 109 53 53 109
53 53 110 53 53 110 53 53 110 53 53 110 53 53 111 54 54 111 54 54 111
54 54 111 54 54 112 54 54 112 54 54 112 54 55 112 55 55 113 55 55 113
55 55 113 55 55 113 55 55 114 55 56 114 55 56 114 55 56 114 56 56 114
56 56 115 56 57 115 56 57 115 56 57 115 56 57 116 56 57 116 56 57 116
57 58 116 57 58 117 57 58 117 57 58 117 57 58 117 57 59 117 57 59 118
57 59 118 58 59 118 58 59 118 58 60 118 58 60 119 58 60 119 58 60 119
58 60 119 58 61 119 58 61 120 59 61 120 59 61 120 59 62 120 59 62 120
59 62 121 59 62 121 59 62 121 59 63 121 59 63 121 60 63 121 60 63 122
60 64 122 60 64 122 60 64 122 60 64 122 60 65 122 60 65 123 60 65 123
61 65 123 61 65 123 61 66 123 61 66 123 61 66 123 61 66 124 61 67 124
61 67 124 61 67 124 61 67 124 62 68 124 62 68 124 62 68 124 62 68 124
62 69 125 62 69 125 62 69 125 62 70 125 62 70 125 62 70 125 62 70 125
63 71 125 63 71 125 63 71 125 63 71 125 63 72 126 63 72 126 63 72 126
63 73 126 63 73 126 63 73 126 63 73 126 63 74 126 64 74 126 64 74 126
64 75 126 64 75 126 64 75 126 64 76 126 64 76 126 64 76 126 64 76 126
64 77 126 64 77 126 64 77 126 64 78 126 64 78 126 64 78 126 65 79 126
65 79 126 65 79 126 65 80 126 65 80 126 65 80 126 65 81 126 65 81 126
65 81 126 65 82 126 65 82 126 65 82 126 65 83 126 65 83 126 65 83 126
65 84 126 65 84 126 65 84 126 65 85 126 65 85 126 66 85 126 66 86 126
66 86 126 66 86 125 66 87 125 66 87 125 66 87 125 66 87 125 66 88 125
66 88 125 66 88 125 66 89 125 66 89 125 66 89 125 66 90 125 66 90 124
66 90 124 66 90 124 66 91 124 66 91 124 66 91 124 66 91 124 66 92 124
66 92 123 66 92 123 66 92 123 66 93 123 66 93 123 66 93 123 66 93 123
66 93 122 66 94 122 66 94 122 66 94 122 66 94 122 66 94 122 66 94 121
66 94 121 66 95 121 65 95 121 65 95 121 65 95 121 65 95 120 65 95 120
65 95 120 65 95 120 65 95 119 65 95 119 65 95 119 65 95 119 65 95 119
65 95 118 64 95 118 64 95 118 64 95 118 64 95 117 64 94 117 64 94 117
64 94 117 64 94 116 64 94 116 63 94 116 63 94 116 63 93 115 63 93 115
63 93 115 63 93 115 63 93 114 62 92 114 62 92 114 62 92 113 62 92 113
62 91 113 62 91 113 61 91 112 61 90 112 61 90 112 61 90 111 61 89 111
61 89 111 60 89 111 60 88 110 60 88 110 60 88 110 60 87 109 59 87 109
59 87 109 59 86 108 59 86 108 59 86 108 59 85 108 58 85 107 58 85 107
58 84 107 58 84 106 58 83 106 57 83 106 57 83 105 57 82 105 57 82 105
57 81 105 56 81 104 56 81 104 56 80 104 56 80 103 56 79 103 55 79 103
55 79 102 55 78 102 55 78 102 55 78 102 54 77 101 54 77 101 54 76 101
54 76 100 54 76 100 54 75 100 53 75 99 53 74 99 53 74 99 53 74 99 53
73 98 52 73 98 52 73 98 52 72 97 52 72 97 52 72 97 52 71 97 51 71 96
51 70 96 51 70 96 51 70 95 51 69 95 50 69 95 50 69 95 50 68 94 50 68
94 50 68 94 50 67 94 49 67 93 49 67 93 49 66 93 49 66 93 49 66 92 49
65 92 48 65 92 48 65 91 48 65 91 48 64 91 48 64 91 48 64 90 48 63 90
47 63
14 7 10 14 7 10 14 7 10 14 7 10 14 7 10 14 7 10 14 7 10 14 7 10 14 7
10 14 7 10 14 7 10 14 7 10 14 7 10 14 7 10 29 50 86 29 50 86 29 50 86
29 50 86 29 50 86 30 51 92 30 51 92 30 51 91 30 51 91 30 51 91 30 51
91 30 51 91 30 51 91 30 51 91 30 51 91 30 51 91 30 51 91 30 51 91 30
51 91 30 51 91 30 52 94 30 53 97 50 61 104 50 62 107 50 63 110 51 64
112 51 64 115 52 65 118 52 66 121 53 67 124 53 68 127 54 68 130 55 69
133 55 70 136 56 71 138 56 71 141 57 73 144 58 74 147 59 76 150 60 77
153 61 79 156 62 80 159 63 81 162 64 83 164 65 84 167 66 85 170 66 86
172 67 87 175 68 89 177 68 90 179 69 91 181 70 92 184 70 93 186 70 93
188 71 94 189 71 95 191 72 96 193 72 96 194 72 97 195 72 97 197 72 97
197 72 97 198 72 97 198 72 97 198 72 97 198 71 96 196 71 94 193 69 91
188 101 49 48 101 49 48 101 49 48 101 49 48 102 49 48 102 49 48 102 49
48 102 49 49 103 50 49 103 50 49 103 50 49 103 50 49 104 50 49 104 50
49 104 50 50 104 51 50 105 51 50 105 51 50 105 51 50 106 51 50 106 51
51 106 51 51 106 51 51 107 52 51 107 52 51 107 52 51 107 52 51 108 52
52 108 52 52 108 52 52 108 52 52 109 53 52 109 53 52 109 53 53 109 53
53 110 53 53 110 53 53 110 53 53 110 53 53 111 54 54 111 54 54 111 54
54 111 54 54 111 54 54 112 54 54 112 54 55 112 54 55 112 55 55 113 55
55 113 55 55 113 55 55 113 55 56 114 55 56 114 55 56 114 55 56 114 56
56 115 56 57 115 56 57 115 56 57 115 56 57 115 56 57 116 56 58 116 56
58 116 57 58 116 57 58 117 57 58 117 57 59 117 57 59 117 57 59 117 57
59 118 57 59 118 58 60 118 58 60 118 58 60 118 58 60 119 58 60 119 58
61 119 58 61 119 58 61 119 59 61 120 59 61 120 59 62 120 59 62 120 59
62 120 59 62 120 59 62 121 59 63 121 59 63 121 60 63 121 60 63 121 60
64 122 60 64 122 60 64 122 60 64 122 60 65 122 60 65 122 60 65 122 60
65 123 61 66 123 61 66 123 61 66 123 61 66 123 61 66 123 61 67 123 61
67 124 61 67 124 61 67 124 61 68 124 62 68 124 62 68 124 62 69 124 62
69 124 62 69 124 62 69 125 62 70 125 62 70 125 62 70 125 62 70 125 62
71 125 63 71 125 63 71 125 63 72 125 63 72 125 63 72 125 63 72 125 63
73 125 63 73 126 63 73 126 63 74 126 63 74 126 63 74 126 63 74 126 64
75 126 64 75 126 64 75 126 64 76 126 64 76 126 64 76 126 64 77 126 64
77 126 64 77 126 64 78 126 64 78 126 64 78 126 64 78 126 64 79 126 65
79 126 65 79 126 65 80 126 65 80 126 65 80 126 65 81 126 65 81 126 65
81 126 65 82 126 65 82 126 65 82 126 65 83 126 65 83 126 65 83 126 65
84 126 65 84 126 65 84 126 65 85 126 65 85 126 65 85 125 66 86 125 66
86 125 66 86 125 66 87 125 66 87 125 66 87 125 66 88 125 66 88 125 66
88 125 66 89 125 66 89 125 66 89 125 66 89 124 66 90 124 66 90 124 66
90 124 66 91 124 66 91 124 66 91 124 66 91 124 66 92 124 66 92 123 66
92 123 66 92 123 66 93 123 66 93 123 66 93 123 66 93 123 66 94 123 66
94 122 66 94 122 66 94 122 66 94 122 66 94 122 66 95 122 66 95 121 66
95 121 66 95 121 66 95 121 65 95 121 65 95 120 65 95 120 65 95 120 65
95 120 65 95 120 65 95 119 65 95 119 65 95 119 65 95 119 65 95 119 65
95 118 65 95 118 64 95 118 64 95 118 64 95 117 64 95 117 64 95 117 64
95 117 64 95 116 64 94 116 63 94 116 63 94 116 63 94 115 63 94 115 63
94 115 63 93 115 63 93 114 62 93 114 62 93 114 62 92 114 62 92 113 62
92 113 62 92 113 62 91 112 61 91 112 61 91 112 61 90 112 61 90 111 61
90 111 61 89 111 60 89 110 60 89 110 60 88 110 60 88 110 60 88 109 59
87 109 59 87 109 59 87 108 59 86 108 59 86 108 58 85 107 58 85 107 58
85 107 58 84 107 58 84 106 58 83 106 57 83 106 57 83 105 57 82 105 57
82 105 57 82 104 56 81 104 56 81 104 56 80 103 56 80 103 56 80 103 55
79 103 55 79 102 55 78 102 55 78 102 55 78 101 54 77 101 54 77 101 54
76 101 54 76 100 54 76 100 54 75 100 53 75 99 53 75 99 53 74 99 53 74
98 53 73 98 52 73 98 52 73 98 52 72 97 52 72 97 52 72 97 52 71 96 51
71 96 51 71 96 51 70 96 51 70 95 51 69 95 50 69 95 50 69 95 50 68 94
50 68 94 50 68 94 50 67 93 49 67 93 49 67 93 49 66 93 49 66 92 49 66
92 49 66 92 48 65 92 48 65 91 48 65 91 48 64 91 48 64 91 48 64 90 47
63
14 7 10 14 7 10 14 7 10 14 7 10 14 7 10 14 7 10 14 7 10 14 7 10 14 7
10 14 7 10 14 7 10 14 7 10 14 7 10 14 7 10 29 50 86 29 50 86 29 50 86
29 50 86 29 50 86 30 51 92 30 51 92 30 51 92 30 51 92 30 51 92 30 51
92 30 51 92 30 51 92 30 51 92 30 51 92 30 51 92 30 51 92 30 51 92 30
51 92 30 51 92 30 52 93 30 52 96 51 62 103 51 63 106 52 63 109 52 64
112 53 65 115 53 66 118 53 66 121 54 67 124 54 68 126 55 69 129 55 69
132 56 70 135 56 71 137 57 71 140 57 72 143 58 73 145 59 74 148 60 76
151 61 77 154 61 78 157 62 80 159 63 81 162 64 82 165 65 83 167 65 84
170 66 86 172 67 87 175 67 88 177 68 89 179 68 90 181 69 90 183 69 91
185 70 92 187 70 93 188 70 93 190 71 94 191 71 94 192 71 95 193 71 95
194 71 95 195 71 95 195 71 94 194 70 94 193 69 92 191 68 90 187 100 48
48 101 49 48 101 49 48 101 49 48 101 49 48 102 49 48 102 49 48 102 49
49 102 49 49 103 50 49 103 50 49 103 50 49 103 50 49 104 50 49 104 50
50 104 50 50 104 50 50 105 51 50 105 51 50 105 51 50 105 51 50 106 51
51 106 51 51 106 51 51 106 52 51 107 52 51 107 52 51 107 52 52 107 52
52 108 52 52 108 52 52 108 52 52 108 53 52 109 53 52 109 53 53 109 53
53 109 53 53 110 53 53 110 53 53 110 53 53 110 54 54 111 54 54 111 54
54 111 54 54 111 54 54 112 54 54 112 54 55 112 54 55 112 55 55 113 55
55 113 55 55 113 55 56 113 55 56 113 55 56 114 55 56 114 55 56 114 56
56 114 56 57 115 56 57 115 56 57 115 56 57 115 56 57 116 56 58 116 56
58 116 57 58 116 57 58 116 57 58 117 57 59 117 57 59 117 57 59 117 57
59 117 57 59 118 58 60 118 58 60 118 58 60 118 58 60 118 58 60 119 58
61 119 58 61 119 58 61 119 58 61 119 59 61 120 59 62 120 59 62 120 59
62 120 59 62 120 59 63 120 59 63 121 59 63 121 59 63 121 60 63 121 60
64 121 60 64 121 60 64 122 60 64 122 60 65 122 60 65 122 60 65 122 60
65 122 60 66 122 61 66 123 61 66 123 61 66 123 61 67 123 61 67 123 61
67 123 61 67 123 61 68 123 61 68 124 61 68 124 62 68 124 62 69 124 62
69 124 62 69 124 62 69 124 62 70 124 62 70 124 62 70 125 62 70 125 62
71 125 62 71 125 63 71 125 63 72 125 63 72 125 63 72 125 63 72 125 63
73 125 63 73 125 63 73 125 63 74 125 63 74 125 63 74 125 63 74 126 63
75 126 64 75 126 64 75 126 64 76 126 64 76 126 64 76 126 64 77 126 64
77 126 64 77 126 64 78 126 64 78 126 64 78 126 64 79 126 64 79 126 64
79 126 64 80 126 65 80 126 65 80 126 65 80 126 65 81 126 65 81 126 65
81 126 65 82 126 65 82 126 65 82 126 65 83 126 65 83 126 65 83 126 65
84 126 65 84 125 65 84 125 65 85 125 65 85 125 65 85 125 65 86 125 66
86 125 66 86 125 66 87 125 66 87 125 66 87 125 66 88 125 66 88 125 66
88 125 66 89 125 66 89 124 66 89 124 66 90 124 66 90 124 66 90 124 66
91 124 66 91 124 66 91 124 66 91 124 66 92 124 66 92 123 66 92 123 66
92 123 66 93 123 66 93 123 66 93 123 66 93 123 66 94 123 66 94 122 66
94 122 66 94 122 66 94 122 66 95 122 66 95 122 66 95 121 66 95 121 66
95 121 66 95 121 66 95 121 66 95 121 65 96 120 65 96 120 65 96 120 65
96 120 65 96 120 65 96 119 65 96 119 65 96 119 65 96 119 65 96 119 65
96 118 65 96 118 65 96 118 64 96 118 64 95 117 64 95 117 64 95 117 64
95 117 64 95 116 64 95 116 64 95 116 63 95 116 63 94 115 63 94 115 63
94 115 63 94 115 63 94 114 63 93 114 62 93 114 62 93 114 62 93 113 62
92 113 62 92 113 62 92 113 61 91 112 61 91 112 61 91 112 61 91 111 61
90 111 61 90 111 60 90 110 60 89 110 60 89 110 60 88 110 60 88 109 60
88 109 59 87 109 59 87 108 59 87 108 59 86 108 59 86 108 58 86 107 58
85 107 58 85 107 58 84 106 58 84 106 57 84 106 57 83 105 57 83 105 57
82 105 57 82 105 57 82 104 56 81 104 56 81 104 56 80 103 56 80 103 56
80 103 55 79 102 55 79 102 55 78 102 55 78 102 55 78 101 54 77 101 54
77 101 54 77 100 54 76 100 54 76 100 53 75 99 53 75 99 53 75 99 53 74
99 53 74 98 53 73 98 52 73 98 52 73 97 52 72 97 52 72 97 52 72 97 51
71 96 51 71 96 51 71 96 51 70 96 51 70 95 51 70 95 50 69 95 50 69 94
50 69 94 50 68 94 50 68 94 50 68 93 49 67 93 49 67 93 49 67 93 49 66
92 49 66 92 49 66 92 48 65 92 48 65 91 48 65 91 48 64 91 48 64 91 48
64
14 7 10 14 7 10 14 7 10 14 7 10 14 7 10 14 7 10 14 7 10 14 7 10 14 7
10 14 7 10 14 7 10 14 7 10 14 7 10 14 7 10 14 7 10 29 50 86 29 50 86
29 50 86 29 50 86 29 50 86 30 51 92 30 51 92 30 51 92 30 51 92 30 51
92 30 51 92 30 51 92 30 51 92 30 51 92 30 51 92 30 51 92 30 51 92 30
51 92 30 51 92 30 52 92 30 52 95 52 62 102 52 63 105 53 64 108 53 64
111 53 65 114 54 66 117 54 66 120 55 67 123 55 68 125 56 69 128 56 69
131 56 70 134 57 71 136 57 71 139 58 72 142 58 73 144 59 73 147 59 74
149 60 75 152 60 77 155 61 78 157 62 79 160 63 80 162 63 81 165 64 83
167 65 84 170 65 85 172 66 86 174 66 87 176 67 88 178 67 88 180 68 89
182 68 90 184 69 91 186 69 91 187 69 92 188 69 92 189 69 92 190 69 92
191 69 92 191 69 92 191 69 91 190 68 90 188 67 89 185 65 85 177 100 49
48 101 49 48 101 49 48 101 49 48 101 49 48 102 49 48 102 49 48 102 49
49 102 49 49 103 50 49 103 50 49 103 50 49 103 50 49 104 50 49 104 50
50 104 50 50 104 50 50 105 51 50 105 51 50 105 51 50 105 51 50 106 51
51 106 51 51 106 51 51 106 51 51 107 52 51 107 52 51 107 52 52 107 52
52 108 52 52 108 52 52 108 52 52 108 53 52 109 53 53 109 53 53 109 53
53 109 53 53 110 53 53 110 53 53 110 53 53 110 54 54 111 54 54 111 54
54 111 54 54 111 54 54 111 54 55 112 54 55 112 54 55 112 55 55 112 55
55 113 55 55 113 55 56 113 55 56 113 55 56 114 55 56 114 55 56 114 56
56 114 56 57 114 56 57 115 56 57 115 56 57 115 56 57 115 56 58 116 56
58 116 56 58 116 57 58 116 57 58 116 57 59 117 57 59 117 57 59 117 57
59 117 57 59 117 57 60 118 58 60 118 58 60 118 58 60 118 58 60 118 58
61 119 58 61 119 58 61 119 58 61 119 58 61 119 59 62 120 59 62 120 59
62 120 59 62 120 59 63 120 59 63 120 59 63 121 59 63 121 59 63 121 60
64 121 60 64 121 60 64 121 60 64 121 60 65 122 60 65 122 60 65 122 60
65 122 60 66 122 60 66 122 61 66 122 61 66 123 61 67 123 61 67 123 61
67 123 61 67 123 61 68 123 61 68 123 61 68 123 61 68 124 62 69 124 62
69 124 62 69 124 62 69 124 62 70 124 62 70 124 62 70 124 62 70 124 62
71 124 62 71 124 62 71 125 63 72 125 63 72 125 63 72 125 63 72 125 63
73 125 63 73 125 63 73 125 63 74 125 63 74 125 63 74 125 63 75 125 63
75 125 63 75 125 64 75 125 64 76 125 64 76 125 64 76 125 64 77 125 64
77 125 64 77 126 64 78 126 64 78 126 64 78 126 64 79 126 64 79 126 64
79 126 64 80 126 64 80 126 65 80 126 65 81 126 65 81 126 65 81 126 65
82 126 65 82 125 65 82 125 65 83 125 65 83 125 65 83 125 65 84 125 65
84 125 65 84 125 65 85 125 65 85 125 65 85 125 65 86 125 65 86 125 65
86 125 65 87 125 66 87 125 66 87 125 66 88 125 66 88 125 66 88 125 66
89 124 66 89 124 66 89 124 66 89 124 66 90 124 66 90 124 66 90 124 66
91 124 66 91 124 66 91 124 66 92 124 66 92 123 66 92 123 66 92 123 66
93 123 66 93 123 66 93 123 66 93 123 66 94 123 66 94 122 66 94 122 66
94 122 66 94 122 66 95 122 66 95 122 66 95 122 66 95 121 66 95 121 66
95 121 66 96 121 66 96 121 66 96 121 65 96 120 65 96 120 65 96 120 65
96 120 65 96 120 65 96 119 65 96 119 65 96 119 65 96 119 65 96 119 65
96 118 65 96 118 65 96 118 64 96 118 64 96 117 64 96 117 64 96 117 64
96 117 64 95 117 64 95 116 64 95 116 64 95 116 63 95 116 63 95 115 63
94 115 63 94 115 63 94 114 63 94 114 63 94 114 62 93 114 62 93 113 62
93 113 62 92 113 62 92 113 62 92 112 61 92 112 61 91 112 61 91 111 61
91 111 61 90 111 61 90 111 60 90 110 60 89 110 60 89 110 60 89 109 60
88 109 59 88 109 59 88 109 59 87 108 59 87 108 59 86 108 59 86 107 58
86 107 58 85 107 58 85 106 58 84 106 58 84 106 57 84 106 57 83 105 57
83 105 57 82 105 57 82 104 56 82 104 56 81 104 56 81 103 56 81 103 56
80 103 55 80 103 55 79 102 55 79 102 55 79 102 55 78 101 55 78 101 54
77 101 54 77 101 54 77 100 54 76 100 54 76 100 53 75 99 53 75 99 53 75
99 53 74 98 53 74 98 52 74 98 52 73 98 52 73 97 52 72 97 52 72 97 52
72 97 51 71 96 51 71 96 51 71 96 51 70 95 51 70 95 51 70 95 50 69 95
50 69 94 50 69 94 50 68 94 50 68 94 50 68 93 49 67 93 49 67 93 49 67
92 49 66 92 49 66 92 49 66 92 48 65 91 48 65 91 48 65 91 48 64 91 48
64
14 7 10 14 7 10 14 7 10 14 7 10 14 7 10 14 7 10 14 7 10 14 7 10 14 7
10 14 7 10 14 7 10 14 7 10 14 7 10 14 7 10 14 7 10 29 50 86 29 50 86
29 50 86 29 50 86 29 50 86 30 51 92 30 51 92 30 51 92 30 51 92 30 51
92 30 51 92 30 51 92 30 51 92 30 51 92 30 51 92 30 52 92 30 52 92 30
52 92 30 52 92 30 52 92 30 52 94 53 62 101 53 63 104 53 64 107 54 64
110 54 65 113 54 66 116 55 66 119 55 67 122 56 68 124 56 69 127 56 69
130 57 70 132 57 71 135 58 71 138 58 72 140 58 73 143 59 73 145 59 74
148 59 74 150 60 75 152 60 76 155 61 77 158 62 78 160 62 80 163 63 81
165 64 82 167 64 83 169 65 84 172 65 85 174 66 85 176 66 86 178 67 87
179 67 88 181 67 88 182 67 89 184 68 89 185 68 90 186 68 90 187 68 90
187 68 90 187 67 89 186 67 88 185 66 87 182 65 84 177 100 48 48 100 49
48 101 49 48 101 49 48 101 49 48 101 49 48 102 49 48 102 49 49 102 49
49 102 49 49 103 50 49 103 50 49 103 50 49 103 50 49 104 50 50 104 50
50 104 50 50 104 50 50 105 51 50 105 51 50 105 51 50 105 51 51 106 51
51 106 51 51 106 51 51 106 51 51 107 52 51 107 52 51 107 52 52 107 52
52 108 52 52 108 52 52 108 52 52 108 52 52 109 53 53 109 53 53 109 53
53 109 53 53 109 53 53 110 53 53 110 53 54 110 53 54 110 54 54 111 54
54 111 54 54 111 54 54 111 54 55 112 54 55 112 54 55 112 54 55 112 55
55 113 55 55 113 55 56 113 55 56 113 55 56 113 55 56 114 55 56 114 55
57 114 56 57 114 56 57 115 56 57 115 56 57 115 56 57 115 56 58 115 56
58 116 56 58 116 57 58 116 57 58 116 57 59 116 57 59 117 57 59 117 57
59 117 57 59 117 57 60 117 57 60 118 58 60 118 58 60 118 58 60 118 58
61 118 58 61 119 58 61 119 58 61 119 58 61 119 59 62 119 59 62 119 59
62 120 59 62 120 59 63 120 59 63 120 59 63 120 59 63 120 59 63 121 59
64 121 60 64 121 60 64 121 60 64 121 60 65 121 60 65 122 60 65 122 60
65 122 60 66 122 60 66 122 61 66 122 61 66 122 61 67 122 61 67 123 61
67 123 61 67 123 61 68 123 61 68 123 61 68 123 61 68 123 61 69 123 62
69 124 62 69 124 62 69 124 62 70 124 62 70 124 62 70 124 62 71 124 62
71 124 62 71 124 62 71 124 62 72 124 62 72 124 63 72 125 63 72 125 63
73 125 63 73 125 63 73 125 63 74 125 63 74 125 63 74 125 63 75 125 63
75 125 63 75 125 63 75 125 64 76 125 64 76 125 64 76 125 64 77 125 64
77 125 64 77 125 64 78 125 64 78 125 64 78 125 64 79 125 64 79 125 64
79 125 64 80 125 64 80 125 64 80 125 64 81 125 65 81 125 65 81 125 65
82 125 65 82 125 65 82 125 65 83 125 65 83 125 65 83 125 65 84 125 65
84 125 65 84 125 65 85 125 65 85 125 65 85 125 65 86 125 65 86 125 65
86 125 65 87 125 65 87 125 66 87 125 66 88 125 66 88 124 66 88 124 66
89 124 66 89 124 66 89 124 66 90 124 66 90 124 66 90 124 66 91 124 66
91 124 66 91 124 66 91 123 66 92 123 66 92 123 66 92 123 66 93 123 66
93 123 66 93 123 66 93 123 66 94 123 66 94 122 66 94 122 66 94 122 66
94 122 66 95 122 66 95 122 66 95 122 66 95 121 66 95 121 66 96 121 66
96 121 66 96 121 66 96 121 66 96 120 66 96 120 65 96 120 65 96 120 65
96 120 65 96 120 65 96 119 65 96 119 65 96 119 65 96 119 65 96 119 65
96 118 65 96 118 65 96 118 65 96 118 64 96 117 64 96 117 64 96 117 64
96 117 64 96 117 64 96 116 64 96 116 64 95 116 63 95 116 63 95 115 63
95 115 63 95 115 63 94 115 63 94 114 63 94 114 63 94 114 62 93 113 62
93 113 62 93 113 62 93 113 62 92 112 62 92 112 61 92 112 61 91 111 61
91 111 61 91 111 61 90 111 61 90 110 60 90 110 60 89 110 60 89 109 60
89 109 60 88 109 59 88 109 59 88 108 59 87 108 59 87 108 59 86 107 58
86 107 58 86 107 58 85 107 58 85 106 58 85 106 58 84 106 57 84 105 57
83 105 57 83 105 57 83 104 57 82 104 56 82 104 56 81 104 56 81 103 56
81 103 56 80 103 55 80 102 55 79 102 55 79 102 55 79 102 55 78 101 54
78 101 54 77 101 54 77 100 54 77 100 54 76 100 54 76 99 53 75 99 53 75
99 53 75 99 53 74 98 53 74 98 52 74 98 52 73 98 52 73 97 52 72 97 52
72 97 52 72 96 51 71 96 51 71 96 51 71 96 51 70 95 51 70 95 51 70 95
50 69 94 50 69 94 50 69 94 50 68 94 50 68 93 49 68 93 49 67 93 49 67
93 49 67 92 49 66 92 49 66 92 49 66 92 48 65 91 48 65 91 48 65 91 48
64
14 7 10 14 7 10 14 7 10 14 7 10 14 7 10 14 7 10 14 7 10 14 7 10 14 7
10 14 7 10 14 7 10 14 7 10 14 7 10 14 7 10 14 7 10 14 7 10 29 50 86 29
50 86 29 50 86 29 50 86 29 50 86 30 51 92 30 51 92 30 51 92 30 51 92
30 51 92 30 52 92 30 52 92 30 52 92 30 52 92 30 52 92 30 52 92 30 52
92 30 52 92 30 52 92 53 61 97 53 62 100 54 63 103 54 64 106 54 64 109
55 65 112 55 66 115 55 66 118 56 67 120 56 68 123 56 68 126 57 69 128
57 70 131 57 70 134 58 71 136 58 72 139 58 72 141 59 73 144 59 73 146
59 74 149 60 75 151 60 75 153 60 76 155 61 76 158 61 78 160 62 79 162
62 80 165 63 81 167 63 82 169 64 82 171 64 83 173 65 84 175 65 85 176
65 85 178 66 86 179 66 86 180 66 87 181 66 87 182 66 87 183 66 87 183
66 86 182 66 86 181 65 84 179 64 82 175 100 48 47 100 48 48 100 49 48
101 49 48 101 49 48 101 49 48 101 49 48 102 49 48 102 49 49 102 49 49
102 49 49 103 50 49 103 50 49 103 50 49 103 50 49 104 50 50 104 50 50
104 50 50 104 50 50 105 51 50 105 51 50 105 51 50 105 51 51 106 51 51
106 51 51 106 51 51 106 51 51 106 52 51 107 52 51 107 52 52 107 52 52
107 52 52 108 52 52 108 52 52 108 52 52 108 53 53 109 53 53 109 53 53
109 53 53 109 53 53 110 53 53 110 53 54 110 53 54 110 54 54 111 54 54
111 54 54 111 54 54 111 54 55 111 54 55 112 54 55 112 54 55 112 55 55
112 55 55 113 55 56 113 55 56 113 55 56 113 55 56 113 55 56 114 55 57
114 56 57 114 56 57 114 56 57 115 56 57 115 56 57 115 56 58 115 56 58
115 56 58 116 56 58 116 57 58 116 57 59 116 57 59 116 57 59 117 57 59
117 57 59 117 57 60 117 57 60 117 58 60 118 58 60 118 58 60 118 58 61
118 58 61 118 58 61 119 58 61 119 58 62 119 58 62 119 59 62 119 59 62
119 59 62 120 59 63 120 59 63 120 59 63 120 59 63 120 59 64 120 59 64
121 59 64 121 60 64 121 60 64 121 60 65 121 60 65 121 60 65 121 60 65
122 60 66 122 60 66 122 60 66 122 60 66 122 61 67 122 61 67 122 61 67
122 61 67 123 61 68 123 61 68 123 61 68 123 61 68 123 61 69 123 61 69
123 62 69 123 62 69 123 62 70 124 62 70 124 62 70 124 62 71 124 62 71
124 62 71 124 62 71 124 62 72 124 62 72 124 62 72 124 63 73 124 63 73
124 63 73 124 63 73 124 63 74 125 63 74 125 63 74 125 63 75 125 63 75
125 63 75 125 63 75 125 63 76 125 63 76 125 64 76 125 64 77 125 64 77
125 64 77 125 64 78 125 64 78 125 64 78 125 64 79 125 64 79 125 64 79
125 64 80 125 64 80 125 64 80 125 64 81 125 64 81 125 65 81 125 65 82
125 65 82 125 65 82 125 65 83 125 65 83 125 65 83 125 65 84 125 65 84
125 65 84 125 65 85 125 65 85 125 65 85 125 65 86 125 65 86 125 65 86
125 65 87 124 65 87 124 65 87 124 65 88 124 66 88 124 66 88 124 66 89
124 66 89 124 66 89 124 66 90 124 66 90 124 66 90 124 66 91 124 66 91
124 66 91 123 66 92 123 66 92 123 66 92 123 66 92 123 66 93 123 66 93
123 66 93 123 66 93 123 66 94 122 66 94 122 66 94 122 66 94 122 66 95
122 66 95 122 66 95 122 66 95 121 66 95 121 66 96 121 66 96 121 66 96
121 66 96 121 66 96 121 66 96 120 66 96 120 65 96 120 65 97 120 65 97
120 65 97 119 65 97 119 65 97 119 65 97 119 65 97 119 65 97 118 65 97
118 65 97 118 65 97 118 65 97 118 64 97 117 64 96 117 64 96 117 64 96
117 64 96 117 64 96 116 64 96 116 64 96 116 64 96 116 63 95 115 63 95
115 63 95 115 63 95 115 63 95 114 63 94 114 63 94 114 62 94 113 62 94
113 62 93 113 62 93 113 62 93 112 62 92 112 61 92 112 61 92 112 61 92
111 61 91 111 61 91 111 61 91 110 60 90 110 60 90 110 60 90 110 60 89
109 60 89 109 60 88 109 59 88 108 59 88 108 59 87 108 59 87 108 59 87
107 58 86 107 58 86 107 58 85 106 58 85 106 58 85 106 57 84 105 57 84
105 57 83 105 57 83 105 57 83 104 57 82 104 56 82 104 56 81 103 56 81
103 56 81 103 56 80 103 55 80 102 55 79 102 55 79 102 55 79 101 55 78
101 54 78 101 54 77 100 54 77 100 54 77 100 54 76 100 53 76 99 53 75
99 53 75 99 53 75 98 53 74 98 53 74 98 52 74 98 52 73 97 52 73 97 52
72 97 52 72 97 52 72 96 51 71 96 51 71 96 51 71 95 51 70 95 51 70 95
50 70 95 50 69 94 50 69 94 50 69 94 50 68 94 50 68 93 49 68 93 49 67
93 49 67 93 49 67 92 49 66 92 49 66 92 48 66 92 48 65 91 48 65 91 48
65
14 7 10 14 7 10 14 7 10 14 7 10 14 7 10 14 7 10 14 7 10 14 7 10 14 7
10 14 7 10 14 7 10 14 7 10 14 7 10 14 7 10 14 7 10 14 7 10 14 7 10 29
50 86 29 50 86 29 50 86 29 50 86 29 50 86 30 52 92 30 52 92 30 52 92
30 52 92 30 52 92 30 52 92 30 52 92 30 52 92 30 52 92 30 52 92 30 52
92 30 52 92 30 52 92 53 61 97 54 62 99 54 63 102 54 63 105 55 64 108
55 65 111 55 66 113 55 66 116 56 67 119 56 68 122 56 68 124 57 69 127
57 69 130 57 70 132 58 71 135 58 71 137 58 72 140 59 73 142 59 73 145
59 74 147 60 74 149 60 75 151 60 75 154 60 76 156 61 76 158 61 77 160
61 78 162 62 79 164 62 79 166 63 80 168 63 81 170 63 82 172 64 82 173
64 83 175 64 83 176 65 84 177 65 84 178 65 84 178 65 84 178 64 84 178
64 83 177 64 82 175 62 80 172 18 13 33 100 48 48 100 48 48 100 49 48
101 49 48 101 49 48 101 49 48 101 49 48 102 49 48 102 49 49 102 49 49
102 49 49 103 50 49 103 50 49 103 50 49 103 50 49 104 50 50 104 50 50
104 50 50 104 50 50 104 51 50 105 51 50 105 51 50 105 51 51 105 51 51
106 51 51 106 51 51 106 51 51 106 52 51 107 52 52 107 52 52 107 52 52
107 52 52 108 52 52 108 52 52 108 52 52 108 53 53 109 53 53 109 53 53
109 53 53 109 53 53 109 53 53 110 53 54 110 53 54 110 54 54 110 54 54
111 54 54 111 54 54 111 54 55 111 54 55 112 54 55 112 54 55 112 55 55
112 55 56 112 55 56 113 55 56 113 55 56 113 55 56 113 55 56 114 55 57
114 55 57 114 56 57 114 56 57 114 56 57 115 56 58 115 56 58 115 56 58
115 56 58 115 56 58 116 57 58 116 57 59 116 57 59 116 57 59 116 57 59
117 57 59 117 57 60 117 57 60 117 57 60 117 58 60 118 58 60 118 58 61
118 58 61 118 58 61 118 58 61 118 58 62 119 58 62 119 58 62 119 59 62
119 59 62 119 59 63 119 59 63 120 59 63 120 59 63 120 59 64 120 59 64
120 59 64 120 59 64 121 60 64 121 60 65 121 60 65 121 60 65 121 60 65
121 60 66 121 60 66 122 60 66 122 60 66 122 60 67 122 61 67 122 61 67
122 61 67 122 61 68 122 61 68 123 61 68 123 61 68 123 61 69 123 61 69
123 61 69 123 62 69 123 62 70 123 62 70 123 62 70 123 62 71 123 62 71
124 62 71 124 62 71 124 62 72 124 62 72 124 62 72 124 62 73 124 63 73
124 63 73 124 63 73 124 63 74 124 63 74 124 63 74 124 63 75 124 63 75
124 63 75 124 63 76 125 63 76 125 63 76 125 63 76 125 64 77 125 64 77
125 64 77 125 64 78 125 64 78 125 64 78 125 64 79 125 64 79 125 64 79
125 64 80 125 64 80 125 64 80 125 64 81 125 64 81 125 64 81 125 64 82
125 65 82 125 65 82 125 65 83 125 65 83 125 65 83 125 65 84 125 65 84
125 65 84 125 65 85 125 65 85 124 65 85 124 65 86 124 65 86 124 65 86
124 65 87 124 65 87 124 65 87 124 65 88 124 65 88 124 65 88 124 66 89
124 66 89 124 66 89 124 66 90 124 66 90 124 66 90 124 66 91 123 66 91
123 66 91 123 66 92 123 66 92 123 66 92 123 66 93 123 66 93 123 66 93
123 66 93 123 66 94 122 66 94 122 66 94 122 66 94 122 66 95 122 66 95
122 66 95 122 66 95 122 66 95 121 66 96 121 66 96 121 66 96 121 66 96
121 66 96 121 66 96 120 66 96 120 66 97 120 65 97 120 65 97 120 65 97
120 65 97 119 65 97 119 65 97 119 65 97 119 65 97 119 65 97 118 65 97
118 65 97 118 65 97 118 65 97 118 65 97 117 64 97 117 64 97 117 64 97
117 64 97 116 64 96 116 64 96 116 64 96 116 64 96 116 64 96 115 63 96
115 63 95 115 63 95 115 63 95 114 63 95 114 63 95 114 63 94 113 62 94
113 62 94 113 62 93 113 62 93 112 62 93 112 62 93 112 61 92 112 61 92
111 61 92 111 61 91 111 61 91 110 61 91 110 60 90 110 60 90 110 60 90
109 60 89 109 60 89 109 59 88 108 59 88 108 59 88 108 59 87 108 59 87
107 59 87 107 58 86 107 58 86 106 58 85 106 58 85 106 58 85 106 57 84
105 57 84 105 57 83 105 57 83 104 57 83 104 56 82 104 56 82 103 56 81
103 56 81 103 56 81 103 55 80 102 55 80 102 55 79 102 55 79 101 55 79
101 55 78 101 54 78 101 54 77 100 54 77 100 54 77 100 54 76 99 53 76
99 53 75 99 53 75 99 53 75 98 53 74 98 53 74 98 52 74 97 52 73 97 52
73 97 52 73 97 52 72 96 51 72 96 51 71 96 51 71 96 51 71 95 51 70 95
51 70 95 50 70 95 50 69 94 50 69 94 50 69 94 50 68 93 50 68 93 49 68
93 49 67 93 49 67 92 49 67 92 49 66 92 49 66 92 48 66 91 48 65 91 48
65
14 7 10 14 7 10 14 7 10 14 7 10 14 7 10 14 7 10 14 7 10 14 7 10 14 7
10 14 7 10 14 7 10 14 7 10 14 7 10 14 7 10 14 7 10 14 7 10 14 7 10 29
50 86 29 50 86 29 50 86 29 50 86 29 50 86 30 52 92 30 52 92 30 52 92
30 52 92 30 52 92 30 52 92 30 52 92 30 52 92 30 52 92 30 52 92 30 52
92 30 52 92 54 62 97 54 62 97 54 62 98 54 63 101 55 63 103 55 64 106
55 65 109 55 65 112 56 66 115 56 67 118 56 67 120 57 68 123 57 69 126
57 69 128 58 70 131 58 70 133 58 71 136 58 72 138 59 72 140 59 73 143
59 73 145 59 74 147 60 74 150 60 75 152 60 75 154 60 76 156 61 76 158
61 77 160 61 77 162 61 78 163 61 78 165 62 79 167 62 79 168 62 80 170
63 80 171 63 81 172 63 81 173 63 81 174 63 81 174 63 81 174 63 80 173
62 80 171 62 79 169 33 65 155 100 48 47 100 48 48 100 48 48 100 49 48
101 49 48 101 49 48 101 49 48 101 49 48 102 49 49 102 49 49 102 49 49
102 49 49 102 50 49 103 50 49 103 50 49 103 50 50 103 50 50 104 50 50
104 50 50 104 50 50 104 51 50 105 51 50 105 51 51 105 51 51 105 51 51
106 51 51 106 51 51 106 51 51 106 52 51 107 52 52 107 52 52 107 52 52
107 52 52 107 52 52 108 52 52 108 52 53 108 53 53 108 53 53 109 53 53
109 53 53 109 53 53 109 53 53 110 53 54 110 53 54 110 53 54 110 54 54
110 54 54 111 54 55 111 54 55 111 54 55 111 54 55 112 54 55 112 54 55
112 55 56 112 55 56 112 55 56 113 55 56 113 55 56 113 55 56 113 55 57
114 55 57 114 56 57 114 56 57 114 56 57 114 56 58 115 56 58 115 56 58
115 56 58 115 56 58 115 56 59 116 57 59 116 57 59 116 57 59 116 57 59
116 57 59 117 57 60 117 57 60 117 57 60 117 57 60 117 58 61 118 58 61
118 58 61 118 58 61 118 58 61 118 58 62 118 58 62 119 58 62 119 58 62
119 59 62 119 59 63 119 59 63 119 59 63 120 59 63 120 59 64 120 59 64
120 59 64 120 59 64 120 60 64 120 60 65 121 60 65 121 60 65 121 60 65
121 60 66 121 60 66 121 60 66 121 60 66 122 60 67 122 60 67 122 61 67
122 61 67 122 61 68 122 61 68 122 61 68 122 61 68 122 61 69 123 61 69
123 61 69 123 61 69 123 61 70 123 62 70 123 62 70 123 62 71 123 62 71
123 62 71 123 62 71 123 62 72 124 62 72 124 62 72 124 62 73 124 62 73
124 62 73 124 63 73 124 63 74 124 63 74 124 63 74 124 63 75 124 63 75
124 63 75 124 63 76 124 63 76 124 63 76 124 63 76 124 63 77 124 63 77
124 64 77 124 64 78 124 64 78 124 64 78 124 64 79 124 64 79 124 64 79
125 64 80 125 64 80 125 64 80 125 64 81 125 64 81 125 64 81 124 64 82
124 64 82 124 65 82 124 65 83 124 65 83 124 65 83 124 65 84 124 65 84
124 65 84 124 65 85 124 65 85 124 65 85 124 65 86 124 65 86 124 65 86
124 65 87 124 65 87 124 65 88 124 65 88 124 65 88 124 65 89 124 65 89
124 65 89 124 66 90 124 66 90 123 66 90 123 66 90 123 66 91 123 66 91
123 66 91 123 66 92 123 66 92 123 66 92 123 66 93 123 66 93 123 66 93
122 66 93 122 66 94 122 66 94 122 66 94 122 66 94 122 66 95 122 66 95
122 66 95 122 66 95 121 66 96 121 66 96 121 66 96 121 66 96 121 66 96
121 66 96 121 66 97 120 66 97 120 66 97 120 65 97 120 65 97 120 65 97
120 65 97 119 65 97 119 65 97 119 65 97 119 65 97 119 65 97 118 65 97
118 65 97 118 65 97 118 65 97 118 65 97 117 64 97 117 64 97 117 64 97
117 64 97 116 64 97 116 64 97 116 64 96 116 64 96 116 64 96 115 63 96
115 63 96 115 63 96 115 63 95 114 63 95 114 63 95 114 63 95 114 62 94
113 62 94 113 62 94 113 62 94 112 62 93 112 62 93 112 61 93 112 61 92
111 61 92 111 61 92 111 61 91 111 61 91 110 60 91 110 60 90 110 60 90
109 60 90 109 60 89 109 60 89 109 59 89 108 59 88 108 59 88 108 59 87
107 59 87 107 58 87 107 58 86 106 58 86 106 58 85 106 58 85 106 58 85
105 57 84 105 57 84 105 57 83 104 57 83 104 57 83 104 56 82 104 56 82
103 56 81 103 56 81 103 56 81 102 55 80 102 55 80 102 55 79 102 55 79
101 55 79 101 54 78 101 54 78 100 54 77 100 54 77 100 54 77 100 54 76
99 53 76 99 53 75 99 53 75 98 53 75 98 53 74 98 52 74 98 52 74 97 52
73 97 52 73 97 52 73 97 52 72 96 51 72 96 51 71 96 51 71 95 51 71 95
51 70 95 51 70 95 50 70 94 50 69 94 50 69 94 50 69 94 50 68 93 50 68
93 49 68 93 49 67 93 49 67 92 49 67 92 49 66 92 49 66 92 48 66 91 48
65
14 7 10 14 7 10 14 7 10 14 7 10 14 7 10 14 7 10 14 7 10 14 7 10 14 7
10 14 7 10 14 7 10 14 7 10 14 7 10 14 7 10 14 7 10 14 7 10 14 7 10 14
7 10 29 50 86 29 50 86 29 50 86 29 50 86 29 50 86 30 52 92 30 52 92 30
52 92 30 52 92 30 52 92 30 52 92 30 52 92 30 52 92 30 52 92 30 52 92
54 62 97 54 62 97 54 62 97 54 62 97 54 62 99 55 63 102 55 64 105 55 64
108 56 65 110 56 66 113 56 66 116 56 67 119 57 68 121 57 68 124 57 69
126 58 70 129 58 70 131 58 71 134 58 71 136 59 72 139 59 72 141 59 73
143 59 74 146 60 74 148 60 75 150 60 75 152 60 76 154 61 76 156 61 76
158 61 77 159 61 77 161 61 78 163 61 78 164 62 78 165 62 79 167 62 79
168 62 79 169 62 79 169 62 79 170 62 79 170 62 79 169 62 79 168 62 78
166 18 13 33 99 48 47 100 48 48 100 48 48 100 48 48 100 49 48 101 49
48 101 49 48 101 49 48 101 49 48 101 49 49 102 49 49 102 49 49 102 49
49 102 50 49 103 50 49 103 50 49 103 50 50 103 50 50 104 50 50 104 50
50 104 50 50 104 51 50 105 51 50 105 51 51 105 51 51 105 51 51 106 51
51 106 51 51 106 51 51 106 52 51 106 52 52 107 52 52 107 52 52 107 52
52 107 52 52 108 52 52 108 52 53 108 52 53 108 53 53 109 53 53 109 53
53 109 53 53 109 53 54 109 53 54 110 53 54 110 53 54 110 54 54 110 54
54 111 54 55 111 54 55 111 54 55 111 54 55 111 54 55 112 54 55 112 55
56 112 55 56 112 55 56 113 55 56 113 55 56 113 55 56 113 55 57 113 55
57 114 55 57 114 56 57 114 56 57 114 56 58 114 56 58 115 56 58 115 56
58 115 56 58 115 56 59 115 56 59 116 57 59 116 57 59 116 57 59 116 57
60 116 57 60 117 57 60 117 57 60 117 57 60 117 57 61 117 58 61 117 58
61 118 58 61 118 58 61 118 58 62 118 58 62 118 58 62 119 58 62 119 58
62 119 59 63 119 59 63 119 59 63 119 59 63 119 59 64 120 59 64 120 59
64 120 59 64 120 59 64 120 59 65 120 60 65 120 60 65 121 60 65 121 60
66 121 60 66 121 60 66 121 60 66 121 60 67 121 60 67 122 60 67 122 61
67 122 61 68 122 61 68 122 61 68 122 61 68 122 61 69 122 61 69 122 61
69 122 61 69 123 61 70 123 61 70 123 62 70 123 62 71 123 62 71 123 62
71 123 62 71 123 62 72 123 62 72 123 62 72 123 62 73 123 62 73 124 62
73 124 62 73 124 63 74 124 63 74 124 63 74 124 63 75 124 63 75 124 63
75 124 63 76 124 63 76 124 63 76 124 63 76 124 63 77 124 63 77 124 63
77 124 63 78 124 64 78 124 64 78 124 64 79 124 64 79 124 64 79 124 64
80 124 64 80 124 64 80 124 64 81 124 64 81 124 64 81 124 64 82 124 64
82 124 64 82 124 64 83 124 65 83 124 65 83 124 65 84 124 65 84 124 65
84 124 65 85 124 65 85 124 65 85 124 65 86 124 65 86 124 65 87 124 65
87 124 65 87 124 65 88 124 65 88 124 65 88 124 65 89 124 65 89 123 65
89 123 65 90 123 65 90 123 65 90 123 66 91 123 66 91 123 66 91 123 66
91 123 66 92 123 66 92 123 66 92 123 66 93 122 66 93 122 66 93 122 66
93 122 66 94 122 66 94 122 66 94 122 66 95 122 66 95 122 66 95 121 66
95 121 66 95 121 66 96 121 66 96 121 66 96 121 66 96 121 66 96 121 66
97 120 66 97 120 66 97 120 66 97 120 65 97 120 65 97 120 65 97 119 65
97 119 65 97 119 65 97 119 65 97 119 65 97 118 65 98 118 65 98 118 65
97 118 65 97 118 65 97 117 65 97 117 64 97 117 64 97 117 64 97 117 64
97 116 64 97 116 64 97 116 64 97 116 64 97 115 64 96 115 63 96 115 63
96 115 63 96 115 63 96 114 63 95 114 63 95 114 63 95 114 63 95 113 62
94 113 62 94 113 62 94 112 62 94 112 62 93 112 62 93 112 61 93 111 61
92 111 61 92 111 61 92 111 61 91 110 61 91 110 60 91 110 60 90 109 60
90 109 60 90 109 60 89 109 59 89 108 59 89 108 59 88 108 59 88 107 59
87 107 59 87 107 58 87 107 58 86 106 58 86 106 58 85 106 58 85 105 57
85 105 57 84 105 57 84 105 57 83 104 57 83 104 56 83 104 56 82 103 56
82 103 56 81 103 56 81 103 56 81 102 55 80 102 55 80 102 55 79 101 55
79 101 55 79 101 54 78 101 54 78 100 54 77 100 54 77 100 54 77 99 53
76 99 53 76 99 53 75 99 53 75 98 53 75 98 53 74 98 52 74 97 52 74 97
52 73 97 52 73 97 52 72 96 52 72 96 51 72 96 51 71 96 51 71 95 51 71
95 51 70 95 50 70 95 50 70 94 50 69 94 50 69 94 50 69 93 50 68 93 49
68 93 49 68 93 49 67 92 49 67 92 49 67 92 49 66 92 49 66 91 48 66
14 7 10 14 7 10 14 7 10 14 7 10 14 7 10 14 7 10 14 7 10 14 7 10 14 7
10 14 7 10 14 7 10 14 7 10 14 7 10 14 7 10 14 7 10 14 7 10 14 7 10 14
7 10 14 7 10 29 50 86 29 50 86 29 50 86 29 50 86 29 50 86 30 52 92 30
52 92 30 52 92 30 52 92 30 52 92 30 52 92 30 52 92 30 52 92 54 62 97
54 62 97 54 62 97 54 62 97 55 62 97 55 62 97 55 63 100 55 63 103 55 64
106 56 65 109 56 65 112 56 66 114 57 67 117 57 67 120 57 68 122 57 69
125 58 69 127 58 70 130 58 70 132 58 71 134 59 71 137 59 72 139 59 73
141 59 73 143 60 74 146 60 74 148 60 75 150 60 75 152 60 75 154 61 76
155 61 76 157 61 77 159 61 77 160 61 77 162 61 78 163 61 78 164 62 78
165 62 78 165 62 78 166 62 78 166 62 78 166 62 78 164 62 78 162 18 13
33 99 48 47 99 48 47 100 48 48 100 48 48 100 48 48 100 49 48 101 49 48
101 49 48 101 49 48 101 49 48 101 49 49 102 49 49 102 49 49 102 49 49
102 50 49 103 50 49 103 50 49 103 50 50 103 50 50 104 50 50 104 50 50
104 50 50 104 51 50 104 51 50 105 51 51 105 51 51 105 51 51 105 51 51
106 51 51 106 51 51 106 51 52 106 52 52 107 52 52 107 52 52 107 52 52
107 52 52 107 52 52 108 52 53 108 52 53 108 53 53 108 53 53 109 53 53
109 53 53 109 53 54 109 53 54 110 53 54 110 53 54 110 54 54 110 54 54
110 54 55 111 54 55 111 54 55 111 54 55 111 54 55 112 54 55 112 54 56
112 55 56 112 55 56 112 55 56 113 55 56 113 55 56 113 55 57 113 55 57
113 55 57 114 55 57 114 56 57 114 56 58 114 56 58 114 56 58 115 56 58
115 56 58 115 56 59 115 56 59 115 57 59 116 57 59 116 57 59 116 57 60
116 57 60 116 57 60 117 57 60 117 57 60 117 57 61 117 58 61 117 58 61
117 58 61 118 58 61 118 58 62 118 58 62 118 58 62 118 58 62 118 58 62
119 58 63 119 59 63 119 59 63 119 59 63 119 59 64 119 59 64 120 59 64
120 59 64 120 59 64 120 59 65 120 59 65 120 60 65 120 60 65 120 60 66
121 60 66 121 60 66 121 60 66 121 60 67 121 60 67 121 60 67 121 60 67
121 61 68 122 61 68 122 61 68 122 61 68 122 61 69 122 61 69 122 61 69
122 61 69 122 61 70 122 61 70 122 61 70 123 62 71 123 62 71 123 62 71
123 62 71 123 62 72 123 62 72 123 62 72 123 62 73 123 62 73 123 62 73
123 62 73 123 62 74 123 62 74 123 63 74 123 63 75 124 63 75 124 63 75
124 63 75 124 63 76 124 63 76 124 63 76 124 63 77 124 63 77 124 63 77
124 63 78 124 63 78 124 64 78 124 64 79 124 64 79 124 64 79 124 64 80
124 64 80 124 64 80 124 64 81 124 64 81 124 64 81 124 64 82 124 64 82
124 64 82 124 64 83 124 64 83 124 64 83 124 65 84 124 65 84 124 65 84
124 65 85 124 65 85 124 65 85 124 65 86 124 65 86 124 65 86 124 65 87
124 65 87 123 65 88 123 65 88 123 65 88 123 65 89 123 65 89 123 65 89
123 65 90 123 65 90 123 65 90 123 65 91 123 65 91 123 66 91 123 66 91
123 66 92 123 66 92 122 66 92 122 66 93 122 66 93 122 66 93 122 66 94
122 66 94 122 66 94 122 66 94 122 66 95 122 66 95 121 66 95 121 66 95
121 66 96 121 66 96 121 66 96 121 66 96 121 66 96 121 66 96 120 66 97
120 66 97 120 66 97 120 65 97 120 65 97 120 65 97 119 65 97 119 65 97
119 65 98 119 65 98 119 65 98 119 65 98 118 65 98 118 65 98 118 65 98
118 65 98 118 65 98 117 65 98 117 64 98 117 64 97 117 64 97 117 64 97
116 64 97 116 64 97 116 64 97 116 64 97 115 64 97 115 64 96 115 63 96
115 63 96 114 63 96 114 63 96 114 63 95 114 63 95 113 63 95 113 62 95
113 62 94 113 62 94 112 62 94 112 62 94 112 62 93 112 61 93 111 61 93
111 61 92 111 61 92 111 61 92 110 61 91 110 60 91 110 60 91 109 60 90
109 60 90 109 60 90 109 60 89 108 59 89 108 59 89 108 59 88 107 59 88
107 59 87 107 58 87 107 58 87 106 58 86 106 58 86 106 58 85 105 58 85
105 57 85 105 57 84 105 57 84 104 57 83 104 57 83 104 56 83 103 56 82
103 56 82 103 56 81 103 56 81 102 55 81 102 55 80 102 55 80 101 55 79
101 55 79 101 55 79 101 54 78 100 54 78 100 54 77 100 54 77 100 54 77
99 53 76 99 53 76 99 53 75 98 53 75 98 53 75 98 53 74 98 52 74 97 52
74 97 52 73 97 52 73 96 52 72 96 51 72 96 51 72 96 51 71 95 51 71 95
51 71 95 51 70 95 50 70 94 50 70 94 50 69 94 50 69 94 50 69 93 50 68
93 49 68 93 49 68 93 49 67 92 49 67 92 49 67 92 49 66 92 48 66
14 7 10 14 7 10 14 7 10 14 7 10 14 7 10 14 7 10 14 7 10 14 7 10 14 7
10 14 7 10 14 7 10 14 7 10 14 7 10 14 7 10 14 7 10 14 7 10 14 7 10 14
7 10 14 7 10 14 7 10 29 50 86 29 50 86 29 50 86 29 50 86 29 50 86 30
52 92 30 52 92 30 52 92 30 52 92 30 52 92 30 52 92 30 52 93 30 52 93
54 62 97 55 62 97 55 62 97 55 62 97 55 62 97 55 62 98 55 63 101 56 64
104 56 64 107 56 65 110 56 66 112 57 66 115 57 67 118 57 68 120 57 68
123 58 69 125 58 69 128 58 70 130 58 71 132 59 71 135 59 72 137 59 72
139 59 73 141 59 73 143 60 74 145 60 74 147 60 75 149 60 75 151 60 75
153 61 76 154 61 76 156 61 76 157 61 77 159 61 77 160 61 77 161 61 77
161 61 78 162 61 78 162 61 77 161 61 77 160 33 65 153 18 13 33 99 48
47 99 48 47 99 48 47 100 48 48 100 48 48 100 48 48 100 48 48 100 49 48
101 49 48 101 49 48 101 49 49 101 49 49 102 49 49 102 49 49 102 49 49
102 50 49 103 50 49 103 50 50 103 50 50 103 50 50 103 50 50 104 50 50
104 50 50 104 50 50 104 51 51 105 51 51 105 51 51 105 51 51 105 51 51
106 51 51 106 51 51 106 51 52 106 52 52 106 52 52 107 52 52 107 52 52
107 52 52 107 52 52 108 52 53 108 52 53 108 53 53 108 53 53 109 53 53
109 53 53 109 53 54 109 53 54 109 53 54 110 53 54 110 53 54 110 54 54
110 54 55 110 54 55 111 54 55 111 54 55 111 54 55 111 54 55 112 54 56
112 55 56 112 55 56 112 55 56 112 55 56 113 55 57 113 55 57 113 55 57
113 55 57 113 55 57 114 56 57 114 56 58 114 56 58 114 56 58 114 56 58
115 56 58 115 56 59 115 56 59 115 56 59 115 57 59 116 57 59 116 57 60
116 57 60 116 57 60 116 57 60 116 57 60 117 57 61 117 57 61 117 58 61
117 58 61 117 58 61 118 58 62 118 58 62 118 58 62 118 58 62 118 58 62
118 58 63 118 58 63 119 59 63 119 59 63 119 59 64 119 59 64 119 59 64
119 59 64 120 59 64 120 59 65 120 59 65 120 59 65 120 60 65 120 60 66
120 60 66 120 60 66 121 60 66 121 60 67 121 60 67 121 60 67 121 60 67
121 60 68 121 61 68 121 61 68 121 61 68 122 61 69 122 61 69 122 61 69
122 61 69 122 61 70 122 61 70 122 61 70 122 61 71 122 61 71 122 62 71
122 62 71 123 62 72 123 62 72 123 62 72 123 62 72 123 62 73 123 62 73
123 62 73 123 62 74 123 62 74 123 62 74 123 63 75 123 63 75 123 63 75
123 63 75 123 63 76 123 63 76 123 63 76 123 63 77 124 63 77 124 63 77
124 63 78 124 63 78 124 63 78 124 63 79 124 64 79 124 64 79 124 64 80
124 64 80 124 64 80 124 64 81 124 64 81 124 64 81 124 64 82 124 64 82
124 64 82 124 64 83 124 64 83 124 64 83 124 64 84 124 64 84 124 65 84
124 65 85 124 65 85 123 65 85 123 65 86 123 65 86 123 65 86 123 65 87
123 65 87 123 65 88 123 65 88 123 65 88 123 65 89 123 65 89 123 65 89
123 65 90 123 65 90 123 65 90 123 65 91 123 65 91 123 65 91 123 65 91
122 65 92 122 65 92 122 66 92 122 66 93 122 66 93 122 66 93 122 66 94
122 66 94 122 66 94 122 66 94 121 66 95 121 66 95 121 66 95 121 66 95
121 66 96 121 66 96 121 66 96 121 66 96 121 66 96 120 66 97 120 66 97
120 66 97 120 65 97 120 65 97 120 65 97 119 65 97 119 65 97 119 65 98
119 65 98 119 65 98 119 65 98 118 65 98 118 65 98 118 65 98 118 65 98
118 65 98 118 65 98 117 65 98 117 65 98 117 64 98 117 64 98 117 64 97
116 64 97 116 64 97 116 64 97 116 64 97 115 64 97 115 64 97 115 63 97
115 63 96 114 63 96 114 63 96 114 63 96 114 63 96 113 63 95 113 62 95
113 62 95 113 62 95 112 62 94 112 62 94 112 62 94 112 62 93 111 61 93
111 61 93 111 61 92 111 61 92 110 61 92 110 61 91 110 60 91 109 60 91
109 60 90 109 60 90 109 60 90 108 59 89 108 59 89 108 59 88 108 59 88
107 59 88 107 59 87 107 58 87 106 58 87 106 58 86 106 58 86 106 58 85
105 57 85 105 57 85 105 57 84 104 57 84 104 57 83 104 56 83 104 56 83
103 56 82 103 56 82 103 56 81 102 56 81 102 55 81 102 55 80 102 55 80
101 55 79 101 55 79 101 54 79 100 54 78 100 54 78 100 54 77 100 54 77
99 54 77 99 53 76 99 53 76 99 53 75 98 53 75 98 53 75 98 52 74 97 52
74 97 52 74 97 52 73 97 52 73 96 52 72 96 51 72 96 51 72 96 51 71 95
51 71 95 51 71 95 51 70 94 50 70 94 50 70 94 50 69 94 50 69 93 50 69
93 50 68 93 49 68 93 49 68 92 49 67 92 49 67 92 49 67 92 49 66
14 7 10 14 7 10 14 7 10 14 7 10 14 7 10 14 7 10 14 7 10 14 7 10 14 7
10 14 7 10 14 7 10 14 7 10 14 7 10 14 7 10 14 7 10 14 7 10 14 7 10 14
7 10 14 7 10 14 7 10 14 7 10 29 50 86 29 50 86 29 50 86 29 50 86 29 50
86 30 52 92 30 52 92 30 52 92 30 52 93 30 52 93 30 52 93 30 52 93 30
52 93 30 52 93 55 62 97 55 62 97 55 62 97 55 62 97 55 63 99 56 63 102
56 64 105 56 65 108 56 65 110 57 66 113 57 67 116 57 67 118 57 68 121
58 68 123 58 69 126 58 69 128 58 70 130 58 71 133 59 71 135 59 72 137
59 72 139 59 73 141 60 73 143 60 74 145 60 74 147 60 74 148 60 75 150
60 75 152 61 75 153 61 76 154 61 76 155 61 76 156 61 76 157 61 77 158
61 77 158 61 76 157 61 76 156 33 64 148 98 48 47 99 48 47 99 48 47 99
48 47 99 48 48 100 48 48 100 48 48 100 48 48 100 48 48 100 49 48 101
49 48 101 49 48 101 49 49 101 49 49 102 49 49 102 49 49 102 49 49 102
50 49 102 50 49 103 50 50 103 50 50 103 50 50 103 50 50 104 50 50 104
50 50 104 50 50 104 51 51 105 51 51 105 51 51 105 51 51 105 51 51 105
51 51 106 51 51 106 51 52 106 52 52 106 52 52 107 52 52 107 52 52 107
52 52 107 52 53 107 52 53 108 52 53 108 52 53 108 53 53 108 53 53 109
53 53 109 53 54 109 53 54 109 53 54 109 53 54 110 53 54 110 54 54 110
54 55 110 54 55 111 54 55 111 54 55 111 54 55 111 54 55 111 54 56 112
54 56 112 55 56 112 55 56 112 55 56 112 55 57 113 55 57 113 55 57 113
55 57 113 55 57 113 55 57 114 56 58 114 56 58 114 56 58 114 56 58 114
56 58 115 56 59 115 56 59 115 56 59 115 56 59 115 57 59 116 57 60 116
57 60 116 57 60 116 57 60 116 57 60 116 57 61 117 57 61 117 57 61 117
58 61 117 58 61 117 58 62 117 58 62 118 58 62 118 58 62 118 58 62 118
58 63 118 58 63 118 58 63 119 59 63 119 59 64 119 59 64 119 59 64 119
59 64 119 59 64 119 59 65 120 59 65 120 59 65 120 59 65 120 60 66 120
60 66 120 60 66 120 60 66 120 60 67 121 60 67 121 60 67 121 60 67 121
60 68 121 60 68 121 60 68 121 61 68 121 61 69 121 61 69 122 61 69 122
61 69 122 61 70 122 61 70 122 61 70 122 61 71 122 61 71 122 61 71 122
62 71 122 62 72 122 62 72 122 62 72 122 62 72 123 62 73 123 62 73 123
62 73 123 62 74 123 62 74 123 62 74 123 62 75 123 62 75 123 63 75 123
63 75 123 63 76 123 63 76 123 63 76 123 63 77 123 63 77 123 63 77 123
63 78 123 63 78 123 63 78 123 63 79 123 63 79 123 63 79 123 64 80 123
64 80 123 64 80 123 64 81 123 64 81 123 64 81 123 64 82 123 64 82 123
64 82 123 64 83 123 64 83 123 64 83 123 64 84 123 64 84 123 64 84 123
64 85 123 65 85 123 65 85 123 65 86 123 65 86 123 65 86 123 65 87 123
65 87 123 65 87 123 65 88 123 65 88 123 65 88 123 65 89 123 65 89 123
65 90 123 65 90 123 65 90 123 65 90 122 65 91 122 65 91 122 65 91 122
65 92 122 65 92 122 65 92 122 65 93 122 65 93 122 65 93 122 66 94 122
66 94 122 66 94 121 66 94 121 66 95 121 66 95 121 66 95 121 66 95 121
66 96 121 66 96 121 66 96 120 66 96 120 66 96 120 66 97 120 65 97 120
65 97 120 65 97 120 65 97 120 65 97 119 65 97 119 65 98 119 65 98 119
65 98 119 65 98 119 65 98 118 65 98 118 65 98 118 65 98 118 65 98 118
65 98 117 65 98 117 65 98 117 64 98 117 64 98 117 64 98 116 64 98 116
64 98 116 64 97 116 64 97 116 64 97 115 64 97 115 64 97 115 63 97 115
63 97 114 63 96 114 63 96 114 63 96 114 63 96 113 63 96 113 62 95 113
62 95 113 62 95 112 62 94 112 62 94 112 62 94 112 62 94 111 61 93 111
61 93 111 61 93 111 61 92 110 61 92 110 61 92 110 60 91 110 60 91 109
60 91 109 60 90 109 60 90 108 60 90 108 59 89 108 59 89 108 59 88 107
59 88 107 59 88 107 58 87 106 58 87 106 58 86 106 58 86 106 58 86 105
58 85 105 57 85 105 57 84 104 57 84 104 57 84 104 57 83 104 56 83 103
56 82 103 56 82 103 56 82 102 56 81 102 55 81 102 55 80 102 55 80 101
55 80 101 55 79 101 55 79 101 54 78 100 54 78 100 54 78 100 54 77 99
54 77 99 53 77 99 53 76 99 53 76 98 53 75 98 53 75 98 53 75 98 52 74
97 52 74 97 52 74 97 52 73 96 52 73 96 51 72 96 51 72 96 51 72 95 51
71 95 51 71 95 51 71 95 50 70 94 50 70 94 50 70 94 50 69 94 50 69 93
50 69 93 49 68 93 49 68 93 49 68 92 49 67 92 49 67 92 49 67
14 7 10 14 7 10 14 7 10 14 7 10 14 7 10 14 7 10 14 7 10 14 7 10 14 7
10 14 7 10 14 7 10 14 7 10 14 7 10 14 7 10 14 7 10 14 7 10 14 7 10 14
7 10 14 7 10 14 7 10 14 7 10 14 7 10 29 50 86 29 50 86 29 50 86 29 50
86 29 50 86 30 52 92 30 52 93 30 52 93 30 52 93 30 52 93 30 52 93 30
52 93 30 52 93 30 52 93 30 52 93 30 52 93 55 62 97 55 62 97 56 63 100
56 64 103 56 64 106 56 65 108 57 66 111 57 66 113 57 67 116 57 67 119
57 68 121 58 68 123 58 69 126 58 70 128 58 70 130 59 71 132 59 71 134
59 72 137 59 72 139 59 72 140 60 73 142 60 73 144 60 74 146 60 74 147
60 74 149 60 75 150 60 75 151 61 75 152 61 75 153 61 76 153 61 76 153
61 75 152 33 63 146 18 13 33 98 47 47 98 48 47 99 48 47 99 48 47 99 48
47 99 48 48 99 48 48 100 48 48 100 48 48 100 48 48 100 49 48 101 49 48
101 49 48 101 49 49 101 49 49 102 49 49 102 49 49 102 49 49 102 50 49
102 50 49 103 50 50 103 50 50 103 50 50 103 50 50 104 50 50 104 50 50
104 50 50 104 51 51 104 51 51 105 51 51 105 51 51 105 51 51 105 51 51
106 51 51 106 51 52 106 51 52 106 52 52 106 52 52 107 52 52 107 52 52
107 52 53 107 52 53 108 52 53 108 52 53 108 53 53 108 53 53 108 53 53
109 53 54 109 53 54 109 53 54 109 53 54 110 53 54 110 53 54 110 54 55
110 54 55 110 54 55 111 54 55 111 54 55 111 54 55 111 54 56 111 54 56
112 54 56 112 55 56 112 55 56 112 55 57 112 55 57 113 55 57 113 55 57
113 55 57 113 55 57 113 56 58 114 56 58 114 56 58 114 56 58 114 56 58
114 56 59 115 56 59 115 56 59 115 56 59 115 56 59 115 57 60 115 57 60
116 57 60 116 57 60 116 57 60 116 57 61 116 57 61 117 57 61 117 57 61
117 58 61 117 58 62 117 58 62 117 58 62 118 58 62 118 58 62 118 58 63
118 58 63 118 58 63 118 58 63 118 59 64 119 59 64 119 59 64 119 59 64
119 59 64 119 59 65 119 59 65 119 59 65 120 59 65 120 59 66 120 60 66
120 60 66 120 60 66 120 60 67 120 60 67 120 60 67 120 60 67 121 60 68
121 60 68 121 60 68 121 60 68 121 61 69 121 61 69 121 61 69 121 61 69
121 61 70 121 61 70 122 61 70 122 61 70 122 61 71 122 61 71 122 61 71
122 61 72 122 62 72 122 62 72 122 62 72 122 62 73 122 62 73 122 62 73
122 62 74 122 62 74 123 62 74 123 62 74 123 62 75 123 62 75 123 63 75
123 63 76 123 63 76 123 63 76 123 63 77 123 63 77 123 63 77 123 63 78
123 63 78 123 63 78 123 63 79 123 63 79 123 63 79 123 63 80 123 63 80
123 64 80 123 64 81 123 64 81 123 64 81 123 64 82 123 64 82 123 64 82
123 64 83 123 64 83 123 64 83 123 64 84 123 64 84 123 64 84 123 64 85
123 64 85 123 64 85 123 65 86 123 65 86 123 65 86 123 65 87 123 65 87
123 65 87 123 65 88 123 65 88 123 65 88 123 65 89 122 65 89 122 65 89
122 65 90 122 65 90 122 65 90 122 65 91 122 65 91 122 65 91 122 65 92
122 65 92 122 65 92 122 65 93 122 65 93 122 65 93 121 65 94 121 65 94
121 65 94 121 65 94 121 65 95 121 65 95 121 65 95 121 65 95 121 65 96
121 65 96 120 65 96 120 65 96 120 65 96 120 65 97 120 65 97 120 65 97
120 65 97 120 65 97 119 65 97 119 65 97 119 65 98 119 65 98 119 65 98
119 65 98 118 65 98 118 65 98 118 65 98 118 65 98 118 65 98 118 65 98
117 65 98 117 65 98 117 64 98 117 64 98 117 64 98 116 64 98 116 64 98
116 64 98 116 64 97 115 64 97 115 64 97 115 64 97 115 63 97 115 63 97
114 63 97 114 63 96 114 63 96 114 63 96 113 63 96 113 63 95 113 62 95
113 62 95 112 62 95 112 62 94 112 62 94 112 62 94 111 61 94 111 61 93
111 61 93 111 61 93 110 61 92 110 61 92 110 60 92 110 60 91 109 60 91
109 60 91 109 60 90 108 60 90 108 59 89 108 59 89 108 59 89 107 59 88
107 59 88 107 59 88 106 58 87 106 58 87 106 58 86 106 58 86 105 58 86
105 57 85 105 57 85 105 57 84 104 57 84 104 57 84 104 56 83 103 56 83
103 56 82 103 56 82 103 56 82 102 56 81 102 55 81 102 55 80 101 55 80
101 55 80 101 55 79 101 54 79 100 54 78 100 54 78 100 54 78 100 54 77
99 54 77 99 53 76 99 53 76 98 53 76 98 53 75 98 53 75 98 52 75 97 52
74 97 52 74 97 52 73 97 52 73 96 52 73 96 51 72 96 51 72 96 51 72 95
51 71 95 51 71 95 51 71 94 50 70 94 50 70 94 50 70 94 50 69 93 50 69
93 50 69 93 49 68 93 49 68 92 49 68 92 49 67 92 49 67
14 7 10 14 7 10 14 7 10 14 7 10 14 7 10 14 7 10 14 7 10 14 7 10 14 7
10 14 7 10 14 7 10 14 7 10 14 7 10 14 7 10 14 7 10 14 7 10 14 7 10 14
7 10 14 7 10 14 7 10 14 7 10 14 7 10 14 7 10 29 50 86 29 50 86 29 50
86 29 50 86 29 50 86 30 52 93 30 52 93 30 52 93 30 52 93 30 52 93 30
52 93 30 52 93 30 52 93 30 52 93 30 52 93 30 52 93 30 52 93 56 63 98
56 63 100 56 64 103 56 64 106 57 65 109 57 66 111 57 66 114 57 67 116
57 67 119 58 68 121 58 68 123 58 69 125 58 70 128 58 70 130 59 71 132
59 71 134 59 71 136 59 72 138 59 72 139 60 73 141 60 73 142 60 73 144
60 74 145 60 74 146 60 74 147 60 74 148 60 74 148 33 63 143 33 62 142
33 62 140 18 13 33 98 47 47 98 47 47 98 48 47 99 48 47 99 48 47 99 48
47 99 48 48 99 48 48 100 48 48 100 48 48 100 48 48 100 49 48 101 49 48
101 49 49 101 49 49 101 49 49 101 49 49 102 49 49 102 49 49 102 49 49
102 50 49 103 50 50 103 50 50 103 50 50 103 50 50 103 50 50 104 50 50
104 50 50 104 51 51 104 51 51 105 51 51 105 51 51 105 51 51 105 51 51
105 51 51 106 51 52 106 51 52 106 52 52 106 52 52 107 52 52 107 52 52
107 52 53 107 52 53 107 52 53 108 52 53 108 52 53 108 53 53 108 53 54
109 53 54 109 53 54 109 53 54 109 53 54 109 53 54 110 53 54 110 54 55
110 54 55 110 54 55 110 54 55 111 54 55 111 54 56 111 54 56 111 54 56
111 54 56 112 55 56 112 55 56 112 55 57 112 55 57 112 55 57 113 55 57
113 55 57 113 55 57 113 55 58 113 56 58 114 56 58 114 56 58 114 56 58
114 56 59 114 56 59 115 56 59 115 56 59 115 56 59 115 57 60 115 57 60
115 57 60 116 57 60 116 57 60 116 57 61 116 57 61 116 57 61 116 57 61
117 57 61 117 58 62 117 58 62 117 58 62 117 58 62 117 58 62 118 58 63
118 58 63 118 58 63 118 58 63 118 58 64 118 59 64 118 59 64 119 59 64
119 59 64 119 59 65 119 59 65 119 59 65 119 59 65 119 59 66 119 59 66
120 60 66 120 60 66 120 60 67 120 60 67 120 60 67 120 60 67 120 60 68
120 60 68 121 60 68 121 60 68 121 60 69 121 61 69 121 61 69 121 61 69
121 61 70 121 61 70 121 61 70 121 61 70 121 61 71 122 61 71 122 61 71
122 61 72 122 61 72 122 62 72 122 62 72 122 62 73 122 62 73 122 62 73
122 62 74 122 62 74 122 62 74 122 62 74 122 62 75 122 62 75 122 62 75
122 62 76 122 63 76 123 63 76 123 63 77 123 63 77 123 63 77 123 63 78
123 63 78 123 63 78 123 63 79 123 63 79 123 63 79 123 63 79 123 63 80
123 63 80 123 63 80 123 64 81 123 64 81 123 64 81 123 64 82 123 64 82
123 64 83 123 64 83 123 64 83 123 64 84 123 64 84 123 64 84 123 64 85
123 64 85 123 64 85 123 64 86 123 64 86 123 65 86 123 65 87 123 65 87
122 65 87 122 65 88 122 65 88 122 65 88 122 65 89 122 65 89 122 65 89
122 65 90 122 65 90 122 65 90 122 65 91 122 65 91 122 65 91 122 65 92
122 65 92 122 65 92 122 65 93 121 65 93 121 65 93 121 65 93 121 65 94
121 65 94 121 65 94 121 65 95 121 65 95 121 65 95 121 65 95 120 65 96
120 65 96 120 65 96 120 65 96 120 65 96 120 65 97 120 65 97 120 65 97
119 65 97 119 65 97 119 65 97 119 65 97 119 65 98 119 65 98 119 65 98
118 65 98 118 65 98 118 65 98 118 65 98 118 65 98 118 65 98 117 65 98
117 65 98 117 65 98 117 64 98 117 64 98 116 64 98 116 64 98 116 64 98
116 64 98 116 64 98 115 64 97 115 64 97 115 64 97 115 63 97 115 63 97
114 63 97 114 63 97 114 63 96 114 63 96 113 63 96 113 63 96 113 62 95
113 62 95 112 62 95 112 62 95 112 62 94 112 62 94 111 61 94 111 61 94
111 61 93 111 61 93 110 61 93 110 61 92 110 61 92 110 60 92 109 60 91
109 60 91 109 60 90 108 60 90 108 59 90 108 59 89 108 59 89 107 59 89
107 59 88 107 59 88 107 58 87 106 58 87 106 58 87 106 58 86 105 58 86
105 57 86 105 57 85 105 57 85 104 57 84 104 57 84 104 57 84 103 56 83
103 56 83 103 56 82 103 56 82 102 56 82 102 55 81 102 55 81 102 55 80
101 55 80 101 55 80 101 55 79 100 54 79 100 54 78 100 54 78 100 54 78
99 54 77 99 53 77 99 53 76 99 53 76 98 53 76 98 53 75 98 53 75 97 52
75 97 52 74 97 52 74 97 52 73 96 52 73 96 52 73 96 51 72 96 51 72 95
51 72 95 51 71 95 51 71 95 51 71 94 50 70 94 50 70 94 50 70 94 50 69
93 50 69 93 50 69 93 49 68 93 49 68 92 49 68 92 49 67
14 7 10 14 7 10 14 7 10 14 7 10 14 7 10 14 7 10 14 7 10 14 7 10 14 7
10 14 7 10 14 7 10 14 7 10 14 7 10 14 7 10 14 7 10 14 7 10 14 7 10 14
7 10 14 7 10 14 7 10 14 7 10 14 7 10 14 7 10 14 7 10 14 7 10 29 50 86
29 50 86 29 50 86 29 50 86 30 52 93 30 52 93 30 52 93 30 52 93 30 52
93 30 52 93 30 52 93 30 52 93 30 52 93 30 52 93 30 52 93 30 52 93 30
52 93 31 52 96 31 53 99 56 65 106 57 65 109 57 66 111 57 66 113 57 67
116 58 67 118 58 68 121 58 68 123 58 69 125 58 69 127 59 70 129 59 70
131 59 71 133 59 71 134 59 72 136 59 72 138 59 72 139 60 73 140 60 73
141 60 73 142 33 61 138 33 62 138 33 61 138 33 61 137 18 13 32 97 47
47 98 47 47 98 47 47 98 47 47 98 48 47 98 48 47 99 48 47 99 48 48 99
48 48 99 48 48 100 48 48 100 48 48 100 48 48 100 49 48 100 49 48 101
49 49 101 49 49 101 49 49 101 49 49 102 49 49 102 49 49 102 49 49 102
50 50 102 50 50 103 50 50 103 50 50 103 50 50 103 50 50 104 50 50 104
50 51 104 50 51 104 51 51 104 51 51 105 51 51 105 51 51 105 51 51 105
51 52 106 51 52 106 51 52 106 52 52 106 52 52 106 52 52 107 52 52 107
52 53 107 52 53 107 52 53 108 52 53 108 52 53 108 53 53 108 53 54 108
53 54 109 53 54 109 53 54 109 53 54 109 53 54 109 53 55 110 53 55 110
54 55 110 54 55 110 54 55 110 54 55 111 54 56 111 54 56 111 54 56 111
54 56 111 54 56 112 55 56 112 55 57 112 55 57 112 55 57 112 55 57 113
55 57 113 55 57 113 55 58 113 55 58 113 56 58 114 56 58 114 56 58 114
56 59 114 56 59 114 56 59 114 56 59 115 56 59 115 56 60 115 57 60 115
57 60 115 57 60 116 57 60 116 57 61 116 57 61 116 57 61 116 57 61 116
57 61 117 57 62 117 58 62 117 58 62 117 58 62 117 58 62 117 58 63 117
58 63 118 58 63 118 58 63 118 58 64 118 58 64 118 59 64 118 59 64 118
59 64 119 59 65 119 59 65 119 59 65 119 59 65 119 59 66 119 59 66 119
59 66 119 59 66 120 60 67 120 60 67 120 60 67 120 60 67 120 60 68 120
60 68 120 60 68 120 60 68 120 60 69 121 60 69 121 60 69 121 61 69 121
61 70 121 61 70 121 61 70 121 61 70 121 61 71 121 61 71 121 61 71 121
61 72 121 61 72 121 61 72 122 61 72 122 62 73 122 62 73 122 62 73 122
62 74 122 62 74 122 62 74 122 62 74 122 62 75 122 62 75 122 62 75 122
62 76 122 62 76 122 62 76 122 63 77 122 63 77 122 63 77 122 63 77 122
63 78 122 63 78 122 63 78 122 63 79 122 63 79 122 63 79 122 63 80 123
63 80 123 63 80 123 63 81 123 63 81 123 64 81 123 64 82 123 64 82 123
64 82 123 64 83 122 64 83 122 64 83 122 64 84 122 64 84 122 64 84 122
64 85 122 64 85 122 64 86 122 64 86 122 64 86 122 64 87 122 64 87 122
65 87 122 65 88 122 65 88 122 65 88 122 65 89 122 65 89 122 65 89 122
65 90 122 65 90 122 65 90 122 65 91 122 65 91 122 65 91 122 65 92 121
65 92 121 65 92 121 65 92 121 65 93 121 65 93 121 65 93 121 65 94 121
65 94 121 65 94 121 65 94 121 65 95 120 65 95 120 65 95 120 65 95 120
65 96 120 65 96 120 65 96 120 65 96 120 65 97 120 65 97 119 65 97 119
65 97 119 65 97 119 65 97 119 65 97 119 65 98 119 65 98 118 65 98 118
65 98 118 65 98 118 65 98 118 65 98 118 65 98 117 65 98 117 65 98 117
65 98 117 64 98 117 64 98 117 64 98 116 64 98 116 64 98 116 64 98 116
64 98 116 64 98 115 64 98 115 64 97 115 64 97 115 63 97 114 63 97 114
63 97 114 63 97 114 63 96 114 63 96 113 63 96 113 63 96 113 62 96 113
62 95 112 62 95 112 62 95 112 62 95 112 62 94 111 62 94 111 61 94 111
61 93 111 61 93 110 61 93 110 61 92 110 61 92 110 60 92 109 60 91 109
60 91 109 60 91 108 60 90 108 60 90 108 59 90 108 59 89 107 59 89 107
59 89 107 59 88 107 58 88 106 58 87 106 58 87 106 58 87 105 58 86 105
58 86 105 57 85 105 57 85 104 57 85 104 57 84 104 57 84 104 56 83 103
56 83 103 56 83 103 56 82 102 56 82 102 56 81 102 55 81 102 55 81 101
55 80 101 55 80 101 55 79 100 54 79 100 54 79 100 54 78 100 54 78 99
54 77 99 54 77 99 53 77 99 53 76 98 53 76 98 53 76 98 53 75 98 52 75
97 52 74 97 52 74 97 52 74 96 52 73 96 52 73 96 51 73 96 51 72 95 51
72 95 51 72 95 51 71 95 51 71 94 50 71 94 50 70 94 50 70 94 50 69 93
50 69 93 50 69 93 49 68 93 49 68 92 49 68 92 49 68
14 7 10 14 7 10 14 7 10 14 7 10 14 7 10 14 7 10 14 7 10 14 7 10 14 7
10 14 7 10 14 7 10 14 7 10 14 7 10 14 7 10 14 7 10 14 7 10 14 7 10 14
7 10 14 7 10 14 7 10 14 7 10 14 7 10 14 7 10 14 7 10 14 7 10 14 7 10
29 50 86 29 50 86 29 50 86 29 50 86 29 50 86 30 52 93 30 52 93 30 52
93 30 52 93 30 52 93 30 52 93 30 52 93 30 52 93 30 52 93 30 52 93 30
52 93 30 52 93 31 52 96 31 53 99 31 54 101 31 54 104 31 55 106 31 55
108 31 56 111 58 67 118 58 68 120 58 68 122 58 69 124 58 69 126 59 70
128 59 70 129 59 70 131 32 59 128 32 60 129 32 60 130 32 60 131 32 60
132 32 60 132 32 60 132 32 60 132 18 13 32 18 13 32 97 47 47 97 47 47
98 47 47 98 47 47 98 47 47 98 48 47 98 48 47 99 48 47 99 48 48 99 48
48 99 48 48 100 48 48 100 48 48 100 48 48 100 49 48 100 49 48 101 49
49 101 49 49 101 49 49 101 49 49 102 49 49 102 49 49 102 49 49 102 50
50 102 50 50 103 50 50 103 50 50 103 50 50 103 50 50 103 50 50 104 50
51 104 50 51 104 51 51 104 51 51 105 51 51 105 51 51 105 51 51 105 51
52 105 51 52 106 51 52 106 51 52 106 52 52 106 52 52 107 52 52 107 52
53 107 52 53 107 52 53 107 52 53 108 52 53 108 52 53 108 53 54 108 53
54 108 53 54 109 53 54 109 53 54 109 53 54 109 53 55 109 53 55 110 53
55 110 54 55 110 54 55 110 54 55 110 54 56 111 54 56 111 54 56 111 54
56 111 54 56 111 54 56 112 55 57 112 55 57 112 55 57 112 55 57 112 55
57 113 55 57 113 55 58 113 55 58 113 55 58 113 56 58 114 56 58 114 56
59 114 56 59 114 56 59 114 56 59 114 56 59 115 56 60 115 56 60 115 57
60 115 57 60 115 57 60 115 57 61 116 57 61 116 57 61 116 57 61 116 57
61 116 57 62 116 57 62 117 58 62 117 58 62 117 58 62 117 58 63 117 58
63 117 58 63 117 58 63 118 58 64 118 58 64 118 58 64 118 59 64 118 59
64 118 59 65 118 59 65 119 59 65 119 59 65 119 59 66 119 59 66 119 59
66 119 59 66 119 59 67 119 60 67 119 60 67 120 60 67 120 60 68 120 60
68 120 60 68 120 60 68 120 60 69 120 60 69 120 60 69 120 60 69 120 61
70 121 61 70 121 61 70 121 61 70 121 61 71 121 61 71 121 61 71 121 61
71 121 61 72 121 61 72 121 61 72 121 61 73 121 61 73 121 62 73 122 62
73 122 62 74 122 62 74 122 62 74 122 62 75 122 62 75 122 62 75 122 62
76 122 62 76 122 62 76 122 62 76 122 62 77 122 63 77 122 63 77 122 63
78 122 63 78 122 63 78 122 63 79 122 63 79 122 63 79 122 63 80 122 63
80 122 63 80 122 63 81 122 63 81 122 63 81 122 63 82 122 64 82 122 64
82 122 64 83 122 64 83 122 64 83 122 64 84 122 64 84 122 64 84 122 64
85 122 64 85 122 64 85 122 64 86 122 64 86 122 64 86 122 64 87 122 64
87 122 64 87 122 65 88 122 65 88 122 65 89 122 65 89 122 65 89 122 65
90 122 65 90 122 65 90 121 65 91 121 65 91 121 65 91 121 65 91 121 65
92 121 65 92 121 65 92 121 65 93 121 65 93 121 65 93 121 65 94 121 65
94 121 65 94 120 65 94 120 65 95 120 65 95 120 65 95 120 65 95 120 65
96 120 65 96 120 65 96 120 65 96 119 65 96 119 65 97 119 65 97 119 65
97 119 65 97 119 65 97 119 65 97 119 65 98 118 65 98 118 65 98 118 65
98 118 65 98 118 65 98 118 65 98 117 65 98 117 65 98 117 65 98 117 65
98 117 64 98 117 64 98 116 64 98 116 64 98 116 64 98 116 64 98 116 64
98 115 64 98 115 64 98 115 64 98 115 64 97 115 63 97 114 63 97 114 63
97 114 63 97 114 63 97 113 63 96 113 63 96 113 63 96 113 62 96 113 62
96 112 62 95 112 62 95 112 62 95 112 62 94 111 62 94 111 61 94 111 61
94 111 61 93 110 61 93 110 61 93 110 61 92 110 60 92 109 60 92 109 60
91 109 60 91 108 60 91 108 60 90 108 59 90 108 59 90 107 59 89 107 59
89 107 59 88 107 59 88 106 58 88 106 58 87 106 58 87 105 58 86 105 58
86 105 57 86 105 57 85 104 57 85 104 57 84 104 57 84 104 57 84 103 56
83 103 56 83 103 56 82 102 56 82 102 56 82 102 55 81 102 55 81 101 55
81 101 55 80 101 55 80 101 55 79 100 54 79 100 54 79 100 54 78 99 54
78 99 54 77 99 53 77 99 53 77 98 53 76 98 53 76 98 53 75 98 53 75 97
52 75 97 52 74 97 52 74 97 52 74 96 52 73 96 52 73 96 51 73 96 51 72
95 51 72 95 51 71 95 51 71 95 51 71 94 50 70 94 50 70 94 50 70 94 50
69 93 50 69 93 50 69 93 49 68 93 49 68 92 49 68
14 7 10 14 7 10 14 7 10 14 7 10 14 7 10 14 7 10 14 7 10 14 7 10 14 7
10 14 7 10 14 7 10 14 7 10 14 7 10 14 7 10 14 7 10 14 7 10 14 7 10 14
7 10 14 7 10 14 7 10 14 7 10 14 7 10 14 7 10 14 7 10 14 7 10 14 7 10
14 7 10 14 7 10 29 50 86 29 50 86 29 50 86 29 50 86 30 52 93 30 52 93
30 52 93 30 52 93 30 52 93 30 52 93 30 52 93 30 52 93 30 52 93 30 52
93 30 52 93 30 52 93 31 52 95 31 53 98 31 53 100 31 54 103 31 54 105
31 55 107 31 55 109 31 56 112 31 56 114 32 57 115 32 57 117 32 57 119
32 58 121 32 58 122 32 58 123 32 59 124 32 59 125 32 59 126 32 59 126
18 13 32 18 13 32 18 13 32 18 13 32 97 47 47 97 47 47 97 47 47 98 47
47 98 47 47 98 47 47 98 48 47 98 48 47 99 48 47 99 48 48 99 48 48 99
48 48 99 48 48 100 48 48 100 48 48 100 49 48 100 49 49 101 49 49 101
49 49 101 49 49 101 49 49 101 49 49 102 49 49 102 49 49 102 50 50 102
50 50 103 50 50 103 50 50 103 50 50 103 50 50 103 50 50 104 50 51 104
50 51 104 51 51 104 51 51 104 51 51 105 51 51 105 51 51 105 51 52 105
51 52 106 51 52 106 51 52 106 52 52 106 52 52 106 52 52 107 52 53 107
52 53 107 52 53 107 52 53 107 52 53 108 52 53 108 53 54 108 53 54 108
53 54 108 53 54 109 53 54 109 53 54 109 53 55 109 53 55 109 53 55 110
54 55 110 54 55 110 54 55 110 54 56 110 54 56 111 54 56 111 54 56 111
54 56 111 54 56 111 55 57 112 55 57 112 55 57 112 55 57 112 55 57 112
55 57 113 55 58 113 55 58 113 55 58 113 55 58 113 56 58 113 56 59 114
56 59 114 56 59 114 56 59 114 56 59 114 56 60 115 56 60 115 56 60 115
57 60 115 57 60 115 57 61 115 57 61 116 57 61 116 57 61 116 57 61 116
57 62 116 57 62 116 57 62 116 58 62 117 58 62 117 58 63 117 58 63 117
58 63 117 58 63 117 58 63 117 58 64 118 58 64 118 58 64 118 59 64 118
59 65 118 59 65 118 59 65 118 59 65 118 59 66 119 59 66 119 59 66 119
59 66 119 59 66 119 59 67 119 60 67 119 60 67 119 60 67 120 60 68 120
60 68 120 60 68 120 60 68 120 60 69 120 60 69 120 60 69 120 60 70 120
60 70 120 61 70 120 61 70 121 61 71 121 61 71 121 61 71 121 61 71 121
61 72 121 61 72 121 61 72 121 61 73 121 61 73 121 61 73 121 62 73 121
62 74 121 62 74 121 62 74 121 62 75 121 62 75 121 62 75 122 62 75 122
62 76 122 62 76 122 62 76 122 62 77 122 62 77 122 62 77 122 63 78 122
63 78 122 63 78 122 63 79 122 63 79 122 63 79 122 63 80 122 63 80 122
63 80 122 63 81 122 63 81 122 63 81 122 63 82 122 63 82 122 63 82 122
64 83 122 64 83 122 64 83 122 64 84 122 64 84 122 64 84 122 64 85 122
64 85 122 64 85 122 64 86 122 64 86 122 64 86 122 64 87 122 64 87 122
64 87 122 64 88 122 64 88 122 64 88 121 65 89 121 65 89 121 65 89 121
65 90 121 65 90 121 65 90 121 65 91 121 65 91 121 65 91 121 65 92 121
65 92 121 65 92 121 65 93 121 65 93 121 65 93 121 65 93 120 65 94 120
65 94 120 65 94 120 65 95 120 65 95 120 65 95 120 65 95 120 65 96 120
65 96 120 65 96 119 65 96 119 65 96 119 65 97 119 65 97 119 65 97 119
65 97 119 65 97 119 65 97 118 65 97 118 65 98 118 65 98 118 65 98 118
65 98 118 65 98 117 65 98 117 65 98 117 65 98 117 65 98 117 64 98 117
64 98 116 64 98 116 64 98 116 64 98 116 64 98 116 64 98 116 64 98 115
64 98 115 64 98 115 64 98 115 63 97 114 63 97 114 63 97 114 63 97 114
63 97 114 63 97 113 63 96 113 63 96 113 63 96 113 62 96 112 62 96 112
62 95 112 62 95 112 62 95 112 62 95 111 62 94 111 61 94 111 61 94 111
61 93 110 61 93 110 61 93 110 61 93 109 60 92 109 60 92 109 60 92 109
60 91 108 60 91 108 60 90 108 59 90 108 59 90 107 59 89 107 59 89 107
59 89 107 59 88 106 58 88 106 58 87 106 58 87 105 58 87 105 58 86 105
57 86 105 57 86 104 57 85 104 57 85 104 57 84 104 57 84 103 56 84 103
56 83 103 56 83 103 56 82 102 56 82 102 55 82 102 55 81 101 55 81 101
55 80 101 55 80 101 55 80 100 54 79 100 54 79 100 54 78 100 54 78 99
54 78 99 54 77 99 53 77 98 53 77 98 53 76 98 53 76 98 53 75 97 52 75
97 52 75 97 52 74 97 52 74 96 52 74 96 52 73 96 51 73 96 51 72 95 51
72 95 51 72 95 51 71 95 51 71 94 50 71 94 50 70 94 50 70 94 50 70 93
50 69 93 50 69 93 49 69 93 49 68 92 49 68
14 7 10 14 7 10 14 7 10 14 7 10 14 7 10 14 7 10 14 7 10 14 7 10 14 7
10 14 7 10 14 7 10 14 7 10 14 7 10 14 7 10 14 7 10 14 7 10 14 7 10 14
7 10 14 7 10 14 7 10 14 7 10 14 7 10 14 7 10 14 7 10 14 7 10 14 7 10
14 7 10 14 7 10 14 7 10 14 7 10 29 50 86 29 50 86 29 50 86 29 50 86 30
52 93 30 52 93 30 52 93 30 52 93 30 52 93 30 52 93 30 52 93 30 52 93
30 52 93 30 52 93 30 52 93 31 52 94 31 53 97 31 53 99 31 54 101 31 54
104 31 55 106 31 55 108 31 55 110 31 56 111 31 56 113 32 56 115 32 57
116 32 57 117 32 57 118 32 57 119 32 57 119 18 13 32 18 13 32 18 13 32
18 13 32 96 47 46 97 47 46 97 47 47 97 47 47 97 47 47 97 47 47 98 47
47 98 47 47 98 48 47 98 48 47 99 48 48 99 48 48 99 48 48 99 48 48 99
48 48 100 48 48 100 48 48 100 49 48 100 49 49 100 49 49 101 49 49 101
49 49 101 49 49 101 49 49 102 49 49 102 49 49 102 49 50 102 50 50 102
50 50 103 50 50 103 50 50 103 50 50 103 50 50 104 50 51 104 50 51 104
50 51 104 51 51 104 51 51 105 51 51 105 51 51 105 51 52 105 51 52 105
51 52 106 51 52 106 51 52 106 52 52 106 52 52 106 52 53 107 52 53 107
52 53 107 52 53 107 52 53 107 52 53 108 52 54 108 53 54 108 53 54 108
53 54 109 53 54 109 53 54 109 53 55 109 53 55 109 53 55 110 53 55 110
54 55 110 54 55 110 54 56 110 54 56 110 54 56 111 54 56 111 54 56 111
54 56 111 54 57 111 55 57 112 55 57 112 55 57 112 55 57 112 55 57 112
55 58 113 55 58 113 55 58 113 55 58 113 56 58 113 56 59 113 56 59 114
56 59 114 56 59 114 56 59 114 56 60 114 56 60 114 56 60 115 56 60 115
57 60 115 57 61 115 57 61 115 57 61 115 57 61 116 57 61 116 57 62 116
57 62 116 57 62 116 57 62 116 58 62 116 58 63 117 58 63 117 58 63 117
58 63 117 58 63 117 58 64 117 58 64 117 58 64 118 58 64 118 58 65 118
59 65 118 59 65 118 59 65 118 59 66 118 59 66 118 59 66 119 59 66 119
59 66 119 59 67 119 59 67 119 59 67 119 60 67 119 60 68 119 60 68 119
60 68 120 60 68 120 60 69 120 60 69 120 60 69 120 60 69 120 60 70 120
60 70 120 61 70 120 61 71 120 61 71 120 61 71 120 61 71 120 61 72 121
61 72 121 61 72 121 61 72 121 61 73 121 61 73 121 61 73 121 61 74 121
62 74 121 62 74 121 62 74 121 62 75 121 62 75 121 62 75 121 62 76 121
62 76 121 62 76 121 62 77 121 62 77 121 62 77 121 62 78 121 62 78 122
63 78 122 63 79 122 63 79 122 63 79 122 63 79 122 63 80 122 63 80 122
63 80 122 63 81 122 63 81 122 63 81 122 63 82 122 63 82 122 63 82 122
63 83 122 64 83 122 64 83 122 64 84 122 64 84 122 64 85 122 64 85 122
64 85 121 64 86 121 64 86 121 64 86 121 64 87 121 64 87 121 64 87 121
64 88 121 64 88 121 64 88 121 64 89 121 64 89 121 64 89 121 65 90 121
65 90 121 65 90 121 65 91 121 65 91 121 65 91 121 65 92 121 65 92 121
65 92 120 65 92 120 65 93 120 65 93 120 65 93 120 65 94 120 65 94 120
65 94 120 65 94 120 65 95 120 65 95 120 65 95 120 65 95 119 65 96 119
65 96 119 65 96 119 65 96 119 65 96 119 65 97 119 65 97 119 65 97 118
65 97 118 65 97 118 65 97 118 65 97 118 65 98 118 65 98 118 65 98 117
65 98 117 65 98 117 65 98 117 65 98 117 64 98 117 64 98 116 64 98 116
64 98 116 64 98 116 64 98 116 64 98 116 64 98 115 64 98 115 64 98 115
64 98 115 64 98 115 63 97 114 63 97 114 63 97 114 63 97 114 63 97 114
63 97 113 63 97 113 63 96 113 63 96 113 62 96 112 62 96 112 62 95 112
62 95 112 62 95 111 62 95 111 62 94 111 61 94 111 61 94 110 61 94 110
61 93 110 61 93 110 61 93 109 60 92 109 60 92 109 60 92 109 60 91 108
60 91 108 60 91 108 59 90 108 59 90 107 59 90 107 59 89 107 59 89 107
59 88 106 58 88 106 58 88 106 58 87 106 58 87 105 58 87 105 58 86 105
57 86 104 57 85 104 57 85 104 57 85 104 57 84 103 56 84 103 56 83 103
56 83 103 56 83 102 56 82 102 56 82 102 55 81 101 55 81 101 55 81 101
55 80 101 55 80 100 54 79 100 54 79 100 54 79 100 54 78 99 54 78 99 54
78 99 53 77 99 53 77 98 53 76 98 53 76 98 53 76 98 53 75 97 52 75 97
52 75 97 52 74 96 52 74 96 52 73 96 52 73 96 51 73 95 51 72 95 51 72
95 51 72 95 51 71 94 51 71 94 50 71 94 50 70 94 50 70 93 50 70 93 50
69 93 50 69 93 49 69 93 49 68
14 7 10 14 7 10 14 7 10 14 7 10 14 7 10 14 7 10 14 7 10 14 7 10 14 7
10 14 7 10 14 7 10 14 7 10 14 7 10 14 7 10 14 7 10 14 7 10 14 7 10 14
7 10 14 7 10 14 7 10 14 7 10 14 7 10 14 7 10 14 7 10 14 7 10 14 7 10
14 7 10 14 7 10 14 7 10 14 7 10 14 7 10 14 7 10 29 50 86 29 50 86 29
50 86 29 50 86 29 50 86 30 52 93 30 52 93 30 52 93 30 52 93 30 52 93
30 52 93 30 52 93 30 52 93 30 52 93 31 52 93 31 52 95 31 53 97 31 53
99 31 54 101 31 54 103 31 54 105 31 55 106 31 55 108 31 55 109 31 56
110 31 56 111 18 13 32 18 13 32 18 13 32 18 13 32 18 13 32 96 46 46 96
47 46 96 47 46 97 47 46 97 47 47 97 47 47 97 47 47 97 47 47 98 47 47
98 47 47 98 48 47 98 48 47 98 48 48 99 48 48 99 48 48 99 48 48 99 48
48 100 48 48 100 48 48 100 48 48 100 49 49 100 49 49 101 49 49 101 49
49 101 49 49 101 49 49 101 49 49 102 49 50 102 49 50 102 50 50 102 50
50 103 50 50 103 50 50 103 50 50 103 50 50 103 50 51 104 50 51 104 50
51 104 51 51 104 51 51 104 51 51 105 51 51 105 51 52 105 51 52 105 51
52 105 51 52 106 51 52 106 52 52 106 52 53 106 52 53 107 52 53 107 52
53 107 52 53 107 52 53 107 52 53 108 52 54 108 53 54 108 53 54 108 53
54 108 53 54 109 53 54 109 53 55 109 53 55 109 53 55 109 53 55 110 54
55 110 54 55 110 54 56 110 54 56 110 54 56 110 54 56 111 54 56 111 54
56 111 54 57 111 54 57 111 55 57 112 55 57 112 55 57 112 55 57 112 55
58 112 55 58 113 55 58 113 55 58 113 55 58 113 56 59 113 56 59 113 56
59 114 56 59 114 56 59 114 56 60 114 56 60 114 56 60 114 56 60 115 56
60 115 57 61 115 57 61 115 57 61 115 57 61 115 57 61 115 57 62 116 57
62 116 57 62 116 57 62 116 57 62 116 58 63 116 58 63 116 58 63 117 58
63 117 58 63 117 58 64 117 58 64 117 58 64 117 58 64 117 58 65 118 58
65 118 59 65 118 59 65 118 59 65 118 59 66 118 59 66 118 59 66 118 59
66 118 59 67 119 59 67 119 59 67 119 59 67 119 60 68 119 60 68 119 60
68 119 60 68 119 60 69 119 60 69 119 60 69 120 60 69 120 60 70 120 60
70 120 60 70 120 60 70 120 61 71 120 61 71 120 61 71 120 61 72 120 61
72 120 61 72 120 61 72 120 61 73 121 61 73 121 61 73 121 61 74 121 61
74 121 61 74 121 62 74 121 62 75 121 62 75 121 62 75 121 62 76 121 62
76 121 62 76 121 62 77 121 62 77 121 62 77 121 62 77 121 62 78 121 62
78 121 62 78 121 63 79 121 63 79 121 63 79 121 63 80 121 63 80 121 63
80 121 63 81 121 63 81 121 63 81 121 63 82 121 63 82 121 63 82 121 63
83 121 63 83 121 63 83 121 63 84 121 64 84 121 64 84 121 64 85 121 64
85 121 64 85 121 64 86 121 64 86 121 64 86 121 64 87 121 64 87 121 64
87 121 64 88 121 64 88 121 64 88 121 64 89 121 64 89 121 64 89 121 64
90 121 64 90 121 64 90 121 65 91 120 65 91 120 65 91 120 65 92 120 65
92 120 65 92 120 65 93 120 65 93 120 65 93 120 65 93 120 65 94 120 65
94 120 65 94 120 65 94 119 65 95 119 65 95 119 65 95 119 65 95 119 65
96 119 65 96 119 65 96 119 65 96 119 65 96 119 65 97 118 65 97 118 65
97 118 65 97 118 65 97 118 65 97 118 65 97 118 65 98 117 65 98 117 65
98 117 65 98 117 64 98 117 64 98 117 64 98 117 64 98 116 64 98 116 64
98 116 64 98 116 64 98 116 64 98 115 64 98 115 64 98 115 64 98 115 64
98 115 64 98 114 63 97 114 63 97 114 63 97 114 63 97 114 63 97 113 63
97 113 63 97 113 63 96 113 62 96 113 62 96 112 62 96 112 62 96 112 62
95 112 62 95 111 62 95 111 62 95 111 61 94 111 61 94 110 61 94 110 61
93 110 61 93 110 61 93 109 60 92 109 60 92 109 60 92 109 60 91 108 60
91 108 60 91 108 59 90 108 59 90 107 59 90 107 59 89 107 59 89 107 59
89 106 58 88 106 58 88 106 58 88 106 58 87 105 58 87 105 58 86 105 57
86 104 57 86 104 57 85 104 57 85 104 57 84 103 57 84 103 56 84 103 56
83 103 56 83 102 56 82 102 56 82 102 55 82 102 55 81 101 55 81 101 55
80 101 55 80 100 55 80 100 54 79 100 54 79 100 54 79 99 54 78 99 54 78
99 53 77 99 53 77 98 53 77 98 53 76 98 53 76 98 53 76 97 52 75 97 52
75 97 52 74 97 52 74 96 52 74 96 52 73 96 51 73 96 51 73 95 51 72 95
51 72 95 51 72 95 51 71 94 50 71 94 50 71 94 50 70 94 50 70 93 50 70
93 50 69 93 50 69 93 49 69
14 7 10 14 7 10 14 7 10 14 7 10 14 7 10 14 7 10 14 7 10 14 7 10 14 7
10 14 7 10 14 7 10 14 7 10 14 7 10 14 7 10 14 7 10 14 7 10 14 7 10 14
7 10 14 7 10 14 7 10 14 7 10 14 7 10 14 7 10 14 7 10 14 7 10 14 7 10
14 7 10 14 7 10 14 7 10 14 7 10 14 7 10 14 7 10 14 7 10 14 7 10 14 7
10 29 50 86 29 50 86 29 50 86 29 50 86 29 50 86 30 52 93 30 52 93 30
52 93 30 52 93 30 52 93 30 52 93 30 52 93 31 52 93 31 52 93 31 52 94
31 52 96 31 53 97 31 53 99 31 53 100 18 13 31 18 13 32 18 13 32 18 13
32 18 13 32 18 13 32 18 13 32 18 13 32 96 46 46 96 46 46 96 47 46 96
47 46 97 47 47 97 47 47 97 47 47 97 47 47 97 47 47 98 47 47 98 47 47
98 47 47 98 48 47 98 48 48 99 48 48 99 48 48 99 48 48 99 48 48 99 48
48 100 48 48 100 48 48 100 49 49 100 49 49 101 49 49 101 49 49 101 49
49 101 49 49 101 49 49 102 49 50 102 49 50 102 50 50 102 50 50 102 50
50 103 50 50 103 50 50 103 50 50 103 50 51 103 50 51 104 50 51 104 51
51 104 51 51 104 51 51 105 51 51 105 51 52 105 51 52 105 51 52 105 51
52 106 51 52 106 51 52 106 52 53 106 52 53 106 52 53 107 52 53 107 52
53 107 52 53 107 52 53 107 52 54 108 52 54 108 53 54 108 53 54 108 53
54 108 53 54 109 53 55 109 53 55 109 53 55 109 53 55 109 53 55 110 54
55 110 54 56 110 54 56 110 54 56 110 54 56 110 54 56 111 54 56 111 54
57 111 54 57 111 54 57 111 55 57 112 55 57 112 55 57 112 55 58 112 55
58 112 55 58 112 55 58 113 55 58 113 55 59 113 56 59 113 56 59 113 56
59 113 56 59 114 56 60 114 56 60 114 56 60 114 56 60 114 56 60 114 56
60 115 57 61 115 57 61 115 57 61 115 57 61 115 57 61 115 57 62 116 57
62 116 57 62 116 57 62 116 57 63 116 58 63 116 58 63 116 58 63 116 58
63 117 58 64 117 58 64 117 58 64 117 58 64 117 58 65 117 58 65 117 58
65 118 59 65 118 59 65 118 59 66 118 59 66 118 59 66 118 59 66 118 59
67 118 59 67 118 59 67 119 59 67 119 59 68 119 59 68 119 60 68 119 60
68 119 60 69 119 60 69 119 60 69 119 60 69 119 60 70 119 60 70 119 60
70 120 60 70 120 60 71 120 60 71 120 61 71 120 61 71 120 61 72 120 61
72 120 61 72 120 61 73 120 61 73 120 61 73 120 61 73 120 61 74 120 61
74 120 61 74 121 61 75 121 62 75 121 62 75 121 62 76 121 62 76 121 62
76 121 62 76 121 62 77 121 62 77 121 62 77 121 62 78 121 62 78 121 62
78 121 62 79 121 62 79 121 63 79 121 63 80 121 63 80 121 63 80 121 63
81 121 63 81 121 63 81 121 63 82 121 63 82 121 63 82 121 63 83 121 63
83 121 63 83 121 63 84 121 63 84 121 63 84 121 64 85 121 64 85 121 64
85 121 64 86 121 64 86 121 64 86 121 64 87 121 64 87 121 64 87 121 64
88 121 64 88 121 64 88 121 64 89 121 64 89 120 64 89 120 64 90 120 64
90 120 64 90 120 64 91 120 64 91 120 64 91 120 65 91 120 65 92 120 65
92 120 65 92 120 65 93 120 65 93 120 65 93 120 65 94 120 65 94 119 65
94 119 65 94 119 65 95 119 65 95 119 65 95 119 65 95 119 65 95 119 65
96 119 65 96 119 65 96 118 65 96 118 65 96 118 65 97 118 65 97 118 65
97 118 65 97 118 65 97 118 65 97 117 65 97 117 65 98 117 64 98 117 64
98 117 64 98 117 64 98 117 64 98 116 64 98 116 64 98 116 64 98 116 64
98 116 64 98 115 64 98 115 64 98 115 64 98 115 64 98 115 64 98 115 63
98 114 63 97 114 63 97 114 63 97 114 63 97 114 63 97 113 63 97 113 63
97 113 63 96 113 62 96 112 62 96 112 62 96 112 62 96 112 62 95 112 62
95 111 62 95 111 62 95 111 61 94 111 61 94 110 61 94 110 61 93 110 61
93 110 61 93 109 60 93 109 60 92 109 60 92 109 60 92 108 60 91 108 60
91 108 60 91 108 59 90 107 59 90 107 59 90 107 59 89 107 59 89 106 58
88 106 58 88 106 58 88 106 58 87 105 58 87 105 58 87 105 57 86 104 57
86 104 57 85 104 57 85 104 57 85 103 57 84 103 56 84 103 56 83 103 56
83 102 56 83 102 56 82 102 55 82 102 55 81 101 55 81 101 55 81 101 55
80 100 55 80 100 54 80 100 54 79 100 54 79 99 54 78 99 54 78 99 54 78
99 53 77 98 53 77 98 53 77 98 53 76 98 53 76 97 53 75 97 52 75 97 52
75 97 52 74 96 52 74 96 52 74 96 52 73 96 51 73 95 51 73 95 51 72 95
51 72 95 51 71 94 51 71 94 50 71 94 50 70 94 50 70 93 50 70 93 50 69
93 50 69 93 49 69
14 7 10 14 7 10 14 7 10 14 7 10 14 7 10 14 7 10 14 7 10 14 7 10 14 7
10 14 7 10 14 7 10 14 7 10 14 7 10 14 7 10 14 7 10 14 7 10 14 7 10 14
7 10 14 7 10 14 7 10 14 7 10 14 7 10 14 7 10 14 7 10 14 7 10 14 7 10
14 7 10 14 7 10 14 7 10 14 7 10 14 7 10 14 7 10 14 7 10 14 7 10 14 7
10 14 7 10 14 7 10 14 7 10 14 7 10 14 7 10 29 50 86 29 50 86 29 50 86
29 50 86 29 50 86 29 50 86 29 50 86 14 7 10 18 13 31 18 13 31 18 13 31
18 13 31 18 13 31 18 13 31 18 13 32 18 13 32 18 13 32 18 13 32 18 13
32 18 13 32 95 46 46 95 46 46 96 46 46 96 46 46 96 47 46 96 47 46 97
47 47 97 47 47 97 47 47 97 47 47 97 47 47 98 47 47 98 47 47 98 47 47
98 48 48 98 48 48 99 48 48 99 48 48 99 48 48 99 48 48 99 48 48 100 48
48 100 48 49 100 49 49 100 49 49 100 49 49 101 49 49 101 49 49 101 49
49 101 49 49 102 49 50 102 49 50 102 50 50 102 50 50 102 50 50 103 50
50 103 50 50 103 50 51 103 50 51 103 50 51 104 50 51 104 50 51 104 51
51 104 51 51 104 51 52 105 51 52 105 51 52 105 51 52 105 51 52 105 51
52 106 51 52 106 52 53 106 52 53 106 52 53 106 52 53 107 52 53 107 52
53 107 52 53 107 52 54 107 52 54 108 53 54 108 53 54 108 53 54 108 53
54 108 53 55 109 53 55 109 53 55 109 53 55 109 53 55 109 53 55 110 54
56 110 54 56 110 54 56 110 54 56 110 54 56 110 54 56 111 54 57 111 54
57 111 54 57 111 55 57 111 55 57 112 55 57 112 55 58 112 55 58 112 55
58 112 55 58 112 55 58 113 55 59 113 55 59 113 56 59 113 56 59 113 56
59 113 56 59 114 56 60 114 56 60 114 56 60 114 56 60 114 56 60 114 56
61 115 57 61 115 57 61 115 57 61 115 57 61 115 57 62 115 57 62 115 57
62 116 57 62 116 57 63 116 57 63 116 57 63 116 58 63 116 58 63 116 58
64 116 58 64 117 58 64 117 58 64 117 58 64 117 58 65 117 58 65 117 58
65 117 58 65 117 59 66 118 59 66 118 59 66 118 59 66 118 59 67 118 59
67 118 59 67 118 59 67 118 59 68 118 59 68 118 59 68 119 60 68 119 60
69 119 60 69 119 60 69 119 60 69 119 60 70 119 60 70 119 60 70 119 60
70 119 60 71 119 60 71 119 60 71 120 61 71 120 61 72 120 61 72 120 61
72 120 61 73 120 61 73 120 61 73 120 61 73 120 61 74 120 61 74 120 61
74 120 61 75 120 61 75 120 61 75 120 62 75 120 62 76 120 62 76 120 62
76 120 62 77 120 62 77 121 62 77 121 62 78 121 62 78 121 62 78 121 62
78 121 62 79 121 62 79 121 62 79 121 63 80 121 63 80 121 63 80 121 63
81 121 63 81 121 63 81 121 63 82 121 63 82 121 63 82 121 63 83 121 63
83 121 63 83 121 63 84 121 63 84 121 63 84 121 63 85 121 63 85 121 64
85 121 64 86 121 64 86 121 64 86 120 64 87 120 64 87 120 64 87 120 64
88 120 64 88 120 64 88 120 64 89 120 64 89 120 64 89 120 64 90 120 64
90 120 64 90 120 64 91 120 64 91 120 64 91 120 64 92 120 64 92 120 64
92 120 64 92 120 65 93 119 65 93 119 65 93 119 65 94 119 65 94 119 65
94 119 65 94 119 65 95 119 65 95 119 65 95 119 65 95 119 65 96 118 65
96 118 65 96 118 65 96 118 65 96 118 65 96 118 65 97 118 65 97 118 65
97 117 65 97 117 64 97 117 64 97 117 64 97 117 64 97 117 64 98 117 64
98 116 64 98 116 64 98 116 64 98 116 64 98 116 64 98 116 64 98 115 64
98 115 64 98 115 64 98 115 64 98 115 64 98 115 63 98 114 63 97 114 63
97 114 63 97 114 63 97 114 63 97 113 63 97 113 63 97 113 63 97 113 63
96 113 62 96 112 62 96 112 62 96 112 62 96 112 62 95 111 62 95 111 62
95 111 62 95 111 61 94 111 61 94 110 61 94 110 61 94 110 61 93 110 61
93 109 60 93 109 60 92 109 60 92 109 60 92 108 60 91 108 60 91 108 60
91 108 59 90 107 59 90 107 59 90 107 59 89 107 59 89 106 59 89 106 58
88 106 58 88 105 58 87 105 58 87 105 58 87 105 57 86 104 57 86 104 57
86 104 57 85 104 57 85 103 57 84 103 56 84 103 56 84 103 56 83 102 56
83 102 56 82 102 56 82 102 55 82 101 55 81 101 55 81 101 55 81 101 55
80 100 54 80 100 54 79 100 54 79 99 54 79 99 54 78 99 54 78 99 53 77
98 53 77 98 53 77 98 53 76 98 53 76 97 53 76 97 52 75 97 52 75 97 52
75 96 52 74 96 52 74 96 52 73 96 51 73 95 51 73 95 51 72 95 51 72 95
51 72 94 51 71 94 50 71 94 50 71 94 50 70 93 50 70 93 50 70 93 50 69
93 50 69
14 7 10 14 7 10 14 7 10 14 7 10 14 7 10 14 7 10 14 7 10 14 7 10 14 7
10 14 7 10 14 7 10 14 7 10 14 7 10 14 7 10 14 7 10 14 7 10 14 7 10 14
7 10 14 7 10 14 7 10 14 7 10 14 7 10 14 7 10 14 7 10 14 7 10 14 7 10
14 7 10 14 7 10 14 7 10 14 7 10 14 7 10 14 7 10 14 7 10 14 7 10 14 7
10 14 7 10 14 7 10 14 7 10 14 7 10 14 7 10 14 7 10 14 7 10 18 13 31 18
13 31 18 13 31 18 13 31 18 13 31 18 13 31 18 13 31 18 13 31 18 13 31
18 13 31 18 13 31 18 13 32 18 13 32 18 13 32 18 13 32 18 13 32 95 46
46 95 46 46 95 46 46 95 46 46 96 46 46 96 46 46 96 47 46 96 47 46 96
47 47 97 47 47 97 47 47 97 47 47 97 47 47 97 47 47 98 47 47 98 47 47
98 48 48 98 48 48 99 48 48 99 48 48 99 48 48 99 48 48 99 48 48 100 48
48 100 48 49 100 49 49 100 49 49 100 49 49 101 49 49 101 49 49 101 49
49 101 49 49 101 49 50 102 49 50 102 49 50 102 50 50 102 50 50 102 50
50 103 50 50 103 50 51 103 50 51 103 50 51 103 50 51 104 50 51 104 51
51 104 51 51 104 51 52 104 51 52 105 51 52 105 51 52 105 51 52 105 51
52 105 51 52 106 51 53 106 52 53 106 52 53 106 52 53 106 52 53 107 52
53 107 52 53 107 52 54 107 52 54 107 52 54 108 53 54 108 53 54 108 53
54 108 53 55 108 53 55 109 53 55 109 53 55 109 53 55 109 53 55 109 54
56 110 54 56 110 54 56 110 54 56 110 54 56 110 54 56 110 54 57 111 54
57 111 54 57 111 54 57 111 55 57 111 55 57 111 55 58 112 55 58 112 55
58 112 55 58 112 55 58 112 55 59 113 55 59 113 55 59 113 56 59 113 56
59 113 56 59 113 56 60 113 56 60 114 56 60 114 56 60 114 56 60 114 56
61 114 56 61 114 57 61 115 57 61 115 57 61 115 57 62 115 57 62 115 57
62 115 57 62 115 57 62 116 57 63 116 57 63 116 57 63 116 58 63 116 58
64 116 58 64 116 58 64 116 58 64 117 58 64 117 58 65 117 58 65 117 58
65 117 58 65 117 58 66 117 59 66 117 59 66 117 59 66 118 59 66 118 59
67 118 59 67 118 59 67 118 59 67 118 59 68 118 59 68 118 59 68 118 59
68 118 60 69 119 60 69 119 60 69 119 60 69 119 60 70 119 60 70 119 60
70 119 60 71 119 60 71 119 60 71 119 60 71 119 60 72 119 61 72 119 61
72 119 61 72 120 61 73 120 61 73 120 61 73 120 61 74 120 61 74 120 61
74 120 61 74 120 61 75 120 61 75 120 61 75 120 61 76 120 62 76 120 62
76 120 62 76 120 62 77 120 62 77 120 62 77 120 62 78 120 62 78 120 62
78 120 62 79 120 62 79 120 62 79 120 62 80 120 62 80 120 62 80 120 63
81 120 63 81 120 63 81 120 63 82 120 63 82 120 63 82 120 63 83 120 63
83 120 63 83 120 63 84 120 63 84 120 63 84 120 63 85 120 63 85 120 63
85 120 63 86 120 64 86 120 64 86 120 64 87 120 64 87 120 64 87 120 64
88 120 64 88 120 64 88 120 64 89 120 64 89 120 64 89 120 64 90 120 64
90 120 64 90 120 64 90 120 64 91 120 64 91 120 64 91 119 64 92 119 64
92 119 64 92 119 64 93 119 64 93 119 64 93 119 64 93 119 64 94 119 64
94 119 64 94 119 64 94 119 64 95 118 65 95 118 65 95 118 65 95 118 65
96 118 65 96 118 64 96 118 64 96 118 64 96 118 64 96 118 64 97 117 64
97 117 64 97 117 64 97 117 64 97 117 64 97 117 64 97 117 64 97 116 64
97 116 64 98 116 64 98 116 64 98 116 64 98 116 64 98 115 64 98 115 64
98 115 64 98 115 64 98 115 64 98 115 63 98 114 63 97 114 63 97 114 63
97 114 63 97 114 63 97 113 63 97 113 63 97 113 63 97 113 63 96 113 62
96 112 62 96 112 62 96 112 62 96 112 62 96 112 62 95 111 62 95 111 62
95 111 61 95 111 61 94 110 61 94 110 61 94 110 61 94 110 61 93 109 61
93 109 60 93 109 60 92 109 60 92 109 60 92 108 60 91 108 60 91 108 60
91 108 59 90 107 59 90 107 59 90 107 59 89 107 59 89 106 59 89 106 58
88 106 58 88 105 58 88 105 58 87 105 58 87 105 57 86 104 57 86 104 57
86 104 57 85 104 57 85 103 57 85 103 56 84 103 56 84 103 56 83 102 56
83 102 56 83 102 56 82 102 55 82 101 55 82 101 55 81 101 55 81 101 55
80 100 55 80 100 54 80 100 54 79 100 54 79 99 54 78 99 54 78 99 54 78
99 53 77 98 53 77 98 53 77 98 53 76 97 53 76 97 52 75 97 52 75 97 52
75 96 52 74 96 52 74 96 52 74 96 51 73 96 51 73 95 51 73 95 51 72 95
51 72 95 51 72 94 51 71 94 50 71 94 50 71 94 50 70 93 50 70 93 50 70
93 50 69
14 7 10 14 7 10 14 7 10 14 7 10 14 7 10 14 7 10 14 7 10 14 7 10 14 7
10 14 7 10 14 7 10 14 7 10 14 7 10 14 7 10 14 7 10 14 7 10 14 7 10 14
7 10 14 7 10 14 7 10 14 7 10 14 7 10 14 7 10 14 7 10 14 7 10 14 7 10
14 7 10 14 7 10 14 7 10 14 7 10 14 7 10 14 7 10 14 7 10 14 7 10 18 13
30 18 13 30 18 13 30 18 13 30 18 13 30 18 13 31 18 13 31 18 13 31 18
13 31 18 13 31 18 13 31 18 13 31 18 13 31 18 13 31 18 13 31 18 13 31
18 13 31 18 13 31 18 13 31 18 13 32 18 13 32 18 13 32 94 46 45 95 46
46 95 46 46 95 46 46 95 46 46 95 46 46 96 46 46 96 46 46 96 47 46 96
47 46 96 47 47 97 47 47 97 47 47 97 47 47 97 47 47 97 47 47 98 47 47
98 47 47 98 48 48 98 48 48 98 48 48 99 48 48 99 48 48 99 48 48 99 48
48 99 48 48 100 48 49 100 48 49 100 49 49 100 49 49 100 49 49 101 49
49 101 49 49 101 49 49 101 49 50 102 49 50 102 49 50 102 50 50 102 50
50 102 50 50 103 50 50 103 50 51 103 50 51 103 50 51 103 50 51 104 50
51 104 50 51 104 51 51 104 51 52 104 51 52 105 51 52 105 51 52 105 51
52 105 51 52 105 51 52 106 51 53 106 52 53 106 52 53 106 52 53 106 52
53 107 52 53 107 52 53 107 52 54 107 52 54 107 52 54 107 52 54 108 53
54 108 53 54 108 53 55 108 53 55 108 53 55 109 53 55 109 53 55 109 53
55 109 53 56 109 54 56 110 54 56 110 54 56 110 54 56 110 54 56 110 54
57 110 54 57 111 54 57 111 54 57 111 54 57 111 55 57 111 55 58 111 55
58 112 55 58 112 55 58 112 55 58 112 55 59 112 55 59 112 55 59 113 55
59 113 56 59 113 56 59 113 56 60 113 56 60 113 56 60 114 56 60 114 56
60 114 56 61 114 56 61 114 56 61 114 57 61 114 57 61 115 57 62 115 57
62 115 57 62 115 57 62 115 57 62 115 57 63 115 57 63 116 57 63 116 57
63 116 58 63 116 58 64 116 58 64 116 58 64 116 58 64 116 58 65 117 58
65 117 58 65 117 58 65 117 58 65 117 58 66 117 59 66 117 59 66 117 59
66 117 59 67 117 59 67 118 59 67 118 59 67 118 59 68 118 59 68 118 59
68 118 59 68 118 59 69 118 60 69 118 60 69 118 60 69 118 60 70 119 60
70 119 60 70 119 60 70 119 60 71 119 60 71 119 60 71 119 60 71 119 60
72 119 60 72 119 61 72 119 61 73 119 61 73 119 61 73 119 61 73 119 61
74 120 61 74 120 61 74 120 61 75 120 61 75 120 61 75 120 61 75 120 61
76 120 61 76 120 62 76 120 62 77 120 62 77 120 62 77 120 62 78 120 62
78 120 62 78 120 62 79 120 62 79 120 62 79 120 62 79 120 62 80 120 62
80 120 62 80 120 62 81 120 63 81 120 63 81 120 63 82 120 63 82 120 63
82 120 63 83 120 63 83 120 63 83 120 63 84 120 63 84 120 63 84 120 63
85 120 63 85 120 63 85 120 63 86 120 63 86 120 63 86 120 64 87 120 64
87 120 64 87 120 64 88 120 64 88 120 64 88 120 64 89 120 64 89 120 64
89 120 64 90 119 64 90 119 64 90 119 64 91 119 64 91 119 64 91 119 64
91 119 64 92 119 64 92 119 64 92 119 64 93 119 64 93 119 64 93 119 64
93 119 64 94 119 64 94 118 64 94 118 64 94 118 64 95 118 64 95 118 64
95 118 64 95 118 64 95 118 64 96 118 64 96 118 64 96 117 64 96 117 64
96 117 64 97 117 64 97 117 64 97 117 64 97 117 64 97 117 64 97 116 64
97 116 64 97 116 64 97 116 64 97 116 64 97 116 64 97 115 64 97 115 64
97 115 64 97 115 64 97 115 64 97 115 63 97 114 63 97 114 63 97 114 63
97 114 63 97 114 63 97 114 63 97 113 63 97 113 63 97 113 63 97 113 63
96 113 62 96 112 62 96 112 62 96 112 62 96 112 62 96 111 62 95 111 62
95 111 62 95 111 61 95 111 61 94 110 61 94 110 61 94 110 61 94 110 61
93 109 61 93 109 60 93 109 60 92 109 60 92 108 60 92 108 60 92 108 60
91 108 60 91 107 59 91 107 59 90 107 59 90 107 59 89 106 59 89 106 59
89 106 58 88 106 58 88 105 58 88 105 58 87 105 58 87 105 58 87 104 57
86 104 57 86 104 57 85 104 57 85 103 57 85 103 56 84 103 56 84 103 56
84 102 56 83 102 56 83 102 56 82 102 55 82 101 55 82 101 55 81 101 55
81 101 55 81 100 55 80 100 54 80 100 54 79 100 54 79 99 54 79 99 54 78
99 54 78 99 53 78 98 53 77 98 53 77 98 53 76 98 53 76 97 53 76 97 52
75 97 52 75 97 52 75 96 52 74 96 52 74 96 52 74 96 51 73 95 51 73 95
51 73 95 51 72 95 51 72 94 51 71 94 50 71 94 50 71 94 50 70 93 50 70
93 50 70 93 50 70
14 7 10 14 7 10 14 7 10 14 7 10 14 7 10 14 7 10 14 7 10 14 7 10 14 7
10 14 7 10 14 7 10 14 7 10 14 7 10 14 7 10 14 7 10 14 7 10 14 7 10 14
7 10 14 7 10 14 7 10 14 7 10 14 7 10 14 7 10 14 7 10 14 7 10 14 7 10
18 13 30 18 13 30 18 13 30 18 13 30 18 13 30 18 13 30 18 13 30 18 13
30 18 13 30 18 13 30 18 13 30 18 13 30 18 13 31 18 13 31 18 13 31 18
13 31 18 13 31 18 13 31 18 13 31 18 13 31 18 13 31 18 13 31 18 13 31
18 13 31 18 13 31 18 13 31 18 13 32 18 13 32 94 46 45 94 46 45 94 46
46 95 46 46 95 46 46 95 46 46 95 46 46 95 46 46 96 46 46 96 46 46 96
47 46 96 47 47 96 47 47 97 47 47 97 47 47 97 47 47 97 47 47 97 47 47
98 47 47 98 47 47 98 48 48 98 48 48 98 48 48 99 48 48 99 48 48 99 48
48 99 48 48 99 48 48 100 48 49 100 48 49 100 49 49 100 49 49 100 49 49
101 49 49 101 49 49 101 49 50 101 49 50 101 49 50 102 49 50 102 49 50
102 50 50 102 50 50 102 50 50 103 50 51 103 50 51 103 50 51 103 50 51
103 50 51 104 50 51 104 51 51 104 51 52 104 51 52 104 51 52 105 51 52
105 51 52 105 51 52 105 51 52 105 51 53 106 51 53 106 52 53 106 52 53
106 52 53 106 52 53 107 52 53 107 52 54 107 52 54 107 52 54 107 52 54
107 53 54 108 53 54 108 53 55 108 53 55 108 53 55 108 53 55 109 53 55
109 53 55 109 53 56 109 53 56 109 54 56 109 54 56 110 54 56 110 54 56
110 54 57 110 54 57 110 54 57 111 54 57 111 54 57 111 54 57 111 55 58
111 55 58 111 55 58 112 55 58 112 55 58 112 55 59 112 55 59 112 55 59
112 55 59 113 55 59 113 56 59 113 56 60 113 56 60 113 56 60 113 56 60
113 56 60 114 56 61 114 56 61 114 56 61 114 56 61 114 56 61 114 57 62
114 57 62 115 57 62 115 57 62 115 57 62 115 57 63 115 57 63 115 57 63
115 57 63 116 57 63 116 58 64 116 58 64 116 58 64 116 58 64 116 58 65
116 58 65 116 58 65 116 58 65 117 58 65 117 58 66 117 58 66 117 58 66
117 59 66 117 59 67 117 59 67 117 59 67 117 59 67 117 59 68 118 59 68
118 59 68 118 59 68 118 59 69 118 59 69 118 59 69 118 60 69 118 60 70
118 60 70 118 60 70 118 60 70 118 60 71 119 60 71 119 60 71 119 60 71
119 60 72 119 60 72 119 60 72 119 60 72 119 61 73 119 61 73 119 61 73
119 61 74 119 61 74 119 61 74 119 61 74 119 61 75 119 61 75 119 61 75
119 61 76 119 61 76 120 61 76 120 61 77 120 62 77 120 62 77 120 62 77
120 62 78 120 62 78 120 62 78 120 62 79 120 62 79 120 62 79 120 62 80
120 62 80 120 62 80 120 62 81 120 62 81 120 62 81 120 63 82 120 63 82
120 63 82 120 63 83 120 63 83 120 63 83 120 63 84 120 63 84 120 63 84
120 63 85 120 63 85 120 63 85 120 63 86 120 63 86 120 63 86 120 63 86
120 63 87 120 63 87 119 63 87 119 64 88 119 64 88 119 64 88 119 64 89
119 64 89 119 64 89 119 64 90 119 64 90 119 64 90 119 64 91 119 64 91
119 64 91 119 64 92 119 64 92 119 64 92 119 64 92 119 64 93 118 64 93
118 64 93 118 64 93 118 64 94 118 64 94 118 64 94 118 64 94 118 64 95
118 64 95 118 64 95 118 64 95 118 64 95 117 64 96 117 64 96 117 64 96
117 64 96 117 64 96 117 64 96 117 64 97 117 64 97 116 64 97 116 64 97
116 64 97 116 64 97 116 64 97 116 64 97 116 64 97 115 64 97 115 64 97
115 64 97 115 64 97 115 64 97 115 63 97 114 63 97 114 63 97 114 63 97
114 63 97 114 63 97 114 63 97 113 63 97 113 63 97 113 63 97 113 63 96
113 62 96 112 62 96 112 62 96 112 62 96 112 62 96 112 62 95 111 62 95
111 62 95 111 62 95 111 61 95 110 61 94 110 61 94 110 61 94 110 61 94
110 61 93 109 61 93 109 60 93 109 60 92 109 60 92 108 60 92 108 60 92
108 60 91 108 59 91 107 59 91 107 59 90 107 59 90 107 59 90 106 59 89
106 59 89 106 58 89 106 58 88 105 58 88 105 58 87 105 58 87 105 58 87
104 57 86 104 57 86 104 57 86 104 57 85 103 57 85 103 57 84 103 56 84
103 56 84 102 56 83 102 56 83 102 56 83 102 55 82 101 55 82 101 55 81
101 55 81 101 55 81 100 55 80 100 54 80 100 54 80 100 54 79 99 54 79
99 54 78 99 54 78 99 53 78 98 53 77 98 53 77 98 53 77 98 53 76 97 53
76 97 52 76 97 52 75 97 52 75 96 52 74 96 52 74 96 52 74 96 51 73 95
51 73 95 51 73 95 51 72 95 51 72 94 51 72 94 51 71 94 50 71 94 50 71
93 50 70 93 50 70 93 50 70
14 7 10 14 7 10 14 7 10 14 7 10 14 7 10 14 7 10 14 7 10 14 7 10 14 7
10 14 7 10 14 7 10 14 7 10 14 7 10 14 7 10 14 7 10 14 7 10 14 7 10 18
12 29 18 12 29 18 12 29 18 12 29 18 12 29 18 12 29 18 12 30 18 13 30
18 13 30 18 13 30 18 13 30 18 13 30 18 13 30 18 13 30 18 13 30 18 13
30 18 13 30 18 13 30 18 13 30 18 13 30 18 13 30 18 13 31 18 13 31 18
13 31 18 13 31 18 13 31 18 13 31 18 13 31 18 13 31 18 13 31 18 13 31
18 13 31 18 13 31 18 13 31 18 13 31 94 45 45 94 45 45 94 46 45 94 46
45 94 46 46 95 46 46 95 46 46 95 46 46 95 46 46 95 46 46 96 46 46 96
46 46 96 46 46 96 47 47 96 47 47 97 47 47 97 47 47 97 47 47 97 47 47
97 47 47 98 47 47 98 47 48 98 48 48 98 48 48 98 48 48 99 48 48 99 48
48 99 48 48 99 48 48 99 48 48 100 48 49 100 48 49 100 49 49 100 49 49
100 49 49 101 49 49 101 49 49 101 49 50 101 49 50 101 49 50 102 49 50
102 49 50 102 50 50 102 50 50 102 50 50 102 50 51 103 50 51 103 50 51
103 50 51 103 50 51 103 50 51 104 50 51 104 51 52 104 51 52 104 51 52
104 51 52 105 51 52 105 51 52 105 51 52 105 51 53 105 51 53 106 52 53
106 52 53 106 52 53 106 52 53 106 52 53 107 52 54 107 52 54 107 52 54
107 52 54 107 52 54 107 53 54 108 53 55 108 53 55 108 53 55 108 53 55
108 53 55 109 53 55 109 53 56 109 53 56 109 53 56 109 54 56 109 54 56
110 54 56 110 54 57 110 54 57 110 54 57 110 54 57 110 54 57 111 54 57
111 54 58 111 55 58 111 55 58 111 55 58 111 55 58 112 55 58 112 55 59
112 55 59 112 55 59 112 55 59 112 55 59 113 56 60 113 56 60 113 56 60
113 56 60 113 56 60 113 56 61 113 56 61 114 56 61 114 56 61 114 56 61
114 56 62 114 57 62 114 57 62 114 57 62 115 57 62 115 57 63 115 57 63
115 57 63 115 57 63 115 57 63 115 57 64 115 57 64 116 58 64 116 58 64
116 58 64 116 58 65 116 58 65 116 58 65 116 58 65 116 58 66 116 58 66
117 58 66 117 58 66 117 58 67 117 59 67 117 59 67 117 59 67 117 59 67
117 59 68 117 59 68 117 59 68 118 59 68 118 59 69 118 59 69 118 59 69
118 59 69 118 60 70 118 60 70 118 60 70 118 60 71 118 60 71 118 60 71
118 60 71 118 60 72 118 60 72 119 60 72 119 60 72 119 60 73 119 60 73
119 61 73 119 61 73 119 61 74 119 61 74 119 61 74 119 61 75 119 61 75
119 61 75 119 61 76 119 61 76 119 61 76 119 61 76 119 61 77 119 61 77
119 62 77 119 62 78 119 62 78 119 62 78 119 62 79 119 62 79 119 62 79
119 62 79 119 62 80 119 62 80 119 62 80 119 62 81 119 62 81 119 62 81
119 62 82 119 62 82 119 63 82 119 63 83 119 63 83 119 63 83 119 63 84
119 63 84 119 63 84 119 63 85 119 63 85 119 63 85 119 63 86 119 63 86
119 63 86 119 63 87 119 63 87 119 63 87 119 63 88 119 63 88 119 63 88
119 64 89 119 64 89 119 64 89 119 64 89 119 64 90 119 64 90 119 64 90
119 64 91 119 64 91 119 64 91 119 64 92 118 64 92 118 64 92 118 64 92
118 64 93 118 64 93 118 64 93 118 64 93 118 64 94 118 64 94 118 64 94
118 64 94 118 64 95 117 64 95 117 64 95 117 64 95 117 64 95 117 64 96
117 64 96 117 64 96 117 64 96 117 64 96 116 64 96 116 64 96 116 64 97
116 64 97 116 64 97 116 64 97 116 64 97 116 64 97 115 64 97 115 64 97
115 64 97 115 64 97 115 63 97 115 63 97 114 63 97 114 63 97 114 63 97
114 63 97 114 63 97 114 63 97 113 63 97 113 63 97 113 63 97 113 63 96
113 62 96 112 62 96 112 62 96 112 62 96 112 62 96 112 62 96 111 62 95
111 62 95 111 62 95 111 61 95 111 61 95 110 61 94 110 61 94 110 61 94
110 61 94 109 61 93 109 61 93 109 60 93 109 60 92 109 60 92 108 60 92
108 60 92 108 60 91 108 59 91 107 59 91 107 59 90 107 59 90 107 59 90
106 59 89 106 59 89 106 58 89 106 58 88 105 58 88 105 58 88 105 58 87
105 58 87 104 57 86 104 57 86 104 57 86 104 57 85 103 57 85 103 57 85
103 56 84 103 56 84 102 56 83 102 56 83 102 56 83 102 56 82 101 55 82
101 55 82 101 55 81 101 55 81 100 55 80 100 54 80 100 54 80 100 54 79
99 54 79 99 54 79 99 54 78 99 53 78 98 53 78 98 53 77 98 53 77 98 53
76 97 53 76 97 52 76 97 52 75 97 52 75 96 52 75 96 52 74 96 52 74 96
52 74 95 51 73 95 51 73 95 51 73 95 51 72 94 51 72 94 51 72 94 50 71
94 50 71 94 50 71 93 50 70 93 50 70
14 7 10 14 7 10 14 7 10 14 7 10 14 7 10 14 7 10 14 7 10 17 12 29 17 12
29 17 12 29 17 12 29 17 12 29 17 12 29 17 12 29 17 12 29 17 12 29 18
12 29 18 12 29 18 12 29 18 12 29 18 12 29 18 12 29 18 12 30 18 12 30
18 13 30 18 13 30 18 13 30 18 13 30 18 13 30 18 13 30 18 13 30 18 13
30 18 13 30 18 13 30 18 13 30 18 13 30 18 13 30 18 13 31 18 13 31 18
13 31 18 13 31 18 13 31 18 13 31 18 13 31 18 13 31 18 13 31 18 13 31
18 13 31 18 13 31 18 13 31 93 45 45 93 45 45 93 45 45 94 45 45 94 45
45 94 46 45 94 46 46 94 46 46 95 46 46 95 46 46 95 46 46 95 46 46 95
46 46 96 46 46 96 46 46 96 47 47 96 47 47 96 47 47 97 47 47 97 47 47
97 47 47 97 47 47 97 47 47 98 47 48 98 47 48 98 48 48 98 48 48 98 48
48 99 48 48 99 48 48 99 48 48 99 48 49 99 48 49 100 48 49 100 48 49
100 49 49 100 49 49 100 49 49 101 49 49 101 49 50 101 49 50 101 49 50
101 49 50 102 49 50 102 50 50 102 50 50 102 50 50 102 50 51 103 50 51
103 50 51 103 50 51 103 50 51 103 50 51 104 50 51 104 51 52 104 51 52
104 51 52 104 51 52 105 51 52 105 51 52 105 51 52 105 51 53 105 51 53
105 51 53 106 52 53 106 52 53 106 52 53 106 52 53 106 52 54 107 52 54
107 52 54 107 52 54 107 52 54 107 52 54 107 53 55 108 53 55 108 53 55
108 53 55 108 53 55 108 53 55 109 53 56 109 53 56 109 53 56 109 53 56
109 54 56 109 54 56 110 54 57 110 54 57 110 54 57 110 54 57 110 54 57
110 54 57 111 54 58 111 54 58 111 55 58 111 55 58 111 55 58 111 55 58
112 55 59 112 55 59 112 55 59 112 55 59 112 55 59 112 55 60 112 56 60
113 56 60 113 56 60 113 56 60 113 56 61 113 56 61 113 56 61 113 56 61
114 56 61 114 56 61 114 56 62 114 57 62 114 57 62 114 57 62 114 57 63
115 57 63 115 57 63 115 57 63 115 57 63 115 57 64 115 57 64 115 57 64
115 58 64 116 58 64 116 58 65 116 58 65 116 58 65 116 58 65 116 58 66
116 58 66 116 58 66 116 58 66 116 58 66 117 58 67 117 59 67 117 59 67
117 59 67 117 59 68 117 59 68 117 59 68 117 59 68 117 59 69 117 59 69
117 59 69 118 59 69 118 59 70 118 59 70 118 60 70 118 60 70 118 60 71
118 60 71 118 60 71 118 60 71 118 60 72 118 60 72 118 60 72 118 60 73
118 60 73 118 60 73 118 60 73 119 61 74 119 61 74 119 61 74 119 61 75
119 61 75 119 61 75 119 61 75 119 61 76 119 61 76 119 61 76 119 61 77
119 61 77 119 61 77 119 61 77 119 61 78 119 62 78 119 62 78 119 62 79
119 62 79 119 62 79 119 62 80 119 62 80 119 62 80 119 62 81 119 62 81
119 62 81 119 62 82 119 62 82 119 62 82 119 62 82 119 62 83 119 63 83
119 63 83 119 63 84 119 63 84 119 63 84 119 63 85 119 63 85 119 63 85
119 63 86 119 63 86 119 63 86 119 63 87 119 63 87 119 63 87 119 63 88
119 63 88 119 63 88 119 63 89 119 63 89 119 63 89 119 64 89 119 64 90
118 64 90 118 64 90 118 64 91 118 64 91 118 64 91 118 64 92 118 64 92
118 64 92 118 64 92 118 64 93 118 64 93 118 64 93 118 64 93 118 64 94
117 64 94 117 64 94 117 64 94 117 64 94 117 64 95 117 64 95 117 64 95
117 64 95 117 64 95 117 64 96 116 64 96 116 64 96 116 64 96 116 64 96
116 64 96 116 64 96 116 64 96 116 64 97 115 64 97 115 64 97 115 64 97
115 64 97 115 63 97 115 63 97 115 63 97 114 63 97 114 63 97 114 63 97
114 63 97 114 63 97 114 63 97 113 63 97 113 63 97 113 63 96 113 63 96
113 62 96 113 62 96 112 62 96 112 62 96 112 62 96 112 62 96 112 62 95
111 62 95 111 62 95 111 62 95 111 61 95 110 61 94 110 61 94 110 61 94
110 61 94 110 61 93 109 61 93 109 60 93 109 60 93 109 60 92 108 60 92
108 60 92 108 60 92 108 60 91 108 59 91 107 59 91 107 59 90 107 59 90
107 59 90 106 59 89 106 59 89 106 58 89 106 58 88 105 58 88 105 58 88
105 58 87 105 58 87 104 57 87 104 57 86 104 57 86 104 57 85 103 57 85
103 57 85 103 56 84 103 56 84 102 56 84 102 56 83 102 56 83 102 56 82
101 55 82 101 55 82 101 55 81 101 55 81 100 55 81 100 55 80 100 54 80
100 54 80 99 54 79 99 54 79 99 54 78 99 54 78 98 53 78 98 53 77 98 53
77 98 53 77 97 53 76 97 53 76 97 52 76 97 52 75 96 52 75 96 52 74 96
52 74 96 52 74 95 51 73 95 51 73 95 51 73 95 51 72 95 51 72 94 51 72
94 50 71 94 50 71 94 50 71 93 50 70 93 50 70
17 12 28 17 12 28 17 12 28 17 12 28 17 12 29 17 12 29 17 12 29 17 12
29 17 12 29 17 12 29 17 12 29 17 12 29 17 12 29 17 12 29 17 12 29 18
12 29 18 12 29 18 12 29 18 12 29 18 12 29 18 12 29 18 12 30 18 12 30
18 13 30 18 13 30 18 13 30 18 13 30 18 13 30 18 13 30 18 13 30 18 13
30 18 13 30 18 13 30 18 13 30 18 13 30 18 13 30 18 13 30 18 13 31 18
13 31 18 13 31 18 13 31 18 13 31 18 13 31 18 13 31 18 13 31 18 13 31
18 13 31 92 45 45 93 45 45 93 45 45 93 45 45 93 45 45 93 45 45 94 45
45 94 45 45 94 46 45 94 46 46 94 46 46 95 46 46 95 46 46 95 46 46 95
46 46 95 46 46 96 46 46 96 46 47 96 47 47 96 47 47 96 47 47 97 47 47
97 47 47 97 47 47 97 47 47 97 47 47 98 47 48 98 47 48 98 48 48 98 48
48 98 48 48 99 48 48 99 48 48 99 48 48 99 48 49 99 48 49 100 48 49 100
48 49 100 49 49 100 49 49 100 49 49 101 49 49 101 49 50 101 49 50 101
49 50 101 49 50 101 49 50 102 49 50 102 50 50 102 50 50 102 50 51 102
50 51 103 50 51 103 50 51 103 50 51 103 50 51 103 50 51 104 50 52 104
51 52 104 51 52 104 51 52 104 51 52 105 51 52 105 51 52 105 51 53 105
51 53 105 51 53 105 52 53 106 52 53 106 52 53 106 52 53 106 52 54 106
52 54 107 52 54 107 52 54 107 52 54 107 52 54 107 53 55 107 53 55 108
53 55 108 53 55 108 53 55 108 53 55 108 53 56 109 53 56 109 53 56 109
53 56 109 54 56 109 54 56 109 54 57 110 54 57 110 54 57 110 54 57 110
54 57 110 54 57 110 54 58 111 54 58 111 54 58 111 55 58 111 55 58 111
55 58 111 55 59 111 55 59 112 55 59 112 55 59 112 55 59 112 55 60 112
55 60 112 56 60 113 56 60 113 56 60 113 56 60 113 56 61 113 56 61 113
56 61 113 56 61 114 56 61 114 56 62 114 56 62 114 57 62 114 57 62 114
57 62 114 57 63 114 57 63 115 57 63 115 57 63 115 57 64 115 57 64 115
57 64 115 57 64 115 57 64 115 58 65 115 58 65 116 58 65 116 58 65 116
58 65 116 58 66 116 58 66 116 58 66 116 58 66 116 58 67 116 58 67 116
58 67 117 59 67 117 59 68 117 59 68 117 59 68 117 59 68 117 59 69 117
59 69 117 59 69 117 59 69 117 59 70 117 59 70 117 59 70 118 59 70 118
60 71 118 60 71 118 60 71 118 60 71 118 60 72 118 60 72 118 60 72 118
60 72 118 60 73 118 60 73 118 60 73 118 60 74 118 60 74 118 61 74 118
61 74 118 61 75 118 61 75 118 61 75 119 61 76 119 61 76 119 61 76 119
61 76 119 61 77 119 61 77 119 61 77 119 61 78 119 61 78 119 61 78 119
62 79 119 62 79 119 62 79 119 62 79 119 62 80 119 62 80 119 62 80 119
62 81 119 62 81 119 62 81 119 62 82 119 62 82 119 62 82 119 62 83 119
62 83 119 62 83 119 62 84 119 63 84 119 63 84 119 63 85 119 63 85 119
63 85 119 63 85 119 63 86 119 63 86 119 63 86 119 63 87 119 63 87 119
63 87 118 63 88 118 63 88 118 63 88 118 63 89 118 63 89 118 63 89 118
63 90 118 63 90 118 63 90 118 63 90 118 64 91 118 64 91 118 64 91 118
64 92 118 64 92 118 64 92 118 64 92 118 64 93 117 64 93 117 64 93 117
64 93 117 64 94 117 64 94 117 64 94 117 64 94 117 64 94 117 64 95 117
64 95 117 64 95 116 64 95 116 64 95 116 64 95 116 64 96 116 64 96 116
64 96 116 64 96 116 64 96 116 64 96 115 64 96 115 64 96 115 63 96 115
63 96 115 63 97 115 63 97 115 63 97 114 63 97 114 63 97 114 63 97 114
63 97 114 63 97 114 63 97 113 63 96 113 63 96 113 63 96 113 63 96 113
62 96 113 62 96 112 62 96 112 62 96 112 62 96 112 62 96 112 62 95 111
62 95 111 62 95 111 62 95 111 61 95 111 61 95 110 61 94 110 61 94 110
61 94 110 61 94 109 61 93 109 61 93 109 60 93 109 60 93 109 60 92 108
60 92 108 60 92 108 60 92 108 60 91 107 59 91 107 59 91 107 59 90 107
59 90 107 59 90 106 59 89 106 58 89 106 58 89 106 58 88 105 58 88 105
58 88 105 58 87 105 58 87 104 57 87 104 57 86 104 57 86 104 57 86 103
57 85 103 57 85 103 56 84 103 56 84 102 56 84 102 56 83 102 56 83 102
56 83 101 55 82 101 55 82 101 55 82 101 55 81 100 55 81 100 55 80 100
54 80 100 54 80 99 54 79 99 54 79 99 54 79 99 54 78 98 53 78 98 53 77
98 53 77 98 53 77 97 53 76 97 53 76 97 52 76 97 52 75 96 52 75 96 52
75 96 52 74 96 52 74 96 51 74 95 51 73 95 51 73 95 51 73 95 51 72 94
51 72 94 51 72 94 50 71 94 50 71 93 50 71 93 50 70
17 12 28 17 12 28 17 12 28 17 12 28 17 12 29 17 12 29 17 12 29 17 12
29 17 12 29 17 12 29 17 12 29 17 12 29 17 12 29 17 12 29 17 12 29 18
12 29 18 12 29 18 12 29 18 12 29 18 12 29 18 12 29 18 12 30 18 13 30
18 13 30 18 13 30 18 13 30 18 13 30 18 13 30 18 13 30 18 13 30 18 13
30 18 13 30 18 13 30 18 13 30 18 13 30 18 13 30 18 13 31 18 13 31 18
13 31 18 13 31 18 13 31 18 13 31 18 13 31 18 13 31 18 13 31 92 45 44
92 45 45 92 45 45 93 45 45 93 45 45 93 45 45 93 45 45 93 45 45 94 45
45 94 45 45 94 46 46 94 46 46 94 46 46 95 46 46 95 46 46 95 46 46 95
46 46 95 46 46 96 46 46 96 46 47 96 47 47 96 47 47 96 47 47 97 47 47
97 47 47 97 47 47 97 47 47 97 47 47 97 47 48 98 47 48 98 48 48 98 48
48 98 48 48 98 48 48 99 48 48 99 48 48 99 48 49 99 48 49 99 48 49 100
48 49 100 49 49 100 49 49 100 49 49 100 49 49 101 49 50 101 49 50 101
49 50 101 49 50 101 49 50 102 49 50 102 50 50 102 50 50 102 50 51 102
50 51 103 50 51 103 50 51 103 50 51 103 50 51 103 50 51 103 50 52 104
51 52 104 51 52 104 51 52 104 51 52 104 51 52 105 51 52 105 51 53 105
51 53 105 51 53 105 51 53 105 52 53 106 52 53 106 52 53 106 52 54 106
52 54 106 52 54 107 52 54 107 52 54 107 52 54 107 52 55 107 53 55 107
53 55 108 53 55 108 53 55 108 53 55 108 53 56 108 53 56 109 53 56 109
53 56 109 53 56 109 54 56 109 54 56 109 54 57 110 54 57 110 54 57 110
54 57 110 54 57 110 54 58 110 54 58 110 54 58 111 54 58 111 55 58 111
55 58 111 55 59 111 55 59 111 55 59 112 55 59 112 55 59 112 55 59 112
55 60 112 55 60 112 55 60 112 56 60 113 56 60 113 56 61 113 56 61 113
56 61 113 56 61 113 56 61 113 56 62 114 56 62 114 56 62 114 56 62 114
57 62 114 57 63 114 57 63 114 57 63 114 57 63 114 57 63 115 57 64 115
57 64 115 57 64 115 57 64 115 57 65 115 58 65 115 58 65 115 58 65 115
58 65 116 58 66 116 58 66 116 58 66 116 58 66 116 58 67 116 58 67 116
58 67 116 58 67 116 59 67 116 59 68 117 59 68 117 59 68 117 59 68 117
59 69 117 59 69 117 59 69 117 59 69 117 59 70 117 59 70 117 59 70 117
59 70 117 60 71 117 60 71 117 60 71 118 60 71 118 60 72 118 60 72 118
60 72 118 60 73 118 60 73 118 60 73 118 60 73 118 60 74 118 60 74 118
60 74 118 61 75 118 61 75 118 61 75 118 61 75 118 61 76 118 61 76 118
61 76 118 61 77 118 61 77 118 61 77 118 61 77 118 61 78 118 61 78 118
61 78 118 61 79 118 61 79 118 62 79 118 62 80 119 62 80 119 62 80 119
62 80 119 62 81 119 62 81 119 62 81 119 62 82 119 62 82 119 62 82 119
62 83 118 62 83 118 62 83 118 62 84 118 62 84 118 62 84 118 63 85 118
63 85 118 63 85 118 63 86 118 63 86 118 63 86 118 63 86 118 63 87 118
63 87 118 63 87 118 63 88 118 63 88 118 63 88 118 63 89 118 63 89 118
63 89 118 63 90 118 63 90 118 63 90 118 63 90 118 63 91 118 63 91 118
63 91 117 63 91 117 63 92 117 64 92 117 64 92 117 64 93 117 64 93 117
64 93 117 64 93 117 64 93 117 64 94 117 64 94 117 64 94 117 64 94 116
64 94 116 64 95 116 64 95 116 64 95 116 64 95 116 64 95 116 64 95 116
64 96 116 63 96 115 63 96 115 63 96 115 63 96 115 63 96 115 63 96 115
63 96 115 63 96 114 63 96 114 63 96 114 63 96 114 63 96 114 63 96 114
63 96 114 63 96 113 63 96 113 63 96 113 63 96 113 63 96 113 62 96 113
62 96 112 62 96 112 62 96 112 62 96 112 62 96 112 62 95 111 62 95 111
62 95 111 62 95 111 61 95 111 61 95 110 61 94 110 61 94 110 61 94 110
61 94 110 61 94 109 61 93 109 60 93 109 60 93 109 60 93 108 60 92 108
60 92 108 60 92 108 60 91 108 60 91 107 59 91 107 59 91 107 59 90 107
59 90 106 59 90 106 59 89 106 58 89 106 58 89 105 58 88 105 58 88 105
58 88 105 58 87 105 58 87 104 57 87 104 57 86 104 57 86 104 57 86 103
57 85 103 57 85 103 56 85 103 56 84 102 56 84 102 56 83 102 56 83 102
56 83 101 55 82 101 55 82 101 55 82 101 55 81 100 55 81 100 55 81 100
54 80 100 54 80 99 54 79 99 54 79 99 54 79 99 54 78 98 53 78 98 53 78
98 53 77 98 53 77 97 53 77 97 53 76 97 52 76 97 52 76 97 52 75 96 52
75 96 52 74 96 52 74 96 52 74 95 51 73 95 51 73 95 51 73 95 51 72 94
51 72 94 51 72 94 50 71 94 50 71 93 50 71 93 50 70
17 12 28 17 12 28 17 12 28 17 12 29 17 12 29 17 12 29 17 12 29 17 12
29 17 12 29 17 12 29 17 12 29 17 12 29 17 12 29 17 12 29 18 12 29 18
12 29 18 12 29 18 12 29 18 12 29 18 12 29 18 12 30 18 12 30 18 13 30
18 13 30 18 13 30 18 13 30 18 13 30 18 13 30 18 13 30 18 13 30 18 13
30 18 13 30 18 13 30 18 13 30 18 13 30 18 13 31 18 13 31 18 13 31 18
13 31 18 13 31 18 13 31 18 13 31 91 44 44 92 44 44 92 45 44 92 45 44
92 45 45 92 45 45 93 45 45 93 45 45 93 45 45 93 45 45 93 45 45 94 45
45 94 45 45 94 46 46 94 46 46 94 46 46 95 46 46 95 46 46 95 46 46 95
46 46 95 46 46 95 46 46 96 46 47 96 47 47 96 47 47 96 47 47 96 47 47
97 47 47 97 47 47 97 47 47 97 47 47 97 47 48 98 47 48 98 48 48 98 48
48 98 48 48 98 48 48 99 48 48 99 48 48 99 48 49 99 48 49 99 48 49 100
48 49 100 48 49 100 49 49 100 49 49 100 49 49 100 49 50 101 49 50 101
49 50 101 49 50 101 49 50 101 49 50 102 49 50 102 50 51 102 50 51 102
50 51 102 50 51 103 50 51 103 50 51 103 50 51 103 50 51 103 50 52 103
50 52 104 51 52 104 51 52 104 51 52 104 51 52 104 51 52 105 51 53 105
51 53 105 51 53 105 51 53 105 51 53 106 52 53 106 52 53 106 52 54 106
52 54 106 52 54 106 52 54 107 52 54 107 52 54 107 52 55 107 52 55 107
53 55 107 53 55 108 53 55 108 53 55 108 53 55 108 53 56 108 53 56 108
53 56 109 53 56 109 53 56 109 54 56 109 54 57 109 54 57 109 54 57 110
54 57 110 54 57 110 54 57 110 54 58 110 54 58 110 54 58 111 54 58 111
55 58 111 55 59 111 55 59 111 55 59 111 55 59 111 55 59 112 55 59 112
55 60 112 55 60 112 55 60 112 55 60 112 56 60 112 56 61 113 56 61 113
56 61 113 56 61 113 56 61 113 56 62 113 56 62 113 56 62 113 56 62 114
56 62 114 57 63 114 57 63 114 57 63 114 57 63 114 57 63 114 57 64 114
57 64 115 57 64 115 57 64 115 57 64 115 57 65 115 57 65 115 58 65 115
58 65 115 58 66 115 58 66 115 58 66 116 58 66 116 58 66 116 58 67 116
58 67 116 58 67 116 58 67 116 58 68 116 59 68 116 59 68 116 59 68 116
59 69 117 59 69 117 59 69 117 59 69 117 59 70 117 59 70 117 59 70 117
59 70 117 59 71 117 59 71 117 60 71 117 60 71 117 60 72 117 60 72 117
60 72 117 60 72 117 60 73 118 60 73 118 60 73 118 60 74 118 60 74 118
60 74 118 60 74 118 60 75 118 60 75 118 61 75 118 61 76 118 61 76 118
61 76 118 61 76 118 61 77 118 61 77 118 61 77 118 61 78 118 61 78 118
61 78 118 61 78 118 61 79 118 61 79 118 61 79 118 62 80 118 62 80 118
62 80 118 62 81 118 62 81 118 62 81 118 62 82 118 62 82 118 62 82 118
62 82 118 62 83 118 62 83 118 62 83 118 62 84 118 62 84 118 62 84 118
62 85 118 62 85 118 63 85 118 63 86 118 63 86 118 63 86 118 63 87 118
63 87 118 63 87 118 63 87 118 63 88 118 63 88 118 63 88 118 63 89 118
63 89 118 63 89 118 63 90 117 63 90 117 63 90 117 63 90 117 63 91 117
63 91 117 63 91 117 63 91 117 63 92 117 63 92 117 63 92 117 63 92 117
63 93 117 63 93 117 63 93 117 63 93 116 63 94 116 63 94 116 63 94 116
63 94 116 63 94 116 63 94 116 63 95 116 63 95 116 63 95 116 63 95 115
63 95 115 63 95 115 63 95 115 63 96 115 63 96 115 63 96 115 63 96 115
63 96 114 63 96 114 63 96 114 63 96 114 63 96 114 63 96 114 63 96 114
63 96 113 63 96 113 63 96 113 63 96 113 62 96 113 62 96 113 62 96 112
62 96 112 62 96 112 62 96 112 62 95 112 62 95 111 62 95 111 62 95 111
62 95 111 61 95 111 61 95 110 61 94 110 61 94 110 61 94 110 61 94 110
61 94 109 61 93 109 61 93 109 60 93 109 60 93 109 60 92 108 60 92 108
60 92 108 60 92 108 60 91 107 59 91 107 59 91 107 59 91 107 59 90 107
59 90 106 59 90 106 59 89 106 58 89 106 58 89 105 58 88 105 58 88 105
58 88 105 58 87 104 58 87 104 57 87 104 57 86 104 57 86 104 57 86 103
57 85 103 57 85 103 56 85 103 56 84 102 56 84 102 56 84 102 56 83 102
56 83 101 55 82 101 55 82 101 55 82 101 55 81 100 55 81 100 55 81 100
54 80 100 54 80 99 54 80 99 54 79 99 54 79 99 54 78 98 53 78 98 53 78
98 53 77 98 53 77 97 53 77 97 53 76 97 52 76 97 52 76 97 52 75 96 52
75 96 52 75 96 52 74 96 52 74 95 51 74 95 51 73 95 51 73 95 51 73 94
51 72 94 51 72 94 50 72 94 50 71 94 50 71 93 50 71
