P3
400 200
255
0 0 0 0 0 0 0 0 0 0 0 0 0 0 0 0 0 0 0 0 0 0 0 0 0 0 0 0 0 0 0 0 0 0 0
0 0 0 0 0 0 0 0 0 0 0 0 0 0 0 0 0 0 0 0 0 0 0 0 0 0 0 0 0 0 0 0 0 0 0
0 0 0 0 0 0 0 0 0 0 0 0 0 0 0 0 0 0 0 0 0 0 0 0 0 0 0 0 0 0 0 0 0 0 0
0 0 0 0 0 0 0 0 0 0 0 0 0 0 0 0 0 0 0 0 0 0 0 0 0 0 0 0 0 0 0 0 0 0 0
0 0 0 0 0 0 0 0 0 0 0 0 0 0 0 0 0 0 0 0 0 0 0 0 0 0 0 0 0 0 0 0 0 0 0
0 0 0 0 0 0 0 0 0 0 0 0 0 0 0 0 0 0 0 0 0 0 0 0 0 0 0 0 0 0 0 0 0 0 0
0 0 0 0 0 0 0 0 0 0 0 0 0 0 0 0 0 0 0 0 0 0 0 0 0 0 0 0 0 0 0 0 0 0 0
0 0 0 0 0 0 0 0 0 0 0 0 0 0 0 0 0 0 0 0 0 0 0 0 0 0 0 0 0 0 0 0 0 0 0
0 0 0 0 0 0 0 0 0 0 0 0 0 0 0 0 0 0 0 0 0 0 0 0 0 0 0 0 0 0 0 0 0 0 0
0 0 0 0 0 0 0 0 0 0 0 0 0 0 0 0 0 0 0 0 0 0 0 0 0 0 0 0 0 0 0 0 0 0 0
0 0 0 0 0 0 0 0 0 0 0 0 0 0 0 0 0 0 0 0 0 0 0 0 0 0 0 0 0 0 0 0 0 0 0
0 0 0 0 0 0 0 0 0 0 0 0 0 0 0 0 0 0 0 0 0 0 0 32 29 92 32 29 93 32 29
92 32 29 91 32 29 90 32 28 89 32 28 88 32 28 86 32 28 86 32 29 88 32
28 87 32 27 82 32 26 78 32 26 76 32 26 75 32 25 73 32 25 71 32 24 69
32 24 67 32 24 65 32 23 64 32 23 62 32 23 60 32 22 58 32 22 56 32 21
54 32 21 52 32 21 50 32 20 48 32 20 46 32 19 44 32 19 42 32 19 40 32
19 40 32 19 40 32 19 40 32 19 40 32 19 40 32 19 40 32 19 40 32 19 40
32 19 40 32 19 40 32 19 40 32 19 40 32 19 40 32 19 40 32 19 40 32 19
40 0 0 0 0 0 0 0 0 0 0 0 0 0 0 0 0 0 0 0 0 0 0 0 0 0 0 0 0 0 0 0 0 0 0
0 0 0 0 0 0 0 0 0 0 0 0 0 0 0 0 0 0 0 0 0 0 0 0 0 0 0 0 0 0 0 0 0 0 0
0 0 0 0 0 0 0 0 0 0 0 0 0 0 0 0 0 0 0 0 0 0 0 0 0 0 0 0 0 0 0 0 0 0 0
0 0 0 0 0 0 0 0 0 0 0 0 0 0 0 0 0 0 0 0 0 0 0 0 0 0 0 0 0 0 0 0 0 0 0
0 0 0 0 0 0 0 0 0 0 0 0 0 0 0 0 0 0 0 0 0 0 0 0 0 0 0 0 0 0 0 0 0 0 0
0 0 0 0 0 0 0 0 0 0 0 0 0 0 0 0 0 0 0 0 0 0 0 0 0 0 0 0 0 0 0 0 0 0 0
0 0 0 0 0 0 0 0 0 0 0 0 0 0 0 0 0 0 0 0 0 0 0 0 0 0 0 0 0 0 0 0 0 0 0
0 0 0 0 0 0 0 0 0 0 0 0 0 0 0 0 0 0 0 0 0 0 0 0 0 0 0 0 0 0 0 0 0 0 0
0 0 0 0 0 0 0 0 0 0 0 0 0 0 0 0 0 0 0 0 0 0 0 0 0 0 0 0 0 0 0 0 0 0 0
0 0 0 0 0 0 0 0 0 0 0 0 0 0 0 0 0 0 0 0 0 0 8 2 70 8 2 69 8 2 68 8 2
66 8 2 65 8 2 63 8 2 61 8 2 60 8 2 58 8 2 56 8 2 54 8 2 52 8 2 50 8 2
48 8 2 46 8 2 45 8 2 43 8 2 41 8 1 39 8 1 37 8 1 35 8 1 33 8 1 31 7 1
29 7 1 27 7 1 25 7 1 23 7 1 21 7 1 19 7 1 17 7 1 16 7 1 16 7 1 16 7 1
16 7 1 16 7 1 16 7 1 16 7 1 16 7 1 16 7 1 16 7 1 16 7 1 16 7 1 16 7 1
16 7 1 16 7 1 16 7 1 16 7 1 16 7 1 16 7 1 16 0 0 0 0 0 0 0 0 0 0 0 0 0
0 0 0 0 0 0 0 0 0 0 0 0 0 0 0 0 0 0 0 0 0 0 0 0 0 0 0 0 0 0 0 0 0 0 0
0 0 0 0 0 0 0 0 0 0 0 0 0 0 0 0 0 0 0 0 0 0 0 0 0 0 0 0 0 0 0 0 0 0 0
0 0 0 0 0 0 0 0 0 0 0 0 0 0 0 0 0 0 0 0 0 0 0 0 0 0 0 0 0 0 0 0 0 0 0
0 0 0 0 0 0 0 0 0 0 0 0 0 0 0 0 0 0 0 0 0 0 0 0 0 0 0 0 0 0 0 0 0 0 0
0 0 0 0 0 0
0 0 0 0 0 0 0 0 0 0 0 0 0 0 0 0 0 0 0 0 0 0 0 0 0 0 0 0 0 0 0 0 0 0 0
0 0 0 0 0 0 0 0 0 0 0 0 0 0 0 0 0 0 0 0 0 0 0 0 0 0 0 0 0 0 0 0 0 0 0
0 0 0 0 0 0 0 0 0 0 0 0 0 0 0 0 0 0 0 0 0 0 0 0 0 0 0 0 0 0 0 0 0 0 0
0 0 0 0 0 0 0 0 0 0 0 0 0 0 0 0 0 0 0 0 0 0 0 0 0 0 0 0 0 0 0 0 0 0 0
0 0 0 0 0 0 0 0 0 0 0 0 0 0 0 0 0 0 0 0 0 0 0 0 0 0 0 0 0 0 0 0 0 0 0
0 0 0 0 0 0 0 0 0 0 0 0 0 0 0 0 0 0 0 0 0 0 0 0 0 0 0 0 0 0 0 0 0 0 0
0 0 0 0 0 0 0 0 0 0 0 0 0 0 0 0 0 0 0 0 0 0 0 0 0 0 0 0 0 0 0 0 0 0 0
0 0 0 0 0 0 0 0 0 0 0 0 0 0 0 0 0 0 0 0 0 0 0 0 0 0 0 0 0 0 0 0 0 0 0
0 0 0 0 0 0 0 0 0 0 0 0 0 0 0 0 0 0 0 0 0 0 0 0 0 0 0 0 0 0 0 0 0 0 0
0 0 0 0 0 0 0 0 0 0 0 0 0 0 0 0 0 0 0 0 0 0 0 0 0 0 0 0 0 0 0 0 0 0 0
0 0 0 0 0 0 0 0 0 0 0 0 0 0 0 0 0 0 0 0 0 0 0 0 0 0 0 0 0 0 0 0 0 0 0
0 0 0 0 0 0 0 0 0 0 0 0 0 0 0 0 0 0 0 0 0 0 0 32 29 92 32 29 93 32 29
92 32 29 92 32 29 91 32 28 89 32 28 88 32 28 87 32 29 90 32 32 99 32
32 98 32 28 86 32 26 79 32 26 77 32 26 75 32 25 73 32 25 71 32 24 69
32 24 67 32 24 66 32 23 64 32 23 62 32 23 60 32 22 58 32 22 56 32 21
54 32 21 52 32 21 50 32 20 48 32 20 46 32 19 44 32 19 42 32 19 40 32
19 40 32 19 40 32 19 40 32 19 40 32 19 40 32 19 40 32 19 40 32 19 40
32 19 40 32 19 40 32 19 40 32 19 40 32 19 40 32 19 40 32 19 40 32 19
40 0 0 0 0 0 0 0 0 0 0 0 0 0 0 0 0 0 0 0 0 0 0 0 0 0 0 0 0 0 0 0 0 0 0
0 0 0 0 0 0 0 0 0 0 0 0 0 0 0 0 0 0 0 0 0 0 0 0 0 0 0 0 0 0 0 0 0 0 0
0 0 0 0 0 0 0 0 0 0 0 0 0 0 0 0 0 0 0 0 0 0 0 0 0 0 0 0 0 0 0 0 0 0 0
0 0 0 0 0 0 0 0 0 0 0 0 0 0 0 0 0 0 0 0 0 0 0 0 0 0 0 0 0 0 0 0 0 0 0
0 0 0 0 0 0 0 0 0 0 0 0 0 0 0 0 0 0 0 0 0 0 0 0 0 0 0 0 0 0 0 0 0 0 0
0 0 0 0 0 0 0 0 0 0 0 0 0 0 0 0 0 0 0 0 0 0 0 0 0 0 0 0 0 0 0 0 0 0 0
0 0 0 0 0 0 0 0 0 0 0 0 0 0 0 0 0 0 0 0 0 0 0 0 0 0 0 0 0 0 0 0 0 0 0
0 0 0 0 0 0 0 0 0 0 0 0 0 0 0 0 0 0 0 0 0 0 0 0 0 0 0 0 0 0 0 0 0 0 0
0 0 0 0 0 0 0 0 0 0 0 0 0 0 0 0 0 0 0 0 0 0 0 0 0 0 0 0 0 0 0 0 0 0 0
0 0 0 0 0 0 0 0 0 0 0 0 0 0 0 0 0 0 0 0 0 0 0 0 0 8 2 67 8 2 66 8 2 65
8 2 64 8 2 62 8 2 60 8 2 59 8 2 57 8 2 55 8 2 53 8 2 51 8 2 49 8 2 47
8 2 46 8 2 44 8 2 42 8 2 40 8 1 38 8 1 36 8 1 34 8 1 32 7 1 30 7 1 28
7 1 26 7 1 24 7 1 22 7 1 20 7 1 18 7 1 16 7 1 16 7 1 16 7 1 16 7 1 16
7 1 16 7 1 16 7 1 16 7 1 16 7 1 16 7 1 16 7 1 16 7 1 16 7 1 16 7 1 16
7 1 16 7 1 16 7 1 16 7 1 16 7 1 16 0 0 0 0 0 0 0 0 0 0 0 0 0 0 0 0 0 0
0 0 0 0 0 0 0 0 0 0 0 0 0 0 0 0 0 0 0 0 0 0 0 0 0 0 0 0 0 0 0 0 0 0 0
0 0 0 0 0 0 0 0 0 0 0 0 0 0 0 0 0 0 0 0 0 0 0 0 0 0 0 0 0 0 0 0 0 0 0
0 0 0 0 0 0 0 0 0 0 0 0 0 0 0 0 0 0 0 0 0 0 0 0 0 0 0 0 0 0 0 0 0 0 0
0 0 0 0 0 0 0 0 0 0 0 0 0 0 0 0 0 0 0 0 0 0 0 0 0 0 0 0 0 0 0 0 0 0 0
0 0 0 0
0 0 0 0 0 0 0 0 0 0 0 0 0 0 0 0 0 0 0 0 0 0 0 0 0 0 0 0 0 0 0 0 0 0 0
0 0 0 0 0 0 0 0 0 0 0 0 0 0 0 0 0 0 0 0 0 0 0 0 0 0 0 0 0 0 0 0 0 0 0
0 0 0 0 0 0 0 0 0 0 0 0 0 0 0 0 0 0 0 0 0 0 0 0 0 0 0 0 0 0 0 0 0 0 0
0 0 0 0 0 0 0 0 0 0 0 0 0 0 0 0 0 0 0 0 0 0 0 0 0 0 0 0 0 0 0 0 0 0 0
0 0 0 0 0 0 0 0 0 0 0 0 0 0 0 0 0 0 0 0 0 0 0 0 0 0 0 0 0 0 0 0 0 0 0
0 0 0 0 0 0 0 0 0 0 0 0 0 0 0 0 0 0 0 0 0 0 0 0 0 0 0 0 0 0 0 0 0 0 0
0 0 0 0 0 0 0 0 0 0 0 0 0 0 0 0 0 0 0 0 0 0 0 0 0 0 0 0 0 0 0 0 0 0 0
0 0 0 0 0 0 0 0 0 0 0 0 0 0 0 0 0 0 0 0 0 0 0 0 0 0 0 0 0 0 0 0 0 0 0
0 0 0 0 0 0 0 0 0 0 0 0 0 0 0 0 0 0 0 0 0 0 0 0 0 0 0 0 0 0 0 0 0 0 0
0 0 0 0 0 0 0 0 0 0 0 0 0 0 0 0 0 0 0 0 0 0 0 0 0 0 0 0 0 0 0 0 0 0 0
0 0 0 0 0 0 0 0 0 0 0 0 0 0 0 0 0 0 0 0 0 0 0 0 0 0 0 0 0 0 0 0 0 0 0
0 0 0 0 0 0 0 0 0 0 0 0 0 0 0 0 0 0 0 0 0 0 0 32 29 93 32 29 93 32 29
93 32 29 92 32 29 91 32 28 89 32 28 88 32 28 87 32 30 94 32 36 114 32
36 114 32 30 92 32 27 80 32 26 77 32 26 75 32 25 73 32 25 71 32 24 69
32 24 68 32 24 66 32 23 64 32 23 62 32 23 60 32 22 58 32 22 56 32 21
54 32 21 52 32 21 50 32 20 48 32 20 46 32 19 44 32 19 42 32 19 40 32
19 40 32 19 40 32 19 40 32 19 40 32 19 40 32 19 40 32 19 40 32 19 40
32 19 40 32 19 40 32 19 40 32 19 40 32 19 40 32 19 40 32 19 40 32 19
40 0 0 0 0 0 0 0 0 0 0 0 0 0 0 0 0 0 0 0 0 0 0 0 0 0 0 0 0 0 0 0 0 0 0
0 0 0 0 0 0 0 0 0 0 0 0 0 0 0 0 0 0 0 0 0 0 0 0 0 0 0 0 0 0 0 0 0 0 0
0 0 0 0 0 0 0 0 0 0 0 0 0 0 0 0 0 0 0 0 0 0 0 0 0 0 0 0 0 0 0 0 0 0 0
0 0 0 0 0 0 0 0 0 0 0 0 0 0 0 0 0 0 0 0 0 0 0 0 0 0 0 0 0 0 0 0 0 0 0
0 0 0 0 0 0 0 0 0 0 0 0 0 0 0 0 0 0 0 0 0 0 0 0 0 0 0 0 0 0 0 0 0 0 0
0 0 0 0 0 0 0 0 0 0 0 0 0 0 0 0 0 0 0 0 0 0 0 0 0 0 0 0 0 0 0 0 0 0 0
0 0 0 0 0 0 0 0 0 0 0 0 0 0 0 0 0 0 0 0 0 0 0 0 0 0 0 0 0 0 0 0 0 0 0
0 0 0 0 0 0 0 0 0 0 0 0 0 0 0 0 0 0 0 0 0 0 0 0 0 0 0 0 0 0 0 0 0 0 0
0 0 0 0 0 0 0 0 0 0 0 0 0 0 0 0 0 0 0 0 0 0 0 0 0 0 0 0 0 0 0 0 0 0 0
0 0 0 0 0 0 0 0 0 0 0 0 0 0 0 0 0 0 0 0 0 0 0 0 0 0 0 0 0 0 0 8 2 63 8
2 62 8 2 61 8 2 59 8 2 57 8 2 56 8 2 54 8 2 52 8 2 50 8 2 48 8 2 46 8
2 45 8 2 43 8 2 41 8 1 39 8 1 37 8 1 35 8 1 33 8 1 31 7 1 29 7 1 27 7
1 25 7 1 23 7 1 21 7 1 19 7 1 17 7 1 16 7 1 16 7 1 16 7 1 16 7 1 16 7
1 16 7 1 16 7 1 16 7 1 16 7 1 16 7 1 16 7 1 16 7 1 16 7 1 16 7 1 16 7
1 16 7 1 16 7 1 16 0 0 0 0 0 0 0 0 0 0 0 0 0 0 0 0 0 0 0 0 0 0 0 0 0 0
0 0 0 0 0 0 0 0 0 0 0 0 0 0 0 0 0 0 0 0 0 0 0 0 0 0 0 0 0 0 0 0 0 0 0
0 0 0 0 0 0 0 0 0 0 0 0 0 0 0 0 0 0 0 0 0 0 0 0 0 0 0 0 0 0 0 0 0 0 0
0 0 0 0 0 0 0 0 0 0 0 0 0 0 0 0 0 0 0 0 0 0 0 0 0 0 0 0 0 0 0 0 0 0 0
0 0 0 0 0 0 0 0 0 0 0 0 0 0 0 0 0 0 0 0 0 0 0 0 0 0 0 0 0 0 0 0 0 0 0
0 0
0 0 0 0 0 0 0 0 0 0 0 0 0 0 0 0 0 0 0 0 0 0 0 0 0 0 0 0 0 0 0 0 0 0 0
0 0 0 0 0 0 0 0 0 0 0 0 0 0 0 0 0 0 0 0 0 0 0 0 0 0 0 0 0 0 0 0 0 0 0
0 0 0 0 0 0 0 0 0 0 0 0 0 0 0 0 0 0 0 0 0 0 0 0 0 0 0 0 0 0 0 0 0 0 0
0 0 0 0 0 0 0 0 0 0 0 0 0 0 0 0 0 0 0 0 0 0 0 0 0 0 0 0 0 0 0 0 0 0 0
0 0 0 0 0 0 0 0 0 0 0 0 0 0 0 0 0 0 0 0 0 0 0 0 0 0 0 0 0 0 0 0 0 0 0
0 0 0 0 0 0 0 0 0 0 0 0 0 0 0 0 0 0 0 0 0 0 0 0 0 0 0 0 0 0 0 0 0 0 0
0 0 0 0 0 0 0 0 0 0 0 0 0 0 0 0 0 0 0 0 0 0 0 0 0 0 0 0 0 0 0 0 0 0 0
0 0 0 0 0 0 0 0 0 0 0 0 0 0 0 0 0 0 0 0 0 0 0 0 0 0 0 0 0 0 0 0 0 0 0
0 0 0 0 0 0 0 0 0 0 0 0 0 0 0 0 0 0 0 0 0 0 0 0 0 0 0 0 0 0 0 0 0 0 0
0 0 0 0 0 0 0 0 0 0 0 0 0 0 0 0 0 0 0 0 0 0 0 0 0 0 0 0 0 0 0 0 0 0 0
0 0 0 0 0 0 0 0 0 0 0 0 0 0 0 0 0 0 0 0 0 0 0 0 0 0 0 0 0 0 0 0 0 0 0
0 0 0 0 0 0 0 0 0 0 0 0 0 0 0 0 0 0 0 0 0 0 0 32 29 92 32 29 93 32 29
93 32 29 92 32 29 91 32 28 90 32 28 88 32 28 87 32 30 95 32 38 120 32
39 123 32 31 96 32 27 81 32 26 77 32 26 75 32 25 73 32 25 71 32 25 70
32 24 68 32 24 66 32 23 64 32 23 62 32 23 60 32 22 58 32 22 56 32 21
54 32 21 52 32 21 50 32 20 48 32 20 46 32 19 44 32 19 42 32 19 40 32
19 40 32 19 40 32 19 40 32 19 40 32 19 40 32 19 40 32 19 40 32 19 40
32 19 40 32 19 40 32 19 40 32 19 40 32 19 40 32 19 40 32 19 40 32 19
40 0 0 0 0 0 0 0 0 0 0 0 0 0 0 0 0 0 0 0 0 0 0 0 0 0 0 0 0 0 0 0 0 0 0
0 0 0 0 0 0 0 0 0 0 0 0 0 0 0 0 0 0 0 0 0 0 0 0 0 0 0 0 0 0 0 0 0 0 0
0 0 0 0 0 0 0 0 0 0 0 0 0 0 0 0 0 0 0 0 0 0 0 0 0 0 0 0 0 0 0 0 0 0 0
0 0 0 0 0 0 0 0 0 0 0 0 0 0 0 0 0 0 0 0 0 0 0 0 0 0 0 0 0 0 0 0 0 0 0
0 0 0 0 0 0 0 0 0 0 0 0 0 0 0 0 0 0 0 0 0 0 0 0 0 0 0 0 0 0 0 0 0 0 0
0 0 0 0 0 0 0 0 0 0 0 0 0 0 0 0 0 0 0 0 0 0 0 0 0 0 0 0 0 0 0 0 0 0 0
0 0 0 0 0 0 0 0 0 0 0 0 0 0 0 0 0 0 0 0 0 0 0 0 0 0 0 0 0 0 0 0 0 0 0
0 0 0 0 0 0 0 0 0 0 0 0 0 0 0 0 0 0 0 0 0 0 0 0 0 0 0 0 0 0 0 0 0 0 0
0 0 0 0 0 0 0 0 0 0 0 0 0 0 0 0 0 0 0 0 0 0 0 0 0 0 0 0 0 0 0 0 0 0 0
0 0 0 0 0 0 0 0 0 0 0 0 0 0 0 0 0 0 0 0 0 0 0 0 0 0 0 0 0 0 0 0 0 0 8
2 60 8 2 59 8 2 58 8 2 56 8 2 54 8 2 53 8 2 51 8 2 49 8 2 47 8 2 45 8
2 44 8 2 42 8 2 40 8 1 38 8 1 36 8 1 34 8 1 32 7 1 30 7 1 28 7 1 26 7
1 24 7 1 22 7 1 20 7 1 18 7 1 16 7 1 16 7 1 16 7 1 16 7 1 16 7 1 16 7
1 16 7 1 16 7 1 16 7 1 16 7 1 16 7 1 16 7 1 16 7 1 16 7 1 16 7 1 16 7
1 16 7 1 16 0 0 0 0 0 0 0 0 0 0 0 0 0 0 0 0 0 0 0 0 0 0 0 0 0 0 0 0 0
0 0 0 0 0 0 0 0 0 0 0 0 0 0 0 0 0 0 0 0 0 0 0 0 0 0 0 0 0 0 0 0 0 0 0
0 0 0 0 0 0 0 0 0 0 0 0 0 0 0 0 0 0 0 0 0 0 0 0 0 0 0 0 0 0 0 0 0 0 0
0 0 0 0 0 0 0 0 0 0 0 0 0 0 0 0 0 0 0 0 0 0 0 0 0 0 0 0 0 0 0 0 0 0 0
0 0 0 0 0 0 0 0 0 0 0 0 0 0 0 0 0 0 0 0 0 0 0 0 0 0 0 0 0 0 0 0 0 0 0
0 0
0 0 0 0 0 0 0 0 0 0 0 0 0 0 0 0 0 0 0 0 0 0 0 0 0 0 0 0 0 0 0 0 0 0 0
0 0 0 0 0 0 0 0 0 0 0 0 0 0 0 0 0 0 0 0 0 0 0 0 0 0 0 0 0 0 0 0 0 0 0
0 0 0 0 0 0 0 0 0 0 0 0 0 0 0 0 0 0 0 0 0 0 0 0 0 0 0 0 0 0 0 0 0 0 0
0 0 0 0 0 0 0 0 0 0 0 0 0 0 0 0 0 0 0 0 0 0 0 0 0 0 0 0 0 0 0 0 0 0 0
0 0 0 0 0 0 0 0 0 0 0 0 0 0 0 0 0 0 0 0 0 0 0 0 0 0 0 0 0 0 0 0 0 0 0
0 0 0 0 0 0 0 0 0 0 0 0 0 0 0 0 0 0 0 0 0 0 0 0 0 0 0 0 0 0 0 0 0 0 0
0 0 0 0 0 0 0 0 0 0 0 0 0 0 0 0 0 0 0 0 0 0 0 0 0 0 0 0 0 0 0 0 0 0 0
0 0 0 0 0 0 0 0 0 0 0 0 0 0 0 0 0 0 0 0 0 0 0 0 0 0 0 0 0 0 0 0 0 0 0
0 0 0 0 0 0 0 0 0 0 0 0 0 0 0 0 0 0 0 0 0 0 0 0 0 0 0 0 0 0 0 0 0 0 0
0 0 0 0 0 0 0 0 0 0 0 0 0 0 0 0 0 0 0 0 0 0 0 0 0 0 0 0 0 0 0 0 0 0 0
0 0 0 0 0 0 0 0 0 0 0 0 0 0 0 0 0 0 0 0 0 0 0 0 0 0 0 0 0 0 0 0 0 0 0
0 0 0 0 0 0 0 0 0 0 0 0 0 0 0 0 0 0 0 0 0 0 0 32 29 92 32 29 93 32 29
93 32 29 92 32 29 91 32 28 90 32 28 88 32 28 87 32 29 92 32 35 111 32
36 116 32 31 94 32 27 81 32 26 77 32 26 75 32 25 73 32 25 71 32 25 70
32 24 68 32 24 66 32 23 64 32 23 62 32 23 60 32 22 58 32 22 56 32 21
54 32 21 52 32 21 50 32 20 48 32 20 46 32 19 44 32 19 42 32 19 40 32
19 40 32 19 40 32 19 40 32 19 40 32 19 40 32 19 40 32 19 40 32 19 40
32 19 40 32 19 40 32 19 40 32 19 40 32 19 40 32 19 40 32 19 40 32 19
40 0 0 0 0 0 0 0 0 0 0 0 0 0 0 0 0 0 0 0 0 0 0 0 0 0 0 0 0 0 0 0 0 0 0
0 0 0 0 0 0 0 0 0 0 0 0 0 0 0 0 0 0 0 0 0 0 0 0 0 0 0 0 0 0 0 0 0 0 0
0 0 0 0 0 0 0 0 0 0 0 0 0 0 0 0 0 0 0 0 0 0 0 0 0 0 0 0 0 0 0 0 0 0 0
0 0 0 0 0 0 0 0 0 0 0 0 0 0 0 0 0 0 0 0 0 0 0 0 0 0 0 0 0 0 0 0 0 0 0
0 0 0 0 0 0 0 0 0 0 0 0 0 0 0 0 0 0 0 0 0 0 0 0 0 0 0 0 0 0 0 0 0 0 0
0 0 0 0 0 0 0 0 0 0 0 0 0 0 0 0 0 0 0 0 0 0 0 0 0 0 0 0 0 0 0 0 0 0 0
0 0 0 0 0 0 0 0 0 0 0 0 0 0 0 0 0 0 0 0 0 0 0 0 0 0 0 0 0 0 0 0 0 0 0
0 0 0 0 0 0 0 0 0 0 0 0 0 0 0 0 0 0 0 0 0 0 0 0 0 0 0 0 0 0 0 0 0 0 0
0 0 0 0 0 0 0 0 0 0 0 0 0 0 0 0 0 0 0 0 0 0 0 0 0 0 0 0 0 0 0 0 0 0 0
0 0 0 0 0 0 0 0 0 0 0 0 0 0 0 0 0 0 0 0 0 0 0 0 0 0 0 0 0 0 0 0 0 0 0
0 0 8 2 57 8 2 56 8 2 55 8 2 53 8 2 51 8 2 50 8 2 48 8 2 46 8 2 44 8 2
42 8 2 41 8 1 39 8 1 37 8 1 35 8 1 33 8 1 31 7 1 29 7 1 27 7 1 25 7 1
23 7 1 21 7 1 19 7 1 17 7 1 16 7 1 16 7 1 16 7 1 16 7 1 16 7 1 16 7 1
16 7 1 16 7 1 16 7 1 16 7 1 16 7 1 16 7 1 16 7 1 16 7 1 16 7 1 16 0 0
0 0 0 0 0 0 0 0 0 0 0 0 0 0 0 0 0 0 0 0 0 0 0 0 0 0 0 0 0 0 0 0 0 0 0
0 0 0 0 0 0 0 0 0 0 0 0 0 0 0 0 0 0 0 0 0 0 0 0 0 0 0 0 0 0 0 0 0 0 0
0 0 0 0 0 0 0 0 0 0 0 0 0 0 0 0 0 0 0 0 0 0 0 0 0 0 0 0 0 0 0 0 0 0 0
0 0 0 0 0 0 0 0 0 0 0 0 0 0 0 0 0 0 0 0 0 0 0 0 0 0 0 0 0 0 0 0 0 0 0
0 0 0 0 0 0 0 0 0 0 0 0 0 0 0 0 0 0 0 0 0 0 0 0 0 0 0 0 0 0 0 0 0 0 0
0 0 0 0 0 0 0 0 0 0 0 0 0 0 0 0 0 0 0 0 0 0 0 0 0 0 0 0 0 0 0 0 0 0 0
0 0 0 0 0 0 0 0 0 0 0 0 0 0 0 0 0 0 0 0 0 0 0 0 0 0 0 0 0 0 0 0 0 0 0
0 0 0 0 0 0 0 0 0 0 0 0 0 0 0 0 0 0 0 0 0 0 0 0 0 0 0 0 0 0 0 0 0 0 0
0 0 0 0 0 0 0 0 0 0 0 0 0 0 0 0 0 0 0 0 0 0 0 0 0 0 0 0 0 0 0 0 0 0 0
0 0 0 0 0 0 0 0 0 0 0 0 0 0 0 0 0 0 0 0 0 0 0 0 0 0 0 0 0 0 0 0 0 0 0
0 0 0 0 0 0 0 0 0 0 0 0 0 0 0 0 0 0 0 0 0 0 0 0 0 0 0 0 0 0 0 0 0 0 0
0 0 0 0 0 0 0 0 0 0 0 0 0 0 0 0 0 0 0 0 0 0 0 0 0 0 0 0 0 0 0 0 0 0 0
0 0 0 0 0 0 0 0 0 0 0 0 0 0 0 0 0 0 0 0 0 0 0 0 0 0 0 0 0 0 0 0 0 0 0
0 0 0 0 0 0 0 0 0 0 0 0 0 0 0 0 0 0 0 0 0 0 0 0 0 0 0 0 0 0 0 0 0 0 0
0 0 0 0 0 0 0 0 0 0 0 0 0 0 0 0 0 0 0 0 0 0 0 0 0 0 0 0 0 0 0 0 0 0 0
0 0 0 0 0 0 0 0 0 0 0 0 0 0 0 0 0 0 0 0 0 0 0 0 0 0 0 0 0 0 0 0 0 0 0
0 0 0 0 0 0 0 0 0 0 0 0 0 0 0 0 0 0 0 0 0 0 0 32 29 92 32 29 93 32 29
92 32 29 92 32 29 91 32 28 90 32 28 88 32 28 87 32 28 88 32 31 96 32
32 99 32 29 88 32 27 80 32 26 77 32 26 75 32 25 73 32 25 71 32 25 70
32 24 68 32 24 66 32 23 64 32 23 62 32 23 60 32 22 58 32 22 56 32 21
54 32 21 52 32 21 50 32 20 48 32 20 46 32 19 44 32 19 42 32 19 40 32
19 40 32 19 40 32 19 40 32 19 40 32 19 40 32 19 40 32 19 40 32 19 40
32 19 40 32 19 40 32 19 40 32 19 40 32 19 40 32 19 40 32 19 40 32 19
40 0 0 0 0 0 0 0 0 0 0 0 0 0 0 0 0 0 0 0 0 0 0 0 0 0 0 0 0 0 0 0 0 0 0
0 0 0 0 0 0 0 0 0 0 0 0 0 0 0 0 0 0 0 0 0 0 0 0 0 0 0 0 0 0 0 0 0 0 0
0 0 0 0 0 0 0 0 0 0 0 0 0 0 0 0 0 0 0 0 0 0 0 0 0 0 0 0 0 0 0 0 0 0 0
0 0 0 0 0 0 0 0 0 0 0 0 0 0 0 0 0 0 0 0 0 0 0 0 0 0 0 0 0 0 0 0 0 0 0
0 0 0 0 0 0 0 0 0 0 0 0 0 0 0 0 0 0 0 0 0 0 0 0 0 0 0 0 0 0 0 0 0 0 0
0 0 0 0 0 0 0 0 0 0 0 0 0 0 0 0 0 0 0 0 0 0 0 0 0 0 0 0 0 0 0 0 0 0 0
0 0 0 0 0 0 0 0 0 0 0 0 0 0 0 0 0 0 0 0 0 0 0 0 0 0 0 0 0 0 0 0 0 0 0
0 0 0 0 0 0 0 0 0 0 0 0 0 0 0 0 0 0 0 0 0 0 0 0 0 0 0 0 0 0 0 0 0 0 0
0 0 0 0 0 0 0 0 0 0 0 0 0 0 0 0 0 0 0 0 0 0 0 0 0 0 0 0 0 0 0 0 0 0 0
0 0 0 0 0 0 0 0 0 0 0 0 0 0 0 0 0 0 0 0 0 0 0 0 0 0 0 0 0 0 0 0 0 0 0
0 0 0 0 0 0 0 0 8 2 52 8 2 51 8 2 50 8 2 48 8 2 47 8 2 45 8 2 43 8 2
41 8 1 39 8 1 37 8 1 35 8 1 34 8 1 32 7 1 30 7 1 28 7 1 26 7 1 24 7 1
22 7 1 20 7 1 18 7 1 16 7 1 16 7 1 16 7 1 16 7 1 16 7 1 16 7 1 16 7 1
16 7 1 16 7 1 16 7 1 16 7 1 16 7 1 16 7 1 16 7 1 16 0 0 0 0 0 0 0 0 0
0 0 0 0 0 0 0 0 0 0 0 0 0 0 0 0 0 0 0 0 0 0 0 0 0 0 0 0 0 0 0 0 0 0 0
0 0 0 0 0 0 0 0 0 0 0 0 0 0 0 0 0 0 0 0 0 0 0 0 0 0 0 0 0 0 0 0 0 0 0
0 0 0 0 0 0 0 0 0 0 0 0 0 0 0 0 0 0 0 0 0 0 0 0 0 0 0 0 0 0 0 0 0 0 0
0 0 0 0 0 0 0 0 0 0 0 0 0 0 0 0 0 0 0 0 0 0 0 0 0 0 0 0 0 0 0 0 0 0 0
0 0 0 0 0 0 0 0 0 0 0 0 0 0 0 0 0 0 0 0 0 0 0 0 0 0 0 0 0 0 0 0 0 0
0 0 0 0 0 0 0 0 0 0 0 0 0 0 0 0 0 0 0 0 0 0 0 0 0 0 0 0 0 0 0 0 0 0 0
0 0 0 0 0 0 0 0 0 0 0 0 0 0 0 0 0 0 0 0 0 0 0 0 0 0 0 0 0 0 0 0 0 0 0
0 0 0 0 0 0 0 0 0 0 0 0 0 0 0 0 0 0 0 0 0 0 0 0 0 0 0 0 0 0 0 0 0 0 0
0 0 0 0 0 0 0 0 0 0 0 0 0 0 0 0 0 0 0 0 0 0 0 0 0 0 0 0 0 0 0 0 0 0 0
0 0 0 0 0 0 0 0 0 0 0 0 0 0 0 0 0 0 0 0 0 0 0 0 0 0 0 0 0 0 0 0 0 0 0
0 0 0 0 0 0 0 0 0 0 0 0 0 0 0 0 0 0 0 0 0 0 0 0 0 0 0 0 0 0 0 0 0 0 0
0 0 0 0 0 0 0 0 0 0 0 0 0 0 0 0 0 0 0 0 0 0 0 0 0 0 0 0 0 0 0 0 0 0 0
0 0 0 0 0 0 0 0 0 0 0 0 0 0 0 0 0 0 0 0 0 0 0 0 0 0 0 0 0 0 0 0 0 0 0
0 0 0 0 0 0 0 0 0 0 0 0 0 0 0 0 0 0 0 0 0 0 0 0 0 0 0 0 0 0 0 0 0 0 0
0 0 0 0 0 0 0 0 0 0 0 0 0 0 0 0 0 0 0 0 0 0 0 0 0 0 0 0 0 0 0 0 0 0 0
0 0 0 0 0 0 0 0 0 0 0 0 0 0 0 0 0 0 0 0 0 0 0 0 0 0 0 0 0 0 0 0 0 0 0
0 0 0 0 0 0 0 0 0 0 0 0 0 0 0 0 0 0 0 0 0 0 0 32 29 91 32 29 92 32 29
92 32 29 92 32 29 91 32 28 89 32 28 88 32 28 87 32 28 86 32 28 87 32
28 87 32 27 83 32 26 79 32 26 77 32 26 75 32 25 73 32 25 71 32 25 70
32 24 68 32 24 66 32 23 64 32 23 62 32 23 60 32 22 58 32 22 56 32 21
54 32 21 52 32 21 50 32 20 48 32 20 46 32 19 44 32 19 42 32 19 40 32
19 40 32 19 40 32 19 40 32 19 40 32 19 40 32 19 40 32 19 40 32 19 40
32 19 40 32 19 40 32 19 40 32 19 40 32 19 40 32 19 40 32 19 40 32 19
40 0 0 0 0 0 0 0 0 0 0 0 0 0 0 0 0 0 0 0 0 0 0 0 0 0 0 0 0 0 0 0 0 0 0
0 0 0 0 0 0 0 0 0 0 0 0 0 0 0 0 0 0 0 0 0 0 0 0 0 0 0 0 0 0 0 0 0 0 0
0 0 0 0 0 0 0 0 0 0 0 0 0 0 0 0 0 0 0 0 0 0 0 0 0 0 0 0 0 0 0 0 0 0 0
0 0 0 0 0 0 0 0 0 0 0 0 0 0 0 0 0 0 0 0 0 0 0 0 0 0 0 0 0 0 0 0 0 0 0
0 0 0 0 0 0 0 0 0 0 0 0 0 0 0 0 0 0 0 0 0 0 0 0 0 0 0 0 0 0 0 0 0 0 0
0 0 0 0 0 0 0 0 0 0 0 0 0 0 0 0 0 0 0 0 0 0 0 0 0 0 0 0 0 0 0 0 0 0 0
0 0 0 0 0 0 0 0 0 0 0 0 0 0 0 0 0 0 0 0 0 0 0 0 0 0 0 0 0 0 0 0 0 0 0
0 0 0 0 0 0 0 0 0 0 0 0 0 0 0 0 0 0 0 0 0 0 0 0 0 0 0 0 0 0 0 0 0 0 0
0 0 0 0 0 0 0 0 0 0 0 0 0 0 0 0 0 0 0 0 0 0 0 0 0 0 0 0 0 0 0 0 0 0 0
0 0 0 0 0 0 0 0 0 0 0 0 0 0 0 0 0 0 0 0 0 0 0 0 0 0 0 0 0 0 0 0 0 0 0
0 0 0 0 0 0 0 0 0 0 0 0 0 0 8 2 47 8 2 46 8 2 45 8 2 43 8 2 41 8 2 40
8 1 38 8 1 36 8 1 34 8 1 32 7 1 30 7 1 28 7 1 26 7 1 24 7 1 22 7 1 20
7 1 18 7 1 16 7 1 16 7 1 16 7 1 16 7 1 16 7 1 16 7 1 16 7 1 16 7 1 16
7 1 16 7 1 16 7 1 16 7 1 16 0 0 0 0 0 0 0 0 0 0 0 0 0 0 0 0 0 0 0 0 0
0 0 0 0 0 0 0 0 0 0 0 0 0 0 0 0 0 0 0 0 0 0 0 0 0 0 0 0 0 0 0 0 0 0 0
0 0 0 0 0 0 0 0 0 0 0 0 0 0 0 0 0 0 0 0 0 0 0 0 0 0 0 0 0 0 0 0 0 0 0
0 0 0 0 0 0 0 0 0 0 0 0 0 0 0 0 0 0 0 0 0 0 0 0 0 0 0 0 0 0 0 0 0 0 0
0 0 0 0 0 0 0 0 0 0 0 0 0 0 0 0 0 0 0 0 0 0 0 0 0 0 0 0 0 0 0 0 0 0 0
0 0 0 0 0 0 0 0 0 0 0 0 0 0 0 0 0 0 0 0 0 0 0 0 0 0 0 0 0 0 0
0 0 0 0 0 0 0 0 0 0 0 0 0 0 0 0 0 0 0 0 0 0 0 0 0 0 0 0 0 0 0 0 0 0 0
0 0 0 0 0 0 0 0 0 0 0 0 0 0 0 0 0 0 0 0 0 0 0 0 0 0 0 0 0 0 0 0 0 0 0
0 0 0 0 0 0 0 0 0 0 0 0 0 0 0 0 0 0 0 0 0 0 0 0 0 0 0 0 0 0 0 0 0 0 0
0 0 0 0 0 0 0 0 0 0 0 0 0 0 0 0 0 0 0 0 0 0 0 0 0 0 0 0 0 0 0 0 0 0 0
0 0 0 0 0 0 0 0 0 0 0 0 0 0 0 0 0 0 0 0 0 0 0 0 0 0 0 0 0 0 0 0 0 0 0
0 0 0 0 0 0 0 0 0 0 0 0 0 0 0 0 0 0 0 0 0 0 0 0 0 0 0 0 0 0 0 0 0 0 0
0 0 0 0 0 0 0 0 0 0 0 0 0 0 0 0 0 0 0 0 0 0 0 0 0 0 0 0 0 0 0 0 0 0 0
0 0 0 0 0 0 0 0 0 0 0 0 0 0 0 0 0 0 0 0 0 0 0 0 0 0 0 0 0 0 0 0 0 0 0
0 0 0 0 0 0 0 0 0 0 0 0 0 0 0 0 0 0 0 0 0 0 0 0 0 0 0 0 0 0 0 0 0 0 0
0 0 0 0 0 0 0 0 0 0 0 0 0 0 0 0 0 0 0 0 0 0 0 0 0 0 0 0 0 0 0 0 0 0 0
0 0 0 0 0 0 0 0 0 0 0 0 0 0 0 0 0 0 0 0 0 0 0 0 0 0 0 0 0 0 0 0 0 0 0
0 0 0 0 0 0 0 0 0 0 0 0 0 0 0 0 0 0 0 0 0 0 0 32 28 89 32 29 92 32 29
92 32 29 91 32 29 90 32 28 89 32 28 88 32 28 87 32 28 85 32 27 84 32
27 83 32 27 81 32 26 79 32 26 77 32 26 75 32 25 73 32 25 71 32 25 70
32 24 68 32 24 66 32 23 64 32 23 62 32 23 60 32 22 58 32 22 56 32 21
54 32 21 52 32 21 50 32 20 48 32 20 46 32 19 44 32 19 42 32 19 40 32
19 40 32 19 40 32 19 40 32 19 40 32 19 40 32 19 40 32 19 40 32 19 40
32 19 40 32 19 40 32 19 40 32 19 40 32 19 40 32 19 40 32 19 40 32 19
40 0 0 0 0 0 0 0 0 0 0 0 0 0 0 0 0 0 0 0 0 0 0 0 0 0 0 0 0 0 0 0 0 0 0
0 0 0 0 0 0 0 0 0 0 0 0 0 0 0 0 0 0 0 0 0 0 0 0 0 0 0 0 0 0 0 0 0 0 0
0 0 0 0 0 0 0 0 0 0 0 0 0 0 0 0 0 0 0 0 0 0 0 0 0 0 0 0 0 0 0 0 0 0 0
0 0 0 0 0 0 0 0 0 0 0 0 0 0 0 0 0 0 0 0 0 0 0 0 0 0 0 0 0 0 0 0 0 0 0
0 0 0 0 0 0 0 0 0 0 0 0 0 0 0 0 0 0 0 0 0 0 0 0 0 0 0 0 0 0 0 0 0 0 0
0 0 0 0 0 0 0 0 0 0 0 0 0 0 0 0 0 0 0 0 0 0 0 0 0 0 0 0 0 0 0 0 0 0 0
0 0 0 0 0 0 0 0 0 0 0 0 0 0 0 0 0 0 0 0 0 0 0 0 0 0 0 0 0 0 0 0 0 0 0
0 0 0 0 0 0 0 0 0 0 0 0 0 0 0 0 0 0 0 0 0 0 0 0 0 0 0 0 0 0 0 0 0 0 0
0 0 0 0 0 0 0 0 0 0 0 0 0 0 0 0 0 0 0 0 0 0 0 0 0 0 0 0 0 0 0 0 0 0 0
0 0 0 0 0 0 0 0 0 0 0 0 0 0 0 0 0 0 0 0 0 0 0 0 0 0 0 0 0 0 0 0 0 0 0
0 0 0 0 0 0 0 0 0 0 0 0 0 0 0 0 0 0 0 0 8 2 42 8 2 41 8 1 39 8 1 38 8
1 36 8 1 34 8 1 32 8 1 30 7 1 29 7 1 27 7 1 25 7 1 23 7 1 21 7 1 19 7
1 16 7 1 16 7 1 16 7 1 16 7 1 16 7 1 16 7 1 16 7 1 16 7 1 16 7 1 16 7
1 16 0 0 0 0 0 0 0 0 0 0 0 0 0 0 0 0 0 0 0 0 0 0 0 0 0 0 0 0 0 0 0 0 0
0 0 0 0 0 0 0 0 0 0 0 0 0 0 0 0 0 0 0 0 0 0 0 0 0 0 0 0 0 0 0 0 0 0 0
0 0 0 0 0 0 0 0 0 0 0 0 0 0 0 0 0 0 0 0 0 0 0 0 0 0 0 0 0 0 0 0 0 0 0
0 0 0 0 0 0 0 0 0 0 0 0 0 0 0 0 0 0 0 0 0 0 0 0 0 0 0 0 0 0 0 0 0 0 0
0 0 0 0 0 0 0 0 0 0 0 0 0 0 0 0 0 0 0 0 0 0 0 0 0 0 0 0 0 0 0 0 0 0 0
0 0 0 0 0 0 0 0 0 0 0 0 0 0 0 0 0 0 0 0 0 0 0 0 0 0 0 0
0 0 0 0 0 0 0 0 0 0 0 0 0 0 0 0 0 0 0 0 0 0 0 0 0 0 0 0 0 0 0 0 0 0 0
0 0 0 0 0 0 0 0 0 0 0 0 0 0 0 0 0 0 0 0 0 0 0 0 0 0 0 0 0 0 0 0 0 0 0
0 0 0 0 0 0 0 0 0 0 0 0 0 0 0 0 0 0 0 0 0 0 0 0 0 0 0 0 0 0 0 0 0 0 0
0 0 0 0 0 0 0 0 0 0 0 0 0 0 0 0 0 0 0 0 0 0 0 0 0 0 0 0 0 0 0 0 0 0 0
0 0 0 0 0 0 0 0 0 0 0 0 0 0 0 0 0 0 0 0 0 0 0 0 0 0 0 0 0 0 0 0 0 0 0
0 0 0 0 0 0 0 0 0 0 0 0 0 0 0 0 0 0 0 0 0 0 0 0 0 0 0 0 0 0 0 0 0 0 0
0 0 0 0 0 0 0 0 0 0 0 0 0 0 0 0 0 0 0 0 0 0 0 0 0 0 0 0 0 0 0 0 0 0 0
0 0 0 0 0 0 0 0 0 0 0 0 0 0 0 0 0 0 0 0 0 0 0 0 0 0 0 0 0 0 0 0 0 0 0
0 0 0 0 0 0 0 0 0 0 0 0 0 0 0 0 0 0 0 0 0 0 0 0 0 0 0 0 0 0 0 0 0 0 0
0 0 0 0 0 0 0 0 0 0 0 0 0 0 0 0 0 0 0 0 0 0 0 0 0 0 0 0 0 0 0 0 0 0 0
0 0 0 0 0 0 0 0 0 0 0 0 0 0 0 0 0 0 0 0 0 0 0 0 0 0 0 0 0 0 0 0 0 0 0
0 0 0 0 0 0 0 0 0 0 0 0 0 0 0 0 0 0 0 0 0 0 0 0 0 0 32 29 91 32 29 92
32 29 91 32 29 90 32 28 89 32 28 88 32 28 86 32 28 85 32 27 83 32 27
82 32 27 80 32 26 78 32 26 77 32 26 75 32 25 73 32 25 71 32 24 69 32
24 68 32 24 66 32 23 64 32 23 62 32 23 60 32 22 58 32 22 56 32 21 54
32 21 52 32 21 50 32 20 48 32 20 46 32 19 44 32 19 42 32 19 40 32 19
40 32 19 40 32 19 40 32 19 40 32 19 40 32 19 40 32 19 40 32 19 40 32
19 40 32 19 40 32 19 40 32 19 40 32 19 40 32 19 40 32 19 40 32 19 40 0
0 0 0 0 0 0 0 0 0 0 0 0 0 0 0 0 0 0 0 0 0 0 0 0 0 0 0 0 0 0 0 0 0 0 0
0 0 0 0 0 0 0 0 0 0 0 0 0 0 0 0 0 0 0 0 0 0 0 0 0 0 0 0 0 0 0 0 0 0 0
0 0 0 0 0 0 0 0 0 0 0 0 0 0 0 0 0 0 0 0 0 0 0 0 0 0 0 0 0 0 0 0 0 0 0
0 0 0 0 0 0 0 0 0 0 0 0 0 0 0 0 0 0 0 0 0 0 0 0 0 0 0 0 0 0 0 0 0 0 0
0 0 0 0 0 0 0 0 0 0 0 0 0 0 0 0 0 0 0 0 0 0 0 0 0 0 0 0 0 0 0 0 0 0 0
0 0 0 0 0 0 0 0 0 0 0 0 0 0 0 0 0 0 0 0 0 0 0 0 0 0 0 0 0 0 0 0 0 0 0
0 0 0 0 0 0 0 0 0 0 0 0 0 0 0 0 0 0 0 0 0 0 0 0 0 0 0 0 0 0 0 0 0 0 0
0 0 0 0 0 0 0 0 0 0 0 0 0 0 0 0 0 0 0 0 0 0 0 0 0 0 0 0 0 0 0 0 0 0 0
0 0 0 0 0 0 0 0 0 0 0 0 0 0 0 0 0 0 0 0 0 0 0 0 0 0 0 0 0 0 0 0 0 0 0
0 0 0 0 0 0 0 0 0 0 0 0 0 0 0 0 0 0 0 0 0 0 0 0 0 0 0 0 0 0 0 0 0 0 0
0 0 0 0 0 0 0 0 0 0 0 0 0 0 0 0 0 0 0 0 0 0 0 0 0 0 0 8 1 34 8 1 33 8
1 32 7 1 30 7 1 28 7 1 26 7 1 24 7 1 23 7 1 21 7 1 18 7 1 16 7 1 16 7
1 16 7 1 16 7 1 16 7 1 16 7 1 16 7 1 16 7 1 16 0 0 0 0 0 0 0 0 0 0 0 0
0 0 0 0 0 0 0 0 0 0 0 0 0 0 0 0 0 0 0 0 0 0 0 0 0 0 0 0 0 0 0 0 0 0 0
0 0 0 0 0 0 0 0 0 0 0 0 0 0 0 0 0 0 0 0 0 0 0 0 0 0 0 0 0 0 0 0 0 0 0
0 0 0 0 0 0 0 0 0 0 0 0 0 0 0 0 0 0 0 0 0 0 0 0 0 0 0 0 0 0 0 0 0 0 0
0 0 0 0 0 0 0 0 0 0 0 0 0 0 0 0 0 0 0 0 0 0 0 0 0 0 0 0 0 0 0 0 0 0 0
0 0 0 0 0 0 0 0 0 0 0 0 0 0 0 0 0 0 0 0 0 0 0 0 0 0 0 0 0 0 0 0 0 0 0
0 0 0 0 0 0 0 0 0 0 0 0 0 0 0 0 0 0 0 0 0 0 0
0 0 0 0 0 0 0 0 0 0 0 0 0 0 0 0 0 0 0 0 0 0 0 0 0 0 0 0 0 0 0 0 0 0 0
0 0 0 0 0 0 0 0 0 0 0 0 0 0 0 0 0 0 0 0 0 0 0 0 0 0 0 0 0 0 0 0 0 0 0
0 0 0 0 0 0 0 0 0 0 0 0 0 0 0 0 0 0 0 0 0 0 0 0 0 0 0 0 0 0 0 0 0 0 0
0 0 0 0 0 0 0 0 0 0 0 0 0 0 0 0 0 0 0 0 0 0 0 0 0 0 0 0 0 0 0 0 0 0 0
0 0 0 0 0 0 0 0 0 0 0 0 0 0 0 0 0 0 0 0 0 0 0 0 0 0 0 0 0 0 0 0 0 0 0
0 0 0 0 0 0 0 0 0 0 0 0 0 0 0 0 0 0 0 0 0 0 0 0 0 0 0 0 0 0 0 0 0 0 0
0 0 0 0 0 0 0 0 0 0 0 0 0 0 0 0 0 0 0 0 0 0 0 0 0 0 0 0 0 0 0 0 0 0 0
0 0 0 0 0 0 0 0 0 0 0 0 0 0 0 0 0 0 0 0 0 0 0 0 0 0 0 0 0 0 0 0 0 0 0
0 0 0 0 0 0 0 0 0 0 0 0 0 0 0 0 0 0 0 0 0 0 0 0 0 0 0 0 0 0 0 0 0 0 0
0 0 0 0 0 0 0 0 0 0 0 0 0 0 0 0 0 0 0 0 0 0 0 0 0 0 0 0 0 0 0 0 0 0 0
0 0 0 0 0 0 0 0 0 0 0 0 0 0 0 0 0 0 0 0 0 0 0 0 0 0 0 0 0 0 0 0 0 0 0
0 0 0 0 0 0 0 0 0 0 0 0 0 0 0 0 0 0 0 0 0 0 0 0 0 0 32 29 90 32 29 91
32 29 91 32 29 90 32 28 89 32 28 88 32 28 86 32 28 85 32 27 83 32 27
82 32 27 80 32 26 78 32 26 77 32 26 75 32 25 73 32 25 71 32 24 69 32
24 68 32 24 66 32 23 64 32 23 62 32 23 60 32 22 58 32 22 56 32 21 54
32 21 52 32 21 50 32 20 48 32 20 46 32 19 44 32 19 42 32 19 40 32 19
40 32 19 40 32 19 40 32 19 40 32 19 40 32 19 40 32 19 40 32 19 40 32
19 40 32 19 40 32 19 40 32 19 40 32 19 40 32 19 40 32 19 40 32 19 40 0
0 0 0 0 0 0 0 0 0 0 0 0 0 0 0 0 0 0 0 0 0 0 0 0 0 0 0 0 0 0 0 0 0 0 0
0 0 0 0 0 0 0 0 0 0 0 0 0 0 0 0 0 0 0 0 0 0 0 0 0 0 0 0 0 0 0 0 0 0 0
0 0 0 0 0 0 0 0 0 0 0 0 0 0 0 0 0 0 0 0 0 0 0 0 0 0 0 0 0 0 0 0 0 0 0
0 0 0 0 0 0 0 0 0 0 0 0 0 0 0 0 0 0 0 0 0 0 0 0 0 0 0 0 0 0 0 0 0 0 0
0 0 0 0 0 0 0 0 0 0 0 0 0 0 0 0 0 0 0 0 0 0 0 0 0 0 0 0 0 0 0 0 0 0 0
0 0 0 0 0 0 0 0 0 0 0 0 0 0 0 0 0 0 0 0 0 0 0 0 0 0 0 0 0 0 0 0 0 0 0
0 0 0 0 0 0 0 0 0 0 0 0 0 0 0 0 0 0 0 0 0 0 0 0 0 0 0 0 0 0 0 0 0 0 0
0 0 0 0 0 0 0 0 0 0 0 0 0 0 0 0 0 0 0 0 0 0 0 0 0 0 0 0 0 0 0 0 0 0 0
0 0 0 0 0 0 0 0 0 0 0 0 0 0 0 0 0 0 0 0 0 0 0 0 0 0 0 0 0 0 0 0 0 0 0
0 0 0 0 0 0 0 0 0 0 0 0 0 0 0 0 0 0 0 0 0 0 0 0 0 0 0 0 0 0 0 0 0 0 0
0 0 0 0 0 0 0 0 0 0 0 0 0 0 0 0 0 0 0 0 0 0 0 0 0 0 0 0 0 0 0 0 0 0 0
0 0 0 0 0 0 0 0 0 0 7 1 20 7 1 19 7 1 17 7 1 16 7 1 16 7 1 16 0 0 0 0
0 0 0 0 0 0 0 0 0 0 0 0 0 0 0 0 0 0 0 0 0 0 0 0 0 0 0 0 0 0 0 0 0 0 0
0 0 0 0 0 0 0 0 0 0 0 0 0 0 0 0 0 0 0 0 0 0 0 0 0 0 0 0 0 0 0 0 0 0 0
0 0 0 0 0 0 0 0 0 0 0 0 0 0 0 0 0 0 0 0 0 0 0 0 0 0 0 0 0 0 0 0 0 0 0
0 0 0 0 0 0 0 0 0 0 0 0 0 0 0 0 0 0 0 0 0 0 0 0 0 0 0 0 0 0 0 0 0 0 0
0 0 0 0 0 0 0 0 0 0 0 0 0 0 0 0 0 0 0 0 0 0 0 0 0 0 0 0 0 0 0 0 0 0 0
0 0 0 0 0 0 0 0 0 0 0 0 0 0 0 0 0 0 0 0 0 0 0 0 0 0 0 0 0 0 0 0 0 0 0
0 0 0 0 0 0 0 0 0 0 0 0 0 0 0 0 0
0 0 0 0 0 0 0 0 0 0 0 0 0 0 0 0 0 0 0 0 0 0 0 0 0 0 0 0 0 0 0 0 0 0 0
0 0 0 0 0 0 0 0 0 0 0 0 0 0 0 0 0 0 0 0 0 0 0 0 0 0 0 0 0 0 0 0 0 0 0
0 0 0 0 0 0 0 0 0 0 0 0 0 0 0 0 0 0 0 0 0 0 0 0 0 0 0 0 0 0 0 0 0 0 0
0 0 0 0 0 0 0 0 0 0 0 0 0 0 0 0 0 0 0 0 0 0 0 0 0 0 0 0 0 0 0 0 0 0 0
0 0 0 0 0 0 0 0 0 0 0 0 0 0 0 0 0 0 0 0 0 0 0 0 0 0 0 0 0 0 0 0 0 0 0
0 0 0 0 0 0 0 0 0 0 0 0 0 0 0 0 0 0 0 0 0 0 0 0 0 0 0 0 0 0 0 0 0 0 0
0 0 0 0 0 0 0 0 0 0 0 0 0 0 0 0 0 0 0 0 0 0 0 0 0 0 0 0 0 0 0 0 0 0 0
0 0 0 0 0 0 0 0 0 0 0 0 0 0 0 0 0 0 0 0 0 0 0 0 0 0 0 0 0 0 0 0 0 0 0
0 0 0 0 0 0 0 0 0 0 0 0 0 0 0 0 0 0 0 0 0 0 0 0 0 0 0 0 0 0 0 0 0 0 0
0 0 0 0 0 0 0 0 0 0 0 0 0 0 0 0 0 0 0 0 0 0 0 0 0 0 0 0 0 0 0 0 0 0 0
0 0 0 0 0 0 0 0 0 0 0 0 0 0 0 0 0 0 0 0 0 0 0 0 0 0 0 0 0 0 0 0 0 0 0
0 0 0 0 0 0 0 0 0 0 0 0 0 0 0 0 0 0 0 0 0 0 0 0 0 0 32 28 89 32 29 90
32 29 90 32 28 90 32 28 89 32 28 87 32 28 86 32 27 85 32 27 83 32 27
81 32 27 80 32 26 78 32 26 76 32 26 75 32 25 73 32 25 71 32 24 69 32
24 67 32 24 65 32 23 64 32 23 62 32 23 60 32 22 58 32 22 56 32 21 54
32 21 52 32 21 50 32 20 48 32 20 46 32 19 44 32 19 42 32 19 40 32 19
40 32 19 40 32 19 40 32 19 40 32 19 40 32 19 40 32 19 40 32 19 40 32
19 40 32 19 40 32 19 40 32 19 40 32 19 40 32 19 40 32 19 40 0 0 0 0 0
0 0 0 0 0 0 0 0 0 0 0 0 0 0 0 0 0 0 0 0 0 0 0 0 0 0 0 0 0 0 0 0 0 0 0
0 0 0 0 0 0 0 0 0 0 0 0 0 0 0 0 0 0 0 0 0 0 0 0 0 0 0 0 0 0 0 0 0 0 0
0 0 0 0 0 0 0 0 0 0 0 0 0 0 0 0 0 0 0 0 0 0 0 0 0 0 0 0 0 0 0 0 0 0 0
0 0 0 0 0 0 0 0 0 0 0 0 0 0 0 0 0 0 0 0 0 0 0 0 0 0 0 0 0 0 0 0 0 0 0
0 0 0 0 0 0 0 0 0 0 0 0 0 0 0 0 0 0 0 0 0 0 0 0 0 0 0 0 0 0 0 0 0 0 0
0 0 0 0 0 0 0 0 0 0 0 0 0 0 0 0 0 0 0 0 0 0 0 0 0 0 0 0 0 0 0 0 0 0 0
0 0 0 0 0 0 0 0 0 0 0 0 0 0 0 0 0 0 0 0 0 0 0 0 0 0 0 0 0 0 0 0 0 0 0
0 0 0 0 0 0 0 0 0 0 0 0 0 0 0 0 0 0 0 0 0 0 0 0 0 0 0 0 0 0 0 0 0 0 0
0 0 0 0 0 0 0 0 0 0 0 0 0 0 0 0 0 0 0 0 0 0 0 0 0 0 0 0 0 0 0 0 0 0 0
0 0 0 0 0 0 0 0 0 0 0 0 0 0 0 0 0 0 0 0 0 0 0 0 0 0 0 0 0 0 0 0 0 0 0
0 0 0 0 0 0 0 0 0 0 0 0 0 0 0 0 0 0 0 0 0 0 0 0 0 0 0 0 0 0 0 0 0 0 0
0 0 0 0 0 0 0 0 0 0 0 0 0 0 0 0 0 0 0 0 0 0 0 0 0 0 0 0 0 0 0 0 0 0 0
0 0 0 0 0 0 0 0 0 0 0 0 0 0 0 0 0 0 0 0 0 0 0 0 0 0 0 0 0 0 0 0 0 0 0
0 0 0 0 0 0 0 0 0 0 0 0 0 0 0 0 0 0 0 0 0 0 0 0 0 0 0 0 0 0 0 0 0 0 0
0 0 0 0 0 0 0 0 0 0 0 0 0 0 0 0 0 0 0 0 0 0 0 0 0 0 0 0 0 0 0 0 0 0 0
0 0 0 0 0 0 0 0 0 0 0 0 0 0 0 0 0 0 0 0 0 0 0 0 0 0 0 0 0 0 0 0 0 0 0
0 0 0 0 0 0 0 0 0 0 0 0 0 0 0 0 0 0 0 0 0 0 0 0 0 0 0 0 0 0 0 0 0 0 0
0 0 0 0 0 0 0 0 0 0 0 0 0 0 0 0 0 0 0 0 0 0 0 0 0 0 0 0 0 0 0 0 0 0 0
0 0 0 0 0 0 0 0 0 0 0 0 0
0 0 0 0 0 0 0 0 0 0 0 0 0 0 0 0 0 0 0 0 0 0 0 0 0 0 0 0 0 0 0 0 0 0 0
0 0 0 0 0 0 0 0 0 0 0 0 0 0 0 0 0 0 0 0 0 0 0 0 0 0 0 0 0 0 0 0 0 0 0
0 0 0 0 0 0 0 0 0 0 0 0 0 0 0 0 0 0 0 0 0 0 0 0 0 0 0 0 0 0 0 0 0 0 0
0 0 0 0 0 0 0 0 0 0 0 0 0 0 0 0 0 0 0 0 0 0 0 0 0 0 0 0 0 0 0 0 0 0 0
0 0 0 0 0 0 0 0 0 0 0 0 0 0 0 0 0 0 0 0 0 0 0 0 0 0 0 0 0 0 0 0 0 0 0
0 0 0 0 0 0 0 0 0 0 0 0 0 0 0 0 0 0 0 0 0 0 0 0 0 0 0 0 0 0 0 0 0 0 0
0 0 0 0 0 0 0 0 0 0 0 0 0 0 0 0 0 0 0 0 0 0 0 0 0 0 0 0 0 0 0 0 0 0 0
0 0 0 0 0 0 0 0 0 0 0 0 0 0 0 0 0 0 0 0 0 0 0 0 0 0 0 0 0 0 0 0 0 0 0
0 0 0 0 0 0 0 0 0 0 0 0 0 0 0 0 0 0 0 0 0 0 0 0 0 0 0 0 0 0 0 0 0 0 0
0 0 0 0 0 0 0 0 0 0 0 0 0 0 0 0 0 0 0 0 0 0 0 0 0 0 0 0 0 0 0 0 0 0 0
0 0 0 0 0 0 0 0 0 0 0 0 0 0 0 0 0 0 0 0 0 0 0 0 0 0 0 0 0 0 0 0 0 0 0
0 0 0 0 0 0 0 0 0 0 0 0 0 0 0 0 0 0 0 0 0 0 0 0 0 0 0 0 0 32 28 89 32
28 90 32 28 89 32 28 88 32 28 87 32 28 86 32 27 84 32 27 83 32 27 81
32 26 80 32 26 78 32 26 76 32 25 74 32 25 73 32 25 71 32 24 69 32 24
67 32 24 65 32 23 63 32 23 61 32 23 60 32 22 58 32 22 56 32 21 54 32
21 52 32 21 50 32 20 48 32 20 46 32 19 44 32 19 41 32 19 40 32 19 40
32 19 40 32 19 40 32 19 40 32 19 40 32 19 40 32 19 40 32 19 40 32 19
40 32 19 40 32 19 40 32 19 40 32 19 40 32 19 40 32 19 40 0 0 0 0 0 0 0
0 0 0 0 0 0 0 0 0 0 0 0 0 0 0 0 0 0 0 0 0 0 0 0 0 0 0 0 0 0 0 0 0 0 0
0 0 0 0 0 0 0 0 0 0 0 0 0 0 0 0 0 0 0 0 0 0 0 0 0 0 0 0 0 0 0 0 0 0 0
0 0 0 0 0 0 0 0 0 0 0 0 0 0 0 0 0 0 0 0 0 0 0 0 0 0 0 0 0 0 0 0 0 0 0
0 0 0 0 0 0 0 0 0 0 0 0 0 0 0 0 0 0 0 0 0 0 0 0 0 0 0 0 0 0 0 0 0 0 0
0 0 0 0 0 0 0 0 0 0 0 0 0 0 0 0 0 0 0 0 0 0 0 0 0 0 0 0 0 0 0 0 0 0 0
0 0 0 0 0 0 0 0 0 0 0 0 0 0 0 0 0 0 0 0 0 0 0 0 0 0 0 0 0 0 0 0 0 0 0
0 0 0 0 0 0 0 0 0 0 0 0 0 0 0 0 0 0 0 0 0 0 0 0 0 0 0 0 0 0 0 0 0 0 0
0 0 0 0 0 0 0 0 0 0 0 0 0 0 0 0 0 0 0 0 0 0 0 0 0 0 0 0 0 0 0 0 0 0 0
0 0 0 0 0 0 0 0 0 0 0 0 0 0 0 0 0 0 0 0 0 0 0 0 0 0 0 0 0 0 0 0 0 0 0
0 0 0 0 0 0 0 0 0 0 0 0 0 0 0 0 0 0 0 0 0 0 0 0 0 0 0 0 0 0 0 0 0 0 0
0 0 0 0 0 0 0 0 0 0 0 0 0 0 0 0 0 0 0 0 0 0 0 0 0 0 0 0 0 0 0 0 0 0 0
0 0 0 0 0 0 0 0 0 0 0 0 0 0 0 0 0 0 0 0 0 0 0 0 0 0 0 0 0 0 0 0 0 0 0
0 0 0 0 0 0 0 0 0 0 0 0 0 0 0 0 0 0 0 0 0 0 0 0 0 0 0 0 0 0 0 0 0 0 0
0 0 0 0 0 0 0 0 0 0 0 0 0 0 0 0 0 0 0 0 0 0 0 0 0 0 0 0 0 0 0 0 0 0 0
0 0 0 0 0 0 0 0 0 0 0 0 0 0 0 0 0 0 0 0 0 0 0 0 0 0 0 0 0 0 0 0 0 0 0
0 0 0 0 0 0 0 0 0 0 0 0 0 0 0 0 0 0 0 0 0 0 0 0 0 0 0 0 0 0 0 0 0 0 0
0 0 0 0 0 0 0 0 0 0 0 0 0 0 0 0 0 0 0 0 0 0 0 0 0 0 0 0 0 0 0 0 0 0 0
0 0 0 0 0 0 0 0 0 0 0 0 0 0 0 0 0 0 0 0 0 0 0 0 0 0 0 0 0 0 0 0 0 0 0
0 0 0 0 0 0 0 0 0 0 0
0 0 0 0 0 0 0 0 0 0 0 0 0 0 0 0 0 0 0 0 0 0 0 0 0 0 0 0 0 0 0 0 0 0 0
0 0 0 0 0 0 0 0 0 0 0 0 0 0 0 0 0 0 0 0 0 0 0 0 0 0 0 0 0 0 0 0 0 0 0
0 0 0 0 0 0 0 0 0 0 0 0 0 0 0 0 0 0 0 0 0 0 0 0 0 0 0 0 0 0 0 0 0 0 0
0 0 0 0 0 0 0 0 0 0 0 0 0 0 0 0 0 0 0 0 0 0 0 0 0 0 0 0 0 0 0 0 0 0 0
0 0 0 0 0 0 0 0 0 0 0 0 0 0 0 0 0 0 0 0 0 0 0 0 0 0 0 0 0 0 0 0 0 0 0
0 0 0 0 0 0 0 0 0 0 0 0 0 0 0 0 0 0 0 0 0 0 0 0 0 0 0 0 0 0 0 0 0 0 0
0 0 0 0 0 0 0 0 0 0 0 0 0 0 0 0 0 0 0 0 0 0 0 0 0 0 0 0 0 0 0 0 0 0 0
0 0 0 0 0 0 0 0 0 0 0 0 0 0 0 0 0 0 0 0 0 0 0 0 0 0 0 0 0 0 0 0 0 0 0
0 0 0 0 0 0 0 0 0 0 0 0 0 0 0 0 0 0 0 0 0 0 0 0 0 0 0 0 0 0 0 0 0 0 0
0 0 0 0 0 0 0 0 0 0 0 0 0 0 0 0 0 0 0 0 0 0 0 0 0 0 0 0 0 0 0 0 0 0 0
0 0 0 0 0 0 0 0 0 0 0 0 0 0 0 0 0 0 0 0 0 0 0 0 0 0 0 0 0 0 0 0 0 0 0
0 0 0 0 0 0 0 0 0 0 0 0 0 0 0 0 0 0 0 0 0 0 0 0 0 0 0 0 0 32 28 88 32
28 89 32 28 88 32 28 88 32 28 86 32 28 85 32 27 84 32 27 82 32 27 81
32 26 79 32 26 78 32 26 76 32 25 74 32 25 72 32 25 71 32 24 69 32 24
67 32 24 65 32 23 63 32 23 61 32 22 59 32 22 57 32 22 55 32 21 53 32
21 51 32 21 49 32 20 47 32 20 45 32 19 43 32 19 41 32 19 40 32 19 40
32 19 40 32 19 40 32 19 40 32 19 40 32 19 40 32 19 40 32 19 40 32 19
40 32 19 40 32 19 40 32 19 40 32 19 40 32 19 40 32 19 40 0 0 0 0 0 0 0
0 0 0 0 0 0 0 0 0 0 0 0 0 0 0 0 0 0 0 0 0 0 0 0 0 0 0 0 0 0 0 0 0 0 0
0 0 0 0 0 0 0 0 0 0 0 0 0 0 0 0 0 0 0 0 0 0 0 0 0 0 0 0 0 0 0 0 0 0 0
0 0 0 0 0 0 0 0 0 0 0 0 0 0 0 0 0 0 0 0 0 0 0 0 0 0 0 0 0 0 0 0 0 0 0
0 0 0 0 0 0 0 0 0 0 0 0 0 0 0 0 0 0 0 0 0 0 0 0 0 0 0 0 0 0 0 0 0 0 0
0 0 0 0 0 0 0 0 0 0 0 0 0 0 0 0 0 0 0 0 0 0 0 0 0 0 0 0 0 0 0 0 0 0 0
0 0 0 0 0 0 0 0 0 0 0 0 0 0 0 0 0 0 0 0 0 0 0 0 0 0 0 0 0 0 0 0 0 0 0
0 0 0 0 0 0 0 0 0 0 0 0 0 0 0 0 0 0 0 0 0 0 0 0 0 0 0 0 0 0 0 0 0 0 0
0 0 0 0 0 0 0 0 0 0 0 0 0 0 0 0 0 0 0 0 0 0 0 0 0 0 0 0 0 0 0 0 0 0 0
0 0 0 0 0 0 0 0 0 0 0 0 0 0 0 0 0 0 0 0 0 0 0 0 0 0 0 0 0 0 0 0 0 0 0
0 0 0 0 0 0 0 0 0 0 0 0 0 0 0 0 0 0 0 0 0 0 0 0 0 0 0 0 0 0 0 0 0 0 0
0 0 0 0 0 0 0 0 0 0 0 0 0 0 0 0 0 0 0 0 0 0 0 0 0 0 0 0 0 0 0 0 0 0 0
0 0 0 0 0 0 0 0 0 0 0 0 0 0 0 0 0 0 0 0 0 0 0 0 0 0 0 0 0 0 0 0 0 0 0
0 0 0 0 0 0 0 0 0 0 0 0 0 0 0 0 0 0 0 0 0 0 0 0 0 0 0 0 0 0 0 0 0 0 0
0 0 0 0 0 0 0 0 0 0 0 0 0 0 0 0 0 0 0 0 0 0 0 0 0 0 0 0 0 0 0 0 0 0 0
0 0 0 0 0 0 0 0 0 0 0 0 0 0 0 0 0 0 0 0 0 0 0 0 0 0 0 0 0 0 0 0 0 0 0
0 0 0 0 0 0 0 0 0 0 0 0 0 0 0 0 0 0 0 0 0 0 0 0 0 0 0 0 0 0 0 0 0 0 0
0 0 0 0 0 0 0 0 0 0 0 0 0 0 0 0 0 0 0 0 0 0 0 0 0 0 0 0 0 0 0 0 0 0 0
0 0 0 0 0 0 0 0 0 0 0 0 0 0 0 0 0 0 0 0 0 0 0 0 0 0 0 0 0 0 0 0 0 0 0
0 0 0 0 0 0 0 0 0 0 0
0 0 0 0 0 0 0 0 0 0 0 0 0 0 0 0 0 0 0 0 0 0 0 0 0 0 0 0 0 0 0 0 0 0 0
0 0 0 0 0 0 0 0 0 0 0 0 0 0 0 0 0 0 0 0 0 0 0 0 0 0 0 0 0 0 0 0 0 0 0
0 0 0 0 0 0 0 0 0 0 0 0 0 0 0 0 0 0 0 0 0 0 0 0 0 0 0 0 0 0 0 0 0 0 0
0 0 0 0 0 0 0 0 0 0 0 0 0 0 0 0 0 0 0 0 0 0 0 0 0 0 0 0 0 0 0 0 0 0 0
0 0 0 0 0 0 0 0 0 0 0 0 0 0 0 0 0 0 0 0 0 0 0 0 0 0 0 0 0 0 0 0 0 0 0
0 0 0 0 0 0 0 0 0 0 0 0 0 0 0 0 0 0 0 0 0 0 0 0 0 0 0 0 0 0 0 0 0 0 0
0 0 0 0 0 0 0 0 0 0 0 0 0 0 0 0 0 0 0 0 0 0 0 0 0 0 0 0 0 0 0 0 0 0 0
0 0 0 0 0 0 0 0 0 0 0 0 0 0 0 0 0 0 0 0 0 0 0 0 0 0 0 0 0 0 0 0 0 0 0
0 0 0 0 0 0 0 0 0 0 0 0 0 0 0 0 0 0 0 0 0 0 0 0 0 0 0 0 0 0 0 0 0 0 0
0 0 0 0 0 0 0 0 0 0 0 0 0 0 0 0 0 0 0 0 0 0 0 0 0 0 0 0 0 0 0 0 0 0 0
0 0 0 0 0 0 0 0 0 0 0 0 0 0 0 0 0 0 0 0 0 0 0 0 0 0 0 0 0 0 0 0 0 0 0
0 0 0 0 0 0 0 0 0 0 0 0 0 0 0 0 0 0 0 0 0 0 0 0 0 0 0 0 0 32 28 85 32
28 88 32 28 88 32 28 87 32 28 86 32 28 85 32 27 83 32 27 82 32 27 81
32 26 79 32 26 77 32 26 76 32 25 74 32 25 72 32 25 70 32 24 69 32 24
67 32 24 65 22 17 135 22 17 133 22 17 131 22 17 128 22 16 125 22 16
123 22 16 120 22 16 117 22 16 114 22 16 111 22 16 108 22 15 105 22 15
102 22 15 99 22 15 99 22 15 99 22 15 99 32 19 40 32 19 40 32 19 40 32
19 40 32 19 40 32 19 40 32 19 40 32 19 40 32 19 40 32 19 40 32 19 40 0
0 0 0 0 0 0 0 0 0 0 0 0 0 0 0 0 0 0 0 0 0 0 0 0 0 0 0 0 0 0 0 0 0 0 0
0 0 0 0 0 0 0 0 0 0 0 0 0 0 0 0 0 0 0 0 0 0 0 0 0 0 0 0 0 0 0 0 0 0 0
0 0 0 0 0 0 0 0 0 0 0 0 0 0 0 0 0 0 0 0 0 0 0 0 0 0 0 0 0 0 0 0 0 0 0
0 0 0 0 0 0 0 0 0 0 0 0 0 0 0 0 0 0 0 0 0 0 0 0 0 0 0 0 0 0 0 0 0 0 0
0 0 0 0 0 0 0 0 0 0 0 0 0 0 0 0 0 0 0 0 0 0 0 0 0 0 0 0 0 0 0 0 0 0 0
0 0 0 0 0 0 0 0 0 0 0 0 0 0 0 0 0 0 0 0 0 0 0 0 0 0 0 0 0 0 0 0 0 0 0
0 0 0 0 0 0 0 0 0 0 0 0 0 0 0 0 0 0 0 0 0 0 0 0 0 0 0 0 0 0 0 0 0 0 0
0 0 0 0 0 0 0 0 0 0 0 0 0 0 0 0 0 0 0 0 0 0 0 0 0 0 0 0 0 0 0 0 0 0 0
0 0 0 0 0 0 0 0 0 0 0 0 0 0 0 0 0 0 0 0 0 0 0 0 0 0 0 0 0 0 0 0 0 0 0
0 0 0 0 0 0 0 0 0 0 0 0 0 0 0 0 0 0 0 0 0 0 0 0 0 0 0 0 0 0 0 0 0 0 0
0 0 0 0 0 0 0 0 0 0 0 0 0 0 0 0 0 0 0 0 0 0 0 0 0 0 0 0 0 0 0 0 0 0 0
0 0 0 0 0 0 0 0 0 0 0 0 0 0 0 0 0 0 0 0 0 0 0 0 0 0 0 0 0 0 0 0 0 0 0
0 0 0 0 0 0 0 0 0 0 0 0 0 0 0 0 0 0 0 0 0 0 0 0 0 0 0 0 0 0 0 0 0 0 0
0 0 0 0 0 0 0 0 0 0 0 0 0 0 0 0 0 0 0 0 0 0 0 0 0 0 0 0 0 0 0 0 0 0 0
0 0 0 0 0 0 0 0 0 0 0 0 0 0 0 0 0 0 0 0 0 0 0 0 0 0 0 0 0 0 0 0 0 0 0
0 0 0 0 0 0 0 0 0 0 0 0 0 0 0 0 0 0 0 0 0 0 0 0 0 0 0 0 0 0 0 0 0 0 0
0 0 0 0 0 0 0 0 0 0 0 0 0 0 0 0 0 0 0 0 0 0 0 0 0 0 0 0 0 0 0 0 0 0 0
0 0 0 0 0 0 0 0 0 0 0 0 0 0 0 0 0 0 0 0 0 0 0 0 0 0 0 0 0 0 0 0 0 0 0
0 0 0 0 0 0 0 0 0 0 0 0 0 0 0 0 0
0 0 0 0 0 0 0 0 0 0 0 0 0 0 0 0 0 0 0 0 0 0 0 0 0 0 0 0 0 0 0 0 0 0 0
0 0 0 0 0 0 0 0 0 0 0 0 0 0 0 0 0 0 0 0 0 0 0 0 0 0 0 0 0 0 0 0 0 0 0
0 0 0 0 0 0 0 0 0 0 0 0 0 0 0 0 0 0 0 0 0 0 0 0 0 0 0 0 0 0 0 0 0 0 0
0 0 0 0 0 0 0 0 0 0 0 0 0 0 0 0 0 0 0 0 0 0 0 0 0 0 0 0 0 0 0 0 0 0 0
0 0 0 0 0 0 0 0 0 0 0 0 0 0 0 0 0 0 0 0 0 0 0 0 0 0 0 0 0 0 0 0 0 0 0
0 0 0 0 0 0 0 0 0 0 0 0 0 0 0 0 0 0 0 0 0 0 0 0 0 0 0 0 0 0 0 0 0 0 0
0 0 0 0 0 0 0 0 0 0 0 0 0 0 0 0 0 0 0 0 0 0 0 0 0 0 0 0 0 0 0 0 0 0 0
0 0 0 0 0 0 0 0 0 0 0 0 0 0 0 0 0 0 0 0 0 0 0 0 0 0 0 0 0 0 0 0 0 0 0
0 0 0 0 0 0 0 0 0 0 0 0 0 0 0 0 0 0 0 0 0 0 0 0 0 0 0 0 0 0 0 0 0 0 0
0 0 0 0 0 0 0 0 0 0 0 0 0 0 0 0 0 0 0 0 0 0 0 0 0 0 0 0 0 0 0 0 0 0 0
0 0 0 0 0 0 0 0 0 0 0 0 0 0 0 0 0 0 0 0 0 0 0 0 0 0 0 0 0 0 0 0 0 0 0
0 0 0 0 0 0 0 0 0 0 0 0 0 0 0 0 0 0 0 0 0 0 0 0 0 0 0 0 0 0 0 0 32 28
86 32 28 87 32 28 86 32 28 85 32 27 84 32 27 83 32 27 82 32 27 80 32
26 79 32 26 77 32 26 75 32 25 74 22 18 149 22 18 147 22 17 146 22 17
143 22 17 141 22 17 139 22 17 136 22 17 134 22 17 131 22 17 128 22 16
126 22 16 123 22 16 120 22 16 117 22 16 114 22 16 111 22 16 108 22 15
105 22 15 102 19 16 115 19 16 115 19 16 115 19 16 115 19 16 115 19 16
115 22 15 99 32 19 40 32 19 40 32 19 40 32 19 40 32 19 40 32 19 40 0 0
0 0 0 0 0 0 0 0 0 0 0 0 0 0 0 0 0 0 0 0 0 0 0 0 0 0 0 0 0 0 0 0 0 0 0
0 0 0 0 0 0 0 0 0 0 0 0 0 0 0 0 0 0 0 0 0 0 0 0 0 0 0 0 0 0 0 0 0 0 0
0 0 0 0 0 0 0 0 0 0 0 0 0 0 0 0 0 0 0 0 0 0 0 0 0 0 0 0 0 0 0 0 0 0 0
0 0 0 0 0 0 0 0 0 0 0 0 0 0 0 0 0 0 0 0 0 0 0 0 0 0 0 0 0 0 0 0 0 0 0
0 0 0 0 0 0 0 0 0 0 0 0 0 0 0 0 0 0 0 0 0 0 0 0 0 0 0 0 0 0 0 0 0 0 0
0 0 0 0 0 0 0 0 0 0 0 0 0 0 0 0 0 0 0 0 0 0 0 0 0 0 0 0 0 0 0 0 0 0 0
0 0 0 0 0 0 0 0 0 0 0 0 0 0 0 0 0 0 0 0 0 0 0 0 0 0 0 0 0 0 0 0 0 0 0
0 0 0 0 0 0 0 0 0 0 0 0 0 0 0 0 0 0 0 0 0 0 0 0 0 0 0 0 0 0 0 0 0 0 0
0 0 0 0 0 0 0 0 0 0 0 0 0 0 0 0 0 0 0 0 0 0 0 0 0 0 0 0 0 0 0 0 0 0 0
0 0 0 0 0 0 0 0 0 0 0 0 0 0 0 0 0 0 0 0 0 0 0 0 0 0 0 0 0 0 0 0 0 0 0
0 0 0 0 0 0 0 0 0 0 0 0 0 0 0 0 0 0 0 0 0 0 0 0 0 0 0 0 0 0 0 0 0 0 0
0 0 0 0 0 0 0 0 0 0 0 0 0 0 0 0 0 0 0 0 0 0 0 0 0 0 0 0 0 0 0 0 0 0 0
0 0 0 0 0 0 0 0 0 0 0 0 0 0 0 0 0 0 0 0 0 0 0 0 0 0 0 0 0 0 0 0 0 0 0
0 0 0 0 0 0 0 0 0 0 0 0 0 0 0 0 0 0 0 0 0 0 0 0 0 0 0 0 0 0 0 0 0 0 0
0 0 0 0 0 0 0 0 0 0 0 0 0 0 0 0 0 0 0 0 0 0 0 0 0 0 0 0 0 0 0 0 0 0 0
0 0 0 0 0 0 0 0 0 0 0 0 0 0 0 0 0 0 0 0 0 0 0 0 0 0 0 0 0 0 0 0 0 0 0
0 0 0 0 0 0 0 0 0 0 0 0 0 0 0 0 0 0 0 0 0 0 0 0 0 0 0 0 0 0 0 0 0 0 0
0 0 0 0 0 0 0 0 0 0 0 0 0 0 0 0 0 0 0 0 0 0 0 0 0 0 0 0 0 0 0 0 0 0 0
0 0 0 0 0 0 0 0 0 0 0 0 0 0 0 0 0 0 0
0 0 0 0 0 0 0 0 0 0 0 0 0 0 0 0 0 0 0 0 0 0 0 0 0 0 0 0 0 0 0 0 0 0 0
0 0 0 0 0 0 0 0 0 0 0 0 0 0 0 0 0 0 0 0 0 0 0 0 0 0 0 0 0 0 0 0 0 0 0
0 0 0 0 0 0 0 0 0 0 0 0 0 0 0 0 0 0 0 0 0 0 0 0 0 0 0 0 0 0 0 0 0 0 0
0 0 0 0 0 0 0 0 0 0 0 0 0 0 0 0 0 0 0 0 0 0 0 0 0 0 0 0 0 0 0 0 0 0 0
0 0 0 0 0 0 0 0 0 0 0 0 0 0 0 0 0 0 0 0 0 0 0 0 0 0 0 0 0 0 0 0 0 0 0
0 0 0 0 0 0 0 0 0 0 0 0 0 0 0 0 0 0 0 0 0 0 0 0 0 0 0 0 0 0 0 0 0 0 0
0 0 0 0 0 0 0 0 0 0 0 0 0 0 0 0 0 0 0 0 0 0 0 0 0 0 0 0 0 0 0 0 0 0 0
0 0 0 0 0 0 0 0 0 0 0 0 0 0 0 0 0 0 0 0 0 0 0 0 0 0 0 0 0 0 0 0 0 0 0
0 0 0 0 0 0 0 0 0 0 0 0 0 0 0 0 0 0 0 0 0 0 0 0 0 0 0 0 0 0 0 0 0 0 0
0 0 0 0 0 0 0 0 0 0 0 0 0 0 0 0 0 0 0 0 0 0 0 0 0 0 0 0 0 0 0 0 0 0 0
0 0 0 0 0 0 0 0 0 0 0 0 0 0 0 0 0 0 0 0 0 0 0 0 0 0 0 0 0 0 0 0 0 0 0
0 0 0 0 0 0 0 0 0 0 0 0 0 0 0 0 0 0 0 0 0 0 0 0 0 0 0 0 0 0 0 0 32 27
82 32 28 85 32 28 85 32 27 84 32 27 84 32 27 82 32 27 81 32 26 80 32
26 78 22 18 158 19 17 170 19 17 168 21 20 169 21 20 167 21 19 164 21
19 162 21 19 159 21 19 157 21 19 154 21 19 151 21 19 149 21 19 146 21
18 143 21 18 141 21 18 138 21 18 135 21 18 132 21 18 129 19 16 126 19
16 123 19 16 119 19 16 116 19 16 115 19 16 115 19 16 115 19 16 115 19
16 115 19 16 115 19 16 115 19 16 115 19 16 115 32 19 40 32 19 40 32 19
40 0 0 0 0 0 0 0 0 0 0 0 0 0 0 0 0 0 0 0 0 0 0 0 0 0 0 0 0 0 0 0 0 0 0
0 0 0 0 0 0 0 0 0 0 0 0 0 0 0 0 0 0 0 0 0 0 0 0 0 0 0 0 0 0 0 0 0 0 0
0 0 0 0 0 0 0 0 0 0 0 0 0 0 0 0 0 0 0 0 0 0 0 0 0 0 0 0 0 0 0 0 0 0 0
0 0 0 0 0 0 0 0 0 0 0 0 0 0 0 0 0 0 0 0 0 0 0 0 0 0 0 0 0 0 0 0 0 0 0
0 0 0 0 0 0 0 0 0 0 0 0 0 0 0 0 0 0 0 0 0 0 0 0 0 0 0 0 0 0 0 0 0 0 0
0 0 0 0 0 0 0 0 0 0 0 0 0 0 0 0 0 0 0 0 0 0 0 0 0 0 0 0 0 0 0 0 0 0 0
0 0 0 0 0 0 0 0 0 0 0 0 0 0 0 0 0 0 0 0 0 0 0 0 0 0 0 0 0 0 0 0 0 0 0
0 0 0 0 0 0 0 0 0 0 0 0 0 0 0 0 0 0 0 0 0 0 0 0 0 0 0 0 0 0 0 0 0 0 0
0 0 0 0 0 0 0 0 0 0 0 0 0 0 0 0 0 0 0 0 0 0 0 0 0 0 0 0 0 0 0 0 0 0 0
0 0 0 0 0 0 0 0 0 0 0 0 0 0 0 0 0 0 0 0 0 0 0 0 0 0 0 0 0 0 0 0 0 0 0
0 0 0 0 0 0 0 0 0 0 0 0 0 0 0 0 0 0 0 0 0 0 0 0 0 0 0 0 0 0 0 0 0 0 0
0 0 0 0 0 0 0 0 0 0 0 0 0 0 0 0 0 0 0 0 0 0 0 0 0 0 0 0 0 0 0 0 0 0 0
0 0 0 0 0 0 0 0 0 0 0 0 0 0 0 0 0 0 0 0 0 0 0 0 0 0 0 0 0 0 0 0 0 0 0
0 0 0 0 0 0 0 0 0 0 0 0 0 0 0 0 0 0 0 0 0 0 0 0 0 0 0 0 0 0 0 0 0 0 0
0 0 0 0 0 0 0 0 0 0 0 0 0 0 0 0 0 0 0 0 0 0 0 0 0 0 0 0 0 0 0 0 0 0 0
0 0 0 0 0 0 0 0 0 0 0 0 0 0 0 0 0 0 0 0 0 0 0 0 0 0 0 0 0 0 0 0 0 0 0
0 0 0 0 0 0 0 0 0 0 0 0 0 0 0 0 0 0 0 0 0 0 0 0 0 0 0 0 0 0 0 0 0 0 0
0 0 0 0 0 0 0 0 0 0 0 0 0 0 0 0 0 0 0 0 0 0 0 0 0 0 0 0 0 0 0 0 0 0 0
0 0 0 0 0 0 0 0 0 0 0 0 0 0 0 0 0 0 0 0 0 0
0 0 0 0 0 0 0 0 0 0 0 0 0 0 0 0 0 0 0 0 0 0 0 0 0 0 0 0 0 0 0 0 0 0 0
0 0 0 0 0 0 0 0 0 0 0 0 0 0 0 0 0 0 0 0 0 0 0 0 0 0 0 0 0 0 0 0 0 0 0
0 0 0 0 0 0 0 0 0 0 0 0 0 0 0 0 0 0 0 0 0 0 0 0 0 0 0 0 0 0 0 0 0 0 0
0 0 0 0 0 0 0 0 0 0 0 0 0 0 0 0 0 0 0 0 0 0 0 0 0 0 0 0 0 0 0 0 0 0 0
0 0 0 0 0 0 0 0 0 0 0 0 0 0 0 0 0 0 0 0 0 0 0 0 0 0 0 0 0 0 0 0 0 0 0
0 0 0 0 0 0 0 0 0 0 0 0 0 0 0 0 0 0 0 0 0 0 0 0 0 0 0 0 0 0 0 0 0 0 0
0 0 0 0 0 0 0 0 0 0 0 0 0 0 0 0 0 0 0 0 0 0 0 0 0 0 0 0 0 0 0 0 0 0 0
0 0 0 0 0 0 0 0 0 0 0 0 0 0 0 0 0 0 0 0 0 0 0 0 0 0 0 0 0 0 0 0 0 0 0
0 0 0 0 0 0 0 0 0 0 0 0 0 0 0 0 0 0 0 0 0 0 0 0 0 0 0 0 0 0 0 0 0 0 0
0 0 0 0 0 0 0 0 0 0 0 0 0 0 0 0 0 0 0 0 0 0 0 0 0 0 0 0 0 0 0 0 0 0 0
0 0 0 0 0 0 0 0 0 0 0 0 0 0 0 0 0 0 0 0 0 0 0 0 0 0 0 0 0 0 0 0 0 0 0
0 0 0 0 0 0 0 0 0 0 0 0 0 0 0 0 0 0 0 0 0 0 0 0 0 0 0 0 0 0 0 0 0 0 0
32 27 83 32 27 84 32 27 84 32 27 83 32 27 82 19 18 177 19 18 178 21 19
177 21 20 178 21 20 176 21 20 173 21 20 171 21 20 169 21 20 166 21 19
164 21 19 161 21 19 159 21 19 156 21 19 153 21 19 150 21 19 148 21 18
145 21 18 142 21 18 139 21 18 136 21 18 134 21 18 131 21 18 128 21 17
125 21 17 122 21 17 119 19 16 115 19 16 114 19 16 115 19 16 115 19 16
115 19 16 115 19 16 115 19 16 115 19 16 115 19 16 115 19 16 115 0 0 0
0 0 0 0 0 0 0 0 0 0 0 0 0 0 0 0 0 0 0 0 0 0 0 0 0 0 0 0 0 0 0 0 0 0 0
0 0 0 0 0 0 0 0 0 0 0 0 0 0 0 0 0 0 0 0 0 0 0 0 0 0 0 0 0 0 0 0 0 0 0
0 0 0 0 0 0 0 0 0 0 0 0 0 0 0 0 0 0 0 0 0 0 0 0 0 0 0 0 0 0 0 0 0 0 0
0 0 0 0 0 0 0 0 0 0 0 0 0 0 0 0 0 0 0 0 0 0 0 0 0 0 0 0 0 0 0 0 0 0 0
0 0 0 0 0 0 0 0 0 0 0 0 0 0 0 0 0 0 0 0 0 0 0 0 0 0 0 0 0 0 0 0 0 0 0
0 0 0 0 0 0 0 0 0 0 0 0 0 0 0 0 0 0 0 0 0 0 0 0 0 0 0 0 0 0 0 0 0 0 0
0 0 0 0 0 0 0 0 0 0 0 0 0 0 0 0 0 0 0 0 0 0 0 0 0 0 0 0 0 0 0 0 0 0 0
0 0 0 0 0 0 0 0 0 0 0 0 0 0 0 0 0 0 0 0 0 0 0 0 0 0 0 0 0 0 0 0 0 0 0
0 0 0 0 0 0 0 0 0 0 0 0 0 0 0 0 0 0 0 0 0 0 0 0 0 0 0 0 0 0 0 0 0 0 0
0 0 0 0 0 0 0 0 0 0 0 0 0 0 0 0 0 0 0 0 0 0 0 0 0 0 0 0 0 0 0 0 0 0 0
0 0 0 0 0 0 0 0 0 0 0 0 0 0 0 0 0 0 0 0 0 0 0 0 0 0 0 0 0 0 0 0 0 0 0
0 0 0 0 0 0 0 0 0 0 0 0 0 0 0 0 0 0 0 0 0 0 0 0 0 0 0 0 0 0 0 0 0 0 0
0 0 0 0 0 0 0 0 0 0 0 0 0 0 0 0 0 0 0 0 0 0 0 0 0 0 0 0 0 0 0 0 0 0 0
0 0 0 0 0 0 0 0 0 0 0 0 0 0 0 0 0 0 0 0 0 0 0 0 0 0 0 0 0 0 0 0 0 0 0
0 0 0 0 0 0 0 0 0 0 0 0 0 0 0 0 0 0 0 0 0 0 0 0 0 0 0 0 0 0 0 0 0 0 0
0 0 0 0 0 0 0 0 0 0 0 0 0 0 0 0 0 0 0 0 0 0 0 0 0 0 0 0 0 0 0 0 0 0 0
0 0 0 0 0 0 0 0 0 0 0 0 0 0 0 0 0 0 0 0 0 0 0 0 0 0 0 0 0 0 0 0 0 0 0
0 0 0 0 0 0 0 0 0 0 0 0 0 0 0 0 0 0 0 0 0 0 0 0 0 0 0 0 0 0 0 0 0 0 0
0 0 0 0 0 0 0 0 0 0 0 0 0 0 0 0 0 0 0 0 0
0 0 0 0 0 0 0 0 0 0 0 0 0 0 0 0 0 0 0 0 0 0 0 0 0 0 0 0 0 0 0 0 0 0 0
0 0 0 0 0 0 0 0 0 0 0 0 0 0 0 0 0 0 0 0 0 0 0 0 0 0 0 0 0 0 0 0 0 0 0
0 0 0 0 0 0 0 0 0 0 0 0 0 0 0 0 0 0 0 0 0 0 0 0 0 0 0 0 0 0 0 0 0 0 0
0 0 0 0 0 0 0 0 0 0 0 0 0 0 0 0 0 0 0 0 0 0 0 0 0 0 0 0 0 0 0 0 0 0 0
0 0 0 0 0 0 0 0 0 0 0 0 0 0 0 0 0 0 0 0 0 0 0 0 0 0 0 0 0 0 0 0 0 0 0
0 0 0 0 0 0 0 0 0 0 0 0 0 0 0 0 0 0 0 0 0 0 0 0 0 0 0 0 0 0 0 0 0 0 0
0 0 0 0 0 0 0 0 0 0 0 0 0 0 0 0 0 0 0 0 0 0 0 0 0 0 0 0 0 0 0 0 0 0 0
0 0 0 0 0 0 0 0 0 0 0 0 0 0 0 0 0 0 0 0 0 0 0 0 0 0 0 0 0 0 0 0 0 0 0
0 0 0 0 0 0 0 0 0 0 0 0 0 0 0 0 0 0 0 0 0 0 0 0 0 0 0 0 0 0 0 0 0 0 0
0 0 0 0 0 0 0 0 0 0 0 0 0 0 0 0 0 0 0 0 0 0 0 0 0 0 0 0 0 0 0 0 0 0 0
0 0 0 0 0 0 0 0 0 0 0 0 0 0 0 0 0 0 0 0 0 0 0 0 0 0 0 0 0 0 0 0 0 0 0
0 0 0 0 0 0 0 0 0 0 0 0 0 0 0 0 0 0 0 0 0 0 0 0 0 0 0 0 0 0 0 0 0 0 0
0 0 0 32 27 82 32 27 82 19 18 182 21 20 185 21 20 184 21 20 184 21 20
182 21 20 180 21 20 178 21 20 175 21 20 173 21 20 170 21 20 168 21 19
165 21 19 163 21 19 160 21 19 157 21 19 154 21 19 152 21 19 149 21 18
146 21 18 143 21 18 141 21 18 138 21 18 135 21 18 132 21 18 129 21 17
126 21 17 123 21 17 120 21 17 117 19 16 114 19 16 114 19 16 114 19 16
114 19 16 115 19 16 115 19 16 115 19 16 115 19 16 115 19 16 115 19 16
115 19 16 115 0 0 0 0 0 0 0 0 0 0 0 0 0 0 0 0 0 0 0 0 0 0 0 0 0 0 0 0
0 0 0 0 0 0 0 0 0 0 0 0 0 0 0 0 0 0 0 0 0 0 0 0 0 0 0 0 0 0 0 0 0 0 0
0 0 0 0 0 0 0 0 0 0 0 0 0 0 0 0 0 0 0 0 0 0 0 0 0 0 0 0 0 0 0 0 0 0 0
0 0 0 0 0 0 0 0 0 0 0 0 0 0 0 0 0 0 0 0 0 0 0 0 0 0 0 0 0 0 0 0 0 0 0
0 0 0 0 0 0 0 0 0 0 0 0 0 0 0 0 0 0 0 0 0 0 0 0 0 0 0 0 0 0 0 0 0 0 0
0 0 0 0 0 0 0 0 0 0 0 0 0 0 0 0 0 0 0 0 0 0 0 0 0 0 0 0 0 0 0 0 0 0 0
0 0 0 0 0 0 0 0 0 0 0 0 0 0 0 0 0 0 0 0 0 0 0 0 0 0 0 0 0 0 0 0 0 0 0
0 0 0 0 0 0 0 0 0 0 0 0 0 0 0 0 0 0 0 0 0 0 0 0 0 0 0 0 0 0 0 0 0 0 0
0 0 0 0 0 0 0 0 0 0 0 0 0 0 0 0 0 0 0 0 0 0 0 0 0 0 0 0 0 0 0 0 0 0 0
0 0 0 0 0 0 0 0 0 0 0 0 0 0 0 0 0 0 0 0 0 0 0 0 0 0 0 0 0 0 0 0 0 0 0
0 0 0 0 0 0 0 0 0 0 0 0 0 0 0 0 0 0 0 0 0 0 0 0 0 0 0 0 0 0 0 0 0 0 0
0 0 0 0 0 0 0 0 0 0 0 0 0 0 0 0 0 0 0 0 0 0 0 0 0 0 0 0 0 0 0 0 0 0 0
0 0 0 0 0 0 0 0 0 0 0 0 0 0 0 0 0 0 0 0 0 0 0 0 0 0 0 0 0 0 0 0 0 0 0
0 0 0 0 0 0 0 0 0 0 0 0 0 0 0 0 0 0 0 0 0 0 0 0 0 0 0 0 0 0 0 0 0 0 0
0 0 0 0 0 0 0 0 0 0 0 0 0 0 0 0 0 0 0 0 0 0 0 0 0 0 0 0 0 0 0 0 0 0 0
0 0 0 0 0 0 0 0 0 0 0 0 0 0 0 0 0 0 0 0 0 0 0 0 0 0 0 0 0 0 0 0 0 0 0
0 0 0 0 0 0 0 0 0 0 0 0 0 0 0 0 0 0 0 0 0 0 0 0 0 0 0 0 0 0 0 0 0 0 0
0 0 0 0 0 0 0 0 0 0 0 0 0 0 0 0 0 0 0 0 0 0 0 0 0 0 0 0 0 0 0 0 0 0 0
0 0 0 0 0 0 0 0 0 0 0 0 0 0 0 0 0 0 0 0 0 0 0 0 0
19 24 18 19 24 18 19 24 18 19 24 18 19 24 18 19 24 18 19 24 18 19 24
18 19 24 18 19 24 18 19 24 18 19 24 18 19 24 18 19 24 18 19 24 18 19
24 18 19 24 18 19 24 18 19 24 18 19 24 18 19 24 18 19 24 18 19 24 18
19 24 18 19 24 18 19 24 18 19 24 18 19 24 18 19 24 18 19 24 18 19 24
18 19 24 18 19 24 18 19 24 18 19 24 18 19 24 18 19 24 18 19 24 18 19
24 18 19 24 18 19 24 18 19 24 18 19 24 18 19 24 18 19 24 18 19 24 18
19 24 18 19 24 18 19 24 18 19 24 18 19 24 18 19 24 18 19 24 18 19 24
18 19 24 18 19 24 18 19 24 18 19 24 18 19 24 18 19 24 18 19 24 18 19
24 18 19 24 18 19 24 18 19 24 18 19 24 18 19 24 18 19 24 18 19 24 18
19 24 18 19 24 18 19 24 18 19 24 18 19 24 18 19 24 18 19 24 18 19 24
18 19 24 18 19 24 18 19 24 18 19 24 18 19 24 18 19 24 18 19 24 18 19
24 18 19 24 18 19 24 18 19 24 18 19 24 18 19 24 18 19 24 18 19 24 18
19 24 18 19 24 18 19 24 18 19 24 18 19 24 18 19 24 18 19 24 18 19 24
18 19 24 18 19 24 18 19 24 18 19 24 18 19 24 18 19 24 18 19 24 18 19
24 18 19 24 18 19 24 18 19 24 18 19 24 18 19 24 18 19 24 18 19 24 18
19 24 18 19 24 18 19 24 18 19 24 18 19 24 18 19 24 18 19 24 18 19 24
18 19 24 18 19 24 18 19 24 18 19 24 18 19 24 18 19 24 18 19 24 18 19
24 18 19 24 18 19 24 18 19 24 18 19 24 18 19 24 18 19 24 18 19 24 18
19 24 18 19 24 18 19 24 18 32 26 78 21 20 190 21 20 190 21 20 188 21
21 188 21 21 186 21 20 184 21 20 182 21 20 179 21 20 177 21 20 174 21
20 172 21 20 169 21 19 166 21 19 164 21 19 161 21 19 158 21 19 156 21
19 153 21 19 150 21 18 147 21 18 144 21 18 142 21 18 139 21 18 136 21
18 133 21 18 130 21 17 127 21 17 124 21 17 121 21 17 118 21 17 115 19
16 114 19 16 114 19 16 114 19 16 114 19 16 114 19 16 115 19 16 115 19
16 115 19 16 115 19 16 115 19 16 115 19 16 115 19 24 18 19 24 18 19 24
18 19 24 18 19 24 18 19 24 18 19 24 18 19 24 18 19 24 18 19 24 18 19
24 18 19 24 18 19 24 18 19 24 18 19 24 18 19 24 18 19 24 18 19 24 18
19 24 18 19 24 18 19 24 18 19 24 18 19 24 18 19 24 18 19 24 18 19 24
18 19 24 18 19 24 18 19 24 18 19 24 18 19 24 18 19 24 18 19 24 18 19
24 18 19 24 18 19 24 18 19 24 18 19 24 18 19 24 18 19 24 18 19 24 18
19 24 18 19 24 18 19 24 18 19 24 18 19 24 18 19 24 18 19 24 18 19 24
18 19 24 18 19 24 18 19 24 18 19 24 18 19 24 18 19 24 18 19 24 18 19
24 18 19 24 18 19 24 18 19 24 18 19 24 18 19 24 18 19 24 18 19 24 18
19 24 18 19 24 18 19 24 18 19 24 18 19 24 18 19 24 18 19 24 18 19 24
18 19 24 18 19 24 18 19 24 18 19 24 18 19 24 18 19 24 18 19 24 18 19
24 18 19 24 18 19 24 18 19 24 18 19 24 18 19 24 18 19 24 18 19 24 18
19 24 18 19 24 18 19 24 18 19 24 18 19 24 18 19 24 18 19 24 18 19 24
18 19 24 18 19 24 18 19 24 18 19 24 18 19 24 18 19 24 18 19 24 18 19
24 18 19 24 18 19 24 18 19 24 18 19 24 18 19 24 18 19 24 18 19 24 18
19 24 18 19 24 18 19 24 18 19 24 18 19 24 18 19 24 18 19 24 18 19 24
18 19 24 18 19 24 18 19 24 18 19 24 18 19 24 18 19 24 18 19 24 18 19
24 18 19 24 18 19 24 18 19 24 18 19 24 18 19 24 18 19 24 18 19 24 18
19 24 18 19 24 18 19 24 18 19 24 18 19 24 18 19 24 18 19 24 18 19 24
18 19 24 18 19 24 18 19 24 18 19 24 18 19 24 18 19 24 18 19 24 18 19
24 18 19 24 18 19 24 18 19 24 18 19 24 18 19 24 18 19 24 18 19 24 18
19 24 18 19 24 18 19 24 18 19 24 18 19 24 18 19 24 18 19 24 18 19 24
18 19 24 18 19 24 18 19 24 18 19 24 18 19 24 18 19 24 18 19 24 18 19
24 18 19 24 18 19 24 18 19 24 18 19 24 18 19 24 18 19 24 18 19 24 18
19 24 18 19 24 18 19 24 18 19 24 18 19 24 18 19 24 18 19 24 18 19 24
18 19 24 18 19 24 18 19 24 18 19 24 18 19 24 18 19 24 18 19 24 18 19
24 18 19 24 18 19 24 18 19 24 18 19 24 18 19 24 18 19 24 18 19 24 18
19 24 18 19 24 18 19 24 18 19 24 18 19 24 18 19 24 18 19 24 18 19 24
18 19 24 18 19 24 18 19 24 18 19 24 18 19 24 18
19 24 19 19 24 19 19 24 19 19 24 19 19 24 19 19 24 19 19 24 19 19 24
19 19 24 19 19 24 19 19 24 19 19 24 19 19 24 19 19 24 19 19 24 19 19
24 19 19 24 19 19 24 19 19 24 19 19 24 19 19 24 19 19 24 19 19 24 19
19 24 19 19 24 19 19 24 19 19 24 19 19 24 19 19 24 19 19 24 19 19 24
19 19 24 19 19 24 19 19 24 19 19 24 19 19 24 19 19 24 19 19 24 19 19
24 19 19 24 19 19 24 19 19 24 19 19 24 19 19 24 19 19 24 19 19 24 19
20 25 19 20 25 19 20 25 19 20 25 19 20 25 19 20 25 19 20 25 19 20 25
19 20 25 19 20 25 19 20 25 19 20 25 19 20 25 19 20 25 19 20 25 19 20
25 19 20 25 19 20 25 19 20 25 19 20 25 19 20 25 19 20 25 19 20 25 19
20 25 19 20 25 19 20 25 19 20 25 19 20 25 19 20 25 19 20 25 19 20 25
19 20 25 19 20 25 19 20 25 19 20 25 19 20 25 19 20 25 19 20 25 19 20
25 19 20 25 19 20 25 19 20 25 19 20 25 19 20 25 19 20 25 19 20 25 19
20 25 19 20 25 19 20 25 19 20 25 19 20 25 19 20 25 19 20 25 19 20 25
19 20 25 19 20 25 19 20 25 19 20 25 19 20 25 19 20 25 19 20 25 19 20
25 19 20 25 19 20 25 19 20 25 19 20 25 19 20 25 19 20 25 19 20 25 19
20 25 19 20 25 19 20 25 19 20 25 19 20 25 19 20 25 19 20 25 19 20 25
19 20 25 19 20 25 19 20 25 19 20 25 19 20 25 19 20 25 19 20 25 19 20
25 19 20 25 19 20 25 19 20 25 19 20 25 19 20 25 19 20 25 19 20 25 19
20 25 19 20 25 19 21 20 194 21 20 195 21 20 194 21 21 194 21 21 192 21
21 190 21 21 188 21 20 186 21 20 183 21 20 181 21 20 178 21 20 175 21
20 173 21 20 170 21 20 167 21 19 165 21 19 162 21 19 159 21 19 156 21
19 154 21 19 151 21 19 148 21 18 145 21 18 142 21 18 140 21 18 137 21
18 134 21 18 131 21 18 128 21 17 125 21 17 122 21 17 119 21 17 116 21
17 115 21 17 115 19 16 114 19 16 114 19 16 114 19 16 114 19 16 115 19
16 115 19 16 115 19 16 115 19 16 115 19 16 115 19 16 115 19 16 115 20
25 19 20 25 19 20 25 19 20 25 19 20 25 19 20 25 19 20 25 19 20 25 19
20 25 19 20 25 19 20 25 19 20 25 19 20 25 19 20 25 19 20 25 19 20 25
19 20 25 19 20 25 19 20 25 19 20 25 19 20 25 19 20 25 19 20 25 19 20
25 19 20 25 19 20 25 19 20 25 19 20 25 19 20 25 19 20 25 19 20 25 19
20 25 19 20 25 19 20 25 19 20 25 19 20 25 19 20 25 19 20 25 19 20 25
19 20 25 19 20 25 19 20 25 19 20 25 19 20 25 19 20 25 19 20 25 19 20
25 19 20 25 19 20 25 19 20 25 19 20 25 19 20 25 19 20 25 19 20 25 19
20 25 19 20 25 19 20 25 19 20 25 19 20 25 19 20 25 19 20 25 19 20 25
19 20 25 19 20 25 19 20 25 19 20 25 19 20 25 19 20 25 19 20 25 19 20
25 19 20 25 19 20 25 19 20 25 19 20 25 19 20 25 19 20 25 19 20 25 19
20 25 19 20 25 19 20 25 19 20 25 19 20 25 19 20 25 19 20 25 19 20 25
19 20 25 19 20 25 19 20 25 19 20 25 19 20 25 19 20 25 19 20 25 19 20
25 19 20 25 19 20 25 19 20 25 19 20 25 19 20 25 19 20 25 19 20 25 19
20 25 19 20 25 19 20 25 19 20 25 19 20 25 19 20 25 19 20 25 19 20 25
19 20 25 19 20 25 19 20 25 19 20 25 19 20 25 19 20 25 19 20 25 19 20
25 19 20 25 19 20 25 19 20 25 19 20 25 19 20 25 19 20 25 19 20 25 19
20 25 19 20 25 19 20 25 19 20 25 19 20 25 19 20 25 19 20 25 19 20 25
19 20 25 19 20 25 19 20 25 19 20 25 19 20 25 19 20 25 19 20 25 19 20
25 19 20 25 19 20 25 19 20 25 19 20 25 19 20 25 19 20 25 19 20 25 19
20 25 19 20 25 19 20 25 19 20 25 19 20 25 19 20 25 19 20 25 19 20 25
19 20 25 19 20 25 19 20 25 19 20 25 19 20 25 19 20 25 19 20 25 19 20
25 19 20 25 19 20 25 19 20 25 19 20 25 19 20 25 19 20 25 19 20 25 19
20 25 19 20 25 19 20 25 19 20 25 19 20 25 19 20 25 19 20 24 19 20 24
19 20 24 19 20 24 19 20 24 19 20 24 19 20 24 19 20 24 19 20 24 19 20
24 19 20 24 19 20 24 19 20 24 19 20 24 19 20 24 19 20 24 19 20 24 19
20 24 19 20 24 19 20 24 19 20 24 19 20 24 19 20 24 19 20 24 19 20 24
19 20 24 19 20 24 19 20 24 19 20 24 19 20 24 19 20 24 19 20 24 19 20
24 19 20 24 19 20 24 19 20 24 19 20 24 19 20 24 19
19 24 19 19 24 19 19 24 19 19 24 19 19 24 19 19 24 19 19 24 19 19 24
19 19 24 19 19 24 19 19 24 19 19 24 19 19 24 19 19 24 19 19 24 19 19
24 19 19 24 19 19 24 19 19 24 19 19 24 19 19 24 19 19 24 19 19 24 19
19 24 19 19 24 19 19 24 19 19 24 19 19 24 19 19 24 19 19 24 19 19 24
19 19 24 19 19 24 19 19 24 19 19 24 19 19 24 19 19 24 19 19 24 19 19
24 19 19 24 19 19 24 19 19 24 19 19 24 19 19 24 19 19 24 19 19 24 19
19 24 19 19 24 19 19 24 19 20 25 19 20 25 19 20 25 19 20 25 19 20 25
19 20 25 19 20 25 19 20 25 19 20 25 19 20 25 19 20 25 19 20 25 19 20
25 19 20 25 19 20 25 19 20 25 19 20 25 19 20 25 19 20 25 19 20 25 19
20 25 19 20 25 19 20 25 19 20 25 19 20 25 19 20 25 19 20 25 19 20 25
19 20 25 19 20 25 19 20 25 19 20 25 19 20 25 19 20 25 19 20 25 19 20
25 19 20 25 19 20 25 19 20 25 19 20 25 19 20 25 19 20 25 19 20 25 19
20 25 19 20 25 19 20 25 19 20 25 19 20 25 19 20 25 19 20 25 19 20 25
19 20 25 19 20 25 19 20 25 19 20 25 19 20 25 19 20 25 19 20 25 19 20
25 19 20 25 19 20 25 19 20 25 19 20 25 19 20 25 19 20 25 19 20 25 19
20 25 19 20 25 19 20 25 19 20 25 19 20 25 19 20 25 19 20 25 19 20 25
19 20 25 19 20 25 19 20 25 19 20 25 19 20 25 19 20 25 19 20 25 19 20
25 19 20 25 19 20 25 19 20 25 19 20 25 19 20 25 19 20 25 19 20 25 19
20 25 19 21 20 200 21 20 200 21 20 198 21 21 198 21 21 196 21 21 194
21 21 192 21 21 189 21 21 187 21 20 184 21 20 182 21 20 179 21 20 176
21 20 174 21 20 171 21 20 168 21 19 166 21 19 163 21 19 160 21 19 157
21 19 154 21 19 152 21 19 149 21 18 146 21 18 143 21 18 140 21 18 138
21 18 135 21 18 132 21 18 129 21 17 126 21 17 123 21 17 120 21 17 117
21 17 115 21 17 115 21 17 115 19 16 114 19 16 114 19 16 114 19 16 114
19 16 114 19 16 115 19 16 115 19 16 115 19 16 115 19 16 115 19 16 115
19 16 115 20 25 19 20 25 19 20 25 19 20 25 19 20 25 19 20 25 19 20 25
19 20 25 19 20 25 19 20 25 19 20 25 19 20 25 19 20 25 19 20 25 19 20
25 19 20 25 19 20 25 19 20 25 19 20 25 19 20 25 19 20 25 19 20 25 19
20 25 19 20 25 19 20 25 19 20 25 19 20 25 19 20 25 19 20 25 19 20 25
19 20 25 19 20 25 19 20 25 19 20 25 19 20 25 19 20 25 19 20 25 19 20
25 19 20 25 19 20 25 19 20 25 19 20 25 19 20 25 19 20 25 19 20 25 19
20 25 19 20 25 19 20 25 19 20 25 19 20 25 19 20 25 19 20 25 19 20 25
19 20 25 19 20 25 19 20 25 19 20 25 19 20 25 19 20 25 19 20 25 19 20
25 19 20 25 19 20 25 19 20 25 19 20 25 19 20 25 19 20 25 19 20 25 19
20 25 19 20 25 19 20 25 19 20 25 19 20 25 19 20 25 19 20 25 19 20 25
19 20 25 19 20 25 19 20 25 19 20 25 19 20 25 19 20 25 19 20 25 19 20
25 19 20 25 19 20 25 19 20 25 19 20 25 19 20 25 19 20 25 19 20 25 19
20 25 19 20 25 19 20 25 19 20 25 19 20 25 19 20 25 19 20 25 19 20 25
19 20 25 19 20 25 19 20 25 19 20 25 19 20 25 19 20 25 19 20 25 19 20
25 19 20 25 19 20 25 19 20 25 19 20 25 19 20 25 19 20 25 19 20 25 19
20 25 19 20 25 19 20 25 19 20 25 19 20 25 19 20 25 19 20 25 19 20 25
19 20 25 19 20 25 19 20 25 19 20 25 19 20 25 19 20 25 19 20 25 19 20
25 19 20 25 19 20 25 19 20 25 19 20 25 19 20 25 19 20 25 19 20 25 19
20 25 19 20 25 19 20 25 19 20 25 19 20 25 19 20 25 19 20 25 19 20 25
19 20 25 19 20 25 19 20 25 19 20 25 19 20 25 19 20 25 19 20 25 19 20
25 19 20 25 19 20 25 19 20 25 19 20 25 19 20 25 19 20 25 19 20 25 19
20 25 19 20 25 19 20 25 19 20 25 19 20 25 19 20 25 19 20 25 19 20 25
19 20 25 19 20 25 19 20 25 19 20 25 19 20 25 19 20 25 19 20 25 19 20
25 19 20 25 19 20 25 19 20 25 19 20 25 19 20 25 19 20 25 19 20 25 19
20 25 19 20 25 19 20 25 19 20 25 19 20 25 19 20 25 19 20 25 19 20 25
19 20 25 19 20 25 19 20 25 19 20 25 19 20 25 19 20 25 19 20 25 19 20
25 19 20 25 19 20 25 19 20 25 19 20 25 19 20 25 19 20 25 19 20 25 19
20 25 19 20 25 19 20 25 19 20 25 19 20 25 19 20 25 19
19 25 19 19 25 19 19 25 19 19 25 19 19 25 19 19 25 19 19 25 19 19 25
19 19 25 19 19 25 19 19 25 19 19 25 19 19 25 19 19 25 19 19 25 19 19
25 19 19 25 19 19 25 19 19 25 19 19 25 19 19 25 19 19 25 19 19 25 19
19 25 19 19 25 19 19 25 19 19 25 19 19 25 19 19 25 19 19 25 19 19 25
19 19 25 19 19 25 19 19 25 19 19 25 19 19 25 19 19 25 19 19 25 19 19
25 19 19 25 19 19 25 19 19 25 19 19 25 19 19 25 19 19 25 19 19 25 19
19 25 19 19 25 19 19 25 19 19 25 19 19 25 19 20 25 20 20 25 20 20 25
20 20 25 20 20 25 20 20 25 20 20 25 20 20 25 20 20 25 20 20 25 20 20
25 20 20 25 20 20 25 20 20 25 20 20 25 20 20 25 20 20 25 20 20 25 20
20 25 20 20 25 20 20 25 20 20 25 20 20 25 20 20 25 20 20 25 20 20 25
20 20 25 20 20 25 20 20 25 20 20 25 20 20 25 20 20 25 20 20 25 20 20
25 20 20 25 20 20 25 20 20 25 20 20 25 20 20 25 20 20 25 20 20 25 20
20 25 20 20 25 20 20 25 20 20 25 20 20 25 20 20 25 20 20 25 20 20 25
20 20 25 20 20 25 20 20 25 20 20 25 20 20 25 20 20 25 20 20 25 20 20
25 20 20 25 20 20 25 20 20 25 20 20 25 20 20 25 20 20 25 20 20 25 20
20 25 20 20 25 20 20 25 20 20 25 20 20 25 20 20 25 20 20 25 20 20 25
20 20 26 20 20 26 20 20 26 20 20 26 20 20 26 20 20 26 20 20 26 20 20
26 20 20 26 20 20 26 20 20 26 20 20 26 20 20 26 20 20 26 20 20 26 20
21 21 204 21 21 203 21 20 202 21 21 202 21 21 200 21 21 198 21 21 195
21 21 193 21 21 190 21 21 188 21 20 185 21 20 182 21 20 180 21 20 177
21 20 174 21 20 172 21 20 169 21 19 166 21 19 163 21 19 161 21 19 158
21 19 155 21 19 152 21 19 150 21 18 147 21 18 144 21 18 141 21 18 138
21 18 135 21 18 133 21 18 130 21 17 127 21 17 124 21 17 121 21 17 118
21 17 115 21 17 115 21 17 115 21 17 115 19 16 114 19 16 114 19 16 114
19 16 114 19 16 114 19 16 115 19 16 115 19 16 115 19 16 115 19 16 115
19 16 115 19 16 115 19 16 115 20 26 20 20 26 20 20 26 20 20 26 20 20
26 20 20 26 20 20 26 20 20 26 20 20 26 20 20 26 20 20 26 20 20 26 20
20 26 20 20 26 20 20 26 20 20 26 20 20 26 20 20 26 20 20 26 20 20 26
20 20 26 20 20 26 20 20 26 20 20 26 20 20 26 20 20 26 20 20 26 20 20
26 20 20 26 20 20 26 20 20 26 20 20 26 20 20 26 20 20 26 20 20 26 20
20 26 20 20 26 20 20 26 20 20 26 20 20 26 20 20 26 20 20 26 20 20 26
20 20 26 20 20 26 20 20 26 20 20 26 20 20 26 20 20 26 20 20 26 20 20
26 20 20 26 20 20 26 20 20 26 20 20 26 20 20 26 20 20 26 20 20 26 20
20 26 20 20 26 20 20 26 20 20 26 20 20 26 20 20 26 20 20 26 20 20 26
20 20 26 20 20 26 20 20 26 20 20 26 20 20 26 20 20 26 20 20 26 20 20
26 20 20 26 20 20 26 20 20 26 20 20 26 20 20 26 20 20 26 20 20 26 20
20 26 20 20 25 20 20 25 20 20 25 20 20 25 20 20 25 20 20 25 20 20 25
20 20 25 20 20 25 20 20 25 20 20 25 20 20 25 20 20 25 20 20 25 20 20
25 20 20 25 20 20 25 20 20 25 20 20 25 20 20 25 20 20 25 20 20 25 20
20 25 20 20 25 20 20 25 20 20 25 20 20 25 20 20 25 20 20 25 20 20 25
20 20 25 20 20 25 20 20 25 20 20 25 20 20 25 20 20 25 20 20 25 20 20
25 20 20 25 20 20 25 20 20 25 20 20 25 20 20 25 20 20 25 20 20 25 20
20 25 20 20 25 20 20 25 20 20 25 20 20 25 20 20 25 20 20 25 20 20 25
20 20 25 20 20 25 20 20 25 20 20 25 20 20 25 20 20 25 20 20 25 20 20
25 20 20 25 20 20 25 20 20 25 20 20 25 20 20 25 20 20 25 20 20 25 20
20 25 20 20 25 20 20 25 20 20 25 20 20 25 20 20 25 20 20 25 20 20 25
20 20 25 20 20 25 20 20 25 20 20 25 20 20 25 20 20 25 20 20 25 20 20
25 20 20 25 20 20 25 20 20 25 20 20 25 20 20 25 20 20 25 20 20 25 20
20 25 20 20 25 20 20 25 20 20 25 20 20 25 20 20 25 20 20 25 20 20 25
20 20 25 20 20 25 20 20 25 20 20 25 20 20 25 20 20 25 20 20 25 20 20
25 20 20 25 20 20 25 20 20 25 20 20 25 20 20 25 20 20 25 20 20 25 20
20 25 20 20 25 20 20 25 20 20 25 20 20 25 20 20 25 20 20 25 20 20 25
20 20 25 20 20 25 20 20 25 20 20 25 20 20 25 20 20 25 20
19 25 20 19 25 20 19 25 20 19 25 20 19 25 20 19 25 20 19 25 20 19 25
20 19 25 20 19 25 20 19 25 20 19 25 20 19 25 20 19 25 20 19 25 20 19
25 20 19 25 20 19 25 20 19 25 20 19 25 20 19 25 20 19 25 20 19 25 20
19 25 20 19 25 20 19 25 20 19 25 20 19 25 20 19 25 20 19 25 20 19 25
20 19 25 20 19 25 20 19 25 20 19 25 20 19 25 20 19 25 20 19 25 20 19
25 20 19 25 20 19 25 20 19 25 20 19 25 20 19 25 20 19 25 20 19 25 20
19 25 20 19 25 20 19 25 20 19 25 20 19 25 20 19 25 20 19 25 20 19 25
20 20 26 20 20 26 20 20 26 20 20 26 20 20 26 20 20 26 20 20 26 20 20
26 20 20 26 20 20 26 20 20 26 20 20 26 20 20 26 20 20 26 20 20 26 20
20 26 20 20 26 20 20 26 20 20 26 20 20 26 20 20 26 20 20 26 20 20 26
20 20 26 20 20 26 20 20 26 20 20 26 20 20 26 20 20 26 20 20 26 20 20
26 20 20 26 20 20 26 20 20 26 20 20 26 20 20 26 20 20 26 20 20 26 20
20 26 20 20 26 20 20 26 20 20 26 20 20 26 20 20 26 20 20 26 20 20 26
20 20 26 20 20 26 20 20 26 20 20 26 20 20 26 20 20 26 20 20 26 20 20
26 20 20 26 20 20 26 20 20 26 20 20 26 20 20 26 20 20 26 20 20 26 20
20 26 20 20 26 20 20 26 20 20 26 20 20 26 20 20 26 20 20 26 20 20 26
20 20 26 20 20 26 20 20 26 20 20 26 20 20 26 20 20 26 20 20 26 20 20
26 20 20 26 20 20 26 20 20 26 20 20 26 20 20 26 20 21 21 205 21 21 208
21 21 207 21 21 206 21 21 206 21 21 203 21 21 201 21 21 199 21 21 196
21 21 194 21 21 191 21 21 189 21 20 186 21 20 183 21 20 180 21 20 178
21 20 175 21 20 172 21 20 170 21 19 167 21 19 164 21 19 161 21 19 158
21 19 156 21 19 153 21 19 150 21 18 147 21 18 144 21 18 142 21 18 139
21 18 136 21 18 133 21 18 130 21 17 127 21 17 125 21 17 122 21 17 119
21 17 116 21 17 115 21 17 115 21 17 115 21 17 115 19 16 114 19 16 114
19 16 114 19 16 114 19 16 114 19 16 114 19 16 115 19 16 115 19 16 115
19 16 115 19 16 115 19 16 115 19 16 115 20 26 20 20 26 20 20 26 20 20
26 20 20 26 20 20 26 20 20 26 20 20 26 20 20 26 20 20 26 20 20 26 20
20 26 20 20 26 20 20 26 20 20 26 20 20 26 20 20 26 20 20 26 20 20 26
20 20 26 20 20 26 20 20 26 20 20 26 20 20 26 20 20 26 20 20 26 20 20
26 20 20 26 20 20 26 20 20 26 20 20 26 20 20 26 20 20 26 20 20 26 20
20 26 20 20 26 20 20 26 20 20 26 20 20 26 20 20 26 20 20 26 20 20 26
20 20 26 20 20 26 20 20 26 20 20 26 20 20 26 20 20 26 20 20 26 20 20
26 20 20 26 20 20 26 20 20 26 20 20 26 20 20 26 20 20 26 20 20 26 20
20 26 20 20 26 20 20 26 20 20 26 20 20 26 20 20 26 20 20 26 20 20 26
20 20 26 20 20 26 20 20 26 20 20 26 20 20 26 20 20 26 20 20 26 20 20
26 20 20 26 20 20 26 20 20 26 20 20 26 20 20 26 20 20 26 20 20 26 20
20 26 20 20 26 20 20 26 20 20 26 20 20 26 20 20 26 20 20 26 20 20 26
20 20 26 20 20 26 20 20 26 20 20 26 20 20 26 20 20 26 20 20 26 20 20
26 20 20 26 20 20 26 20 20 26 20 20 26 20 20 26 20 20 26 20 20 26 20
20 26 20 20 26 20 20 26 20 20 26 20 20 26 20 20 26 20 20 26 20 20 26
20 20 26 20 20 26 20 20 26 20 20 26 20 20 26 20 20 26 20 20 26 20 20
26 20 20 26 20 20 26 20 20 26 20 20 26 20 20 26 20 20 26 20 20 26 20
20 26 20 20 26 20 20 26 20 20 26 20 20 26 20 20 26 20 20 26 20 20 26
20 20 26 20 20 26 20 20 26 20 20 26 20 20 26 20 20 26 20 20 26 20 20
26 20 20 26 20 20 26 20 20 26 20 20 26 20 20 26 20 20 26 20 20 26 20
20 26 20 20 26 20 20 26 20 20 26 20 20 26 20 20 26 20 20 26 20 20 26
20 20 26 20 20 26 20 20 26 20 20 26 20 20 26 20 20 26 20 20 26 20 20
26 20 20 26 20 20 26 20 20 26 20 20 26 20 20 26 20 20 26 20 20 26 20
20 26 20 20 26 20 20 26 20 20 26 20 20 26 20 20 26 20 20 26 20 20 26
20 20 26 20 20 26 20 20 26 20 20 26 20 20 26 20 20 26 20 20 26 20 20
26 20 20 26 20 20 26 20 20 26 20 20 26 20 20 26 20 20 26 20 20 26 20
20 26 20 20 26 20 20 26 20 20 26 20 20 26 20 20 26 20 20 26 20 20 26
20 20 26 20 20 26 20 20 26 20 20 26 20 20 26 20 20 26 20
19 25 20 19 25 20 19 25 20 19 25 20 19 25 20 19 25 20 19 25 20 19 25
20 19 25 20 19 25 20 19 25 20 19 25 20 19 25 20 19 25 20 19 25 20 19
25 20 19 25 20 19 25 20 19 25 20 19 25 20 19 25 20 19 25 20 19 25 20
19 25 20 19 25 20 19 25 20 19 25 20 19 25 20 19 25 20 19 25 20 19 25
20 19 25 20 19 25 20 19 25 20 19 25 20 19 25 20 19 25 20 19 25 20 19
25 20 19 25 20 19 25 20 19 25 20 19 25 20 19 25 20 19 25 20 19 25 20
19 25 20 19 25 20 19 25 20 19 25 20 19 25 20 19 25 20 19 25 20 19 25
20 19 25 20 19 25 20 19 25 20 20 26 21 20 26 21 20 26 21 20 26 21 20
26 21 20 26 21 20 26 21 20 26 21 20 26 21 20 26 21 20 26 21 20 26 21
20 26 21 20 26 21 20 26 21 20 26 21 20 26 21 20 26 21 20 26 21 20 26
21 20 26 21 20 26 21 20 26 21 21 26 21 21 26 21 21 26 21 21 26 21 21
26 21 21 26 21 21 26 21 21 26 21 21 26 21 21 26 21 21 26 21 21 26 21
21 26 21 21 26 21 21 26 21 21 26 21 21 26 21 21 26 21 21 26 21 21 26
21 21 26 21 21 26 21 21 26 21 21 26 21 21 26 21 21 26 21 21 26 21 21
26 21 21 26 21 21 26 21 21 26 21 21 26 21 21 26 21 21 26 21 21 26 21
21 26 21 21 26 21 21 26 21 21 26 21 21 26 21 21 26 21 21 26 21 21 26
21 21 26 21 21 26 21 21 26 21 21 26 21 21 26 21 21 26 21 21 26 21 21
26 21 21 26 21 21 26 21 21 26 21 21 26 21 21 21 210 21 21 212 21 21
211 21 22 211 21 22 209 21 22 207 21 21 205 21 21 202 21 21 200 21 21
197 21 21 194 21 21 192 21 21 189 21 20 186 21 20 184 21 20 181 21 20
178 21 20 176 21 20 173 21 20 170 21 19 167 21 19 164 21 19 162 21 19
159 21 19 156 21 19 153 21 19 151 21 18 148 21 18 145 21 18 142 21 18
139 21 18 136 21 18 134 21 18 131 21 17 128 21 17 125 21 17 122 21 17
119 21 17 116 21 17 115 21 17 115 21 17 115 21 17 115 21 17 115 19 16
114 19 16 114 19 16 114 19 16 114 19 16 114 19 16 114 19 16 115 19 16
115 19 16 115 19 16 115 19 16 115 19 16 115 19 16 115 21 27 21 21 27
21 21 27 21 21 27 21 21 27 21 21 27 21 21 27 21 21 27 21 21 27 21 21
27 21 21 27 21 21 27 21 21 27 21 21 27 21 21 27 21 21 27 21 21 27 21
21 27 21 21 27 21 21 27 21 21 27 21 21 27 21 21 27 21 21 27 21 21 27
21 21 27 21 21 27 21 21 27 21 21 27 21 21 27 21 21 27 21 21 27 21 21
27 21 21 27 21 21 27 21 21 27 21 21 27 21 21 27 21 21 27 21 21 27 21
21 27 21 21 27 21 21 27 21 21 27 21 21 27 21 21 27 21 21 27 21 21 27
21 21 27 21 21 27 21 21 27 21 21 27 21 21 27 21 21 27 21 21 27 21 21
27 21 21 27 21 21 27 21 21 27 21 21 27 21 21 26 21 21 26 21 21 26 21
21 26 21 21 26 21 21 26 21 21 26 21 21 26 21 21 26 21 21 26 21 21 26
21 21 26 21 21 26 21 21 26 21 21 26 21 21 26 21 21 26 21 21 26 21 21
26 21 21 26 21 21 26 21 21 26 21 21 26 21 21 26 21 21 26 21 21 26 21
21 26 21 21 26 21 21 26 21 21 26 21 21 26 21 21 26 21 21 26 21 21 26
21 21 26 21 21 26 21 21 26 21 21 26 21 21 26 21 21 26 21 21 26 21 21
26 21 21 26 21 21 26 21 21 26 21 21 26 21 21 26 21 21 26 21 21 26 21
21 26 21 21 26 21 21 26 21 21 26 21 21 26 21 21 26 21 21 26 21 21 26
21 21 26 21 21 26 21 21 26 21 21 26 21 21 26 21 21 26 21 21 26 21 21
26 21 21 26 21 21 26 21 21 26 21 21 26 21 21 26 21 21 26 21 21 26 21
21 26 21 21 26 21 21 26 21 21 26 21 21 26 21 21 26 21 21 26 21 20 26
21 20 26 21 20 26 21 20 26 21 20 26 21 20 26 21 20 26 21 20 26 21 20
26 21 20 26 21 20 26 21 20 26 21 20 26 21 20 26 21 20 26 21 20 26 21
20 26 21 20 26 21 20 26 21 20 26 20 20 26 20 20 26 20 20 26 20 20 26
20 20 26 20 20 26 20 20 26 20 20 26 20 20 26 20 20 26 20 20 26 20 20
26 20 20 26 20 20 26 20 20 26 20 20 26 20 20 26 20 20 26 20 20 26 20
20 26 20 20 26 20 20 26 20 20 26 20 20 26 20 20 26 20 20 26 20 20 26
20 20 26 20 20 26 20 20 26 20 20 26 20 20 26 20 20 26 20 20 26 20 20
26 20 20 26 20 20 26 20 20 26 20 20 26 20 20 26 20 20 26 20 20 26 20
20 26 20 20 26 20 20 26 20 20 26 20 20 26 20 20 26 20 20 26 20
19 25 20 19 25 20 19 25 20 19 25 20 19 25 20 19 25 20 19 25 20 19 25
20 19 25 20 19 25 20 19 25 20 19 25 20 19 25 20 19 25 20 19 25 20 19
25 20 19 25 20 19 25 20 19 25 20 19 25 20 19 25 20 19 25 20 19 25 20
19 25 20 19 25 20 19 25 20 19 25 20 19 25 20 19 25 20 19 25 20 19 25
20 19 25 20 19 25 21 19 25 21 19 25 21 19 25 21 19 25 21 19 25 21 19
25 21 19 25 21 19 25 21 19 25 21 19 25 21 19 25 21 19 25 21 19 25 21
19 25 21 19 25 21 19 25 21 19 25 21 19 25 21 19 25 21 19 25 21 19 25
21 19 25 21 19 25 21 19 25 21 19 25 21 19 25 21 21 27 21 21 27 21 21
27 21 21 27 21 21 27 21 21 27 21 21 27 21 21 27 21 21 27 21 21 27 21
21 27 21 21 27 21 21 27 21 21 27 21 21 27 21 21 27 21 21 27 21 21 27
21 21 27 21 21 27 21 21 27 21 21 27 21 21 27 21 21 27 21 21 27 21 21
27 21 21 27 21 21 27 21 21 27 21 21 27 21 21 27 21 21 27 21 21 27 21
21 27 21 21 27 21 21 27 21 21 27 21 21 27 21 21 27 21 21 27 21 21 27
21 21 27 21 21 27 21 21 27 21 21 27 21 21 27 21 21 27 21 21 27 21 21
27 21 21 27 21 21 27 21 21 27 21 21 27 21 21 27 21 21 27 21 21 27 21
21 27 21 21 27 21 21 27 21 21 27 21 21 27 21 21 27 21 21 27 21 21 27
21 21 27 21 21 27 21 21 27 21 21 27 21 21 27 21 21 27 21 21 27 21 21
27 21 21 27 21 21 27 21 21 27 21 21 21 213 21 21 215 21 21 214 21 22
214 21 22 212 21 22 210 21 22 208 21 21 205 21 21 203 21 21 200 21 21
198 21 21 195 21 21 192 21 21 190 21 20 187 21 20 184 21 20 181 21 20
179 21 20 176 21 20 173 21 20 170 21 19 168 21 19 165 21 19 162 21 19
159 21 19 156 21 19 154 21 19 151 21 18 148 21 18 145 21 18 143 21 18
140 21 18 137 21 18 134 21 18 131 21 17 128 21 17 126 21 17 123 21 17
120 21 17 117 21 17 115 21 17 115 21 17 115 21 17 115 21 17 115 21 17
115 19 16 114 19 16 114 19 16 114 19 16 114 19 16 114 19 16 114 19 16
115 19 16 115 19 16 115 19 16 115 19 16 115 19 16 115 19 16 115 21 27
22 21 27 22 21 27 22 21 27 22 21 27 22 21 27 22 21 27 22 21 27 22 21
27 22 21 27 22 21 27 22 21 27 22 21 27 22 21 27 22 21 27 22 21 27 22
21 27 22 21 27 22 21 27 22 21 27 22 21 27 22 21 27 22 21 27 22 21 27
22 21 27 22 21 27 21 21 27 21 21 27 21 21 27 21 21 27 21 21 27 21 21
27 21 21 27 21 21 27 21 21 27 21 21 27 21 21 27 21 21 27 21 21 27 21
21 27 21 21 27 21 21 27 21 21 27 21 21 27 21 21 27 21 21 27 21 21 27
21 21 27 21 21 27 21 21 27 21 21 27 21 21 27 21 21 27 21 21 27 21 21
27 21 21 27 21 21 27 21 21 27 21 21 27 21 21 27 21 21 27 21 21 27 21
21 27 21 21 27 21 21 27 21 21 27 21 21 27 21 21 27 21 21 27 21 21 27
21 21 27 21 21 27 21 21 27 21 21 27 21 21 27 21 21 27 21 21 27 21 21
27 21 21 27 21 21 27 21 21 27 21 21 27 21 21 27 21 21 27 21 21 27 21
21 27 21 21 27 21 21 27 21 21 27 21 21 27 21 21 27 21 21 27 21 21 27
21 21 27 21 21 27 21 21 27 21 21 27 21 21 27 21 21 27 21 21 27 21 21
27 21 21 27 21 21 27 21 21 27 21 21 27 21 21 27 21 21 27 21 21 27 21
21 27 21 21 27 21 21 27 21 21 27 21 21 27 21 21 27 21 21 27 21 21 27
21 21 27 21 21 27 21 21 27 21 21 27 21 21 27 21 21 27 21 21 27 21 21
27 21 21 27 21 21 27 21 21 27 21 21 27 21 21 27 21 21 27 21 21 27 21
21 27 21 21 27 21 21 27 21 21 27 21 21 27 21 21 27 21 21 27 21 21 27
21 21 27 21 21 27 21 21 27 21 21 27 21 21 27 21 21 27 21 21 27 21 21
27 21 21 27 21 21 27 21 21 27 21 21 27 21 21 27 21 21 27 21 21 27 21
21 27 21 21 27 21 21 27 21 21 27 21 21 27 21 21 27 21 21 27 21 21 27
21 21 27 21 21 27 21 21 27 21 21 27 21 21 26 21 21 26 21 21 26 21 21
26 21 21 26 21 21 26 21 21 26 21 21 26 21 21 26 21 21 26 21 21 26 21
21 26 21 21 26 21 21 26 21 21 26 21 21 26 21 21 26 21 21 26 21 21 26
21 21 26 21 21 26 21 21 26 21 21 26 21 21 26 21 21 26 21 21 26 21 21
26 21 21 26 21 21 26 21 21 26 21 21 26 21 21 26 21 21 26 21 21 26 21
21 26 21 21 26 21 21 26 21 21 26 21 21 26 21 21 26 21 21 26 21
19 25 21 19 25 21 19 25 21 19 25 21 19 25 21 19 25 21 19 25 21 19 25
21 19 25 21 19 25 21 19 25 21 19 25 21 19 25 21 19 25 21 19 25 21 19
25 21 19 25 21 19 25 21 19 25 21 19 25 21 19 25 21 19 25 21 19 25 21
19 25 21 19 25 21 19 25 21 19 25 21 19 25 21 19 25 21 19 25 21 19 25
21 19 25 21 19 25 21 19 25 21 19 25 21 19 25 21 19 25 21 19 25 21 19
25 21 19 25 21 19 25 21 19 25 21 19 25 21 19 25 21 19 25 21 19 25 21
19 25 21 19 25 21 19 25 21 19 25 21 19 25 21 19 25 21 19 25 21 19 25
21 19 25 21 19 25 21 19 25 21 19 25 21 19 25 21 19 25 21 19 25 21 19
25 21 21 27 22 21 27 22 21 27 22 21 27 22 21 27 22 21 27 22 21 27 22
21 27 22 21 27 22 21 27 22 21 27 22 21 27 22 21 27 22 21 27 22 21 27
22 21 27 22 21 27 22 21 27 22 21 27 22 21 27 22 21 27 22 21 27 22 21
27 22 21 27 22 21 27 22 21 27 22 21 27 22 21 27 22 21 27 22 21 27 22
21 27 22 21 27 22 21 27 22 21 27 22 21 27 22 21 27 22 21 27 22 21 27
22 21 27 22 21 27 22 21 27 22 21 27 22 21 27 22 21 27 22 21 27 22 21
27 22 21 27 22 21 27 22 21 27 22 21 27 22 21 27 22 21 27 22 21 27 22
21 27 22 21 27 22 21 27 22 21 27 22 21 27 22 21 27 22 21 27 22 21 27
22 21 27 22 21 27 22 21 27 22 21 27 22 21 27 22 21 27 22 21 27 22 21
27 22 21 27 22 21 27 22 21 21 216 21 21 218 21 21 217 21 21 216 21 22
216 21 22 213 21 22 211 21 22 209 21 21 206 21 21 204 21 21 201 21 21
198 21 21 196 21 21 193 21 21 190 21 20 187 21 20 185 21 20 182 21 20
179 21 20 176 21 20 174 21 20 171 21 19 168 21 19 165 21 19 162 21 19
160 21 19 157 21 19 154 21 19 151 21 18 148 21 18 146 21 18 143 21 18
140 21 18 137 21 18 134 21 18 132 21 17 129 21 17 126 21 17 123 21 17
120 21 17 117 21 17 115 21 17 115 21 17 115 21 17 115 21 17 115 21 17
115 21 17 115 19 16 114 19 16 114 19 16 114 19 16 114 19 16 114 19 16
114 19 16 115 19 16 115 19 16 115 19 16 115 19 16 115 19 16 115 19 16
115 21 28 22 21 28 22 21 28 22 21 28 22 21 28 22 21 28 22 21 28 22 21
28 22 21 28 22 21 28 22 21 28 22 21 28 22 21 28 22 21 28 22 21 28 22
21 28 22 21 28 22 21 28 22 21 28 22 21 28 22 21 28 22 21 28 22 21 28
22 21 28 22 21 28 22 21 28 22 21 28 22 21 28 22 21 28 22 21 28 22 21
28 22 21 28 22 21 28 22 21 28 22 21 28 22 21 28 22 21 28 22 21 28 22
21 28 22 21 28 22 21 28 22 21 28 22 21 28 22 21 28 22 21 28 22 21 28
22 21 28 22 21 28 22 21 28 22 21 28 22 21 28 22 21 28 22 21 28 22 21
28 22 21 28 22 21 28 22 21 28 22 21 28 22 21 28 22 21 28 22 21 27 22
21 27 22 21 27 22 21 27 22 21 27 22 21 27 22 21 27 22 21 27 22 21 27
22 21 27 22 21 27 22 21 27 22 21 27 22 21 27 22 21 27 22 21 27 22 21
27 22 21 27 22 21 27 22 21 27 22 21 27 22 21 27 22 21 27 22 21 27 22
21 27 22 21 27 22 21 27 22 21 27 22 21 27 22 21 27 22 21 27 22 21 27
22 21 27 22 21 27 22 21 27 22 21 27 22 21 27 22 21 27 22 21 27 22 21
27 22 21 27 22 21 27 22 21 27 22 21 27 22 21 27 22 21 27 22 21 27 22
21 27 22 21 27 22 21 27 22 21 27 22 21 27 22 21 27 22 21 27 22 21 27
22 21 27 22 21 27 22 21 27 22 21 27 22 21 27 22 21 27 22 21 27 22 21
27 22 21 27 22 21 27 22 21 27 22 21 27 22 21 27 22 21 27 22 21 27 22
21 27 22 21 27 22 21 27 22 21 27 21 21 27 21 21 27 21 21 27 21 21 27
21 21 27 21 21 27 21 21 27 21 21 27 21 21 27 21 21 27 21 21 27 21 21
27 21 21 27 21 21 27 21 21 27 21 21 27 21 21 27 21 21 27 21 21 27 21
21 27 21 21 27 21 21 27 21 21 27 21 21 27 21 21 27 21 21 27 21 21 27
21 21 27 21 21 27 21 21 27 21 21 27 21 21 27 21 21 27 21 21 27 21 21
27 21 21 27 21 21 27 21 21 27 21 21 27 21 21 27 21 21 27 21 21 27 21
21 27 21 21 27 21 21 27 21 21 27 21 21 27 21 21 27 21 21 27 21 21 27
21 21 27 21 21 27 21 21 27 21 21 27 21 21 27 21 21 27 21 21 27 21 21
27 21 21 27 21 21 27 21 21 27 21 21 27 21 21 27 21 21 27 21 21 27 21
21 27 21 21 27 21 21 27 21 21 27 21 21 27 21 21 27 21 21 27 21
19 25 21 19 26 21 19 26 21 19 26 21 19 26 21 19 26 21 19 26 21 19 26
21 19 26 21 19 26 21 19 26 21 19 26 21 19 26 21 19 26 21 19 26 21 19
26 21 19 26 21 19 26 21 19 26 21 19 26 21 19 26 21 19 26 21 19 26 21
19 26 21 19 26 21 19 26 21 19 26 21 19 26 21 19 26 21 19 26 21 19 26
21 19 26 21 19 26 21 19 26 21 19 26 21 19 26 21 19 26 21 19 26 21 19
26 21 19 26 21 19 26 21 19 26 21 19 26 21 19 26 21 19 26 21 19 26 21
19 26 21 19 26 21 19 26 21 19 26 21 19 26 21 19 26 21 19 26 21 19 26
21 19 26 21 19 26 21 19 26 21 19 26 21 19 26 21 19 26 21 19 26 21 19
26 21 19 26 21 19 26 21 21 28 22 21 28 22 21 28 22 21 28 22 21 28 22
21 28 22 21 28 22 21 28 22 21 28 22 21 28 22 21 28 22 21 28 22 21 28
22 21 28 22 21 28 22 21 28 22 21 28 22 21 28 22 21 28 22 21 28 22 21
28 22 21 28 22 21 28 22 21 28 22 21 28 22 21 28 22 21 28 22 21 28 22
21 28 22 21 28 22 21 28 22 21 28 22 21 28 22 21 28 22 21 28 22 21 28
22 21 28 22 21 28 22 21 28 22 21 28 22 21 28 22 21 28 22 21 28 22 21
28 22 21 28 22 21 28 22 21 28 22 21 28 22 21 28 22 21 28 22 21 28 22
21 28 22 21 28 22 21 28 22 21 28 22 21 28 22 21 28 22 21 28 22 21 28
22 21 28 22 21 28 22 21 28 23 21 28 23 21 28 23 21 28 23 21 28 23 21
28 23 21 28 23 21 28 23 21 21 221 21 21 220 21 21 219 21 22 219 21 22
217 21 22 214 21 22 212 21 22 209 21 21 207 21 21 204 21 21 201 21 21
199 21 21 196 21 21 193 21 21 190 21 20 188 21 20 185 21 20 182 21 20
179 21 20 177 21 20 174 21 20 171 21 19 168 21 19 165 21 19 163 21 19
160 21 19 157 21 19 154 21 19 151 21 18 149 21 18 146 21 18 143 21 18
140 21 18 137 21 18 135 21 18 132 21 17 129 21 17 126 21 17 123 21 17
121 21 17 118 21 17 115 21 17 115 21 17 115 21 17 115 21 17 115 21 17
115 21 17 115 19 16 114 19 16 114 19 16 114 19 16 114 19 16 114 19 16
114 19 16 114 19 16 115 19 16 115 19 16 115 19 16 115 19 16 115 19 16
115 19 16 115 22 28 23 22 28 23 22 28 23 22 28 23 22 28 23 22 28 23 22
28 23 22 28 23 22 28 23 22 28 23 22 28 23 22 28 23 22 28 23 22 28 23
22 28 23 22 28 23 22 28 23 22 28 23 22 28 23 22 28 23 22 28 23 22 28
23 22 28 23 22 28 23 22 28 23 22 28 23 22 28 23 22 28 23 22 28 23 22
28 23 22 28 23 22 28 23 22 28 23 22 28 23 22 28 23 22 28 23 22 28 23
22 28 23 22 28 23 22 28 23 22 28 23 22 28 23 22 28 23 22 28 23 22 28
23 22 28 23 22 28 23 22 28 22 22 28 22 22 28 22 22 28 22 22 28 22 22
28 22 22 28 22 22 28 22 22 28 22 22 28 22 22 28 22 21 28 22 21 28 22
21 28 22 21 28 22 21 28 22 21 28 22 21 28 22 21 28 22 21 28 22 21 28
22 21 28 22 21 28 22 21 28 22 21 28 22 21 28 22 21 28 22 21 28 22 21
28 22 21 28 22 21 28 22 21 28 22 21 28 22 21 28 22 21 28 22 21 28 22
21 28 22 21 28 22 21 28 22 21 28 22 21 28 22 21 28 22 21 28 22 21 28
22 21 28 22 21 28 22 21 28 22 21 28 22 21 28 22 21 28 22 21 28 22 21
28 22 21 28 22 21 28 22 21 28 22 21 28 22 21 28 22 21 28 22 21 28 22
21 28 22 21 28 22 21 28 22 21 28 22 21 28 22 21 28 22 21 28 22 21 28
22 21 28 22 21 28 22 21 28 22 21 28 22 21 28 22 21 28 22 21 28 22 21
28 22 21 28 22 21 28 22 21 28 22 21 28 22 21 28 22 21 28 22 21 28 22
21 28 22 21 28 22 21 28 22 21 28 22 21 28 22 21 28 22 21 28 22 21 28
22 21 28 22 21 28 22 21 28 22 21 28 22 21 28 22 21 27 22 21 27 22 21
27 22 21 27 22 21 27 22 21 27 22 21 27 22 21 27 22 21 27 22 21 27 22
21 27 22 21 27 22 21 27 22 21 27 22 21 27 22 21 27 22 21 27 22 21 27
22 21 27 22 21 27 22 21 27 22 21 27 22 21 27 22 21 27 22 21 27 22 21
27 22 21 27 22 21 27 22 21 27 22 21 27 22 21 27 22 21 27 22 21 27 22
21 27 22 21 27 22 21 27 22 21 27 22 21 27 22 21 27 22 21 27 22 21 27
22 21 27 22 21 27 22 21 27 22 21 27 22 21 27 22 21 27 22 21 27 22 21
27 22 21 27 22 21 27 22 21 27 21 21 27 21 21 27 21 21 27 21 21 27 21
21 27 21 21 27 21 21 27 21 21 27 21 21 27 21 21 27 21 21 27 21
19 26 21 19 26 21 19 26 21 19 26 21 19 26 21 19 26 21 19 26 22 19 26
22 19 26 22 19 26 22 19 26 22 19 26 22 19 26 22 19 26 22 19 26 22 19
26 22 19 26 22 19 26 22 19 26 22 19 26 22 19 26 22 19 26 22 19 26 22
19 26 22 19 26 22 19 26 22 19 26 22 19 26 22 19 26 22 19 26 22 19 26
22 19 26 22 19 26 22 19 26 22 19 26 22 19 26 22 19 26 22 19 26 22 19
26 22 19 26 22 19 26 22 19 26 22 19 26 22 19 26 22 19 26 22 19 26 22
19 26 22 19 26 22 19 26 22 19 26 22 19 26 22 19 26 22 19 26 22 19 26
22 19 26 22 19 26 22 19 26 22 19 26 22 19 26 22 19 26 22 19 26 22 19
26 22 19 26 22 19 26 22 19 26 22 19 26 22 19 26 22 21 28 23 21 28 23
21 28 23 21 28 23 21 28 23 21 28 23 21 28 23 21 28 23 21 28 23 21 28
23 21 28 23 21 28 23 21 28 23 21 28 23 21 28 23 22 28 23 22 28 23 22
28 23 22 28 23 22 28 23 22 28 23 22 28 23 22 28 23 22 28 23 22 28 23
22 28 23 22 28 23 22 28 23 22 28 23 22 28 23 22 28 23 22 28 23 22 28
23 22 28 23 22 28 23 22 28 23 22 28 23 22 28 23 22 28 23 22 28 23 22
28 23 22 28 23 22 28 23 22 28 23 22 28 23 22 28 23 22 28 23 22 28 23
22 28 23 22 28 23 22 28 23 22 28 23 22 28 23 22 28 23 22 28 23 22 28
23 22 28 23 22 29 23 22 29 23 22 29 23 22 29 23 22 29 23 22 29 23 22
29 23 22 29 23 21 22 223 21 21 223 21 21 222 21 22 222 21 22 220 21 22
217 21 22 215 21 22 212 21 22 210 21 21 207 21 21 204 21 21 202 21 21
199 21 21 196 21 21 194 21 21 191 21 20 188 21 20 185 21 20 182 21 20
180 21 20 177 21 20 174 21 20 171 21 19 168 21 19 166 21 19 163 21 19
160 21 19 157 21 19 154 21 19 152 21 18 149 21 18 146 21 18 143 21 18
141 21 18 138 21 18 135 21 18 132 21 17 129 21 17 126 21 17 124 21 17
121 21 17 118 21 17 115 21 17 115 21 17 115 21 17 115 21 17 115 21 17
115 21 17 115 21 17 115 19 16 114 19 16 114 19 16 114 19 16 114 19 16
114 19 16 114 19 16 114 19 16 115 19 16 115 19 16 115 19 16 115 19 16
115 19 16 115 19 16 115 22 29 23 22 29 23 22 29 23 22 29 23 22 29 23
22 29 23 22 29 23 22 29 23 22 29 23 22 29 23 22 29 23 22 29 23 22 29
23 22 29 23 22 29 23 22 29 23 22 29 23 22 29 23 22 29 23 22 29 23 22
29 23 22 29 23 22 29 23 22 29 23 22 29 23 22 29 23 22 29 23 22 29 23
22 29 23 22 29 23 22 29 23 22 29 23 22 29 23 22 29 23 22 29 23 22 29
23 22 29 23 22 29 23 22 29 23 22 29 23 22 29 23 22 29 23 22 29 23 22
29 23 22 29 23 22 29 23 22 29 23 22 29 23 22 29 23 22 29 23 22 29 23
22 29 23 22 29 23 22 29 23 22 29 23 22 29 23 22 29 23 22 29 23 22 29
23 22 29 23 22 29 23 22 29 23 22 29 23 22 29 23 22 29 23 22 29 23 22
29 23 22 28 23 22 28 23 22 28 23 22 28 23 22 28 23 22 28 23 22 28 23
22 28 23 22 28 23 22 28 23 22 28 23 22 28 23 22 28 23 22 28 23 22 28
23 22 28 23 22 28 23 22 28 23 22 28 23 22 28 23 22 28 23 22 28 23 22
28 23 22 28 23 22 28 23 22 28 23 22 28 23 22 28 23 22 28 23 22 28 23
22 28 23 22 28 23 22 28 23 22 28 23 22 28 23 22 28 23 22 28 23 22 28
23 22 28 23 22 28 23 22 28 23 22 28 23 22 28 23 22 28 23 22 28 23 22
28 23 22 28 23 22 28 23 22 28 23 22 28 23 22 28 23 22 28 23 22 28 23
22 28 23 22 28 22 22 28 22 22 28 22 22 28 22 22 28 22 22 28 22 22 28
22 22 28 22 22 28 22 22 28 22 22 28 22 22 28 22 22 28 22 22 28 22 22
28 22 22 28 22 22 28 22 22 28 22 22 28 22 21 28 22 21 28 22 21 28 22
21 28 22 21 28 22 21 28 22 21 28 22 21 28 22 21 28 22 21 28 22 21 28
22 21 28 22 21 28 22 21 28 22 21 28 22 21 28 22 21 28 22 21 28 22 21
28 22 21 28 22 21 28 22 21 28 22 21 28 22 21 28 22 21 28 22 21 28 22
21 28 22 21 28 22 21 28 22 21 28 22 21 28 22 21 28 22 21 28 22 21 28
22 21 28 22 21 28 22 21 28 22 21 28 22 21 28 22 21 28 22 21 28 22 21
28 22 21 28 22 21 28 22 21 28 22 21 28 22 21 28 22 21 28 22 21 28 22
21 28 22 21 28 22 21 28 22 21 28 22 21 28 22 21 28 22 21 28 22 21 27
22 21 27 22 21 27 22 21 27 22 21 27 22 21 27 22 21 27 22 21 27 22
19 26 22 19 26 22 19 26 22 19 26 22 19 26 22 19 26 22 19 26 22 19 26
22 19 26 22 19 26 22 19 26 22 19 26 22 19 26 22 19 26 22 19 26 22 19
26 22 19 26 22 19 26 22 19 26 22 19 26 22 19 26 22 19 26 22 19 26 22
19 26 22 19 26 22 19 26 22 19 26 22 19 26 22 19 26 22 19 26 22 19 26
22 19 26 22 19 26 22 19 26 22 19 26 22 19 26 22 19 26 22 19 26 22 19
26 22 19 26 22 19 26 22 19 26 22 19 26 22 19 26 22 19 26 22 19 26 22
19 26 22 19 26 22 19 26 22 19 26 22 19 26 22 19 26 22 19 26 22 19 26
22 19 26 22 19 26 22 19 26 22 19 26 22 19 26 22 19 26 22 19 26 22 19
26 22 19 26 22 19 26 22 19 26 22 19 26 22 19 26 22 19 26 22 19 26 22
19 26 22 22 29 23 22 29 23 22 29 23 22 29 23 22 29 23 22 29 23 22 29
23 22 29 23 22 29 23 22 29 23 22 29 23 22 29 23 22 29 23 22 29 23 22
29 23 22 29 23 22 29 23 22 29 23 22 29 23 22 29 23 22 29 23 22 29 23
22 29 23 22 29 23 22 29 23 22 29 23 22 29 23 22 29 23 22 29 23 22 29
23 22 29 23 22 29 23 22 29 23 22 29 24 22 29 24 22 29 24 22 29 24 22
29 24 22 29 24 22 29 24 22 29 24 22 29 24 22 29 24 22 29 24 22 29 24
22 29 24 22 29 24 22 29 24 22 29 24 22 29 24 22 29 24 22 29 24 22 29
24 22 29 24 22 29 24 22 29 24 22 29 24 22 29 24 22 29 24 22 29 24 22
29 24 21 22 226 21 22 226 21 22 225 21 22 225 21 22 223 21 22 220 21
22 218 21 22 215 21 22 213 21 22 210 21 21 207 21 21 205 21 21 202 21
21 199 21 21 196 21 21 194 21 21 191 21 20 188 21 20 185 21 20 183 21
20 180 21 20 177 21 20 174 21 20 171 21 19 169 21 19 166 21 19 163 21
19 160 21 19 157 21 19 155 21 19 152 21 18 149 21 18 146 21 18 143 21
18 141 21 18 138 21 18 135 21 18 132 21 17 130 21 17 127 21 17 124 21
17 121 21 17 118 21 17 115 21 17 115 21 17 115 21 17 115 21 17 115 21
17 115 21 17 115 21 17 115 21 17 115 19 16 114 19 16 114 19 16 114 19
16 114 19 16 114 19 16 114 19 16 114 19 16 115 19 16 115 19 16 115 19
16 115 19 16 115 19 16 115 19 16 115 22 29 24 22 29 24 22 29 24 22 29
24 22 29 24 22 29 24 22 29 24 22 29 24 22 29 24 22 29 24 22 29 24 22
29 24 22 29 24 22 29 24 22 29 24 22 29 24 22 29 24 22 29 24 22 29 24
22 29 24 22 29 24 22 29 24 22 29 24 22 29 24 22 29 24 22 29 24 22 29
24 22 29 24 22 29 24 22 29 24 22 29 24 22 29 24 22 29 24 22 29 24 22
29 24 22 29 24 22 29 24 22 29 24 22 29 24 22 29 24 22 29 24 22 29 24
22 29 24 22 29 24 22 29 24 22 29 24 22 29 24 22 29 24 22 29 24 22 29
24 22 29 24 22 29 24 22 29 24 22 29 24 22 29 24 22 29 24 22 29 24 22
29 24 22 29 24 22 29 23 22 29 23 22 29 23 22 29 23 22 29 23 22 29 23
22 29 23 22 29 23 22 29 23 22 29 23 22 29 23 22 29 23 22 29 23 22 29
23 22 29 23 22 29 23 22 29 23 22 29 23 22 29 23 22 29 23 22 29 23 22
29 23 22 29 23 22 29 23 22 29 23 22 29 23 22 29 23 22 29 23 22 29 23
22 29 23 22 29 23 22 29 23 22 29 23 22 29 23 22 29 23 22 29 23 22 29
23 22 29 23 22 29 23 22 29 23 22 29 23 22 29 23 22 29 23 22 29 23 22
29 23 22 29 23 22 29 23 22 29 23 22 29 23 22 29 23 22 29 23 22 29 23
22 29 23 22 29 23 22 29 23 22 29 23 22 29 23 22 29 23 22 29 23 22 29
23 22 29 23 22 29 23 22 29 23 22 29 23 22 29 23 22 29 23 22 29 23 22
29 23 22 29 23 22 29 23 22 29 23 22 29 23 22 28 23 22 28 23 22 28 23
22 28 23 22 28 23 22 28 23 22 28 23 22 28 23 22 28 23 22 28 23 22 28
23 22 28 23 22 28 23 22 28 23 22 28 23 22 28 23 22 28 23 22 28 23 22
28 23 22 28 23 22 28 23 22 28 23 22 28 23 22 28 23 22 28 23 22 28 23
22 28 23 22 28 23 22 28 23 22 28 23 22 28 23 22 28 23 22 28 23 22 28
23 22 28 23 22 28 23 22 28 23 22 28 23 22 28 22 22 28 22 22 28 22 22
28 22 22 28 22 22 28 22 22 28 22 22 28 22 22 28 22 22 28 22 22 28 22
22 28 22 22 28 22 22 28 22 22 28 22 22 28 22 22 28 22 22 28 22 22 28
22 22 28 22 22 28 22 22 28 22 21 28 22 21 28 22 21 28 22 21 28 22 21
28 22 21 28 22 21 28 22 21 28 22 21 28 22 21 28 22 21 28 22 21 28 22
19 26 22 19 26 22 19 26 22 19 26 22 19 26 22 19 26 22 19 26 22 19 26
22 19 26 22 19 26 22 19 26 22 19 26 22 19 26 22 19 26 22 19 26 22 19
26 22 19 26 22 19 26 22 19 26 22 19 26 22 19 26 22 19 26 22 19 26 22
19 26 22 19 26 22 19 26 22 19 26 22 19 26 22 19 26 22 19 26 23 19 26
23 19 26 23 19 26 23 19 26 23 19 26 23 19 26 23 19 26 23 19 26 23 19
26 23 19 26 23 19 26 23 19 26 23 19 26 23 19 26 23 19 26 23 19 26 23
19 26 23 19 26 23 19 26 23 19 26 23 19 26 23 19 26 23 19 26 23 19 26
23 19 26 23 19 26 23 19 26 23 19 26 23 19 26 23 19 26 23 19 26 23 19
26 23 19 26 23 19 26 23 19 26 23 19 26 23 19 26 23 19 26 23 19 26 23
19 26 23 19 26 23 19 26 23 22 29 24 22 29 24 22 29 24 22 29 24 22 29
24 22 29 24 22 29 24 22 29 24 22 29 24 22 29 24 22 29 24 22 29 24 22
29 24 22 29 24 22 29 24 22 29 24 22 29 24 22 29 24 22 29 24 22 29 24
22 29 24 22 29 24 22 29 24 22 29 24 22 29 24 22 29 24 22 29 24 22 29
24 22 29 24 22 29 24 22 29 24 22 29 24 22 29 24 22 29 24 22 29 24 22
29 24 22 29 24 22 29 24 22 29 24 22 29 24 22 30 24 22 30 24 22 30 24
22 30 24 22 30 24 22 30 24 22 30 24 22 30 24 22 30 24 22 30 24 22 30
24 22 30 24 22 30 24 22 30 24 22 30 24 22 30 24 22 30 24 22 30 24 21
22 227 21 22 228 21 22 227 21 23 227 21 22 225 21 22 223 21 22 221 21
22 218 21 22 216 21 22 213 21 22 210 21 21 208 21 21 205 21 21 202 21
21 199 21 21 197 21 21 194 21 21 191 21 20 188 21 20 185 21 20 183 21
20 180 21 20 177 21 20 174 21 20 171 21 19 169 21 19 166 21 19 163 21
19 160 21 19 158 21 19 155 21 19 152 21 18 149 21 18 146 21 18 144 21
18 141 21 18 138 21 18 135 21 18 132 21 17 130 21 17 127 21 17 124 21
17 121 21 17 118 21 17 116 21 17 115 21 17 115 21 17 115 21 17 115 21
17 115 21 17 115 21 17 115 21 17 115 19 16 114 19 16 114 19 16 114 19
16 114 19 16 114 19 16 114 19 16 114 19 16 114 19 16 115 19 16 115 19
16 115 19 16 115 19 16 115 19 16 115 19 16 115 22 30 24 22 30 24 22 30
24 22 30 24 22 30 24 22 30 24 22 30 24 22 30 24 22 30 24 22 30 24 22
30 24 22 30 24 22 30 24 22 30 24 22 30 24 22 30 24 22 30 24 22 30 24
22 30 24 22 30 24 22 30 24 22 30 24 22 30 24 22 30 24 22 30 24 22 30
24 22 30 24 22 30 24 22 30 24 22 30 24 22 30 24 22 30 24 22 30 24 22
30 24 22 30 24 22 30 24 22 30 24 22 30 24 22 30 24 22 30 24 22 30 24
22 30 24 22 30 24 22 30 24 22 30 24 22 30 24 22 30 24 22 30 24 22 30
24 22 30 24 22 30 24 22 30 24 22 30 24 22 30 24 22 30 24 22 30 24 22
30 24 22 30 24 22 30 24 22 30 24 22 30 24 22 30 24 22 30 24 22 30 24
22 30 24 22 30 24 22 30 24 22 30 24 22 30 24 22 30 24 22 30 24 22 30
24 22 30 24 22 30 24 22 30 24 22 29 24 22 29 24 22 29 24 22 29 24 22
29 24 22 29 24 22 29 24 22 29 24 22 29 24 22 29 24 22 29 24 22 29 24
22 29 24 22 29 24 22 29 24 22 29 24 22 29 24 22 29 24 22 29 24 22 29
24 22 29 24 22 29 24 22 29 24 22 29 24 22 29 24 22 29 24 22 29 24 22
29 24 22 29 24 22 29 24 22 29 24 22 29 24 22 29 24 22 29 24 22 29 24
22 29 24 22 29 24 22 29 24 22 29 24 22 29 23 22 29 23 22 29 23 22 29
23 22 29 23 22 29 23 22 29 23 22 29 23 22 29 23 22 29 23 22 29 23 22
29 23 22 29 23 22 29 23 22 29 23 22 29 23 22 29 23 22 29 23 22 29 23
22 29 23 22 29 23 22 29 23 22 29 23 22 29 23 22 29 23 22 29 23 22 29
23 22 29 23 22 29 23 22 29 23 22 29 23 22 29 23 22 29 23 22 29 23 22
29 23 22 29 23 22 29 23 22 29 23 22 29 23 22 29 23 22 29 23 22 29 23
22 29 23 22 29 23 22 29 23 22 29 23 22 29 23 22 29 23 22 29 23 22 29
23 22 29 23 22 29 23 22 29 23 22 29 23 22 29 23 22 29 23 22 29 23 22
29 23 22 29 23 22 29 23 22 29 23 22 28 23 22 28 23 22 28 23 22 28 23
22 28 23 22 28 23 22 28 23 22 28 23 22 28 23 22 28 23 22 28 23 22 28
23 22 28 23 22 28 23 22 28 23 22 28 23 22 28 23 22 28 23 22 28 23 22
28 23 22 28 23 22 28 23 22 28 23 22 28 23 22 28 23 22 28 23 22 28 23
19 26 23 19 26 23 19 26 23 19 26 23 19 26 23 19 26 23 19 26 23 19 26
23 19 26 23 19 26 23 19 26 23 19 26 23 19 26 23 19 26 23 19 26 23 19
26 23 19 26 23 19 26 23 19 26 23 19 26 23 19 26 23 19 26 23 19 26 23
19 26 23 19 27 23 19 27 23 19 27 23 19 27 23 19 27 23 19 27 23 19 27
23 19 27 23 19 27 23 19 27 23 19 27 23 19 27 23 19 27 23 19 27 23 19
27 23 19 27 23 19 27 23 19 27 23 19 27 23 19 27 23 19 27 23 19 27 23
19 27 23 19 27 23 19 27 23 19 27 23 19 27 23 19 27 23 19 27 23 19 27
23 19 27 23 19 27 23 19 27 23 19 27 23 19 27 23 19 27 23 19 27 23 19
27 23 19 27 23 19 27 23 19 27 23 19 27 23 19 27 23 19 27 23 19 27 23
19 27 23 19 27 23 19 27 23 19 27 23 19 27 23 19 27 23 22 30 24 22 30
24 22 30 24 22 30 24 22 30 24 22 30 24 22 30 24 22 30 24 22 30 24 22
30 24 22 30 24 22 30 25 22 30 25 22 30 25 22 30 25 22 30 25 22 30 25
22 30 25 22 30 25 22 30 25 22 30 25 22 30 25 22 30 25 22 30 25 22 30
25 22 30 25 22 30 25 22 30 25 22 30 25 22 30 25 22 30 25 22 30 25 22
30 25 22 30 25 22 30 25 22 30 25 22 30 25 22 30 25 22 30 25 22 30 25
23 30 25 23 30 25 23 30 25 23 30 25 23 30 25 23 30 25 23 30 25 23 30
25 23 30 25 23 30 25 23 30 25 23 30 25 23 30 25 23 30 25 23 30 25 21
22 230 21 22 230 21 22 228 21 23 228 21 22 226 21 22 224 21 22 221 21
22 219 21 22 216 21 22 213 21 22 211 21 21 208 21 21 205 21 21 202 21
21 200 21 21 197 21 21 194 21 21 191 21 20 188 21 20 186 21 20 183 21
20 180 21 20 177 21 20 174 21 20 172 21 19 169 21 19 166 21 19 163 21
19 160 21 19 158 21 19 155 21 19 152 21 18 149 21 18 146 21 18 144 21
18 141 21 18 138 21 18 135 21 18 133 21 17 130 21 17 127 21 17 124 21
17 121 21 17 119 21 17 116 21 17 115 21 17 115 21 17 115 21 17 115 21
17 115 21 17 115 21 17 115 21 17 115 21 17 115 19 16 114 19 16 114 19
16 114 19 16 114 19 16 114 19 16 114 19 16 114 19 16 114 19 16 115 19
16 115 19 16 115 19 16 115 19 16 115 19 16 115 23 30 25 23 30 25 23 30
25 23 30 25 23 30 25 23 30 25 23 30 25 23 30 25 23 30 25 23 30 25 23
30 25 23 30 25 23 30 25 23 30 25 23 30 25 23 30 25 23 30 25 23 30 25
23 30 25 23 30 25 23 30 25 23 30 25 23 30 25 23 30 25 23 30 25 23 30
25 23 30 25 23 30 25 23 30 25 23 30 25 23 30 25 23 30 25 23 30 25 23
30 25 23 30 25 23 30 25 23 30 25 23 30 25 23 30 25 23 30 25 23 30 25
23 30 25 23 30 25 23 30 25 23 30 25 23 30 25 23 30 25 23 30 25 23 30
25 23 30 25 23 30 25 23 30 25 23 30 25 23 30 25 23 30 25 23 30 25 23
30 25 23 30 25 23 30 25 23 30 25 23 30 25 23 30 25 23 30 25 23 30 25
23 30 25 23 30 25 23 30 25 23 30 25 23 30 25 23 30 24 23 30 24 23 30
24 23 30 24 23 30 24 23 30 24 23 30 24 23 30 24 23 30 24 23 30 24 23
30 24 23 30 24 23 30 24 23 30 24 23 30 24 23 30 24 23 30 24 23 30 24
23 30 24 23 30 24 23 30 24 23 30 24 23 30 24 23 30 24 23 30 24 23 30
24 23 30 24 23 30 24 23 30 24 23 30 24 23 30 24 23 30 24 23 30 24 23
30 24 23 30 24 23 30 24 23 30 24 23 30 24 23 30 24 23 30 24 23 30 24
22 30 24 22 30 24 22 30 24 22 30 24 22 30 24 22 30 24 22 30 24 22 30
24 22 30 24 22 30 24 22 30 24 22 30 24 22 30 24 22 30 24 22 30 24 22
30 24 22 29 24 22 29 24 22 29 24 22 29 24 22 29 24 22 29 24 22 29 24
22 29 24 22 29 24 22 29 24 22 29 24 22 29 24 22 29 24 22 29 24 22 29
24 22 29 24 22 29 24 22 29 24 22 29 24 22 29 24 22 29 24 22 29 24 22
29 24 22 29 24 22 29 24 22 29 24 22 29 24 22 29 24 22 29 23 22 29 23
22 29 23 22 29 23 22 29 23 22 29 23 22 29 23 22 29 23 22 29 23 22 29
23 22 29 23 22 29 23 22 29 23 22 29 23 22 29 23 22 29 23 22 29 23 22
29 23 22 29 23 22 29 23 22 29 23 22 29 23 22 29 23 22 29 23 22 29 23
22 29 23 22 29 23 22 29 23 22 29 23 22 29 23 22 29 23 22 29 23 22 29
23 22 29 23 22 29 23 22 29 23 22 29 23 22 29 23 22 29 23 22 29 23 22
29 23 22 29 23 22 29 23 22 29 23 22 29 23 22 29 23 22 29 23 22 29 23
19 27 23 19 27 23 19 27 23 19 27 23 19 27 23 19 27 23 19 27 23 19 27
23 19 27 23 19 27 23 19 27 23 19 27 23 19 27 23 19 27 23 19 27 23 19
27 23 19 27 23 19 27 23 19 27 23 19 27 23 19 27 23 19 27 23 19 27 23
19 27 23 19 27 23 19 27 23 19 27 23 19 27 23 19 27 23 19 27 23 19 27
23 19 27 23 19 27 23 19 27 23 19 27 23 19 27 23 19 27 23 19 27 23 19
27 23 19 27 24 19 27 24 19 27 24 19 27 24 19 27 24 19 27 24 19 27 24
19 27 24 19 27 24 19 27 24 19 27 24 19 27 24 19 27 24 19 27 24 19 27
24 19 27 24 19 27 24 19 27 24 19 27 24 19 27 24 19 27 24 19 27 24 19
27 24 19 27 24 19 27 24 19 27 24 19 27 24 19 27 24 19 27 24 19 27 24
19 27 24 19 27 24 19 27 24 19 27 24 19 27 24 19 27 24 19 27 24 19 27
24 23 30 25 23 30 25 23 30 25 23 30 25 23 30 25 23 30 25 23 30 25 23
30 25 23 30 25 23 30 25 23 30 25 23 30 25 23 30 25 23 30 25 23 30 25
23 30 25 23 30 25 23 30 25 23 30 25 23 30 25 23 30 25 23 30 25 23 30
25 23 31 25 23 31 25 23 31 25 23 31 25 23 31 25 23 31 25 23 31 25 23
31 25 23 31 25 23 31 25 23 31 25 23 31 25 23 31 25 23 31 25 23 31 25
23 31 25 23 31 25 23 31 25 23 31 25 23 31 25 23 31 25 23 31 25 23 31
25 23 31 25 23 31 25 23 31 25 23 31 25 23 31 25 23 31 25 21 22 232 21
22 232 21 22 231 21 23 231 21 23 229 21 22 226 21 22 224 21 22 221 21
22 219 21 22 216 21 22 213 21 22 211 21 21 208 21 21 205 21 21 202 21
21 200 21 21 197 21 21 194 21 21 191 21 20 188 21 20 186 21 20 183 21
20 180 21 20 177 21 20 174 21 20 172 21 19 169 21 19 166 21 19 163 21
19 160 21 19 158 21 19 155 21 19 152 21 18 149 21 18 146 21 18 144 21
18 141 21 18 138 21 18 135 21 18 133 21 17 130 21 17 127 21 17 124 21
17 121 21 17 119 20 17 116 20 17 115 20 17 115 20 17 115 20 17 115 20
17 115 21 17 115 21 17 115 21 17 115 21 17 115 21 17 115 19 16 114 19
16 114 19 16 114 19 16 114 19 16 114 19 16 114 19 16 114 19 16 114 19
16 115 19 16 115 19 16 115 19 16 115 19 16 115 19 16 115 23 31 26 23
31 26 23 31 26 23 31 26 23 31 26 23 31 26 23 31 26 23 31 26 23 31 26
23 31 26 23 31 26 23 31 26 23 31 26 23 31 26 23 31 26 23 31 26 23 31
26 23 31 26 23 31 26 23 31 25 23 31 25 23 31 25 23 31 25 23 31 25 23
31 25 23 31 25 23 31 25 23 31 25 23 31 25 23 31 25 23 31 25 23 31 25
23 31 25 23 31 25 23 31 25 23 31 25 23 31 25 23 31 25 23 31 25 23 31
25 23 31 25 23 31 25 23 31 25 23 31 25 23 31 25 23 31 25 23 31 25 23
31 25 23 31 25 23 31 25 23 31 25 23 31 25 23 31 25 23 31 25 23 31 25
23 31 25 23 31 25 23 31 25 23 31 25 23 31 25 23 31 25 23 31 25 23 31
25 23 31 25 23 31 25 23 31 25 23 31 25 23 31 25 23 31 25 23 31 25 23
31 25 23 31 25 23 31 25 23 31 25 23 31 25 23 31 25 23 31 25 23 31 25
23 31 25 23 31 25 23 31 25 23 31 25 23 31 25 23 31 25 23 30 25 23 30
25 23 30 25 23 30 25 23 30 25 23 30 25 23 30 25 23 30 25 23 30 25 23
30 25 23 30 25 23 30 25 23 30 25 23 30 25 23 30 25 23 30 25 23 30 25
23 30 25 23 30 25 23 30 25 23 30 25 23 30 25 23 30 25 23 30 25 23 30
25 23 30 25 23 30 25 23 30 24 23 30 24 23 30 24 23 30 24 23 30 24 23
30 24 23 30 24 23 30 24 23 30 24 23 30 24 23 30 24 23 30 24 23 30 24
23 30 24 23 30 24 23 30 24 23 30 24 23 30 24 23 30 24 23 30 24 23 30
24 23 30 24 23 30 24 23 30 24 23 30 24 23 30 24 23 30 24 23 30 24 23
30 24 23 30 24 23 30 24 23 30 24 23 30 24 23 30 24 23 30 24 23 30 24
23 30 24 23 30 24 23 30 24 23 30 24 23 30 24 23 30 24 22 30 24 22 30
24 22 30 24 22 30 24 22 30 24 22 30 24 22 30 24 22 30 24 22 30 24 22
30 24 22 30 24 22 29 24 22 29 24 22 29 24 22 29 24 22 29 24 22 29 24
22 29 24 22 29 24 22 29 24 22 29 24 22 29 24 22 29 24 22 29 24 22 29
24 22 29 24 22 29 24 22 29 24 22 29 24 22 29 24 22 29 24 22 29 24 22
29 24 22 29 24 22 29 24 22 29 23 22 29 23 22 29 23 22 29 23 22 29 23
22 29 23 22 29 23 22 29 23 22 29 23 22 29 23 22 29 23 22 29 23 22 29
23
19 27 24 19 27 24 19 27 24 19 27 24 19 27 24 19 27 24 19 27 24 19 27
24 19 27 24 19 27 24 19 27 24 19 27 24 19 27 24 19 27 24 19 27 24 19
27 24 19 27 24 19 27 24 19 27 24 19 27 24 19 27 24 19 27 24 19 27 24
19 27 24 19 27 24 19 27 24 19 27 24 19 27 24 19 27 24 19 27 24 19 27
24 19 27 24 19 27 24 19 27 24 19 27 24 19 27 24 19 27 24 19 27 24 19
27 24 19 27 24 19 27 24 19 27 24 19 27 24 19 27 24 19 27 24 19 27 24
19 27 24 19 27 24 19 27 24 19 27 24 19 27 24 19 27 24 19 27 24 19 27
24 19 27 24 19 27 24 19 27 24 19 27 24 19 27 24 19 27 24 19 27 24 19
27 24 19 27 24 19 27 24 19 27 24 19 27 24 19 27 24 19 27 24 19 27 24
19 27 24 19 27 24 19 27 24 19 27 24 19 27 24 19 27 24 19 27 24 19 27
24 19 27 24 19 27 24 19 27 24 23 31 26 23 31 26 23 31 26 23 31 26 23
31 26 23 31 26 23 31 26 23 31 26 23 31 26 23 31 26 23 31 26 23 31 26
23 31 26 23 31 26 23 31 26 23 31 26 23 31 26 23 31 26 23 31 26 23 31
26 23 31 26 23 31 26 23 31 26 23 31 26 23 31 26 23 31 26 23 31 26 23
31 26 23 31 26 23 31 26 23 31 26 23 31 26 23 31 26 23 31 26 23 31 26
23 31 26 23 31 26 23 31 26 23 31 26 23 31 26 23 31 26 23 31 26 23 31
26 23 31 26 23 31 26 23 31 26 23 31 26 23 31 26 21 22 232 21 22 234 21
22 233 21 23 233 21 23 231 21 23 229 21 22 227 21 22 224 21 22 222 21
22 219 21 22 216 21 22 214 21 22 211 21 21 208 21 21 205 21 21 202 21
21 200 21 21 197 21 21 194 21 21 191 21 20 188 21 20 186 21 20 183 21
20 180 21 20 177 21 20 174 21 19 172 21 19 169 21 19 166 21 19 163 21
19 160 21 19 158 21 19 155 21 19 152 21 18 149 21 18 146 21 18 144 21
18 141 21 18 138 21 18 135 21 18 133 21 17 130 21 17 127 21 17 124 20
17 122 20 17 119 20 17 116 20 17 115 20 17 115 20 17 115 20 17 115 20
17 115 20 17 115 20 17 115 20 17 115 20 17 115 20 17 115 19 16 114 19
16 114 19 16 114 19 16 114 19 16 114 19 16 114 19 16 114 19 16 114 19
16 115 19 16 115 19 16 115 19 16 115 19 16 115 19 16 115 19 16 115 24
32 26 24 32 26 24 32 26 24 32 26 24 32 26 24 32 26 24 32 26 24 32 26
24 32 26 24 32 26 24 32 26 24 32 26 24 32 26 24 32 26 24 32 26 24 32
26 24 32 26 24 32 26 24 32 26 24 32 26 24 32 26 24 32 26 24 32 26 24
32 26 24 32 26 24 32 26 24 32 26 24 32 26 24 32 26 24 32 26 24 32 26
24 32 26 24 32 26 24 32 26 24 32 26 24 32 26 24 32 26 23 32 26 23 32
26 23 32 26 23 31 26 23 31 26 23 31 26 23 31 26 23 31 26 23 31 26 23
31 26 23 31 26 23 31 26 23 31 26 23 31 26 23 31 26 23 31 26 23 31 26
23 31 26 23 31 26 23 31 26 23 31 26 23 31 26 23 31 26 23 31 26 23 31
26 23 31 26 23 31 26 23 31 26 23 31 26 23 31 26 23 31 26 23 31 26 23
31 26 23 31 26 23 31 26 23 31 26 23 31 26 23 31 26 23 31 25 23 31 25
23 31 25 23 31 25 23 31 25 23 31 25 23 31 25 23 31 25 23 31 25 23 31
25 23 31 25 23 31 25 23 31 25 23 31 25 23 31 25 23 31 25 23 31 25 23
31 25 23 31 25 23 31 25 23 31 25 23 31 25 23 31 25 23 31 25 23 31 25
23 31 25 23 31 25 23 31 25 23 31 25 23 31 25 23 31 25 23 31 25 23 31
25 23 31 25 23 31 25 23 31 25 23 31 25 23 31 25 23 31 25 23 31 25 23
31 25 23 31 25 23 31 25 23 31 25 23 31 25 23 31 25 23 31 25 23 31 25
23 31 25 23 30 25 23 30 25 23 30 25 23 30 25 23 30 25 23 30 25 23 30
25 23 30 25 23 30 25 23 30 25 23 30 25 23 30 25 23 30 25 23 30 25 23
30 25 23 30 25 23 30 25 23 30 25 23 30 25 23 30 25 23 30 24 23 30 24
23 30 24 23 30 24 23 30 24 23 30 24 23 30 24 23 30 24 23 30 24 23 30
24 23 30 24 23 30 24 23 30 24 23 30 24 23 30 24 23 30 24 23 30 24 23
30 24 23 30 24 23 30 24 23 30 24 23 30 24 23 30 24 23 30 24 23 30 24
23 30 24 23 30 24 23 30 24 23 30 24 23 30 24 23 30 24 23 30 24 23 30
24 23 30 24 23 30 24 23 30 24 23 30 24 23 30 24 23 30 24 23 30 24 23
30 24 23 30 24 23 30 24 22 30 24 22 30 24 22 30 24 22 30 24 22 30 24
22 30 24 22 30 24 22 30 24 22 29 24 22 29 24 22 29 24 22 29 24 22 29
24
19 27 24 19 27 24 19 27 24 19 27 24 19 27 24 19 27 24 19 27 24 19 27
24 19 27 24 19 27 24 19 27 24 19 27 24 19 27 24 19 27 24 19 27 24 19
27 24 19 27 24 19 27 24 19 27 24 19 27 24 19 27 24 19 27 24 19 27 24
19 27 24 19 27 24 19 27 24 19 27 24 19 27 24 19 27 24 19 27 24 19 27
24 19 27 24 19 27 24 19 27 24 19 27 24 19 27 24 19 27 24 19 27 24 19
27 24 19 27 24 19 27 24 19 27 24 19 27 24 19 27 25 19 27 25 19 27 25
19 27 25 19 27 25 19 27 25 19 27 25 19 27 25 19 27 25 19 27 25 19 27
25 19 27 25 19 27 25 19 27 25 19 28 25 19 28 25 19 28 25 19 28 25 19
28 25 19 28 25 19 28 25 19 28 25 19 28 25 19 28 25 19 28 25 19 28 25
19 28 25 19 28 25 19 28 25 19 28 25 19 28 25 19 28 25 19 28 25 19 28
25 19 28 25 19 28 25 19 28 25 19 28 25 19 28 25 23 31 26 23 31 26 23
31 26 23 31 26 23 31 26 23 31 26 23 31 26 23 32 26 23 32 26 23 32 26
23 32 26 23 32 26 23 32 26 23 32 26 23 32 26 23 32 26 23 32 26 23 32
26 23 32 27 23 32 27 23 32 27 23 32 27 23 32 27 23 32 27 23 32 27 23
32 27 23 32 27 23 32 27 23 32 27 23 32 27 23 32 27 23 32 27 23 32 27
23 32 27 23 32 27 23 32 27 23 32 27 23 32 27 23 32 27 23 32 27 23 32
27 23 32 27 23 32 27 23 32 27 23 32 27 24 32 27 21 22 236 21 22 235 21
22 234 21 23 234 21 23 232 21 23 229 21 22 227 21 22 224 21 22 222 21
22 219 21 22 216 21 22 214 21 22 211 21 21 208 21 21 205 21 21 202 21
21 200 21 21 197 21 21 194 21 20 191 21 20 188 21 20 185 21 20 183 21
20 180 21 20 177 21 20 174 21 19 171 21 19 169 21 19 166 21 19 163 21
19 160 21 19 158 21 19 155 21 18 152 21 18 149 21 18 146 21 18 144 21
18 141 21 18 138 21 18 135 21 18 133 21 17 130 20 17 127 20 17 124 20
17 122 20 17 119 20 17 116 20 17 115 20 17 115 20 17 115 20 17 115 20
17 115 20 17 115 20 17 115 20 17 115 20 17 115 20 17 115 20 17 115 19
16 114 19 16 114 19 16 114 19 16 114 19 16 114 19 16 114 19 16 114 19
16 114 19 16 115 19 16 115 19 16 115 19 16 115 19 16 115 19 16 115 24
32 27 24 32 27 24 32 27 24 32 27 24 32 27 24 32 27 24 32 27 24 32 27
24 32 27 24 32 27 24 32 27 24 32 27 24 32 27 24 32 27 24 32 27 24 32
27 24 32 27 24 32 27 24 32 27 24 32 27 24 32 27 24 32 27 24 32 27 24
32 27 24 32 27 24 32 27 24 32 27 24 32 27 24 32 27 24 32 27 24 32 27
24 32 27 24 32 27 24 32 27 24 32 27 24 32 27 24 32 27 24 32 27 24 32
27 24 32 27 24 32 27 24 32 26 24 32 26 24 32 26 24 32 26 24 32 26 24
32 26 24 32 26 24 32 26 24 32 26 24 32 26 24 32 26 24 32 26 24 32 26
24 32 26 24 32 26 24 32 26 24 32 26 24 32 26 24 32 26 24 32 26 24 32
26 24 32 26 24 32 26 24 32 26 24 32 26 24 32 26 24 32 26 24 32 26 24
32 26 24 32 26 24 32 26 24 32 26 24 32 26 24 32 26 24 32 26 24 32 26
24 32 26 24 32 26 24 32 26 24 32 26 24 32 26 24 32 26 24 32 26 24 32
26 24 32 26 24 32 26 24 32 26 24 32 26 24 32 26 24 32 26 24 32 26 24
31 26 24 31 26 24 31 26 24 31 26 24 31 26 24 31 26 24 31 26 24 31 26
24 31 26 24 31 26 24 31 26 23 31 26 23 31 26 23 31 26 23 31 26 23 31
26 23 31 26 23 31 26 23 31 25 23 31 25 23 31 25 23 31 25 23 31 25 23
31 25 23 31 25 23 31 25 23 31 25 23 31 25 23 31 25 23 31 25 23 31 25
23 31 25 23 31 25 23 31 25 23 31 25 23 31 25 23 31 25 23 31 25 23 31
25 23 31 25 23 31 25 23 31 25 23 31 25 23 31 25 23 31 25 23 31 25 23
31 25 23 31 25 23 31 25 23 31 25 23 31 25 23 31 25 23 31 25 23 31 25
23 31 25 23 31 25 23 31 25 23 31 25 23 31 25 23 31 25 23 31 25 23 31
25 23 31 25 23 31 25 23 31 25 23 30 25 23 30 25 23 30 25 23 30 25 23
30 25 23 30 25 23 30 25 23 30 25 23 30 25 23 30 25 23 30 25 23 30 25
23 30 25 23 30 25 23 30 25 23 30 25 23 30 25 23 30 24 23 30 24 23 30
24 23 30 24 23 30 24 23 30 24 23 30 24 23 30 24 23 30 24 23 30 24 23
30 24 23 30 24 23 30 24 23 30 24 23 30 24 23 30 24 23 30 24 23 30 24
23 30 24 23 30 24 23 30 24 23 27 19 23 27 19 23 27 19 23 27 19 23 27
19
19 27 24 19 27 24 19 27 24 19 27 24 19 27 24 19 27 24 19 27 24 19 27
24 19 27 25 19 27 25 19 27 25 19 27 25 19 27 25 19 27 25 19 27 25 19
27 25 19 27 25 19 27 25 19 27 25 19 27 25 19 28 25 19 28 25 19 28 25
19 28 25 19 28 25 19 28 25 19 28 25 19 28 25 19 28 25 19 28 25 19 28
25 19 28 25 19 28 25 19 28 25 19 28 25 19 28 25 19 28 25 19 28 25 19
28 25 19 28 25 19 28 25 19 28 25 19 28 25 19 28 25 19 28 25 19 28 25
19 28 25 19 28 25 19 28 25 19 28 25 19 28 25 19 28 25 19 28 25 19 28
25 19 28 25 19 28 25 19 28 25 19 28 25 19 28 25 19 28 25 19 28 25 19
28 25 19 28 25 19 28 25 19 28 25 19 28 25 19 28 25 19 28 25 19 28 25
19 28 25 19 28 25 19 28 25 19 28 25 19 28 25 19 28 25 19 28 25 19 28
25 19 28 25 19 28 25 19 28 25 19 28 25 19 28 26 19 28 26 19 28 26 19
28 26 23 32 27 23 32 27 23 32 27 23 32 27 23 32 27 23 32 27 23 32 27
24 32 27 24 32 27 24 32 27 24 32 27 24 32 27 24 32 27 24 32 27 24 32
27 24 32 27 24 32 27 24 32 27 24 32 27 24 32 27 24 32 27 24 32 27 24
32 27 24 32 27 24 32 27 24 32 27 24 32 27 24 32 27 24 32 27 24 32 27
24 32 27 24 32 27 24 32 27 24 32 27 24 33 27 24 33 27 24 33 27 24 33
27 24 33 27 24 33 27 24 33 27 24 33 27 21 22 236 21 22 237 21 22 236
21 23 236 21 23 234 21 23 232 21 23 230 21 22 227 21 22 225 21 22 222
21 22 219 21 22 216 21 22 214 21 22 211 21 21 208 21 21 205 21 21 202
21 21 200 21 21 197 21 21 194 21 20 191 21 20 188 21 20 185 21 20 183
21 20 180 21 20 177 21 20 174 21 19 171 21 19 169 21 19 166 21 19 163
21 19 160 21 19 157 21 19 155 21 18 152 21 18 149 21 18 146 21 18 144
21 18 141 21 18 138 21 18 135 20 17 133 20 17 130 20 17 127 20 17 124
20 17 122 20 17 119 20 17 116 20 17 115 20 17 115 20 17 115 20 17 115
20 17 115 20 17 115 20 17 115 20 17 115 20 17 115 20 17 115 20 17 115
19 16 114 19 16 114 19 16 114 19 16 114 19 16 114 19 16 114 19 16 114
19 16 114 19 16 114 19 16 115 19 16 115 19 16 115 19 16 115 19 16 115
19 16 115 24 33 28 24 33 28 24 33 27 24 33 27 24 33 27 24 33 27 24 33
27 24 33 27 24 33 27 24 33 27 24 33 27 24 33 27 24 33 27 24 33 27 24
33 27 24 33 27 24 33 27 24 33 27 24 33 27 24 33 27 24 33 27 24 33 27
24 33 27 24 33 27 24 33 27 24 33 27 24 33 27 24 33 27 24 33 27 24 33
27 24 33 27 24 33 27 24 33 27 24 33 27 24 33 27 24 33 27 24 33 27 24
33 27 24 33 27 24 33 27 24 33 27 24 33 27 24 33 27 24 33 27 24 33 27
24 33 27 24 33 27 24 33 27 24 33 27 24 33 27 24 33 27 24 33 27 24 33
27 24 33 27 24 33 27 24 33 27 24 33 27 24 33 27 24 33 27 24 33 27 24
33 27 24 32 27 24 32 27 24 32 27 24 32 27 24 32 27 24 32 27 24 32 27
24 32 27 24 32 27 24 32 27 24 32 27 24 32 27 24 32 27 24 32 27 24 32
27 24 32 27 24 32 27 24 32 27 24 32 27 24 32 26 24 32 26 24 32 26 24
32 26 24 32 26 24 32 26 24 32 26 24 32 26 24 32 26 24 32 26 24 32 26
24 32 26 24 32 26 24 32 26 24 32 26 24 32 26 24 32 26 24 32 26 24 32
26 24 32 26 24 32 26 24 32 26 24 32 26 24 32 26 24 32 26 24 32 26 24
32 26 24 32 26 24 32 26 24 32 26 24 32 26 24 32 26 24 32 26 24 32 26
24 32 26 24 32 26 24 32 26 24 32 26 24 32 26 24 32 26 24 32 26 24 32
26 24 32 26 24 32 26 24 32 26 24 31 26 24 31 26 24 31 26 24 31 26 24
31 26 24 31 26 24 31 26 24 31 26 24 31 26 24 31 26 24 31 26 24 31 26
24 31 26 24 31 25 23 31 25 23 31 25 23 31 25 23 31 25 23 31 25 23 31
25 23 31 25 23 31 25 23 31 25 23 31 25 23 31 25 23 31 25 23 31 25 23
31 25 23 31 25 23 31 25 23 31 25 23 31 25 23 31 25 23 31 25 23 31 25
23 31 25 23 31 25 23 31 25 23 31 25 23 31 25 23 31 25 23 31 25 23 31
25 23 31 25 23 31 25 23 31 25 23 31 25 23 31 25 23 31 25 23 31 25 23
31 25 23 31 25 23 31 25 23 31 25 23 31 25 23 31 25 23 31 25 23 31 25
23 31 25 23 31 25 23 30 25 23 30 25 23 30 25 23 30 25 23 28 19 23 28
19 23 27 19 23 27 19 23 27 19 23 27 19 23 27 19 23 27 19 23 27 19 23
27 19
19 28 25 19 28 25 19 28 25 19 28 25 19 28 25 19 28 25 19 28 25 19 28
25 19 28 25 19 28 25 19 28 25 19 28 25 19 28 25 19 28 25 19 28 25 19
28 25 19 28 25 19 28 25 19 28 25 19 28 25 19 28 25 19 28 25 19 28 25
19 28 25 19 28 25 19 28 25 19 28 25 19 28 25 19 28 25 19 28 25 19 28
25 19 28 25 19 28 25 19 28 25 19 28 25 19 28 25 19 28 25 19 28 25 19
28 25 19 28 25 19 28 25 19 28 26 19 28 26 19 28 26 19 28 26 19 28 26
19 28 26 19 28 26 19 28 26 19 28 26 19 28 26 19 28 26 19 28 26 19 28
26 19 28 26 19 28 26 19 28 26 19 28 26 19 28 26 19 28 26 19 28 26 19
28 26 19 28 26 19 28 26 19 28 26 19 28 26 19 28 26 19 28 26 19 28 26
19 28 26 19 28 26 19 28 26 19 28 26 19 28 26 19 28 26 19 28 26 19 28
26 19 28 26 19 28 26 19 28 26 19 28 26 19 28 26 19 28 26 19 28 26 19
28 26 19 28 26 19 28 26 24 33 28 24 33 28 24 33 28 24 33 28 24 33 28
24 33 28 24 33 28 24 33 28 24 33 28 24 33 28 24 33 28 24 33 28 24 33
28 24 33 28 24 33 28 24 33 28 24 33 28 24 33 28 24 33 28 24 33 28 24
33 28 24 33 28 24 33 28 24 33 28 24 33 28 24 33 28 24 33 28 24 33 28
24 33 28 24 33 28 24 33 28 24 33 28 24 33 28 24 33 28 24 33 28 24 33
28 24 33 28 24 33 28 24 33 28 24 33 28 21 22 238 21 22 238 21 22 237
21 23 237 21 23 235 21 23 232 21 23 230 21 22 227 21 22 225 21 22 222
21 22 219 21 22 216 21 22 214 21 22 211 21 21 208 21 21 205 21 21 202
21 21 199 21 21 197 21 21 194 21 20 191 21 20 188 21 20 185 21 20 182
21 20 180 21 20 177 21 20 174 21 19 171 21 19 168 21 19 166 21 19 163
21 19 160 21 19 157 21 19 155 21 18 152 21 18 149 21 18 146 21 18 144
21 18 141 20 18 138 20 18 135 20 17 133 20 17 130 20 17 127 20 17 124
20 17 121 20 17 119 20 17 116 20 17 115 20 17 115 20 17 115 20 17 115
20 17 115 20 17 115 20 17 115 20 17 115 20 17 115 20 17 115 20 17 115
19 16 114 19 16 114 19 16 114 19 16 114 19 16 114 19 16 114 19 16 114
19 16 114 19 16 114 19 16 114 19 16 115 19 16 115 19 16 115 19 16 115
19 16 115 25 34 28 25 34 28 25 34 28 25 34 28 25 34 28 25 34 28 25 34
28 25 34 28 25 34 28 25 34 28 25 34 28 25 34 28 25 34 28 25 34 28 25
34 28 25 34 28 25 34 28 25 34 28 25 34 28 25 34 28 25 34 28 25 34 28
25 34 28 25 34 28 25 34 28 25 34 28 25 34 28 25 33 28 25 33 28 25 33
28 25 33 28 25 33 28 25 33 28 25 33 28 25 33 28 25 33 28 25 33 28 25
33 28 25 33 28 25 33 28 25 33 28 25 33 28 25 33 28 25 33 28 25 33 28
25 33 28 25 33 28 25 33 28 25 33 28 25 33 28 25 33 28 25 33 28 25 33
28 25 33 28 25 33 28 25 33 27 25 33 27 25 33 27 25 33 27 25 33 27 25
33 27 25 33 27 25 33 27 24 33 27 24 33 27 24 33 27 24 33 27 24 33 27
24 33 27 24 33 27 24 33 27 24 33 27 24 33 27 24 33 27 24 33 27 24 33
27 24 33 27 24 33 27 24 33 27 24 33 27 24 33 27 24 33 27 24 33 27 24
33 27 24 33 27 24 33 27 24 33 27 24 33 27 24 33 27 24 33 27 24 33 27
24 33 27 24 33 27 24 33 27 24 33 27 24 33 27 24 33 27 24 33 27 24 33
27 24 32 27 24 32 27 24 32 27 24 32 27 24 32 27 24 32 27 24 32 27 24
32 27 24 32 27 24 32 27 24 32 27 24 32 26 24 32 26 24 32 26 24 32 26
24 32 26 24 32 26 24 32 26 24 32 26 24 32 26 24 32 26 24 32 26 24 32
26 24 32 26 24 32 26 24 32 26 24 32 26 24 32 26 24 32 26 24 32 26 24
32 26 24 32 26 24 32 26 24 32 26 24 32 26 24 32 26 24 32 26 24 32 26
24 32 26 24 32 26 24 32 26 24 32 26 24 32 26 24 32 26 24 32 26 24 32
26 24 32 26 24 32 26 24 32 26 24 32 26 24 32 26 24 32 26 24 32 26 24
32 26 24 32 26 24 31 26 24 31 26 24 31 26 24 31 26 24 31 26 24 31 26
24 31 26 24 31 26 24 31 26 24 31 26 24 31 25 24 31 25 24 31 25 24 31
25 23 31 25 23 31 25 23 31 25 23 31 25 23 31 25 23 31 25 23 31 25 23
31 25 23 31 25 23 31 25 23 31 25 23 31 25 23 31 25 23 31 25 23 31 25
23 31 25 23 31 25 23 28 20 23 28 20 23 28 20 23 28 20 23 28 20 23 28
20 23 28 20 23 28 20 23 28 20 23 28 20 23 28 20 23 28 20 23 28 20 23
28 20
19 28 25 19 28 25 19 28 25 19 28 25 19 28 25 19 28 25 19 28 25 19 28
25 19 28 25 19 28 25 19 28 26 19 28 26 19 28 26 19 28 26 19 28 26 19
28 26 19 28 26 19 28 26 19 28 26 19 28 26 19 28 26 19 28 26 19 28 26
19 28 26 19 28 26 19 28 26 19 28 26 19 28 26 19 28 26 19 28 26 19 28
26 19 28 26 19 28 26 19 28 26 19 28 26 19 28 26 19 28 26 19 28 26 19
28 26 19 28 26 19 28 26 19 28 26 19 28 26 19 28 26 19 28 26 19 28 26
19 28 26 19 28 26 19 28 26 19 28 26 19 28 26 19 28 26 19 28 26 19 28
26 19 28 26 19 28 26 19 28 26 19 28 26 19 28 26 19 28 26 19 28 26 19
28 26 19 28 26 19 28 26 19 28 26 19 28 26 19 28 26 19 28 26 19 28 26
19 28 26 19 29 26 19 29 26 19 29 27 19 29 27 19 29 27 19 29 27 19 29
27 19 29 27 19 29 27 19 29 27 19 29 27 19 29 27 19 29 27 19 29 27 19
29 27 19 29 27 19 29 27 19 29 27 19 29 27 19 29 27 24 33 28 24 33 28
24 33 28 24 33 28 24 33 28 24 33 28 24 33 28 24 33 28 24 33 28 24 33
29 24 33 29 24 34 29 24 34 29 24 34 29 24 34 29 24 34 29 24 34 29 24
34 29 24 34 29 24 34 29 24 34 29 24 34 29 24 34 29 24 34 29 24 34 29
24 34 29 24 34 29 24 34 29 24 34 29 24 34 29 24 34 29 24 34 29 24 34
29 24 34 29 24 34 29 24 34 29 21 22 238 21 22 240 21 22 239 21 23 239
21 23 237 21 23 235 21 23 232 21 23 230 21 22 227 21 22 224 21 22 222
21 22 219 21 22 216 21 22 213 21 21 211 21 21 208 21 21 205 21 21 202
21 21 199 21 21 196 21 21 194 21 20 191 21 20 188 21 20 185 21 20 182
21 20 179 21 20 177 21 20 174 21 19 171 21 19 168 21 19 165 21 19 163
21 19 160 21 19 157 21 19 154 21 18 152 21 18 149 21 18 146 21 18 143
20 18 141 20 18 138 20 18 135 20 17 132 20 17 130 20 17 127 20 17 124
20 17 121 20 17 119 20 17 116 20 17 115 20 17 115 20 17 115 20 17 115
20 17 115 20 17 115 20 17 115 20 17 115 20 17 115 20 17 115 20 17 115
20 17 115 19 16 114 19 16 114 19 16 114 19 16 114 19 16 114 19 16 114
19 16 114 19 16 114 19 16 114 19 16 115 19 16 115 19 16 115 19 16 115
19 16 115 19 16 115 25 34 29 25 34 29 25 34 29 25 34 29 25 34 29 25 34
29 25 34 29 25 34 29 25 34 29 25 34 29 25 34 29 25 34 29 25 34 29 25
34 29 25 34 29 25 34 29 25 34 29 25 34 29 25 34 29 25 34 29 25 34 29
25 34 29 25 34 29 25 34 29 25 34 29 25 34 29 25 34 29 25 34 29 25 34
29 25 34 28 25 34 28 25 34 28 25 34 28 25 34 28 25 34 28 25 34 28 25
34 28 25 34 28 25 34 28 25 34 28 25 34 28 25 34 28 25 34 28 25 34 28
25 34 28 25 34 28 25 34 28 25 34 28 25 34 28 25 34 28 25 34 28 25 34
28 25 34 28 25 34 28 25 34 28 25 34 28 25 34 28 25 34 28 25 34 28 25
34 28 25 34 28 25 34 28 25 34 28 25 34 28 25 34 28 25 34 28 25 34 28
25 34 28 25 34 28 25 34 28 25 34 28 25 34 28 25 34 28 25 34 28 25 34
28 25 33 28 25 33 28 25 33 28 25 33 28 25 33 28 25 33 28 25 33 28 25
33 28 25 33 28 25 33 28 25 33 27 25 33 27 25 33 27 25 33 27 25 33 27
25 33 27 25 33 27 25 33 27 25 33 27 25 33 27 25 33 27 25 33 27 25 33
27 25 33 27 25 33 27 25 33 27 25 33 27 25 33 27 25 33 27 25 33 27 25
33 27 24 33 27 24 33 27 24 33 27 24 33 27 24 33 27 24 33 27 24 33 27
24 33 27 24 33 27 24 33 27 24 33 27 24 33 27 24 33 27 24 33 27 24 33
27 24 33 27 24 33 27 24 33 27 24 33 27 24 33 27 24 33 27 24 32 27 24
32 27 24 32 27 24 32 27 24 32 27 24 32 27 24 32 27 24 32 26 24 32 26
24 32 26 24 32 26 24 32 26 24 32 26 24 32 26 24 32 26 24 32 26 24 32
26 24 32 26 24 32 26 24 32 26 24 32 26 24 32 26 24 32 26 24 32 26 24
32 26 24 32 26 24 32 26 24 32 26 24 32 26 24 32 26 24 32 26 24 32 26
24 32 26 24 32 26 24 32 26 24 32 26 24 32 26 24 32 26 24 32 26 24 32
26 24 32 26 24 32 26 24 32 26 24 32 26 24 32 26 24 32 26 24 32 26 24
32 26 24 32 26 24 32 26 24 32 26 24 31 26 24 28 20 24 28 20 24 28 20
24 28 20 24 28 20 24 28 20 24 28 20 24 28 20 24 28 20 23 28 20 23 28
20 23 28 20 23 28 20 23 28 20 23 28 20 23 28 20 23 28 20 23 28 20 23
28 20
19 28 26 19 28 26 19 28 26 19 28 26 19 28 26 19 28 26 19 28 26 19 28
26 19 28 26 19 28 26 19 28 26 19 28 26 19 28 26 19 28 26 19 28 26 19
28 26 19 28 26 19 28 26 19 28 26 19 28 26 19 28 26 19 28 26 19 28 26
19 28 26 19 28 26 19 28 26 19 28 26 19 28 26 19 28 26 19 28 26 19 28
26 19 28 26 19 28 26 19 28 26 19 28 26 19 28 26 19 29 26 19 29 27 19
29 27 19 29 27 19 29 27 19 29 27 19 29 27 19 29 27 19 29 27 19 29 27
19 29 27 19 29 27 19 29 27 19 29 27 19 29 27 19 29 27 19 29 27 19 29
27 19 29 27 19 29 27 19 29 27 19 29 27 19 29 27 19 29 27 19 29 27 19
29 27 19 29 27 19 29 27 19 29 27 19 29 27 19 29 27 19 29 27 19 29 27
19 29 27 19 29 27 19 29 27 19 29 27 19 29 27 19 29 27 19 29 27 19 29
27 19 29 27 19 29 27 19 29 27 19 29 27 19 29 27 19 29 27 19 29 27 19
29 27 19 29 27 19 29 27 19 29 27 19 29 27 19 29 27 19 29 27 19 29 27
24 34 29 24 34 29 24 34 29 24 34 29 24 34 29 24 34 29 24 34 29 25 34
29 25 34 29 25 34 29 25 34 29 25 34 29 25 34 29 25 34 29 25 34 29 25
34 29 25 34 29 25 34 29 25 34 29 25 34 29 25 34 29 25 34 29 25 34 29
25 34 29 25 34 29 25 34 29 25 34 29 25 34 29 25 34 29 25 34 30 25 34
30 25 35 30 25 35 30 25 35 30 21 22 241 21 22 241 21 22 239 21 23 239
21 23 237 21 23 235 21 23 232 21 23 230 21 22 227 21 22 224 21 22 222
21 22 219 21 22 216 21 22 213 21 21 210 21 21 208 21 21 205 21 21 202
21 21 199 21 21 196 21 21 193 21 20 191 21 20 188 21 20 185 21 20 182
21 20 179 21 20 176 21 20 174 21 19 171 21 19 168 21 19 165 21 19 163
21 19 160 21 19 157 21 19 154 21 18 151 21 18 149 20 18 146 20 18 143
20 18 140 20 18 138 20 18 135 20 17 132 20 17 130 20 17 127 20 17 124
20 17 121 20 17 119 20 17 116 20 17 115 20 17 115 20 17 115 20 17 115
20 17 115 20 17 115 20 17 115 20 17 115 20 17 115 20 17 115 20 17 115
20 17 115 19 16 114 19 16 114 19 16 114 19 16 114 19 16 114 19 16 114
19 16 114 19 16 114 19 16 114 19 16 114 19 16 115 19 16 115 19 16 115
19 16 115 19 16 115 25 35 30 25 35 30 25 35 30 25 35 29 25 35 29 25 35
29 25 35 29 25 35 29 25 35 29 25 35 29 25 35 29 25 35 29 25 35 29 25
35 29 25 35 29 25 35 29 25 35 29 25 35 29 25 35 29 25 35 29 25 35 29
25 35 29 25 35 29 25 35 29 25 35 29 25 35 29 25 35 29 25 35 29 25 35
29 25 35 29 25 35 29 25 35 29 25 35 29 25 35 29 25 35 29 25 35 29 25
35 29 25 35 29 25 35 29 25 35 29 25 35 29 25 35 29 25 35 29 25 35 29
25 35 29 25 35 29 25 35 29 25 35 29 25 35 29 25 35 29 25 35 29 25 35
29 25 35 29 25 34 29 25 34 29 25 34 29 25 34 29 25 34 29 25 34 29 25
34 29 25 34 29 25 34 29 25 34 29 25 34 29 25 34 28 25 34 28 25 34 28
25 34 28 25 34 28 25 34 28 25 34 28 25 34 28 25 34 28 25 34 28 25 34
28 25 34 28 25 34 28 25 34 28 25 34 28 25 34 28 25 34 28 25 34 28 25
34 28 25 34 28 25 34 28 25 34 28 25 34 28 25 34 28 25 34 28 25 34 28
25 34 28 25 34 28 25 34 28 25 34 28 25 34 28 25 34 28 25 34 28 25 34
28 25 34 28 25 34 28 25 34 28 25 34 28 25 34 28 25 34 28 25 34 28 25
34 28 25 33 28 25 33 28 25 33 28 25 33 28 25 33 27 25 33 27 25 33 27
25 33 27 25 33 27 25 33 27 25 33 27 25 33 27 25 33 27 25 33 27 25 33
27 25 33 27 25 33 27 25 33 27 25 33 27 25 33 27 25 33 27 25 33 27 25
33 27 25 33 27 25 33 27 25 33 27 25 33 27 25 33 27 25 33 27 25 33 27
24 33 27 24 33 27 24 33 27 24 33 27 24 33 27 24 33 27 24 33 27 24 33
27 24 33 27 24 33 27 24 33 27 24 33 27 24 33 27 24 33 27 24 33 27 24
33 27 24 32 27 24 32 27 24 32 27 24 32 27 24 32 26 24 32 26 24 32 26
24 32 26 24 32 26 24 32 26 24 32 26 24 32 26 24 32 26 24 32 26 24 32
26 24 32 26 24 32 26 24 32 26 24 32 26 24 32 26 24 32 26 24 32 26 24
32 26 24 28 20 24 28 20 24 28 20 24 28 20 24 28 20 24 28 20 24 28 20
24 28 20 24 28 20 24 28 20 24 28 20 24 28 20 24 28 20 24 28 20 24 28
20 24 28 20 24 28 20 24 28 20 24 28 20 24 28 20 24 28 20 24 28 20 24
28 20
19 28 26 19 28 26 19 28 26 15 32 57 15 32 56 15 32 55 15 31 53 19 28
26 19 29 26 19 29 27 19 29 27 19 29 27 19 29 27 19 29 27 19 29 27 19
29 27 19 29 27 19 29 27 19 29 27 19 29 27 19 29 27 19 29 27 19 29 27
19 29 27 19 29 27 19 29 27 19 29 27 19 29 27 19 29 27 19 29 27 19 29
27 19 29 27 19 29 27 19 29 27 19 29 27 19 29 27 19 29 27 19 29 27 19
29 27 19 29 27 19 29 27 19 29 27 19 29 27 19 29 27 19 29 27 19 29 27
19 29 27 19 29 27 19 29 27 19 29 27 19 29 27 19 29 27 19 29 27 19 29
27 19 29 27 19 29 27 19 29 27 19 29 27 19 29 27 19 29 27 19 29 27 19
29 28 19 29 28 19 29 28 19 29 28 19 29 28 19 29 28 19 29 28 19 29 28
19 29 28 19 29 28 19 29 28 19 29 28 19 29 28 19 29 28 19 29 28 19 29
28 19 29 28 19 29 28 19 29 28 19 29 28 19 29 28 19 29 28 19 29 28 19
29 28 19 29 28 19 29 28 19 29 28 19 29 28 19 29 28 19 29 28 19 29 28
19 29 28 19 29 28 19 29 28 25 35 30 25 35 30 25 35 30 25 35 30 25 35
30 25 35 30 25 35 30 25 35 30 25 35 30 25 35 30 25 35 30 25 35 30 25
35 30 25 35 30 25 35 30 25 35 30 25 35 30 25 35 30 25 35 30 25 35 30
25 35 30 25 35 30 25 35 30 25 35 30 25 35 30 25 35 30 25 35 30 25 35
30 25 35 30 25 35 30 25 35 30 21 22 242 21 22 241 21 22 240 21 23 239
21 23 237 21 23 235 21 23 232 21 22 230 21 22 227 21 22 224 21 22 221
21 22 219 21 22 216 21 22 213 21 21 210 21 21 207 21 21 204 21 21 202
21 21 199 21 21 196 21 21 193 21 20 190 21 20 187 21 20 185 21 20 182
21 20 179 21 20 176 21 20 173 21 19 171 21 19 168 21 19 165 21 19 162
21 19 160 21 19 157 21 19 154 21 18 151 20 18 149 20 18 146 20 18 143
20 18 140 20 18 138 20 18 135 20 17 132 20 17 129 20 17 127 20 17 124
20 17 121 20 17 118 20 17 116 20 17 115 20 17 115 20 17 115 20 17 115
20 17 115 20 17 115 20 17 115 20 17 115 20 17 115 20 17 115 20 17 115
20 17 115 20 17 115 19 16 114 19 16 114 19 16 114 19 16 114 19 16 114
19 16 114 19 16 114 19 16 114 19 16 114 19 16 115 19 16 115 19 16 115
19 16 115 19 16 115 19 16 115 26 36 30 26 36 30 26 36 30 26 36 30 26
36 30 26 36 30 26 36 30 26 36 30 26 36 30 26 36 30 26 36 30 26 36 30
26 36 30 26 36 30 26 36 30 26 36 30 26 36 30 26 36 30 26 36 30 26 36
30 26 36 30 26 36 30 26 36 30 26 36 30 26 36 30 26 36 30 26 36 30 26
36 30 26 36 30 26 35 30 26 35 30 26 35 30 26 35 30 26 35 30 26 35 30
26 35 30 26 35 30 26 35 30 26 35 30 26 35 30 26 35 30 26 35 30 26 35
30 26 35 30 26 35 29 26 35 29 26 35 29 26 35 29 26 35 29 26 35 29 26
35 29 26 35 29 26 35 29 26 35 29 26 35 29 26 35 29 26 35 29 26 35 29
26 35 29 26 35 29 26 35 29 26 35 29 26 35 29 26 35 29 26 35 29 26 35
29 26 35 29 26 35 29 26 35 29 26 35 29 26 35 29 26 35 29 26 35 29 26
35 29 26 35 29 26 35 29 26 35 29 26 35 29 26 35 29 26 35 29 26 35 29
26 35 29 26 35 29 25 35 29 25 35 29 25 35 29 25 34 29 25 34 29 25 34
29 25 34 28 25 34 28 25 34 28 25 34 28 25 34 28 25 34 28 25 34 28 25
34 28 25 34 28 25 34 28 25 34 28 25 34 28 25 34 28 25 34 28 25 34 28
25 34 28 25 34 28 25 34 28 25 34 28 25 34 28 25 34 28 25 34 28 25 34
28 25 34 28 25 34 28 25 34 28 25 34 28 25 34 28 25 34 28 25 34 28 25
34 28 25 34 28 25 34 28 25 34 28 25 34 28 25 34 28 25 34 28 25 34 28
25 34 28 25 34 28 25 34 28 25 33 28 25 33 27 25 33 27 25 33 27 25 33
27 25 33 27 25 33 27 25 33 27 25 33 27 25 33 27 25 33 27 25 33 27 25
33 27 25 33 27 25 33 27 25 33 27 25 33 27 25 33 27 25 33 27 25 33 27
25 33 27 25 33 27 25 33 27 25 33 27 25 33 27 25 33 27 25 33 27 25 33
27 25 33 27 25 33 27 24 33 27 24 33 27 24 33 27 24 33 27 24 33 27 24
33 27 24 33 27 24 33 27 24 33 27 24 29 20 24 29 20 24 29 20 24 29 20
24 29 20 24 29 20 24 29 20 24 29 20 24 29 20 24 29 20 24 29 20 24 29
20 24 29 20 24 29 20 24 29 20 24 29 20 24 29 20 24 29 20 24 29 20 24
29 20 24 29 20 24 29 20 24 29 20 24 29 20 24 29 20 24 29 20 24 29 20
24 28 20
15 36 65 15 35 65 15 35 64 15 35 62 15 34 61 15 34 60 15 33 59 15 33
58 15 32 56 15 32 55 15 31 54 15 31 52 15 30 51 15 30 49 15 29 47 15
28 46 15 27 43 19 29 27 19 29 27 19 29 27 19 29 27 19 29 27 19 29 27
19 29 27 19 29 27 19 29 27 19 29 27 19 29 27 19 29 27 19 29 27 19 29
27 19 29 28 19 29 28 19 29 28 19 29 28 19 29 28 19 29 28 19 29 28 19
29 28 19 29 28 19 29 28 19 29 28 19 29 28 19 29 28 19 29 28 19 29 28
19 29 28 19 29 28 19 29 28 19 29 28 19 29 28 19 29 28 19 29 28 19 29
28 19 29 28 19 29 28 19 29 28 19 29 28 19 29 28 19 29 28 19 29 28 19
29 28 19 29 28 19 29 28 19 29 28 19 29 28 19 29 28 19 29 28 19 29 28
19 29 28 19 29 28 19 30 28 19 30 28 19 30 28 19 30 28 19 30 28 19 30
28 19 30 28 19 30 28 19 30 28 19 30 28 19 30 28 19 30 28 19 30 28 19
30 28 19 30 29 19 30 29 19 30 29 19 30 29 19 30 29 19 30 29 19 30 29
19 30 29 19 30 29 19 30 29 19 30 29 19 30 29 25 35 31 25 35 31 25 35
31 25 35 31 25 35 31 25 35 31 25 36 31 25 36 31 25 36 31 25 36 31 25
36 31 25 36 31 25 36 31 25 36 31 25 36 31 25 36 31 25 36 31 25 36 31
25 36 31 25 36 31 25 36 31 25 36 31 25 36 31 25 36 31 25 36 31 25 36
31 25 36 31 26 36 31 21 23 242 21 22 243 21 22 242 21 23 241 21 23 239
21 23 237 21 23 235 21 23 232 21 22 229 21 22 227 21 22 224 21 22 221
21 22 218 21 22 216 21 22 213 21 21 210 21 21 207 21 21 204 21 21 201
21 21 199 21 21 196 21 20 193 21 20 190 21 20 187 21 20 184 21 20 182
21 20 179 21 20 176 21 19 173 21 19 170 21 19 168 21 19 165 21 19 162
21 19 159 21 19 157 20 18 154 20 18 151 20 18 148 20 18 146 20 18 143
20 18 140 20 18 137 20 18 135 20 17 132 20 17 129 20 17 126 20 17 124
20 17 121 20 17 118 20 17 115 20 17 115 20 17 115 20 17 115 20 17 115
20 17 115 20 17 115 20 17 115 20 17 115 20 17 115 20 17 115 20 17 115
20 17 115 20 17 115 19 16 114 19 16 114 19 16 114 19 16 114 19 16 114
19 16 114 19 16 114 19 16 114 19 16 114 19 16 114 19 16 115 19 16 115
19 16 115 19 16 115 19 16 115 26 36 31 26 36 31 26 36 31 26 36 31 26
36 31 26 36 31 26 36 31 26 36 31 26 36 31 26 36 31 26 36 31 26 36 31
26 36 31 26 36 31 26 36 31 26 36 31 26 36 31 26 36 31 26 36 31 26 36
31 26 36 31 26 36 31 26 36 31 26 36 31 26 36 31 26 36 31 26 36 30 26
36 30 26 36 30 26 36 30 26 36 30 26 36 30 26 36 30 26 36 30 26 36 30
26 36 30 26 36 30 26 36 30 26 36 30 26 36 30 26 36 30 26 36 30 26 36
30 26 36 30 26 36 30 26 36 30 26 36 30 26 36 30 26 36 30 26 36 30 26
36 30 26 36 30 26 36 30 26 36 30 26 36 30 26 36 30 26 36 30 26 36 30
26 36 30 26 36 30 26 36 30 26 36 30 26 36 30 26 36 30 26 36 30 26 36
30 26 36 30 26 36 30 26 36 30 26 36 30 26 35 30 26 35 29 26 35 29 26
35 29 26 35 29 26 35 29 26 35 29 26 35 29 26 35 29 26 35 29 26 35 29
26 35 29 26 35 29 26 35 29 26 35 29 26 35 29 26 35 29 26 35 29 26 35
29 26 35 29 26 35 29 26 35 29 26 35 29 26 35 29 26 35 29 26 35 29 26
35 29 26 35 29 26 35 29 26 35 29 26 35 29 26 35 29 26 35 29 26 35 29
26 35 29 26 35 29 26 35 29 26 35 29 26 35 29 26 35 29 26 35 28 26 35
28 26 34 28 26 34 28 25 34 28 25 34 28 25 34 28 25 34 28 25 34 28 25
34 28 25 34 28 25 34 28 25 34 28 25 34 28 25 34 28 25 34 28 25 34 28
25 34 28 25 34 28 25 34 28 25 34 28 25 34 28 25 34 28 25 34 28 25 34
28 25 34 28 25 34 28 25 34 28 25 34 28 25 34 28 25 34 28 25 34 28 25
34 28 25 34 28 25 34 28 25 34 28 25 34 28 25 34 28 25 34 28 25 34 28
25 34 28 25 34 27 25 33 27 25 33 27 25 33 27 25 33 27 25 33 27 25 33
27 25 33 27 25 33 27 25 33 27 25 33 27 25 33 27 25 33 27 25 33 27 25
29 20 25 29 20 25 29 20 25 29 20 25 29 20 25 29 20 25 29 20 25 29 20
25 29 20 25 29 20 25 29 20 25 29 20 24 29 20 24 29 20 24 29 20 24 29
20 24 29 20 24 29 20 24 29 20 24 29 20 24 29 20 24 29 20 24 29 20 24
29 20 24 29 20 24 29 20 24 29 20 24 29 20 24 29 20 24 29 20 24 29 20
24 29 20
15 36 67 15 36 66 15 36 65 15 35 64 15 35 63 15 34 62 15 34 61 15 33
59 15 33 58 15 33 57 15 32 56 15 32 54 15 31 53 15 31 52 15 30 50 15
29 49 15 29 47 15 28 46 15 28 44 15 27 42 15 26 40 15 25 37 19 29 28
19 29 28 19 29 28 19 29 28 19 29 28 19 29 28 19 29 28 19 29 28 19 29
28 19 29 28 19 29 28 19 29 28 19 29 28 19 29 28 19 29 28 19 29 28 19
29 28 19 29 28 19 30 28 19 30 28 19 30 28 19 30 28 19 30 28 19 30 28
19 30 28 19 30 28 19 30 28 19 30 28 19 30 29 19 30 29 19 30 29 19 30
29 19 30 29 19 30 29 19 30 29 19 30 29 19 30 29 19 30 29 19 30 29 19
30 29 19 30 29 19 30 29 19 30 29 19 30 29 19 30 29 19 30 29 19 30 29
19 30 29 19 30 29 19 30 29 19 30 29 19 30 29 19 30 29 19 30 29 19 30
29 19 30 29 19 30 29 19 30 29 19 30 29 19 30 29 19 30 29 19 30 29 19
30 29 19 30 29 19 30 29 19 30 29 19 30 29 19 30 29 19 30 29 19 30 29
19 30 29 19 30 29 19 30 29 19 30 29 19 30 29 19 30 29 19 30 29 19 30
29 25 36 31 26 36 31 26 36 31 26 36 32 26 36 32 26 36 32 26 36 32 26
36 32 26 36 32 26 36 32 26 36 32 26 36 32 26 36 32 26 36 32 26 36 32
26 36 32 26 36 32 26 36 32 26 36 32 26 37 32 26 37 32 26 37 32 26 37
32 26 37 32 26 37 32 21 23 243 21 22 243 21 22 242 21 23 241 21 23 239
21 23 237 21 23 234 21 23 232 21 22 229 21 22 226 21 22 224 21 22 221
21 22 218 21 22 215 21 22 212 21 21 210 21 21 207 21 21 204 21 21 201
21 21 198 21 21 195 21 20 193 21 20 190 21 20 187 21 20 184 21 20 181
21 20 178 21 20 176 21 19 173 21 19 170 21 19 167 21 19 165 21 19 162
21 19 159 20 19 156 20 18 154 20 18 151 20 18 148 20 18 145 20 18 143
20 18 140 20 18 137 20 17 134 20 17 132 20 17 129 20 17 126 20 17 123
20 17 121 20 17 118 20 17 115 20 17 115 20 17 115 20 17 115 20 17 115
20 17 115 20 17 115 20 17 115 20 17 115 20 17 115 20 17 115 20 17 115
20 17 115 20 17 115 19 16 114 19 16 114 19 16 114 19 16 114 19 16 114
19 16 114 19 16 114 19 16 114 19 16 114 19 16 114 19 16 115 19 16 115
19 16 115 19 16 115 19 16 115 19 16 115 27 37 32 27 37 32 27 37 32 27
37 32 27 37 32 27 37 32 27 37 32 27 37 32 27 37 31 27 37 31 27 37 31
27 37 31 27 37 31 27 37 31 27 37 31 27 37 31 27 37 31 27 37 31 27 37
31 27 37 31 27 37 31 27 37 31 27 37 31 27 37 31 27 37 31 27 37 31 27
37 31 27 37 31 27 37 31 27 37 31 27 37 31 27 37 31 27 37 31 27 37 31
27 37 31 27 37 31 27 37 31 27 37 31 27 37 31 27 37 31 27 37 31 27 37
31 27 37 31 27 37 31 27 37 31 27 37 31 27 37 31 27 37 31 27 37 31 27
37 31 27 37 31 27 37 31 27 37 31 27 36 31 27 36 30 27 36 30 27 36 30
27 36 30 27 36 30 27 36 30 27 36 30 27 36 30 27 36 30 27 36 30 27 36
30 27 36 30 27 36 30 26 36 30 26 36 30 26 36 30 26 36 30 26 36 30 26
36 30 26 36 30 26 36 30 26 36 30 26 36 30 26 36 30 26 36 30 26 36 30
26 36 30 26 36 30 26 36 30 26 36 30 26 36 30 26 36 30 26 36 30 26 36
30 26 36 30 26 36 30 26 36 30 26 36 30 26 36 29 26 36 29 26 36 29 26
36 29 26 35 29 26 35 29 26 35 29 26 35 29 26 35 29 26 35 29 26 35 29
26 35 29 26 35 29 26 35 29 26 35 29 26 35 29 26 35 29 26 35 29 26 35
29 26 35 29 26 35 29 26 35 29 26 35 29 26 35 29 26 35 29 26 35 29 26
35 29 26 35 29 26 35 29 26 35 29 26 35 29 26 35 29 26 35 29 26 35 29
26 35 29 26 35 29 26 35 29 26 35 28 26 35 28 26 35 28 26 35 28 26 34
28 26 34 28 26 34 28 26 34 28 26 34 28 25 34 28 25 34 28 25 34 28 25
34 28 25 34 28 25 34 28 25 34 28 25 34 28 25 34 28 25 34 28 25 34 28
25 34 28 25 34 28 25 34 28 25 34 28 25 34 28 25 34 28 25 34 28 25 34
28 25 34 28 25 34 28 25 34 28 25 30 20 25 30 20 25 30 20 25 30 20 25
30 20 25 29 20 25 29 20 25 29 20 25 29 20 25 29 20 25 29 20 25 29 20
25 29 20 25 29 20 25 29 20 25 29 20 25 29 20 25 29 20 25 29 20 25 29
20 25 29 20 25 29 20 25 29 20 25 29 20 25 29 20 25 29 20 25 29 20 25
29 20 25 29 20 25 29 20 25 29 20 25 29 20 25 29 20 25 29 20 25 29 20
25 29 20
15 37 68 15 36 67 15 36 66 15 36 65 15 35 64 15 35 63 15 34 61 15 34
60 15 33 59 15 33 58 15 32 57 15 32 55 15 31 54 15 31 53 15 30 51 15
30 50 15 29 49 15 29 47 15 28 46 15 28 44 15 27 43 15 27 41 15 26 39
15 25 37 15 24 35 19 30 29 19 30 29 19 30 29 19 30 29 19 30 29 19 30
29 19 30 29 19 30 29 19 30 29 19 30 29 19 30 29 19 30 29 19 30 29 19
30 29 19 30 29 19 30 29 19 30 29 19 30 29 19 30 29 19 30 29 19 30 29
19 30 29 19 30 29 19 30 29 19 30 29 19 30 29 19 30 29 19 30 29 19 30
29 19 30 29 19 30 29 19 30 29 19 30 29 19 30 29 19 30 29 19 30 29 19
30 29 19 30 29 19 30 29 19 30 29 19 30 29 19 30 29 19 30 29 19 30 30
19 30 30 19 30 30 19 30 30 19 30 30 19 30 30 19 30 30 19 30 30 19 30
30 19 30 30 19 30 30 19 30 30 19 30 30 19 30 30 19 30 30 19 30 30 19
30 30 19 30 30 19 30 30 19 30 30 19 30 30 19 30 30 19 30 30 19 30 30
19 30 30 19 30 30 19 30 30 19 30 30 19 30 30 19 30 30 19 30 30 19 30
30 19 30 30 19 30 30 26 37 32 26 37 32 26 37 32 26 37 32 26 37 32 26
37 32 26 37 32 26 37 32 26 37 32 26 37 32 26 37 32 26 37 32 26 37 32
26 37 32 26 37 33 26 37 33 26 37 33 26 37 33 26 37 33 26 37 33 26 37
33 26 37 33 26 37 33 21 23 244 21 22 243 21 22 242 21 23 241 21 23 239
21 23 237 21 23 234 21 23 232 21 22 229 21 22 226 21 22 223 21 22 221
21 22 218 21 22 215 21 21 212 21 21 209 21 21 206 21 21 204 21 21 201
21 21 198 21 21 195 21 20 192 21 20 189 21 20 187 21 20 184 21 20 181
21 20 178 21 20 175 21 19 173 21 19 170 21 19 167 21 19 164 20 19 161
20 19 159 20 19 156 20 18 153 20 18 150 20 18 148 20 18 145 20 18 142
20 18 140 20 18 137 20 17 134 20 17 131 20 17 129 20 17 126 20 17 123
20 17 121 20 17 118 20 17 115 20 16 115 20 16 115 20 17 115 20 17 115
20 17 115 20 17 115 20 17 115 20 17 115 20 17 115 20 17 115 20 17 115
20 17 115 20 17 115 20 17 115 19 16 114 19 16 114 19 16 114 19 16 114
19 16 114 19 16 114 19 16 114 19 16 114 19 16 114 19 16 114 19 16 115
19 16 115 19 16 115 19 16 115 19 16 115 27 38 32 27 38 32 27 38 32 27
38 32 27 38 32 27 38 32 27 38 32 27 38 32 27 38 32 27 38 32 27 38 32
27 38 32 27 38 32 27 38 32 27 38 32 27 38 32 27 38 32 27 38 32 27 38
32 27 38 32 27 38 32 27 38 32 27 38 32 27 38 32 27 38 32 27 38 32 27
38 32 27 38 32 27 38 32 27 38 32 27 38 32 27 38 32 27 38 32 27 38 32
27 38 32 27 38 32 27 38 32 27 38 32 27 37 32 27 37 32 27 37 31 27 37
31 27 37 31 27 37 31 27 37 31 27 37 31 27 37 31 27 37 31 27 37 31 27
37 31 27 37 31 27 37 31 27 37 31 27 37 31 27 37 31 27 37 31 27 37 31
27 37 31 27 37 31 27 37 31 27 37 31 27 37 31 27 37 31 27 37 31 27 37
31 27 37 31 27 37 31 27 37 31 27 37 31 27 37 31 27 37 31 27 37 31 27
37 31 27 37 31 27 37 31 27 37 31 27 37 30 27 37 30 27 37 30 27 37 30
27 37 30 27 37 30 27 36 30 27 36 30 27 36 30 27 36 30 27 36 30 27 36
30 27 36 30 27 36 30 27 36 30 27 36 30 27 36 30 27 36 30 27 36 30 27
36 30 27 36 30 27 36 30 27 36 30 27 36 30 26 36 30 26 36 30 26 36 30
26 36 30 26 36 30 26 36 30 26 36 30 26 36 30 26 36 30 26 36 30 26 36
30 26 36 29 26 36 29 26 36 29 26 36 29 26 36 29 26 36 29 26 36 29 26
35 29 26 35 29 26 35 29 26 35 29 26 35 29 26 35 29 26 35 29 26 35 29
26 35 29 26 35 29 26 35 29 26 35 29 26 35 29 26 35 29 26 35 29 26 35
29 26 35 29 26 35 29 26 35 29 26 35 29 26 35 29 26 35 29 26 35 29 26
35 29 26 35 29 26 35 29 26 35 29 26 35 29 26 35 28 26 35 28 26 35 28
26 35 28 26 35 28 26 35 28 26 34 28 26 34 28 26 34 28 26 34 28 25 30
20 25 30 20 25 30 20 25 30 20 25 30 20 25 30 20 25 30 20 25 30 20 25
30 20 25 30 20 25 30 20 25 30 20 25 30 20 25 30 20 25 30 20 25 30 20
25 30 20 25 30 20 25 30 20 25 30 20 25 30 20 25 30 20 25 30 20 25 30
20 25 30 20 25 30 20 25 30 20 25 30 20 25 30 20 25 29 20 25 29 20 25
29 20 25 29 20 25 29 20 25 29 20 25 29 20 25 29 20 25 29 20 25 29 20
25 29 20
15 37 69 15 36 68 15 36 66 15 36 65 15 35 64 15 35 63 15 34 62 15 34
61 15 33 59 15 33 58 15 33 57 15 32 56 15 32 54 15 31 53 15 31 52 15
30 51 15 30 49 15 29 48 15 29 47 15 28 45 15 28 44 15 27 42 15 27 41
15 26 39 15 25 38 15 25 36 15 24 34 15 23 31 19 30 29 19 30 29 19 30
29 19 30 29 19 30 29 19 30 29 19 30 29 19 30 29 19 30 29 19 30 29 19
30 29 19 30 30 19 30 30 19 30 30 19 30 30 19 30 30 19 30 30 19 30 30
19 30 30 19 30 30 19 30 30 19 30 30 19 30 30 19 30 30 19 30 30 19 30
30 19 30 30 19 30 30 19 30 30 19 30 30 19 30 30 19 30 30 19 30 30 19
30 30 19 30 30 19 31 30 19 31 30 19 31 30 19 31 30 19 31 30 19 31 30
19 31 30 19 31 30 19 31 30 19 31 30 19 31 30 19 31 30 19 31 30 19 31
30 19 31 30 19 31 30 19 31 30 19 31 30 19 31 30 19 31 30 19 31 30 19
31 30 19 31 31 19 31 31 19 31 31 19 31 31 19 31 31 19 31 31 19 31 31
19 31 31 19 31 31 19 31 31 19 31 31 19 31 31 19 31 31 19 31 31 19 31
31 19 31 31 19 31 31 19 31 31 19 31 31 19 31 31 26 38 33 26 38 33 26
38 33 26 38 33 26 38 33 26 38 33 26 38 33 26 38 33 26 38 33 26 38 33
26 38 33 26 38 33 26 38 33 26 38 33 27 38 33 27 38 33 27 38 33 27 38
33 27 38 33 21 23 243 21 23 244 21 22 243 21 23 243 21 23 241 21 23
239 21 23 236 21 23 234 21 23 231 21 22 229 21 22 226 21 22 223 21 22
220 21 22 218 21 22 215 21 22 212 21 21 209 21 21 206 21 21 203 21 21
200 21 21 198 21 21 195 21 20 192 21 20 189 21 20 186 21 20 183 21 20
181 21 20 178 21 20 175 21 19 172 21 19 169 21 19 167 20 19 164 20 19
161 20 19 158 20 19 156 20 18 153 20 18 150 20 18 147 20 18 145 20 18
142 20 18 139 20 18 137 20 17 134 20 17 131 20 17 128 20 17 126 20 17
123 20 17 120 20 17 118 20 16 115 20 16 114 20 16 114 20 16 114 20 16
115 20 16 115 20 16 115 20 16 115 20 17 115 20 17 115 20 17 115 20 17
115 20 17 115 20 17 115 20 17 115 19 16 114 19 16 114 19 16 114 19 16
114 19 16 114 19 16 114 19 16 114 19 16 114 19 16 114 19 16 114 19 16
115 19 16 115 19 16 115 19 16 115 19 16 115 28 39 33 28 39 33 28 39 33
28 39 33 28 39 33 28 39 33 28 39 33 28 39 33 28 39 33 28 39 33 28 39
33 28 39 33 28 39 33 28 39 33 28 39 33 28 39 33 28 39 33 28 39 33 28
39 33 28 39 33 28 39 33 28 39 33 28 38 33 28 38 33 28 38 33 28 38 33
28 38 33 28 38 32 28 38 32 28 38 32 28 38 32 28 38 32 28 38 32 28 38
32 28 38 32 28 38 32 28 38 32 28 38 32 28 38 32 28 38 32 28 38 32 28
38 32 28 38 32 28 38 32 28 38 32 28 38 32 28 38 32 28 38 32 28 38 32
28 38 32 28 38 32 28 38 32 28 38 32 28 38 32 28 38 32 28 38 32 28 38
32 28 38 32 28 38 32 27 38 32 27 38 32 27 38 32 27 38 32 27 38 31 27
38 31 27 38 31 27 38 31 27 38 31 27 38 31 27 38 31 27 37 31 27 37 31
27 37 31 27 37 31 27 37 31 27 37 31 27 37 31 27 37 31 27 37 31 27 37
31 27 37 31 27 37 31 27 37 31 27 37 31 27 37 31 27 37 31 27 37 31 27
37 31 27 37 31 27 37 31 27 37 31 27 37 31 27 37 31 27 37 31 27 37 31
27 37 30 27 37 30 27 37 30 27 37 30 27 37 30 27 37 30 27 37 30 27 37
30 27 37 30 27 37 30 27 36 30 27 36 30 27 36 30 27 36 30 27 36 30 27
36 30 27 36 30 27 36 30 27 36 30 27 36 30 27 36 30 27 36 30 27 36 30
27 36 30 27 36 30 27 36 30 27 36 30 27 36 30 27 36 30 26 36 30 26 36
30 26 36 30 26 36 30 26 36 29 26 36 29 26 36 29 26 36 29 26 36 29 26
36 29 26 36 29 26 36 29 26 36 29 26 35 29 26 35 29 26 35 29 26 35 29
26 35 29 26 35 29 26 35 29 26 35 29 26 35 29 26 35 29 26 35 29 26 35
29 26 35 29 26 35 29 26 35 29 26 30 20 26 30 20 26 30 20 26 30 20 26
30 20 26 30 20 26 30 20 26 30 20 26 30 20 26 30 20 26 30 20 26 30 20
26 30 20 26 30 20 26 30 20 26 30 20 26 30 20 26 30 20 26 30 20 26 30
20 26 30 20 26 30 20 25 30 20 25 30 20 25 30 20 25 30 20 25 30 20 25
30 20 25 30 20 25 30 20 25 30 20 25 30 20 25 30 20 25 30 20 25 30 20
25 30 20 25 30 20 25 30 20 25 30 20 25 30 20 25 30 20 25 30 20 25 30
20 25 30 20
15 37 69 15 36 68 15 36 66 15 36 65 15 35 64 15 35 63 15 34 62 15 34
61 15 33 59 15 33 58 15 33 57 15 32 56 15 32 55 15 31 53 15 31 52 15
30 51 15 30 50 15 29 48 15 29 47 15 28 46 15 28 44 15 27 43 15 27 42
15 26 40 15 26 39 15 25 37 15 25 36 15 24 34 15 23 32 15 23 30 15 21
27 19 30 30 19 30 30 19 30 30 19 30 30 19 30 30 19 31 30 19 31 30 19
31 30 19 31 30 19 31 30 19 31 30 19 31 30 19 31 30 19 31 30 19 31 30
19 31 30 19 31 30 19 31 30 19 31 30 19 31 30 19 31 30 19 31 30 19 31
31 19 31 31 19 31 31 19 31 31 19 31 31 19 31 31 19 31 31 19 31 31 19
31 31 19 31 31 19 31 31 19 31 31 19 31 31 19 31 31 19 31 31 19 31 31
19 31 31 19 31 31 19 31 31 19 31 31 19 31 31 19 31 31 19 31 31 19 31
31 19 31 31 19 31 31 19 31 31 19 31 31 19 31 31 19 31 31 19 31 31 19
31 31 19 31 31 19 31 31 19 31 31 19 31 31 19 31 31 19 31 31 19 31 31
19 31 31 19 31 31 19 31 31 19 31 31 19 31 31 19 31 31 19 31 31 19 31
31 19 31 31 19 31 31 19 31 31 19 31 31 19 31 31 19 31 31 19 31 32 27
38 34 27 38 34 27 38 34 27 38 34 27 39 34 27 39 34 27 39 34 27 39 34
27 39 34 27 39 34 27 39 34 27 39 34 27 39 34 27 39 34 27 39 34 27 39
34 27 39 34 21 23 244 21 23 244 21 22 243 21 23 243 21 23 241 21 23
239 21 23 236 21 23 234 21 22 231 21 22 228 21 22 225 21 22 223 21 22
220 21 22 218 21 22 217 21 22 214 21 22 210 21 21 206 21 21 203 21 21
200 21 21 197 21 21 194 21 20 191 21 20 189 21 20 186 21 20 183 21 20
180 21 20 177 21 19 175 21 19 172 20 19 169 20 19 166 20 19 164 20 19
161 20 19 158 20 19 155 20 18 153 20 18 150 20 18 147 20 18 144 20 18
142 20 18 139 20 18 136 20 17 134 20 17 131 20 17 128 20 17 125 20 17
123 20 17 120 20 17 117 20 16 115 20 16 114 20 16 114 20 16 114 20 16
114 20 16 114 20 16 114 20 16 115 20 16 115 20 16 115 20 16 115 20 17
115 20 17 115 20 17 115 20 17 115 19 16 114 19 16 114 19 16 114 19 16
114 19 16 114 19 16 114 19 16 114 19 16 114 19 16 114 19 16 114 19 16
114 19 16 115 19 16 115 19 16 115 19 16 115 19 16 115 28 39 34 28 39
34 28 39 34 28 39 34 28 39 34 28 39 34 28 39 34 28 39 34 28 39 34 28
39 34 28 39 34 28 39 34 28 39 34 28 39 33 28 39 33 28 39 33 28 39 33
28 39 33 28 39 33 28 39 33 28 39 33 28 39 33 28 39 33 28 39 33 28 39
33 28 39 33 28 39 33 28 39 33 28 39 33 28 39 33 28 39 33 28 39 33 28
39 33 28 39 33 28 39 33 28 39 33 28 39 33 28 39 33 28 39 33 28 39 33
28 39 33 28 39 33 28 39 33 28 39 33 28 39 33 28 39 33 28 39 33 28 39
33 28 39 33 28 39 32 28 39 32 28 39 32 28 39 32 28 39 32 28 39 32 28
39 32 28 39 32 28 39 32 28 38 32 28 38 32 28 38 32 28 38 32 28 38 32
28 38 32 28 38 32 28 38 32 28 38 32 28 38 32 28 38 32 28 38 32 28 38
32 28 38 32 28 38 32 28 38 32 28 38 32 28 38 32 28 38 32 28 38 32 28
38 32 28 38 32 28 38 32 28 38 31 28 38 31 28 38 31 28 38 31 28 38 31
28 38 31 28 38 31 28 38 31 28 38 31 28 38 31 27 38 31 27 37 31 27 37
31 27 37 31 27 37 31 27 37 31 27 37 31 27 37 31 27 37 31 27 37 31 27
37 31 27 37 31 27 37 31 27 37 31 27 37 31 27 37 31 27 37 31 27 37 31
27 37 31 27 37 31 27 37 30 27 37 30 27 37 30 27 37 30 27 37 30 27 37
30 27 37 30 27 37 30 27 37 30 27 37 30 27 37 30 27 37 30 27 36 30 27
36 30 27 36 30 27 36 30 27 36 30 27 36 30 27 36 30 27 36 30 27 36 30
27 36 30 27 36 30 27 36 30 27 36 30 27 36 30 27 36 30 27 36 30 27 36
30 27 36 30 27 36 30 27 36 30 26 36 29 26 36 29 26 36 29 26 36 29 26
31 21 26 31 21 26 31 21 26 31 21 26 31 21 26 31 21 26 31 21 26 31 21
26 31 21 26 31 21 26 31 21 26 31 21 26 31 21 26 31 21 26 31 20 26 31
20 26 31 20 26 30 20 26 30 20 26 30 20 26 30 20 26 30 20 26 30 20 26
30 20 26 30 20 26 30 20 26 30 20 26 30 20 26 30 20 26 30 20 26 30 20
26 30 20 26 30 20 26 30 20 26 30 20 26 30 20 26 30 20 26 30 20 26 30
20 26 30 20 26 30 20 26 30 20 26 30 20 25 30 20 25 30 20 25 30 20 25
30 20 25 30 20
15 37 68 15 36 67 15 36 66 15 36 65 15 35 64 15 35 63 15 34 61 15 34
60 15 33 59 15 33 58 15 32 57 15 32 56 15 32 54 15 31 53 15 31 52 15
30 51 15 30 50 15 29 48 15 29 47 15 28 46 15 28 44 15 27 43 15 27 42
15 26 41 15 26 39 15 25 38 15 25 36 15 24 35 15 24 33 15 23 32 15 22
30 15 22 28 15 21 25 19 31 31 19 31 31 19 31 31 19 31 31 19 31 31 19
31 31 19 31 31 19 31 31 19 31 31 19 31 31 19 31 31 19 31 31 19 31 31
19 31 31 19 31 31 19 31 31 19 31 31 19 31 31 19 31 31 19 31 31 19 31
31 19 31 31 19 31 31 19 31 31 19 31 31 19 31 31 19 31 31 19 31 31 19
31 31 19 31 31 19 31 31 19 31 31 19 31 32 19 31 32 19 31 32 19 31 32
19 31 32 19 31 32 19 31 32 19 31 32 19 31 32 19 31 32 19 31 32 19 31
32 19 31 32 19 31 32 19 31 32 19 31 32 19 31 32 19 32 32 19 32 32 19
32 32 19 32 32 19 32 32 19 32 32 19 32 32 19 32 32 19 32 32 19 32 32
19 32 32 19 32 32 19 32 32 19 32 32 19 32 32 19 32 32 19 32 32 19 32
32 19 32 32 19 32 32 19 32 32 19 32 32 19 32 32 19 32 32 19 32 32 19
32 32 19 32 32 27 39 35 27 39 35 27 39 35 27 39 35 27 39 35 27 39 35
27 39 35 27 39 35 27 39 35 27 39 35 27 39 35 27 39 35 27 40 35 27 40
35 27 40 35 21 23 244 21 23 244 21 22 243 21 23 243 21 23 241 21 23
238 21 23 236 21 23 233 21 22 230 21 22 228 21 22 225 21 22 222 21 22
221 21 24 223 21 25 225 21 24 220 21 22 212 21 21 206 21 21 202 21 21
200 21 21 197 21 20 194 21 20 191 21 20 188 21 20 185 21 20 183 21 20
180 21 20 177 21 19 174 20 19 171 20 19 169 20 19 166 20 19 163 20 19
160 20 19 158 20 18 155 20 18 152 20 18 149 20 18 147 20 18 144 20 18
141 20 18 139 20 18 136 20 17 133 20 17 130 20 17 128 20 17 125 20 17
122 20 17 120 20 17 117 20 16 114 20 16 114 20 16 114 20 16 114 20 16
114 20 16 114 20 16 114 20 16 114 20 16 114 20 16 114 20 16 115 20 16
115 20 16 115 20 16 115 20 16 115 19 16 114 19 16 114 19 16 114 19 16
114 19 16 114 19 16 114 19 16 114 19 16 114 19 16 114 19 16 114 19 16
114 19 16 115 19 16 115 19 16 115 19 16 115 19 16 115 29 40 35 29 40
35 29 40 34 29 40 34 29 40 34 29 40 34 29 40 34 29 40 34 29 40 34 29
40 34 29 40 34 29 40 34 29 40 34 29 40 34 29 40 34 29 40 34 29 40 34
29 40 34 29 40 34 29 40 34 29 40 34 29 40 34 29 40 34 29 40 34 29 40
34 29 40 34 29 40 34 29 40 34 29 40 34 29 40 34 29 40 34 29 40 34 29
40 34 29 40 34 29 40 34 29 40 34 29 40 34 29 40 34 29 40 33 29 40 33
29 40 33 29 40 33 29 40 33 29 40 33 29 40 33 29 40 33 29 40 33 29 40
33 29 39 33 29 39 33 29 39 33 29 39 33 29 39 33 29 39 33 29 39 33 29
39 33 28 39 33 28 39 33 28 39 33 28 39 33 28 39 33 28 39 33 28 39 33
28 39 33 28 39 33 28 39 33 28 39 33 28 39 33 28 39 33 28 39 32 28 39
32 28 39 32 28 39 32 28 39 32 28 39 32 28 39 32 28 39 32 28 39 32 28
39 32 28 39 32 28 39 32 28 39 32 28 39 32 28 38 32 28 38 32 28 38 32
28 38 32 28 38 32 28 38 32 28 38 32 28 38 32 28 38 32 28 38 32 28 38
32 28 38 32 28 38 32 28 38 32 28 38 31 28 38 31 28 38 31 28 38 31 28
38 31 28 38 31 28 38 31 28 38 31 28 38 31 28 38 31 28 38 31 28 38 31
28 38 31 28 38 31 28 38 31 28 37 31 28 37 31 28 37 31 27 37 31 27 37
31 27 37 31 27 37 31 27 37 31 27 37 31 27 37 31 27 37 31 27 37 31 27
37 31 27 37 31 27 37 30 27 37 30 27 37 30 27 37 30 27 37 30 27 37 30
27 37 30 27 37 30 27 37 30 27 37 30 27 37 30 27 37 30 27 37 30 27 37
30 27 36 30 27 36 30 27 36 30 27 36 30 27 31 21 27 31 21 27 31 21 27
31 21 27 31 21 27 31 21 27 31 21 27 31 21 27 31 21 27 31 21 27 31 21
27 31 21 27 31 21 26 31 21 26 31 21 26 31 21 26 31 21 26 31 21 26 31
21 26 31 21 26 31 21 26 31 21 26 31 21 26 31 21 26 31 21 26 31 21 26
31 21 26 31 21 26 31 21 26 31 21 26 31 21 26 31 21 26 31 21 26 31 21
26 31 20 26 31 20 26 31 20 26 30 20 26 30 20 26 30 20 26 30 20 26 30
20 26 30 20 26 30 20 26 30 20 26 30 20 26 30 20 26 30 20 26 30 20 26
30 20 26 30 20
15 37 68 15 36 67 15 36 66 15 35 64 15 35 63 15 34 62 15 34 61 15 34
60 15 33 59 15 33 58 15 32 56 15 32 55 15 31 54 15 31 53 15 31 52 15
30 51 15 30 49 15 29 48 15 29 47 15 28 46 15 28 44 15 27 43 15 27 42
15 27 41 15 26 39 15 26 38 15 25 37 15 25 35 15 24 34 15 23 32 15 23
31 15 22 29 15 22 28 15 21 26 15 20 23 19 31 31 19 31 31 19 31 31 19
31 31 19 31 32 19 31 32 19 31 32 19 31 32 19 31 32 19 31 32 19 31 32
19 31 32 19 31 32 19 31 32 19 31 32 19 31 32 19 32 32 19 32 32 19 32
32 19 32 32 19 32 32 19 32 32 19 32 32 19 32 32 19 32 32 19 32 32 19
32 32 19 32 32 19 32 32 19 32 32 19 32 32 19 32 32 19 32 32 19 32 32
19 32 32 19 32 32 19 32 32 19 32 32 19 32 32 19 32 32 19 32 32 19 32
32 19 32 33 19 32 33 19 32 33 19 32 33 19 32 33 19 32 33 19 32 33 19
32 33 19 32 33 19 32 33 19 32 33 19 32 33 19 32 33 19 32 33 19 32 33
19 32 33 19 32 33 19 32 33 19 32 33 19 32 33 19 32 33 19 32 33 19 32
33 19 32 33 19 32 33 19 32 33 19 32 33 19 32 33 19 32 33 19 32 33 19
32 33 19 32 33 19 32 33 19 32 33 19 32 33 27 40 36 27 40 36 28 40 36
28 40 36 28 40 36 28 40 36 28 40 36 28 40 36 28 40 36 28 40 36 28 40
36 28 40 36 21 23 245 21 23 244 21 22 243 21 23 242 21 23 240 21 23
238 21 23 235 21 23 233 21 22 230 21 22 227 21 22 225 21 22 223 21 24
227 21 29 241 21 32 250 21 29 238 21 24 218 21 22 207 21 21 202 21 21
199 21 21 196 21 20 193 21 20 191 21 20 188 21 20 185 21 20 182 21 20
179 20 20 177 20 19 174 20 19 171 20 19 168 20 19 165 20 19 163 20 19
160 20 19 157 20 18 155 20 18 152 20 18 149 20 18 146 20 18 144 20 18
141 20 18 138 20 17 136 20 17 133 20 17 130 20 17 127 20 17 125 20 17
122 20 17 119 20 17 117 20 16 114 20 16 114 20 16 114 20 16 114 20 16
114 20 16 114 20 16 114 20 16 114 20 16 114 20 16 114 20 16 114 20 16
114 20 16 115 20 16 115 20 16 115 19 16 114 19 16 114 19 16 114 19 16
114 19 16 114 19 16 114 19 16 114 19 16 114 19 16 114 19 16 114 19 16
114 19 16 114 19 16 115 19 16 115 19 16 115 19 16 115 29 41 35 29 41
35 29 41 35 29 41 35 29 41 35 29 41 35 29 41 35 29 41 35 29 41 35 29
41 35 29 41 35 29 41 35 29 41 35 29 41 35 29 41 35 29 41 35 29 41 35
29 41 35 29 41 35 29 41 35 29 41 35 29 41 35 29 41 35 29 41 35 29 41
35 29 41 35 29 41 35 29 41 35 29 41 35 29 41 34 29 41 34 29 41 34 29
41 34 29 41 34 29 41 34 29 41 34 29 41 34 29 41 34 29 41 34 29 40 34
29 40 34 29 40 34 29 40 34 29 40 34 29 40 34 29 40 34 29 40 34 29 40
34 29 40 34 29 40 34 29 40 34 29 40 34 29 40 34 29 40 34 29 40 34 29
40 34 29 40 34 29 40 34 29 40 33 29 40 33 29 40 33 29 40 33 29 40 33
29 40 33 29 40 33 29 40 33 29 40 33 29 40 33 29 40 33 29 40 33 29 40
33 29 40 33 29 40 33 29 40 33 29 39 33 29 39 33 29 39 33 29 39 33 29
39 33 29 39 33 29 39 33 29 39 33 29 39 33 29 39 33 29 39 33 29 39 32
29 39 32 29 39 32 28 39 32 28 39 32 28 39 32 28 39 32 28 39 32 28 39
32 28 39 32 28 39 32 28 39 32 28 39 32 28 39 32 28 39 32 28 39 32 28
39 32 28 38 32 28 38 32 28 38 32 28 38 32 28 38 32 28 38 32 28 38 32
28 38 32 28 38 32 28 38 32 28 38 31 28 38 31 28 38 31 28 38 31 28 38
31 28 38 31 28 38 31 28 38 31 28 38 31 28 38 31 28 38 31 28 38 31 28
38 31 28 38 31 28 38 31 28 38 31 28 38 31 28 37 31 28 37 31 28 37 31
28 37 31 28 37 31 27 37 31 27 37 31 27 37 31 27 37 31 27 37 31 27 37
31 27 32 21 27 32 21 27 32 21 27 32 21 27 32 21 27 32 21 27 32 21 27
32 21 27 32 21 27 32 21 27 31 21 27 31 21 27 31 21 27 31 21 27 31 21
27 31 21 27 31 21 27 31 21 27 31 21 27 31 21 27 31 21 27 31 21 27 31
21 27 31 21 27 31 21 27 31 21 27 31 21 27 31 21 27 31 21 27 31 21 27
31 21 27 31 21 27 31 21 27 31 21 26 31 21 26 31 21 26 31 21 26 31 21
26 31 21 26 31 21 26 31 21 26 31 21 26 31 21 26 31 21 26 31 21 26 31
21 26 31 21 26 31 21 26 31 21 26 31 21 26 31 21 26 31 21 26 31 21 26
31 21 26 31 20
15 36 67 15 36 66 15 36 65 15 35 64 15 35 63 15 34 62 15 34 61 15 33
59 15 33 58 15 33 57 15 32 56 15 32 55 15 31 54 15 31 53 15 30 51 15
30 50 15 30 49 15 29 48 15 29 47 15 28 45 15 28 44 15 27 43 15 27 42
15 26 41 15 26 39 15 26 38 15 25 37 15 25 36 15 24 34 15 24 33 15 23
31 15 23 30 15 22 28 15 21 27 15 21 25 15 20 23 15 20 23 19 32 32 19
32 32 19 32 32 19 32 32 19 32 32 19 32 32 19 32 32 19 32 32 19 32 32
19 32 32 19 32 32 19 32 33 19 32 33 19 32 33 19 32 33 19 32 33 19 32
33 19 32 33 19 32 33 19 32 33 19 32 33 19 32 33 19 32 33 19 32 33 19
32 33 19 32 33 19 32 33 19 32 33 19 32 33 19 32 33 19 32 33 19 32 33
19 32 33 19 32 33 19 32 33 19 32 33 19 32 33 19 32 33 19 32 33 19 32
33 19 32 33 19 32 33 19 32 33 19 32 33 19 32 33 19 32 33 19 32 33 19
32 33 19 32 33 19 32 33 19 32 33 19 32 33 19 32 34 19 32 34 19 32 34
19 32 34 19 32 34 19 32 34 19 32 34 19 32 34 19 32 34 19 32 34 19 33
34 19 33 34 19 33 34 19 33 34 19 33 34 19 33 34 19 33 34 19 33 34 19
33 34 19 33 34 19 33 34 19 33 34 19 33 34 19 33 34 19 33 34 28 41 37
28 41 37 28 41 37 28 41 37 28 41 37 28 41 37 28 41 37 28 41 37 28 41
37 21 23 242 21 23 245 21 22 244 21 23 244 21 23 242 21 23 240 21 23
237 21 23 235 21 22 232 21 22 229 21 22 227 21 22 224 21 23 225 21 28
241 21 40 255 21 46 255 21 38 255 21 27 228 21 22 208 21 21 202 21 21
199 21 21 196 21 20 193 21 20 190 21 20 187 21 20 184 21 20 182 20 20
179 20 20 176 20 19 173 20 19 171 20 19 168 20 19 165 20 19 162 20 19
160 20 19 157 20 18 154 20 18 151 20 18 149 20 18 146 20 18 143 20 18
141 20 18 138 20 17 135 20 17 132 20 17 130 20 17 127 20 17 124 20 17
122 20 17 119 20 16 116 20 16 114 20 16 114 20 16 114 20 16 114 20 16
114 20 16 114 20 16 114 20 16 114 20 16 114 20 16 114 20 16 114 20 16
114 20 16 114 20 16 114 20 16 115 20 16 115 19 16 114 19 16 114 19 16
114 19 16 114 19 16 114 19 16 114 19 16 114 19 16 114 19 16 114 19 16
114 19 16 114 19 16 115 19 16 115 19 16 115 19 16 115 30 42 36 30 42
36 30 42 36 30 42 36 30 42 36 30 42 36 30 42 36 30 42 36 30 42 36 30
42 36 30 42 36 30 42 36 30 42 36 30 42 36 30 42 36 30 42 36 30 42 36
30 42 36 30 42 36 30 42 36 30 42 35 30 42 35 30 42 35 30 42 35 30 42
35 30 42 35 30 42 35 30 42 35 30 42 35 30 42 35 30 41 35 30 41 35 30
41 35 30 41 35 30 41 35 30 41 35 30 41 35 30 41 35 30 41 35 30 41 35
30 41 35 30 41 35 30 41 35 30 41 35 30 41 35 30 41 35 30 41 35 30 41
35 30 41 34 30 41 34 30 41 34 30 41 34 30 41 34 30 41 34 30 41 34 30
41 34 30 41 34 30 41 34 30 41 34 29 41 34 29 41 34 29 41 34 29 41 34
29 41 34 29 41 34 29 41 34 29 40 34 29 40 34 29 40 34 29 40 34 29 40
34 29 40 34 29 40 34 29 40 34 29 40 33 29 40 33 29 40 33 29 40 33 29
40 33 29 40 33 29 40 33 29 40 33 29 40 33 29 40 33 29 40 33 29 40 33
29 40 33 29 40 33 29 40 33 29 40 33 29 40 33 29 40 33 29 40 33 29 40
33 29 39 33 29 39 33 29 39 33 29 39 33 29 39 33 29 39 33 29 39 32 29
39 32 29 39 32 29 39 32 29 39 32 29 39 32 29 39 32 29 39 32 29 39 32
29 39 32 28 39 32 28 39 32 28 39 32 28 39 32 28 39 32 28 39 32 28 39
32 28 39 32 28 39 32 28 38 32 28 38 32 28 38 32 28 38 32 28 38 32 28
38 32 28 38 32 28 38 31 28 38 31 28 38 31 28 38 31 28 38 31 28 38 31
28 38 31 28 38 31 28 38 31 28 38 31 28 38 31 28 32 21 28 32 21 28 32
21 28 32 21 28 32 21 28 32 21 28 32 21 28 32 21 28 32 21 28 32 21 27
32 21 27 32 21 27 32 21 27 32 21 27 32 21 27 32 21 27 32 21 27 32 21
27 32 21 27 32 21 27 32 21 27 32 21 27 32 21 27 32 21 27 32 21 27 32
21 27 32 21 27 32 21 27 32 21 27 31 21 27 31 21 27 31 21 27 31 21 27
31 21 27 31 21 27 31 21 27 31 21 27 31 21 27 31 21 27 31 21 27 31 21
27 31 21 27 31 21 27 31 21 27 31 21 27 31 21 27 31 21 27 31 21 27 31
21 27 31 21 27 31 21 27 31 21 26 31 21 26 31 21 26 31 21 26 31 21 26
31 21 26 31 21
15 36 66 15 36 65 15 35 64 15 35 63 15 34 62 15 34 61 15 34 60 15 33
59 15 33 58 15 32 57 15 32 55 15 32 54 15 31 53 15 31 52 15 30 51 15
30 50 15 29 49 15 29 47 15 29 46 15 28 45 15 28 44 15 27 43 15 27 42
15 26 40 15 26 39 15 26 38 15 25 37 15 25 36 15 24 34 15 24 33 15 23
32 15 23 30 15 22 29 15 22 27 15 21 26 15 20 24 15 20 23 15 20 23 15
20 23 19 32 33 19 32 33 19 32 33 19 32 33 19 32 33 19 32 33 19 32 33
19 32 33 19 32 33 19 32 33 19 32 33 19 32 33 19 32 33 19 32 33 19 32
33 19 32 33 19 32 33 19 32 33 19 32 34 19 32 34 19 32 34 19 32 34 19
32 34 19 33 34 19 33 34 19 33 34 19 33 34 19 33 34 19 33 34 19 33 34
19 33 34 19 33 34 19 33 34 19 33 34 19 33 34 19 33 34 19 33 34 19 33
34 19 33 34 19 33 34 19 33 34 19 33 34 19 33 34 19 33 34 19 33 34 19
33 34 19 33 34 19 33 34 19 33 34 19 33 34 19 33 34 19 33 34 19 33 34
19 33 34 19 33 34 19 33 34 19 33 34 19 33 34 19 33 34 19 33 34 19 33
34 19 33 34 19 33 34 19 33 34 19 33 35 19 33 35 19 33 35 19 33 35 19
33 35 19 33 35 19 33 35 19 33 35 19 33 35 19 33 35 19 33 35 19 33 35
19 33 35 28 42 38 28 42 38 28 42 38 28 42 38 28 42 38 28 42 38 28 42
38 21 23 243 21 23 244 21 22 244 21 23 243 21 23 241 21 23 239 21 23
237 21 23 234 21 22 232 21 22 229 21 22 226 21 22 224 21 24 229 21 35
255 21 56 255 22 63 255 21 47 255 21 30 237 21 23 209 21 21 201 21 21
198 21 20 195 21 20 192 21 20 190 21 20 187 20 20 184 20 20 181 20 20
178 20 19 176 20 19 173 20 19 170 20 19 167 20 19 165 20 19 162 20 19
159 20 18 156 20 18 154 20 18 151 20 18 148 20 18 146 20 18 143 20 18
140 20 18 137 20 17 135 20 17 132 20 17 129 20 17 127 20 17 124 20 17
121 20 17 119 20 16 116 20 16 114 20 16 114 20 16 114 20 16 114 20 16
114 20 16 114 20 16 114 20 16 114 20 16 114 20 16 114 20 16 114 20 16
114 20 16 114 20 16 114 20 16 114 20 16 114 19 16 114 19 16 114 19 16
114 19 16 114 19 16 114 19 16 114 19 16 114 19 16 114 19 16 114 19 16
114 19 16 114 19 16 114 19 16 115 19 16 115 19 16 115 19 15 113 30 43
37 30 43 37 30 43 37 30 43 37 30 43 37 30 43 37 30 43 37 30 43 37 30
43 37 30 43 37 30 43 36 30 43 36 30 43 36 30 43 36 30 43 36 30 43 36
30 43 36 30 43 36 30 43 36 30 43 36 30 42 36 30 42 36 30 42 36 30 42
36 30 42 36 30 42 36 30 42 36 30 42 36 30 42 36 30 42 36 30 42 36 30
42 36 30 42 36 30 42 36 30 42 36 30 42 36 30 42 36 30 42 36 30 42 36
30 42 35 30 42 35 30 42 35 30 42 35 30 42 35 30 42 35 30 42 35 30 42
35 30 42 35 30 42 35 30 42 35 30 42 35 30 42 35 30 42 35 30 42 35 30
42 35 30 42 35 30 42 35 30 42 35 30 41 35 30 41 35 30 41 35 30 41 35
30 41 35 30 41 35 30 41 34 30 41 34 30 41 34 30 41 34 30 41 34 30 41
34 30 41 34 30 41 34 30 41 34 30 41 34 30 41 34 30 41 34 30 41 34 30
41 34 30 41 34 30 41 34 30 41 34 30 41 34 30 41 34 30 41 34 30 41 34
30 40 34 30 40 34 29 40 34 29 40 33 29 40 33 29 40 33 29 40 33 29 40
33 29 40 33 29 40 33 29 40 33 29 40 33 29 40 33 29 40 33 29 40 33 29
40 33 29 40 33 29 40 33 29 40 33 29 40 33 29 40 33 29 40 33 29 40 33
29 40 33 29 40 33 29 39 33 29 39 33 29 39 33 29 39 32 29 39 32 29 39
32 29 39 32 29 39 32 29 39 32 29 39 32 29 39 32 29 39 32 29 39 32 29
39 32 29 39 32 29 39 32 29 39 32 28 39 32 28 39 32 28 39 32 28 39 32
28 39 32 28 39 32 28 33 21 28 33 21 28 33 21 28 33 21 28 33 21 28 33
21 28 33 21 28 32 21 28 32 21 28 32 21 28 32 21 28 32 21 28 32 21 28
32 21 28 32 21 28 32 21 28 32 21 28 32 21 28 32 21 28 32 21 28 32 21
28 32 21 28 32 21 28 32 21 28 32 21 28 32 21 28 32 21 28 32 21 28 32
21 27 32 21 27 32 21 27 32 21 27 32 21 27 32 21 27 32 21 27 32 21 27
32 21 27 32 21 27 32 21 27 32 21 27 32 21 27 32 21 27 32 21 27 32 21
27 32 21 27 32 21 27 32 21 27 31 21 27 31 21 27 31 21 27 31 21 27 31
21 27 31 21 27 31 21 27 31 21 27 31 21 27 31 21 27 31 21 27 31 21 27
31 21 27 31 21
15 36 66 15 35 64 15 35 63 15 35 62 15 34 61 15 34 60 15 33 59 15 33
58 15 33 57 15 32 56 15 32 55 15 31 54 15 31 53 15 30 51 15 30 50 15
30 49 15 29 48 15 29 47 15 28 46 15 28 45 15 28 44 15 27 42 15 27 41
15 26 40 15 26 39 15 25 38 15 25 37 15 25 35 15 24 34 15 24 33 15 23
32 15 23 30 15 22 29 15 22 28 15 21 26 15 21 25 15 20 23 15 20 23 15
20 23 15 20 23 15 20 23 19 33 34 19 33 34 19 33 34 19 33 34 19 33 34
19 33 34 19 33 34 19 33 34 19 33 34 19 33 34 19 33 34 19 33 34 19 33
34 19 33 34 19 33 34 19 33 34 19 33 34 19 33 34 19 33 34 19 33 34 19
33 34 19 33 34 19 33 34 19 33 35 19 33 35 19 33 35 19 33 35 19 33 35
19 33 35 19 33 35 19 33 35 19 33 35 19 33 35 19 33 35 19 33 35 19 33
35 19 33 35 19 33 35 19 33 35 19 33 35 19 33 35 19 33 35 19 33 35 19
33 35 19 33 35 19 33 35 19 33 35 19 33 35 19 33 35 19 33 35 19 33 35
19 33 35 19 33 35 19 33 35 19 33 35 19 33 35 19 33 35 19 33 35 19 33
35 19 33 35 19 33 35 19 33 35 19 33 35 19 33 35 19 33 35 19 33 35 19
33 35 19 33 35 19 33 35 19 33 35 19 33 35 19 33 35 19 33 35 19 33 35
19 33 35 19 33 35 19 33 35 19 33 35 29 43 39 29 43 39 29 43 39 29 43
39 21 23 243 21 23 244 21 22 243 21 23 243 21 23 241 21 23 239 21 23
236 21 23 234 21 22 231 21 22 228 21 22 226 21 22 224 21 26 233 21 41
255 22 68 255 22 73 255 21 51 255 21 30 239 21 23 209 21 21 201 21 21
198 21 20 195 21 20 192 21 20 189 20 20 186 20 20 183 20 20 181 20 20
178 20 19 175 20 19 172 20 19 170 20 19 167 20 19 164 20 19 161 20 19
159 20 18 156 20 18 153 20 18 150 20 18 148 20 18 145 20 18 142 20 18
140 20 17 137 20 17 134 20 17 132 20 17 129 20 17 126 20 17 124 20 17
121 20 17 118 20 16 115 20 16 114 20 16 114 20 16 114 20 16 114 20 16
114 20 16 114 20 16 114 20 16 114 20 16 114 20 16 114 20 16 114 20 16
114 20 16 114 20 16 114 20 16 114 20 16 114 19 15 114 19 15 114 19 16
114 19 16 114 19 16 114 19 16 114 19 16 114 19 16 114 19 16 114 19 16
114 19 16 114 19 16 114 19 16 115 19 16 115 19 16 115 19 16 115 31 44
38 31 44 38 31 44 38 31 44 37 31 44 37 31 44 37 31 44 37 31 44 37 31
44 37 31 44 37 31 44 37 31 43 37 31 43 37 31 43 37 31 43 37 31 43 37
31 43 37 31 43 37 31 43 37 31 43 37 31 43 37 31 43 37 31 43 37 31 43
37 31 43 37 31 43 37 31 43 37 31 43 37 31 43 37 31 43 37 31 43 37 31
43 36 31 43 36 31 43 36 31 43 36 31 43 36 31 43 36 31 43 36 31 43 36
31 43 36 31 43 36 31 43 36 31 43 36 31 43 36 31 43 36 31 43 36 31 43
36 31 43 36 31 43 36 31 43 36 31 43 36 31 43 36 31 42 36 31 42 36 31
42 36 31 42 35 31 42 35 31 42 35 31 42 35 31 42 35 31 42 35 31 42 35
31 42 35 31 42 35 30 42 35 30 42 35 30 42 35 30 42 35 30 42 35 30 42
35 30 42 35 30 42 35 30 42 35 30 42 35 30 42 35 30 42 35 30 42 35 30
42 35 30 42 34 30 41 34 30 41 34 30 41 34 30 41 34 30 41 34 30 41 34
30 41 34 30 41 34 30 41 34 30 41 34 30 41 34 30 41 34 30 41 34 30 41
34 30 41 34 30 41 34 30 41 34 30 41 34 30 41 34 30 41 34 30 41 34 30
41 34 30 41 33 30 40 33 30 40 33 30 40 33 30 40 33 30 40 33 30 40 33
29 40 33 29 40 33 29 40 33 29 40 33 29 40 33 29 40 33 29 40 33 29 40
33 29 40 33 29 40 33 29 40 33 29 40 33 29 40 33 29 40 33 29 40 33 29
40 33 29 40 33 29 33 21 29 33 21 29 33 21 29 33 21 29 33 21 29 33 21
29 33 21 29 33 21 29 33 21 29 33 21 29 33 21 29 33 21 29 33 21 29 33
21 29 33 21 28 33 21 28 33 21 28 33 21 28 33 21 28 33 21 28 33 21 28
33 21 28 33 21 28 33 21 28 33 21 28 33 21 28 33 21 28 33 21 28 33 21
28 33 21 28 32 21 28 32 21 28 32 21 28 32 21 28 32 21 28 32 21 28 32
21 28 32 21 28 32 21 28 32 21 28 32 21 28 32 21 28 32 21 28 32 21 28
32 21 28 32 21 28 32 21 28 32 21 28 32 21 28 32 21 28 32 21 27 32 21
27 32 21 27 32 21 27 32 21 27 32 21 27 32 21 27 32 21 27 32 21 27 32
21 27 32 21 27 32 21 27 32 21 27 32 21 27 32 21 27 32 21 27 32 21 27
32 21 27 32 21
15 35 65 15 35 64 15 35 63 15 34 61 15 34 60 15 33 59 15 33 58 15 33
57 15 32 56 15 32 55 15 31 54 15 31 53 15 31 52 15 30 51 15 30 50 15
29 49 15 29 47 15 29 46 15 28 45 15 28 44 15 27 43 15 27 42 15 27 41
15 26 40 15 26 39 15 25 37 15 25 36 15 24 35 15 24 34 15 24 33 15 23
32 15 23 30 15 22 29 15 22 28 15 21 26 15 21 25 15 20 24 15 20 23 15
20 23 15 20 23 15 20 23 15 20 23 19 33 35 19 33 35 19 33 35 19 33 35
19 33 35 19 33 35 19 33 35 19 33 35 19 33 35 19 33 35 19 33 35 19 33
35 19 33 35 19 33 35 19 33 35 19 33 35 19 33 35 19 33 35 19 33 35 19
33 35 19 33 35 19 33 35 19 33 35 19 33 35 19 33 35 19 33 35 19 34 35
19 34 35 19 34 36 19 34 36 19 34 36 19 34 36 19 34 36 19 34 36 19 34
36 19 34 36 19 34 36 19 34 36 19 34 36 19 34 36 19 34 36 19 34 36 19
34 36 19 34 36 19 34 36 19 34 36 19 34 36 19 34 36 19 34 36 19 34 36
19 34 36 19 34 36 19 34 36 19 34 36 19 34 36 19 34 36 19 34 36 19 34
36 19 34 36 19 34 36 19 34 36 19 34 36 19 34 36 19 34 36 19 34 36 19
34 36 19 34 36 19 34 36 19 34 36 19 34 36 19 34 36 19 34 36 19 34 36
19 34 36 19 34 36 19 34 36 19 34 36 19 34 36 19 34 36 29 44 40 29 44
40 21 23 243 21 22 244 21 22 243 21 23 242 21 23 240 21 23 238 21 23
236 21 22 233 21 22 230 21 22 228 21 22 225 21 22 224 21 26 235 21 43
255 22 68 255 22 70 255 21 48 255 21 29 233 21 22 207 21 21 200 21 21
197 21 20 194 20 20 191 20 20 189 20 20 186 20 20 183 20 20 180 20 20
177 20 19 175 20 19 172 20 19 169 20 19 166 20 19 164 20 19 161 20 19
158 20 18 155 20 18 153 20 18 150 20 18 147 20 18 145 20 18 142 20 18
139 20 17 137 20 17 134 20 17 131 20 17 128 20 17 126 20 17 123 20 17
120 20 16 118 20 16 115 20 16 114 20 16 114 20 16 114 20 16 114 20 16
114 20 16 114 20 16 114 20 16 114 20 16 114 20 16 114 20 16 114 20 16
114 20 16 114 20 16 114 20 16 114 20 16 114 19 15 114 19 15 114 19 15
114 19 16 114 19 16 114 19 16 114 19 16 114 19 16 114 19 16 114 19 16
114 19 16 114 19 16 114 19 16 114 19 16 115 19 16 115 26 20 130 31 44
38 31 44 38 31 44 38 31 44 38 31 44 38 31 44 38 31 44 38 31 44 38 31
44 38 31 44 38 31 44 38 31 44 38 31 44 38 31 44 38 31 44 38 31 44 38
31 44 38 31 44 38 31 44 38 31 44 38 31 44 38 31 44 38 31 44 38 31 44
38 31 44 37 31 44 37 31 44 37 31 44 37 31 44 37 31 44 37 31 44 37 31
44 37 31 44 37 31 44 37 31 44 37 31 44 37 31 44 37 31 44 37 31 44 37
31 44 37 31 44 37 31 44 37 31 44 37 31 44 37 31 44 37 31 44 37 31 44
37 31 43 36 31 43 36 31 43 36 31 43 36 31 43 36 31 43 36 31 43 36 31
43 36 31 43 36 31 43 36 31 43 36 31 43 36 31 43 36 31 43 36 31 43 36
31 43 36 31 43 36 31 43 36 31 43 36 31 43 36 31 43 36 31 43 36 31 43
35 31 43 35 31 43 35 31 43 35 31 42 35 31 42 35 31 42 35 31 42 35 31
42 35 31 42 35 31 42 35 31 42 35 31 42 35 31 42 35 31 42 35 31 42 35
31 42 35 31 42 35 31 42 35 31 42 35 31 42 35 30 42 35 30 42 34 30 42
34 30 42 34 30 42 34 30 42 34 30 41 34 30 41 34 30 41 34 30 41 34 30
41 34 30 41 34 30 41 34 30 41 34 30 41 34 30 41 34 30 41 34 30 41 34
30 41 34 30 41 34 30 41 34 30 41 34 30 41 34 30 41 34 30 41 33 30 41
33 30 34 22 30 34 22 30 34 22 30 34 22 30 34 22 29 34 22 29 34 22 29
34 22 29 34 22 29 34 22 29 34 22 29 34 22 29 34 22 29 34 22 29 34 22
29 34 22 29 34 22 29 34 22 29 34 22 29 33 22 29 33 22 29 33 22 29 33
21 29 33 21 29 33 21 29 33 21 29 33 21 29 33 21 29 33 21 29 33 21 29
33 21 29 33 21 29 33 21 29 33 21 29 33 21 29 33 21 29 33 21 29 33 21
28 33 21 28 33 21 28 33 21 28 33 21 28 33 21 28 33 21 28 33 21 28 33
21 28 33 21 28 33 21 28 33 21 28 33 21 28 33 21 28 33 21 28 33 21 28
33 21 28 32 21 28 32 21 28 32 21 28 32 21 28 32 21 28 32 21 28 32 21
28 32 21 28 32 21 28 32 21 28 32 21 28 32 21 28 32 21 28 32 21 28 32
21 28 32 21 28 32 21 28 32 21 28 32 21 28 32 21 27 32 21 27 32 21 27
32 21 27 32 21
15 35 64 15 35 63 15 34 62 15 34 61 15 33 60 15 33 58 15 33 57 15 32
56 15 32 55 15 32 54 15 31 53 15 31 52 15 30 51 15 30 50 15 30 49 15
29 48 15 29 47 15 28 46 15 28 45 15 28 44 15 27 43 15 27 41 15 26 40
15 26 39 15 26 38 15 25 37 15 25 36 15 24 35 15 24 34 15 23 33 15 23
31 15 23 30 15 22 29 15 22 28 15 21 26 15 21 25 15 20 24 15 20 23 15
20 23 15 20 23 15 20 23 15 20 23 15 20 23 15 20 23 19 34 35 19 34 36
19 34 36 19 34 36 19 34 36 19 34 36 19 34 36 19 34 36 19 34 36 19 34
36 19 34 36 19 34 36 19 34 36 19 34 36 19 34 36 19 34 36 19 34 36 19
34 36 19 34 36 19 34 36 19 34 36 19 34 36 19 34 36 19 34 36 19 34 36
19 34 36 19 34 36 19 34 36 19 34 36 19 34 36 19 34 36 19 34 36 19 34
37 19 34 37 19 34 37 19 34 37 19 34 37 19 34 37 19 34 37 19 34 37 19
34 37 19 34 37 19 34 37 19 34 37 19 34 37 19 34 37 19 34 37 19 34 37
19 34 37 19 34 37 19 34 37 19 34 37 19 34 37 19 34 37 19 34 37 19 34
37 19 34 37 19 34 37 19 34 37 19 34 37 19 34 37 19 34 37 19 34 37 19
34 37 19 34 37 19 34 37 19 34 37 19 34 37 19 34 37 19 34 37 19 34 37
19 34 37 19 34 37 19 34 37 19 34 37 19 34 37 19 34 37 19 34 37 19 34
37 21 22 243 21 22 243 21 22 242 21 23 242 21 23 240 21 23 237 21 23
235 21 22 232 21 22 230 21 22 227 21 22 224 21 22 223 21 25 232 21 38
255 21 55 255 21 55 255 21 39 255 21 26 222 21 22 205 21 21 199 20 20
196 20 20 194 20 20 191 20 20 188 20 20 185 20 20 182 20 20 180 20 19
177 20 19 174 20 19 171 20 19 169 20 19 166 20 19 163 20 19 160 20 18
158 20 18 155 20 18 152 20 18 149 20 18 147 20 18 144 20 18 141 20 18
139 20 17 136 20 17 133 20 17 131 20 17 128 20 17 125 20 17 123 20 17
120 20 16 117 20 16 115 20 16 114 20 16 114 20 16 114 20 16 114 20 16
114 20 16 114 20 16 114 20 16 114 20 16 114 20 16 114 20 16 114 20 16
114 20 16 114 20 16 114 20 16 114 20 16 114 19 15 114 19 15 114 19 15
114 19 15 114 19 15 114 19 16 114 19 16 114 19 16 114 19 16 114 19 16
114 19 16 114 19 16 114 19 16 114 19 16 115 19 16 115 26 20 129 32 45
39 32 45 39 32 45 39 32 45 39 32 45 39 32 45 39 32 45 39 32 45 39 32
45 39 32 45 39 32 45 39 32 45 39 32 45 39 32 45 39 32 45 39 32 45 39
32 45 39 32 45 38 32 45 38 32 45 38 32 45 38 32 45 38 32 45 38 32 45
38 32 45 38 32 45 38 32 45 38 32 45 38 32 45 38 32 45 38 32 45 38 32
45 38 32 45 38 32 45 38 32 45 38 32 45 38 32 45 38 32 45 38 32 45 38
32 45 38 32 45 37 32 45 37 32 44 37 32 44 37 32 44 37 32 44 37 32 44
37 32 44 37 32 44 37 32 44 37 32 44 37 32 44 37 32 44 37 32 44 37 32
44 37 32 44 37 32 44 37 32 44 37 32 44 37 32 44 37 32 44 37 32 44 36
32 44 36 32 44 36 32 44 36 32 44 36 32 44 36 32 44 36 32 43 36 32 43
36 32 43 36 32 43 36 31 43 36 31 43 36 31 43 36 31 43 36 31 43 36 31
43 36 31 43 36 31 43 36 31 43 36 31 43 36 31 43 35 31 43 35 31 43 35
31 43 35 31 43 35 31 43 35 31 43 35 31 43 35 31 42 35 31 42 35 31 42
35 31 42 35 31 42 35 31 42 35 31 42 35 31 42 35 31 42 35 31 42 35 31
42 35 31 42 35 31 42 35 31 42 34 31 42 34 31 42 34 31 42 34 31 42 34
30 35 22 30 35 22 30 35 22 30 35 22 30 35 22 30 35 22 30 35 22 30 35
22 30 35 22 30 34 22 30 34 22 30 34 22 30 34 22 30 34 22 30 34 22 30
34 22 30 34 22 30 34 22 30 34 22 30 34 22 30 34 22 30 34 22 30 34 22
30 34 22 30 34 22 30 34 22 30 34 22 30 34 22 29 34 22 29 34 22 29 34
22 29 34 22 29 34 22 29 34 22 29 34 22 29 34 22 29 34 22 29 34 22 29
34 22 29 34 22 29 34 22 29 33 22 29 33 22 29 33 22 29 33 21 29 33 21
29 33 21 29 33 21 29 33 21 29 33 21 29 33 21 29 33 21 29 33 21 29 33
21 29 33 21 29 33 21 29 33 21 29 33 21 29 33 21 29 33 21 28 33 21 28
33 21 28 33 21 28 33 21 28 33 21 28 33 21 28 33 21 28 33 21 28 33 21
28 33 21 28 33 21 28 33 21 28 33 21 28 33 21 28 33 21 28 32 21 28 32
21 28 32 21 28 32 21 28 32 21 28 32 21 28 32 21 28 32 21 28 32 21 28
32 21 28 32 21
15 35 63 15 34 62 15 34 61 15 34 60 15 33 59 15 33 58 15 32 57 15 32
55 15 32 54 15 31 53 15 31 52 15 30 51 15 30 50 15 30 49 15 29 48 15
29 47 15 29 46 15 28 45 15 28 44 15 27 43 15 27 42 15 27 41 15 26 40
15 26 39 15 25 38 15 25 37 15 25 35 15 24 34 15 24 33 15 23 32 15 23
31 15 22 30 15 22 29 15 22 28 15 21 26 15 21 25 15 20 24 15 20 23 15
20 23 15 20 23 15 20 23 15 20 23 15 20 23 15 20 23 15 20 23 19 34 36
19 34 36 19 34 36 19 34 36 19 34 37 19 34 37 19 34 37 19 34 37 19 34
37 19 34 37 19 34 37 19 34 37 19 34 37 19 34 37 19 34 37 19 34 37 19
34 37 19 34 37 19 34 37 19 34 37 19 34 37 19 34 37 19 34 37 19 34 37
19 34 37 19 34 37 19 35 37 19 35 37 19 35 37 19 35 37 19 35 37 19 35
37 19 35 37 19 35 37 19 35 37 19 35 37 19 35 38 19 35 38 19 35 38 19
35 38 19 35 38 19 35 38 19 35 38 19 35 38 19 35 38 19 35 38 19 35 38
19 35 38 19 35 38 19 35 38 19 35 38 19 35 38 19 35 38 19 35 38 19 35
38 19 35 38 19 35 38 19 35 38 19 35 38 19 35 38 19 35 38 19 35 38 19
35 38 19 35 38 19 35 38 19 35 38 19 35 38 19 35 38 19 35 38 19 35 38
19 35 38 19 35 38 19 35 38 19 35 38 19 35 38 19 35 38 19 35 38 19 35
38 21 22 242 21 22 243 21 22 241 21 23 241 21 23 239 21 23 237 21 22
234 21 22 232 21 22 229 21 22 226 21 22 224 21 22 222 21 24 226 21 31
249 21 40 255 21 39 255 21 30 238 21 23 212 21 21 203 20 21 199 20 20
196 20 20 193 20 20 190 20 20 187 20 20 185 20 20 182 20 20 179 20 19
176 20 19 173 20 19 171 20 19 168 20 19 165 20 19 163 20 19 160 20 18
157 20 18 154 20 18 152 20 18 149 20 18 146 20 18 144 20 18 141 20 17
138 20 17 136 20 17 133 20 17 130 20 17 128 20 17 125 20 17 122 20 17
119 20 16 117 20 16 114 20 16 114 20 16 114 20 16 114 20 16 114 20 16
114 20 16 114 20 16 114 20 16 114 20 16 114 20 16 114 20 16 114 20 16
114 20 16 114 20 16 114 20 16 114 20 16 114 19 15 114 19 15 114 19 15
114 19 15 114 19 15 114 19 15 114 19 15 114 19 16 114 19 16 114 19 16
114 19 16 114 19 16 114 19 16 114 19 16 114 19 16 115 26 19 129 32 46
40 32 46 40 32 46 40 33 46 40 33 46 40 33 46 40 33 46 40 33 46 40 33
46 40 33 46 40 33 46 40 33 46 39 33 46 39 33 46 39 33 46 39 33 46 39
33 46 39 33 46 39 33 46 39 33 46 39 33 46 39 33 46 39 33 46 39 33 46
39 33 46 39 33 46 39 33 46 39 33 46 39 33 46 39 33 46 39 33 46 39 33
46 39 33 46 39 33 46 39 33 46 38 33 46 38 33 46 38 33 46 38 33 45 38
33 45 38 33 45 38 33 45 38 33 45 38 33 45 38 33 45 38 33 45 38 33 45
38 33 45 38 33 45 38 33 45 38 32 45 38 32 45 38 32 45 38 32 45 38 32
45 37 32 45 37 32 45 37 32 45 37 32 45 37 32 45 37 32 45 37 32 45 37
32 45 37 32 45 37 32 44 37 32 44 37 32 44 37 32 44 37 32 44 37 32 44
37 32 44 37 32 44 37 32 44 37 32 44 37 32 44 36 32 44 36 32 44 36 32
44 36 32 44 36 32 44 36 32 44 36 32 44 36 32 44 36 32 44 36 32 44 36
32 44 36 32 43 36 32 43 36 32 43 36 32 43 36 32 43 36 32 43 36 32 43
36 31 43 36 31 43 35 31 43 35 31 43 35 31 43 35 31 43 35 31 36 22 31
36 22 31 35 22 31 35 22 31 35 22 31 35 22 31 35 22 31 35 22 31 35 22
31 35 22 31 35 22 31 35 22 31 35 22 31 35 22 31 35 22 31 35 22 31 35
22 31 35 22 31 35 22 31 35 22 31 35 22 30 35 22 30 35 22 30 35 22 30
35 22 30 35 22 30 35 22 30 35 22 30 35 22 30 35 22 30 35 22 30 35 22
30 35 22 30 34 22 30 34 22 30 34 22 30 34 22 30 34 22 30 34 22 30 34
22 30 34 22 30 34 22 30 34 22 30 34 22 30 34 22 30 34 22 30 34 22 30
34 22 30 34 22 30 34 22 30 34 22 29 34 22 29 34 22 29 34 22 29 34 22
29 34 22 29 34 22 29 34 22 29 34 22 29 34 22 29 34 22 29 34 22 29 34
22 29 33 22 29 33 22 29 33 22 29 33 21 29 33 21 29 33 21 29 33 21 29
33 21 29 33 21 29 33 21 29 33 21 29 33 21 29 33 21 29 33 21 29 33 21
29 33 21 29 33 21 29 33 21 28 33 21 28 33 21 28 33 21 28 33 21 28 33
21 28 33 21 28 33 21 28 33 21 28 33 21 28 33 21 28 33 21 28 33 21 28
33 21 28 33 21
15 34 62 15 34 61 15 34 60 15 33 59 15 33 58 15 32 57 15 32 56 15 32
55 15 31 54 15 31 53 15 31 52 15 30 51 15 30 49 15 29 48 15 29 47 15
29 46 15 28 45 15 28 44 15 27 43 15 27 42 15 27 41 15 26 40 15 26 39
15 26 38 15 25 37 15 25 36 15 24 35 15 24 34 15 24 33 15 23 32 15 23
31 15 22 30 15 22 28 15 22 27 15 21 26 15 21 25 15 20 24 15 20 23 15
20 23 15 20 23 15 20 23 15 20 23 15 20 23 15 20 23 15 20 23 15 20 23
19 35 37 19 35 37 19 35 37 19 35 37 19 35 37 19 35 37 19 35 38 19 35
38 19 35 38 19 35 38 19 35 38 19 35 38 19 35 38 19 35 38 19 35 38 19
35 38 19 35 38 19 35 38 19 35 38 19 35 38 19 35 38 19 35 38 19 35 38
19 35 38 19 35 38 19 35 38 19 35 38 19 35 38 19 35 38 19 35 38 19 35
38 19 35 38 19 35 38 19 35 38 19 35 38 19 35 38 19 35 38 19 35 38 19
35 38 19 35 39 19 35 39 19 35 39 19 35 39 19 35 39 19 35 39 19 35 39
19 35 39 19 35 39 19 35 39 19 35 39 19 35 39 19 35 39 19 35 39 19 35
39 19 35 39 19 35 39 19 35 39 19 35 39 19 35 39 19 35 39 19 35 39 19
35 39 19 35 39 19 35 39 19 35 39 19 35 39 19 35 39 19 35 39 19 35 39
19 35 39 19 35 39 19 35 39 19 35 39 19 35 39 19 35 39 19 35 39 19 35
39 21 22 242 21 22 242 21 23 242 21 23 240 21 23 238 21 22 236 21 22
233 21 22 231 21 22 228 21 22 226 21 22 223 21 22 220 21 22 221 21 25
229 21 29 238 21 28 234 21 24 218 21 22 207 20 21 201 20 20 198 20 20
195 20 20 192 20 20 189 20 20 187 20 20 184 20 20 181 20 19 178 20 19
176 20 19 173 20 19 170 20 19 167 20 19 165 20 19 162 20 19 159 20 18
156 20 18 154 20 18 151 20 18 148 20 18 146 20 18 143 20 18 140 20 17
138 20 17 135 20 17 132 20 17 130 20 17 127 20 17 124 20 17 122 20 16
119 20 16 116 20 16 114 20 16 114 20 16 114 20 16 114 20 16 114 20 16
114 20 16 114 20 16 114 20 16 114 20 16 114 20 16 114 20 16 114 20 16
114 20 16 114 20 16 114 20 16 114 20 16 114 19 15 114 19 15 114 19 15
114 19 15 114 19 15 114 19 15 114 19 15 114 19 15 114 19 15 114 19 16
114 19 16 114 19 16 114 19 16 114 19 16 114 19 16 114 26 19 128 33 47
41 33 47 41 33 47 41 33 47 41 33 47 41 33 47 41 33 47 40 33 47 40 33
47 40 33 47 40 33 47 40 33 47 40 33 47 40 33 47 40 33 47 40 33 47 40
33 47 40 33 47 40 33 47 40 33 47 40 33 47 40 33 47 40 33 47 40 33 47
40 33 47 40 33 47 40 33 47 40 33 47 40 33 47 39 33 47 39 33 47 39 33
47 39 33 47 39 33 47 39 33 46 39 33 46 39 33 46 39 33 46 39 33 46 39
33 46 39 33 46 39 33 46 39 33 46 39 33 46 39 33 46 39 33 46 39 33 46
39 33 46 39 33 46 38 33 46 38 33 46 38 33 46 38 33 46 38 33 46 38 33
46 38 33 46 38 33 46 38 33 46 38 33 46 38 33 46 38 33 46 38 33 45 38
33 45 38 33 45 38 33 45 38 33 45 38 33 45 38 33 45 37 33 45 37 33 45
37 33 45 37 33 45 37 33 45 37 33 45 37 33 45 37 33 45 37 33 45 37 33
45 37 33 45 37 32 45 37 32 45 37 32 44 37 32 44 37 32 44 37 32 44 37
32 44 37 32 44 36 32 44 36 32 44 36 32 44 36 32 44 36 32 36 23 32 36
23 32 36 22 32 36 22 32 36 22 32 36 22 32 36 22 32 36 22 32 36 22 32
36 22 32 36 22 32 36 22 32 36 22 32 36 22 32 36 22 31 36 22 31 36 22
31 36 22 31 36 22 31 36 22 31 36 22 31 36 22 31 36 22 31 36 22 31 36
22 31 36 22 31 35 22 31 35 22 31 35 22 31 35 22 31 35 22 31 35 22 31
35 22 31 35 22 31 35 22 31 35 22 31 35 22 31 35 22 31 35 22 31 35 22
31 35 22 31 35 22 31 35 22 30 35 22 30 35 22 30 35 22 30 35 22 30 35
22 30 35 22 30 35 22 30 35 22 30 35 22 30 35 22 30 35 22 30 34 22 30
34 22 30 34 22 30 34 22 30 34 22 30 34 22 30 34 22 30 34 22 30 34 22
30 34 22 30 34 22 30 34 22 30 34 22 30 34 22 30 34 22 30 34 22 30 34
22 29 34 22 29 34 22 29 34 22 29 34 22 29 34 22 29 34 22 29 34 22 29
34 22 29 34 22 29 34 22 29 34 22 29 34 22 29 34 22 29 33 22 29 33 22
29 33 21 29 33 21 29 33 21 29 33 21 29 33 21 29 33 21 29 33 21 29 33
21 29 33 21 29 33 21 29 33 21 29 33 21 29 33 21 29 33 21 29 33 21 29
33 21 28 33 21
15 34 60 15 33 59 15 33 59 15 33 58 15 32 57 15 32 56 15 32 55 15 31
54 15 31 53 15 31 52 15 30 51 15 30 50 15 29 49 15 29 48 15 29 47 15
28 46 15 28 45 15 28 44 15 27 43 15 27 42 15 26 41 15 26 40 15 26 39
15 25 38 15 25 37 15 25 35 15 24 34 15 24 33 15 23 32 15 23 31 15 23
30 15 22 29 15 22 28 15 21 27 15 21 26 15 21 25 15 20 23 15 20 23 15
20 23 15 20 23 15 20 23 15 20 23 15 20 23 15 20 23 15 20 23 15 20 23
15 20 23 19 35 38 19 35 38 19 35 38 19 35 38 19 35 38 19 35 38 19 35
38 19 35 39 19 35 39 19 35 39 19 35 39 19 35 39 19 35 39 19 35 39 19
35 39 19 35 39 19 35 39 19 35 39 19 35 39 19 35 39 19 35 39 19 35 39
19 35 39 19 36 39 19 36 39 19 36 39 19 36 39 19 36 39 19 36 39 19 36
39 19 36 39 19 36 39 19 36 39 19 36 39 19 36 39 19 36 39 19 36 39 19
36 39 19 36 39 19 36 39 19 36 39 19 36 39 19 36 40 19 36 40 19 36 40
19 36 40 19 36 40 19 36 40 19 36 40 19 36 40 19 36 40 19 36 40 19 36
40 19 36 40 19 36 40 19 36 40 19 36 40 19 36 40 19 36 40 19 36 40 19
36 40 19 36 40 19 36 40 19 36 40 19 36 40 19 36 40 19 36 40 19 36 40
19 36 40 19 36 40 19 36 40 19 36 40 19 36 40 19 36 40 19 36 40 19 36
40 21 22 241 21 22 241 21 23 241 21 23 239 21 22 237 21 22 235 21 22
233 21 22 230 21 22 227 21 22 225 21 22 222 21 22 219 21 22 218 21 22
218 21 23 219 21 23 216 20 22 209 20 21 204 20 21 200 20 20 197 20 20
194 20 20 192 20 20 189 20 20 186 20 20 183 20 20 180 20 19 178 20 19
175 20 19 172 20 19 169 20 19 167 20 19 164 20 19 161 20 18 159 20 18
156 20 18 153 20 18 151 20 18 148 20 18 145 20 18 142 20 17 140 20 17
137 20 17 134 20 17 132 20 17 129 20 17 126 20 17 124 20 17 121 20 16
118 20 16 116 20 16 114 20 16 114 20 16 114 20 16 114 20 16 114 20 16
114 20 16 114 20 16 114 20 16 114 20 16 114 20 16 114 20 16 114 20 16
114 20 16 114 20 16 114 20 16 114 20 16 114 19 15 114 19 15 114 19 15
114 19 15 114 19 15 114 19 15 114 19 15 114 19 15 114 19 15 114 19 15
114 19 15 114 19 15 114 19 16 114 19 16 114 19 16 114 26 19 128 34 48
42 34 48 41 34 48 41 34 48 41 34 48 41 34 48 41 34 48 41 34 48 41 34
48 41 34 48 41 34 48 41 34 48 41 34 48 41 34 48 41 34 48 41 34 48 41
34 48 41 34 48 41 34 48 41 34 48 41 34 48 41 34 48 41 34 48 40 34 48
40 34 48 40 34 48 40 34 48 40 34 48 40 34 48 40 34 48 40 34 48 40 34
47 40 34 47 40 34 47 40 34 47 40 34 47 40 34 47 40 34 47 40 34 47 40
34 47 40 34 47 40 34 47 40 34 47 39 34 47 39 34 47 39 34 47 39 34 47
39 34 47 39 34 47 39 34 47 39 34 47 39 34 47 39 34 47 39 34 47 39 34
47 39 34 47 39 34 47 39 34 47 39 34 46 39 34 46 39 34 46 38 34 46 38
34 46 38 34 46 38 34 46 38 33 46 38 33 46 38 33 46 38 33 46 38 33 46
38 33 46 38 33 46 38 33 46 38 33 46 38 33 46 38 33 46 38 33 46 38 33
46 38 33 45 37 33 45 37 33 45 37 33 45 37 33 45 37 33 45 37 33 37 23
33 37 23 33 37 23 33 37 23 33 37 23 33 37 23 33 37 23 33 37 23 33 37
23 33 37 23 32 37 23 32 37 23 32 37 23 32 37 23 32 37 23 32 37 23 32
37 23 32 37 23 32 37 23 32 37 23 32 36 23 32 36 23 32 36 23 32 36 23
32 36 23 32 36 23 32 36 22 32 36 22 32 36 22 32 36 22 32 36 22 32 36
22 32 36 22 32 36 22 32 36 22 32 36 22 32 36 22 31 36 22 31 36 22 31
36 22 31 36 22 31 36 22 31 36 22 31 36 22 31 36 22 31 36 22 31 36 22
31 35 22 31 35 22 31 35 22 31 35 22 31 35 22 31 35 22 31 35 22 31 35
22 31 35 22 31 35 22 31 35 22 31 35 22 31 35 22 31 35 22 31 35 22 31
35 22 30 35 22 30 35 22 30 35 22 30 35 22 30 35 22 30 35 22 30 35 22
30 35 22 30 35 22 30 35 22 30 35 22 30 34 22 30 34 22 30 34 22 30 34
22 30 34 22 30 34 22 30 34 22 30 34 22 30 34 22 30 34 22 30 34 22 30
34 22 30 34 22 30 34 22 30 34 22 30 34 22 29 34 22 29 34 22 29 34 22
29 34 22 29 34 22 29 34 22 29 34 22 29 34 22 29 34 22 29 34 22 29 34
22 29 34 22 29 33 22 29 33 22 29 33 22 29 33 21 29 33 21 29 33 21 29
33 21 29 33 21
15 33 59 15 33 58 15 33 57 15 32 56 15 32 56 15 32 55 15 31 54 15 31
53 15 31 52 15 30 51 15 30 50 15 29 49 15 29 48 15 29 47 15 28 46 15
28 45 15 28 44 15 27 43 15 27 42 15 27 41 15 26 40 15 26 39 15 25 38
15 25 37 15 25 36 15 24 35 15 24 34 15 24 33 15 23 32 15 23 31 15 22
30 15 22 29 15 22 28 15 21 26 15 21 25 15 20 24 15 20 23 15 20 23 15
20 23 15 20 23 15 20 23 15 20 23 15 20 23 15 20 23 15 20 23 15 20 23
15 20 23 15 20 23 19 36 39 19 36 39 19 36 39 19 36 39 19 36 39 19 36
39 19 36 39 19 36 39 19 36 40 19 36 40 19 36 40 19 36 40 19 36 40 19
36 40 19 36 40 19 36 40 19 36 40 19 36 40 19 36 40 19 36 40 19 36 40
19 36 40 19 36 40 19 36 40 19 36 40 19 36 40 19 36 40 19 36 40 19 36
40 19 36 40 19 36 40 19 36 40 19 36 40 19 36 40 19 36 40 19 36 40 19
36 40 19 36 40 19 36 40 19 36 40 19 36 40 19 36 40 19 36 40 19 36 40
19 36 40 19 36 41 19 36 41 19 36 41 19 36 41 19 36 41 19 36 41 19 36
41 19 36 41 19 36 41 19 36 41 19 36 41 19 36 41 19 36 41 19 36 41 19
36 41 19 36 41 19 36 41 19 36 41 19 36 41 19 36 41 19 36 41 19 36 41
19 36 41 19 36 41 19 36 41 19 36 41 19 36 41 19 36 41 19 36 41 19 36
41 21 22 240 21 22 240 21 23 240 21 22 238 21 22 236 21 22 234 21 22
232 21 22 229 21 22 227 21 22 224 21 22 221 20 21 219 20 21 216 20 21
214 20 22 212 20 21 209 20 21 206 20 21 202 20 20 199 20 20 196 20 20
194 20 20 191 20 20 188 20 20 185 20 20 183 20 19 180 20 19 177 20 19
174 20 19 172 20 19 169 20 19 166 20 19 163 20 19 161 20 18 158 20 18
155 20 18 153 20 18 150 20 18 147 20 18 145 20 18 142 20 17 139 20 17
137 20 17 134 20 17 131 20 17 129 20 17 126 20 17 123 20 16 121 20 16
118 20 16 115 20 16 114 20 16 114 20 16 114 20 16 114 20 16 114 20 16
114 20 16 114 20 16 114 20 16 114 20 16 114 20 16 114 20 16 114 20 16
114 20 16 114 20 16 114 20 16 114 20 16 114 19 15 114 19 15 114 19 15
114 19 15 114 19 15 114 19 15 114 19 15 114 19 15 114 19 15 114 19 15
114 19 15 114 19 15 114 19 15 114 19 15 114 25 19 127 25 19 127 34 49
42 34 49 42 34 49 42 34 49 42 34 49 42 34 49 42 34 49 42 34 49 42 34
49 42 34 49 42 34 49 42 34 49 42 34 49 42 34 49 42 35 49 42 35 49 42
35 49 42 35 49 41 35 49 41 35 49 41 35 49 41 35 49 41 35 49 41 35 49
41 35 49 41 35 49 41 35 49 41 35 49 41 35 48 41 35 48 41 35 48 41 35
48 41 35 48 41 35 48 41 35 48 41 35 48 41 35 48 40 35 48 40 35 48 40
35 48 40 35 48 40 35 48 40 35 48 40 35 48 40 35 48 40 35 48 40 34 48
40 34 48 40 34 48 40 34 48 40 34 48 40 34 48 40 34 48 40 34 48 40 34
48 39 34 47 39 34 47 39 34 47 39 34 47 39 34 47 39 34 47 39 34 47 39
34 47 39 34 47 39 34 47 39 34 47 39 34 47 39 34 47 39 34 47 39 34 47
39 34 47 39 34 47 38 34 47 38 34 47 38 34 47 38 34 46 38 34 38 23 34
38 23 34 38 23 34 38 23 34 38 23 34 38 23 33 38 23 33 38 23 33 38 23
33 38 23 33 38 23 33 38 23 33 38 23 33 38 23 33 38 23 33 38 23 33 37
23 33 37 23 33 37 23 33 37 23 33 37 23 33 37 23 33 37 23 33 37 23 33
37 23 33 37 23 33 37 23 33 37 23 33 37 23 33 37 23 33 37 23 33 37 23
33 37 23 33 37 23 32 37 23 32 37 23 32 37 23 32 37 23 32 37 23 32 37
23 32 37 23 32 37 23 32 36 23 32 36 23 32 36 23 32 36 23 32 36 23 32
36 23 32 36 22 32 36 22 32 36 22 32 36 22 32 36 22 32 36 22 32 36 22
32 36 22 32 36 22 32 36 22 31 36 22 31 36 22 31 36 22 31 36 22 31 36
22 31 36 22 31 36 22 31 36 22 31 36 22 31 35 22 31 35 22 31 35 22 31
35 22 31 35 22 31 35 22 31 35 22 31 35 22 31 35 22 31 35 22 31 35 22
31 35 22 31 35 22 31 35 22 31 35 22 31 35 22 30 35 22 30 35 22 30 35
22 30 35 22 30 35 22 30 35 22 30 35 22 30 35 22 30 35 22 30 35 22 30
34 22 30 34 22 30 34 22 30 34 22 30 34 22 30 34 22 30 34 22 30 34 22
30 34 22 30 34 22 30 34 22 30 34 22 30 34 22 30 34 22 30 34 22 30 34
22 29 34 22 29 34 22 29 34 22 29 34 22 29 34 22 29 34 22 29 34 22 29
34 22 29 34 22
15 33 58 15 33 57 15 32 56 15 32 55 15 32 54 15 31 54 15 31 53 15 31
52 15 30 51 15 30 50 15 30 49 15 29 48 15 29 47 15 28 46 15 28 45 15
28 44 15 27 43 15 27 42 15 27 41 15 26 40 15 26 39 15 26 38 15 25 37
15 25 36 15 24 35 15 24 34 15 24 33 15 23 32 15 23 31 15 23 30 15 22
29 15 22 28 15 21 27 15 21 26 15 21 25 15 20 24 15 20 23 15 20 23 15
20 23 15 20 23 15 20 23 15 20 23 15 20 23 15 20 23 15 20 23 15 20 23
15 20 23 15 20 23 15 20 23 15 20 23 19 36 40 19 36 40 19 36 40 19 36
40 19 36 40 19 36 40 19 36 40 19 36 41 19 36 41 19 36 41 19 36 41 19
36 41 19 36 41 19 36 41 19 36 41 19 36 41 19 37 41 19 37 41 19 37 41
19 37 41 19 37 41 19 37 41 19 37 41 19 37 41 19 37 41 19 37 41 19 37
41 19 37 41 19 37 41 19 37 41 19 37 41 19 37 41 19 37 41 19 37 41 19
37 41 19 37 41 19 37 41 19 37 41 19 37 41 19 37 41 19 37 41 19 37 41
19 37 41 19 37 41 19 37 41 19 37 41 19 37 42 19 37 42 19 37 42 19 37
42 19 37 42 19 37 42 19 37 42 19 37 42 19 37 42 19 37 42 19 37 42 19
37 42 19 37 42 19 37 42 19 37 42 19 37 42 19 37 42 19 37 42 19 37 42
19 37 41 19 37 41 19 37 41 19 37 41 19 37 41 19 37 41 19 37 41 19 37
41 20 22 238 20 22 239 20 22 239 21 22 237 21 22 235 20 22 233 20 22
231 20 22 228 20 22 226 20 22 223 20 21 220 20 21 218 20 21 215 20 21
212 20 21 210 20 21 207 20 21 204 20 21 201 20 20 198 20 20 196 20 20
193 20 20 190 20 20 187 20 20 185 20 20 182 20 19 179 20 19 176 20 19
174 20 19 171 20 19 168 20 19 165 20 19 163 20 18 160 20 18 157 20 18
155 20 18 152 20 18 149 20 18 147 20 18 144 20 17 141 20 17 139 20 17
136 20 17 133 20 17 131 20 17 128 20 17 125 20 17 123 20 16 120 20 16
117 20 16 115 20 16 114 20 16 114 20 16 114 20 16 114 20 16 114 20 16
114 20 16 114 20 16 114 20 16 114 20 16 114 20 16 114 20 16 114 20 16
114 20 16 114 20 16 114 20 16 114 20 16 114 20 16 114 19 15 114 19 15
114 19 15 114 19 15 114 19 15 114 19 15 114 19 15 114 19 15 114 19 15
114 19 15 114 19 15 114 19 15 114 19 15 114 25 19 127 25 18 126 35 50
43 35 50 43 35 50 43 35 50 43 35 50 43 35 50 43 35 50 43 35 50 43 35
50 43 35 50 43 35 50 43 35 50 43 35 50 42 35 50 42 35 50 42 35 50 42
35 50 42 35 50 42 35 50 42 35 50 42 35 50 42 35 50 42 35 50 42 35 50
42 35 50 42 35 50 42 35 49 42 35 49 42 35 49 42 35 49 42 35 49 42 35
49 41 35 49 41 35 49 41 35 49 41 35 49 41 35 49 41 35 49 41 35 49 41
35 49 41 35 49 41 35 49 41 35 49 41 35 49 41 35 49 41 35 49 41 35 49
41 35 49 41 35 49 40 35 49 40 35 49 40 35 49 40 35 49 40 35 48 40 35
48 40 35 48 40 35 48 40 35 48 40 35 48 40 35 48 40 35 48 40 35 48 40
35 48 40 35 48 40 35 48 40 35 48 39 35 48 39 35 48 39 35 48 39 35 39
23 35 39 23 34 39 23 34 39 23 34 39 23 34 39 23 34 39 23 34 39 23 34
39 23 34 39 23 34 39 23 34 38 23 34 38 23 34 38 23 34 38 23 34 38 23
34 38 23 34 38 23 34 38 23 34 38 23 34 38 23 34 38 23 34 38 23 34 38
23 34 38 23 34 38 23 34 38 23 34 38 23 34 38 23 34 38 23 33 38 23 33
38 23 33 38 23 33 38 23 33 38 23 33 38 23 33 38 23 33 38 23 33 37 23
33 37 23 33 37 23 33 37 23 33 37 23 33 37 23 33 37 23 33 37 23 33 37
23 33 37 23 33 37 23 33 37 23 33 37 23 33 37 23 33 37 23 33 37 23 32
37 23 32 37 23 32 37 23 32 37 23 32 37 23 32 37 23 32 37 23 32 37 23
32 36 23 32 36 23 32 36 23 32 36 23 32 36 23 32 36 22 32 36 22 32 36
22 32 36 22 32 36 22 32 36 22 32 36 22 32 36 22 32 36 22 32 36 22 31
36 22 31 36 22 31 36 22 31 36 22 31 36 22 31 36 22 31 36 22 31 36 22
31 36 22 31 35 22 31 35 22 31 35 22 31 35 22 31 35 22 31 35 22 31 35
22 31 35 22 31 35 22 31 35 22 31 35 22 31 35 22 31 35 22 31 35 22 31
35 22 30 35 22 30 35 22 30 35 22 30 35 22 30 35 22 30 35 22 30 35 22
30 35 22 30 35 22 30 35 22 30 34 22 30 34 22 30 34 22 30 34 22 30 34
22 30 34 22 30 34 22 30 34 22 30 34 22 30 34 22 30 34 22 30 34 22 30
34 22 30 34 22
15 33 57 15 32 56 15 32 55 15 32 54 15 31 53 15 31 52 15 31 52 15 30
51 15 30 50 15 29 49 15 29 48 15 29 47 15 28 46 15 28 45 15 28 44 15
27 43 15 27 42 15 27 41 15 26 40 15 26 39 15 26 38 15 25 37 15 25 36
15 25 35 15 24 35 15 24 34 15 23 33 15 23 32 15 23 31 15 22 30 15 22
29 15 22 28 15 21 27 15 21 26 15 20 24 15 20 23 15 20 23 15 20 23 15
20 23 15 20 23 15 20 23 15 20 23 15 20 23 15 20 23 15 20 23 15 20 23
15 20 23 15 20 23 15 20 23 15 20 23 15 20 23 19 37 41 19 37 41 19 37
41 19 37 41 19 37 41 19 37 41 19 37 42 19 37 42 19 37 42 19 37 42 19
37 42 19 37 42 19 37 42 19 37 42 19 37 42 19 37 42 19 37 42 19 37 42
19 37 42 19 37 42 19 37 42 19 37 42 19 37 42 19 37 42 19 37 42 19 37
42 19 37 42 19 37 42 19 37 42 19 37 42 19 37 42 19 37 42 19 37 42 19
37 42 19 37 42 19 37 42 19 37 42 19 37 42 19 37 42 19 37 42 19 37 42
19 37 42 19 37 42 19 37 42 19 37 42 19 37 42 19 37 42 19 37 43 19 37
43 19 37 43 19 37 43 19 37 43 19 37 43 19 37 43 19 37 43 19 37 43 19
37 42 19 37 42 19 37 42 19 37 42 19 37 42 19 37 42 19 37 42 19 37 42
19 37 42 19 37 42 19 37 42 19 37 42 19 37 42 19 37 42 19 37 42 19 37
42 20 21 237 20 22 238 20 22 238 20 22 236 20 22 234 20 22 232 20 22
230 20 22 227 20 22 225 20 21 222 20 21 220 20 21 217 20 21 214 20 21
211 20 21 209 20 21 206 20 21 203 20 20 200 20 20 198 20 20 195 20 20
192 20 20 189 20 20 187 20 20 184 20 19 181 20 19 178 20 19 176 20 19
173 20 19 170 20 19 167 20 19 165 20 18 162 20 18 159 20 18 157 20 18
154 20 18 151 20 18 149 20 18 146 20 18 143 20 17 141 20 17 138 20 17
135 20 17 133 20 17 130 20 17 127 20 17 125 20 16 122 20 16 119 20 16
117 20 16 114 20 16 114 20 16 114 20 16 114 20 16 114 20 16 114 20 16
114 20 16 114 20 16 114 20 16 114 20 16 114 20 16 114 20 16 114 20 16
114 20 16 114 20 16 114 20 16 114 20 16 114 20 16 114 19 15 114 19 15
114 19 15 114 19 15 114 19 15 114 19 15 114 19 15 114 19 15 114 19 15
114 19 15 114 19 15 114 19 15 114 19 15 114 25 18 126 25 18 125 36 51
44 36 51 44 36 51 44 36 51 44 36 51 44 36 51 44 36 51 44 36 51 44 36
51 43 36 51 43 36 51 43 36 51 43 36 51 43 36 51 43 36 51 43 36 51 43
36 51 43 36 51 43 36 51 43 36 51 43 36 51 43 36 51 43 36 51 43 36 50
43 36 50 43 36 50 43 36 50 42 36 50 42 36 50 42 36 50 42 36 50 42 36
50 42 36 50 42 36 50 42 36 50 42 36 50 42 36 50 42 36 50 42 36 50 42
36 50 42 36 50 42 36 50 42 36 50 42 36 50 41 36 50 41 36 50 41 36 50
41 36 50 41 36 50 41 36 50 41 36 50 41 36 49 41 36 49 41 36 49 41 36
49 41 36 49 41 36 49 41 36 49 41 36 49 41 36 49 40 36 49 40 36 49 40
35 40 24 35 40 24 35 40 24 35 40 24 35 40 24 35 40 24 35 40 24 35 39
24 35 39 24 35 39 24 35 39 24 35 39 24 35 39 24 35 39 24 35 39 24 35
39 24 35 39 24 35 39 24 35 39 23 35 39 23 35 39 23 35 39 23 35 39 23
35 39 23 35 39 23 35 39 23 35 39 23 35 39 23 34 39 23 34 39 23 34 39
23 34 39 23 34 39 23 34 39 23 34 39 23 34 38 23 34 38 23 34 38 23 34
38 23 34 38 23 34 38 23 34 38 23 34 38 23 34 38 23 34 38 23 34 38 23
34 38 23 34 38 23 34 38 23 34 38 23 34 38 23 33 38 23 33 38 23 33 38
23 33 38 23 33 38 23 33 38 23 33 38 23 33 37 23 33 37 23 33 37 23 33
37 23 33 37 23 33 37 23 33 37 23 33 37 23 33 37 23 33 37 23 33 37 23
33 37 23 33 37 23 33 37 23 33 37 23 32 37 23 32 37 23 32 37 23 32 37
23 32 37 23 32 37 23 32 37 23 32 37 23 32 36 23 32 36 23 32 36 23 32
36 23 32 36 22 32 36 22 32 36 22 32 36 22 32 36 22 32 36 22 32 36 22
32 36 22 32 36 22 32 36 22 31 36 22 31 36 22 31 36 22 31 36 22 31 36
22 31 36 22 31 36 22 31 36 22 31 36 22 31 35 22 31 35 22 31 35 22 31
35 22 31 35 22 31 35 22 31 35 22 31 35 22 31 35 22 31 35 22 31 35 22
31 35 22 31 35 22 31 35 22 31 35 22 30 35 22 30 35 22 30 35 22 30 35
22 30 35 22 30 35 22 30 35 22 30 35 22 30 35 22 30 34 22 30 34 22 30
34 22 30 34 22
15 32 56 15 32 55 15 31 54 15 31 53 15 31 52 15 30 51 15 30 50 15 30
50 15 29 49 15 29 48 15 29 47 15 28 46 15 28 45 15 28 44 15 27 43 15
27 42 15 27 41 15 26 40 15 26 39 15 26 39 15 25 38 15 25 37 15 25 36
15 24 35 15 24 34 15 24 33 15 23 32 15 23 31 15 23 30 15 22 29 15 22
28 15 21 27 15 21 26 15 21 25 15 20 24 15 20 23 15 20 23 15 20 23 15
20 23 15 20 23 15 20 23 15 20 23 15 20 23 15 20 23 15 20 23 15 20 23
15 20 23 15 20 23 15 20 23 15 20 23 15 20 23 19 37 42 19 37 42 19 37
42 19 37 42 19 37 42 19 37 43 19 37 43 19 37 43 19 38 43 19 38 43 19
38 43 19 38 43 19 38 43 19 38 43 19 38 43 19 38 43 19 38 43 19 38 43
19 38 43 19 38 43 19 38 43 19 38 43 19 38 43 19 38 43 19 38 43 19 38
43 19 38 43 19 38 43 19 38 43 19 38 43 19 38 43 19 38 43 19 38 43 19
38 43 19 38 43 19 38 43 19 38 43 19 38 43 19 38 43 19 38 43 19 38 43
19 38 43 19 38 43 19 38 43 19 38 43 19 38 43 19 38 43 19 38 43 19 38
44 19 38 44 19 38 43 19 38 43 19 38 43 19 38 43 19 38 43 19 38 43 19
38 43 19 38 43 19 38 43 19 38 43 19 38 43 19 38 43 19 38 43 19 38 43
19 38 43 19 38 43 19 38 43 19 38 43 19 38 43 19 38 43 19 38 43 19 38
43 20 21 235 20 21 236 20 22 236 20 22 235 20 22 233 20 22 231 20 22
229 20 22 226 20 21 224 20 21 221 20 21 219 20 21 216 20 21 213 20 21
211 20 21 208 20 21 205 20 20 202 20 20 200 20 20 197 20 20 194 20 20
191 20 20 189 20 20 186 20 19 183 20 19 180 20 19 178 20 19 175 20 19
172 20 19 169 20 19 167 20 19 164 20 18 161 20 18 159 20 18 156 20 18
153 20 18 151 20 18 148 20 18 145 20 17 143 20 17 140 20 17 137 20 17
135 20 17 132 20 17 129 20 17 127 20 17 124 20 16 121 20 16 119 20 16
116 20 16 114 20 16 114 20 16 114 20 16 114 20 16 114 20 16 114 20 16
114 20 16 114 20 16 114 20 16 114 20 16 114 20 16 114 20 16 114 20 16
114 20 16 114 20 16 114 20 16 114 20 16 114 20 16 114 19 15 114 19 15
114 19 15 114 19 15 114 19 15 114 19 15 114 19 15 114 19 15 114 19 15
114 19 15 114 19 15 113 19 15 113 25 18 126 25 18 125 24 16 123 36 52
45 36 52 45 36 52 45 36 52 45 36 52 44 36 52 44 36 52 44 36 52 44 36
52 44 36 52 44 36 52 44 36 52 44 36 52 44 37 52 44 37 52 44 37 52 44
37 52 44 37 52 44 37 52 44 37 52 44 37 52 44 37 51 43 37 51 43 37 51
43 37 51 43 37 51 43 37 51 43 37 51 43 37 51 43 37 51 43 37 51 43 37
51 43 37 51 43 37 51 43 37 51 43 37 51 43 37 51 43 37 51 43 37 51 42
37 51 42 37 51 42 37 51 42 37 51 42 37 51 42 37 51 42 37 51 42 37 51
42 37 51 42 37 51 42 37 51 42 37 50 42 37 50 42 36 50 42 36 50 42 36
50 41 36 41 24 36 40 24 36 40 24 36 40 24 36 40 24 36 40 24 36 40 24
36 40 24 36 40 24 36 40 24 36 40 24 36 40 24 36 40 24 36 40 24 36 40
24 36 40 24 36 40 24 36 40 24 36 40 24 36 40 24 36 40 24 36 40 24 36
40 24 36 40 24 36 40 24 36 40 24 35 40 24 35 40 24 35 40 24 35 40 24
35 40 24 35 40 24 35 40 24 35 39 24 35 39 24 35 39 24 35 39 24 35 39
24 35 39 24 35 39 24 35 39 24 35 39 24 35 39 23 35 39 23 35 39 23 35
39 23 35 39 23 35 39 23 35 39 23 35 39 23 34 39 23 34 39 23 34 39 23
34 39 23 34 39 23 34 39 23 34 38 23 34 38 23 34 38 23 34 38 23 34 38
23 34 38 23 34 38 23 34 38 23 34 38 23 34 38 23 34 38 23 34 38 23 34
38 23 34 38 23 34 38 23 33 38 23 33 38 23 33 38 23 33 38 23 33 38 23
33 38 23 33 37 23 33 37 23 33 37 23 33 37 23 33 37 23 33 37 23 33 37
23 33 37 23 33 37 23 33 37 23 33 37 23 33 37 23 33 37 23 33 37 23 32
37 23 32 37 23 32 37 23 32 37 23 32 37 23 32 37 23 32 37 23 32 36 23
32 36 23 32 36 23 32 36 23 32 36 23 32 36 22 32 36 22 32 36 22 32 36
22 32 36 22 32 36 22 32 36 22 32 36 22 32 36 22 31 36 22 31 36 22 31
36 22 31 36 22 31 36 22 31 36 22 31 36 22 31 36 22 31 36 22 31 35 22
31 35 22 31 35 22 31 35 22 31 35 22 31 35 22 31 35 22 31 35 22 31 35
22 31 35 22 31 35 22 31 35 22 31 35 22 31 35 22 30 35 22 30 35 22 30
35 22 30 35 22
15 32 55 15 31 54 15 31 53 15 31 52 15 30 51 15 30 50 15 30 49 15 29
49 15 29 48 15 29 47 15 28 46 15 28 45 15 28 44 15 27 43 15 27 42 15
27 41 15 26 40 15 26 40 15 26 39 15 25 38 15 25 37 15 25 36 15 24 35
15 24 34 15 24 33 15 23 32 15 23 31 15 23 30 15 22 29 15 22 28 15 22
27 15 21 26 15 21 25 15 20 24 15 20 23 15 20 23 15 20 23 15 20 23 15
20 23 15 20 23 15 20 23 15 20 23 15 20 23 15 20 23 15 20 23 15 20 23
15 20 23 15 20 23 15 20 23 15 20 23 15 20 23 15 20 23 19 38 43 19 38
43 19 38 43 19 38 44 19 38 44 19 38 44 19 38 44 19 38 44 19 38 44 19
38 44 19 38 44 19 38 44 19 38 44 19 38 44 19 38 44 19 38 44 19 38 44
19 38 44 19 38 44 19 38 44 19 38 44 19 38 44 19 38 44 19 38 44 19 38
44 19 38 44 19 38 44 19 38 44 19 38 44 19 38 44 19 38 44 19 38 44 19
38 44 19 39 44 19 39 44 19 39 44 19 39 44 19 39 44 19 39 44 19 39 44
19 39 45 19 39 45 19 39 45 19 39 45 19 39 45 19 39 45 19 39 45 19 39
45 19 39 45 19 39 45 19 39 45 19 39 44 19 39 44 19 39 44 19 39 44 19
39 44 19 39 44 19 39 44 19 38 44 19 38 44 19 38 44 19 38 44 19 38 44
19 38 44 19 38 44 19 38 44 19 38 44 19 38 44 19 38 44 19 38 44 19 38
44 18 19 233 20 21 235 20 21 235 20 22 234 20 22 232 20 21 230 20 21
228 20 21 225 20 21 223 20 21 220 20 21 218 20 21 215 20 21 212 20 21
210 20 21 207 20 20 204 20 20 201 20 20 199 20 20 196 20 20 193 20 20
190 20 20 188 20 20 185 20 19 182 20 19 180 20 19 177 20 19 174 20 19
171 20 19 169 20 19 166 20 18 163 20 18 161 20 18 158 20 18 155 20 18
153 20 18 150 20 18 147 20 18 145 20 17 142 20 17 139 20 17 137 20 17
134 20 17 131 20 17 129 20 17 126 20 16 123 20 16 121 20 16 118 20 16
115 20 16 114 20 16 114 20 16 114 20 16 114 20 16 114 20 16 114 20 16
114 20 16 114 20 16 114 20 16 114 20 16 114 20 16 114 20 16 114 20 16
114 20 16 114 20 16 114 20 16 114 20 16 114 20 16 114 19 15 114 19 15
114 19 15 114 19 15 114 19 15 114 19 15 114 19 15 114 19 15 113 19 15
113 19 15 113 19 15 113 19 15 113 25 18 125 24 16 123 23 16 123 37 53
45 37 53 45 37 53 45 37 53 45 37 53 45 37 53 45 37 53 45 37 53 45 37
53 45 37 53 45 37 53 45 37 53 45 37 53 45 37 53 45 37 53 45 37 53 45
37 53 45 37 53 44 37 53 44 37 53 44 37 52 44 37 52 44 37 52 44 37 52
44 37 52 44 37 52 44 37 52 44 37 52 44 37 52 44 37 52 44 37 52 44 37
52 44 37 52 44 37 52 43 37 52 43 37 52 43 37 52 43 37 52 43 37 52 43
37 52 43 37 52 43 37 52 43 37 52 43 37 52 43 37 52 43 37 52 43 37 52
43 37 52 43 37 41 24 37 41 24 37 41 24 37 41 24 37 41 24 37 41 24 37
41 24 37 41 24 37 41 24 37 41 24 37 41 24 37 41 24 37 41 24 37 41 24
37 41 24 37 41 24 37 41 24 37 41 24 37 41 24 37 41 24 37 41 24 37 41
24 37 41 24 37 41 24 37 41 24 36 41 24 36 41 24 36 41 24 36 41 24 36
41 24 36 41 24 36 41 24 36 40 24 36 40 24 36 40 24 36 40 24 36 40 24
36 40 24 36 40 24 36 40 24 36 40 24 36 40 24 36 40 24 36 40 24 36 40
24 36 40 24 36 40 24 36 40 24 36 40 24 35 40 24 35 40 24 35 40 24 35
40 24 35 40 24 35 40 24 35 39 24 35 39 24 35 39 24 35 39 24 35 39 24
35 39 24 35 39 24 35 39 23 35 39 23 35 39 23 35 39 23 35 39 23 35 39
23 35 39 23 34 39 23 34 39 23 34 39 23 34 39 23 34 39 23 34 39 23 34
38 23 34 38 23 34 38 23 34 38 23 34 38 23 34 38 23 34 38 23 34 38 23
34 38 23 34 38 23 34 38 23 34 38 23 34 38 23 34 38 23 33 38 23 33 38
23 33 38 23 33 38 23 33 38 23 33 38 23 33 37 23 33 37 23 33 37 23 33
37 23 33 37 23 33 37 23 33 37 23 33 37 23 33 37 23 33 37 23 33 37 23
33 37 23 33 37 23 32 37 23 32 37 23 32 37 23 32 37 23 32 37 23 32 37
23 32 37 23 32 36 23 32 36 23 32 36 23 32 36 23 32 36 23 32 36 22 32
36 22 32 36 22 32 36 22 32 36 22 32 36 22 32 36 22 32 36 22 32 36 22
31 36 22 31 36 22 31 36 22 31 36 22 31 36 22 31 36 22 31 36 22 31 36
22 31 35 22 31 35 22 31 35 22 31 35 22 31 35 22 31 35 22 31 35 22 31
35 22 31 35 22
15 31 54 15 31 53 15 31 52 15 30 51 15 30 50 15 30 49 15 29 48 15 29
47 15 29 47 15 28 46 15 28 45 15 28 44 15 27 43 15 27 42 15 27 41 15
26 40 15 26 40 15 26 39 15 25 38 15 25 37 15 25 36 15 24 35 15 24 34
15 24 33 15 23 32 15 23 31 15 23 30 15 22 30 15 22 29 15 22 28 15 21
27 15 21 26 15 21 25 15 20 24 15 20 23 15 20 23 15 20 23 15 20 23 15
20 23 15 20 23 15 20 23 15 20 23 15 20 23 15 20 23 15 20 23 15 20 23
15 20 23 15 20 23 15 20 23 15 20 23 15 20 23 15 20 23 15 20 23 19 39
45 19 39 45 19 39 45 19 39 45 19 39 45 19 39 45 19 39 45 19 39 45 19
39 45 19 39 45 19 39 45 19 39 45 19 39 45 19 39 45 19 39 45 19 39 45
19 39 45 19 39 45 19 39 45 19 39 45 19 39 45 19 39 45 19 39 45 19 39
45 19 39 45 19 39 45 19 39 45 19 39 45 19 39 45 19 39 45 19 39 45 19
39 45 19 39 46 19 39 46 19 39 46 19 39 46 19 39 46 19 39 46 19 39 46
19 39 46 19 39 46 19 39 46 19 39 46 19 39 46 19 39 46 19 39 46 19 39
46 19 39 46 19 39 46 19 39 46 19 39 46 19 39 46 19 39 45 19 39 45 19
39 45 19 39 45 19 39 45 19 39 45 19 39 45 19 39 45 19 39 45 19 39 45
19 39 45 19 39 45 19 39 45 19 39 45 19 39 45 19 39 45 19 39 45 19 39
45 18 19 230 20 21 234 20 21 233 20 21 232 20 21 230 20 21 228 20 21
226 20 21 224 20 21 222 20 21 219 20 21 216 20 21 214 20 21 211 20 21
209 20 20 206 20 20 203 20 20 200 20 20 198 20 20 195 20 20 192 20 20
190 20 20 187 20 19 184 20 19 181 20 19 179 20 19 176 20 19 173 20 19
171 20 19 168 20 18 165 20 18 162 20 18 160 20 18 157 20 18 154 20 18
152 20 18 149 20 18 146 20 17 144 20 17 141 20 17 138 20 17 136 20 17
133 20 17 131 20 17 128 20 16 125 20 16 123 20 16 120 20 16 117 20 16
115 20 16 114 20 16 114 20 16 114 20 16 114 20 16 114 20 16 114 20 16
114 20 16 114 20 16 114 20 16 114 20 16 114 20 16 114 20 16 114 20 16
114 20 16 114 20 16 114 20 16 114 20 16 114 20 16 114 19 15 114 19 15
114 19 15 113 19 15 113 19 15 113 19 15 113 19 15 113 19 15 113 19 15
113 19 15 113 19 15 113 19 15 113 23 16 123 23 16 123 23 16 122 38 54
46 38 54 46 38 54 46 38 54 46 38 54 46 38 54 46 38 54 46 38 54 46 38
54 46 38 54 46 38 54 46 38 54 46 38 54 46 38 54 45 38 54 45 38 54 45
38 54 45 38 54 45 38 53 45 38 53 45 38 53 45 38 53 45 38 53 45 38 53
45 38 53 45 38 53 45 38 53 45 38 53 45 38 53 44 38 53 44 38 53 44 38
53 44 38 53 44 38 53 44 38 53 44 38 53 44 38 53 44 38 53 44 38 53 44
38 53 44 38 53 44 38 42 25 38 42 25 38 42 25 38 42 25 38 42 25 38 42
25 38 42 25 38 42 25 38 42 25 38 42 25 38 42 24 38 42 24 38 42 24 38
42 24 38 42 24 38 42 24 38 42 24 38 42 24 38 42 24 38 42 24 38 42 24
38 42 24 38 42 24 37 42 24 37 42 24 37 42 24 37 42 24 37 42 24 37 42
24 37 42 24 37 41 24 37 41 24 37 41 24 37 41 24 37 41 24 37 41 24 37
41 24 37 41 24 37 41 24 37 41 24 37 41 24 37 41 24 37 41 24 37 41 24
37 41 24 37 41 24 37 41 24 37 41 24 37 41 24 36 41 24 36 41 24 36 41
24 36 41 24 36 41 24 36 40 24 36 40 24 36 40 24 36 40 24 36 40 24 36
40 24 36 40 24 36 40 24 36 40 24 36 40 24 36 40 24 36 40 24 36 40 24
36 40 24 36 40 24 35 40 24 35 40 24 35 40 24 35 40 24 35 40 24 35 39
24 35 39 24 35 39 24 35 39 24 35 39 24 35 39 24 35 39 24 35 39 23 35
39 23 35 39 23 35 39 23 35 39 23 35 39 23 34 39 23 34 39 23 34 39 23
34 39 23 34 39 23 34 39 23 34 38 23 34 38 23 34 38 23 34 38 23 34 38
23 34 38 23 34 38 23 34 38 23 34 38 23 34 38 23 34 38 23 34 38 23 34
38 23 33 38 23 33 38 23 33 38 23 33 38 23 33 38 23 33 38 23 33 37 23
33 37 23 33 37 23 33 37 23 33 37 23 33 37 23 33 37 23 33 37 23 33 37
23 33 37 23 33 37 23 33 37 23 33 37 23 32 37 23 32 37 23 32 37 23 32
37 23 32 37 23 32 37 23 32 37 23 32 36 23 32 36 23 32 36 23 32 36 23
32 36 22 32 36 22 32 36 22 32 36 22 32 36 22 32 36 22 32 36 22 32 36
22 32 36 22 31 36 22 31 36 22 31 36 22 31 36 22 31 36 22 31 36 22 31
36 22 31 36 22
15 31 52 15 31 52 15 30 51 15 30 50 15 30 49 15 29 48 15 29 47 15 29
46 15 28 46 15 28 45 15 28 44 15 27 43 15 27 42 15 27 41 15 26 40 15
26 40 15 26 39 15 25 38 15 25 37 15 25 36 15 24 35 15 24 34 15 24 33
15 23 32 15 23 32 15 23 31 15 22 30 15 22 29 15 22 28 15 21 27 15 21
26 15 21 25 15 20 24 15 20 23 15 20 23 15 20 23 15 20 23 15 20 23 15
20 23 15 20 23 15 20 23 15 20 23 15 20 23 15 20 23 15 20 23 15 20 23
15 20 23 15 20 23 15 20 23 15 20 23 15 20 23 15 20 23 15 20 23 15 20
23 19 39 46 19 39 46 19 39 46 20 39 46 20 39 46 20 39 46 20 39 46 20
39 46 20 39 46 20 39 46 20 39 46 20 39 46 20 39 46 20 39 46 20 40 46
20 40 46 20 40 46 20 40 46 20 40 46 20 40 46 20 40 46 20 40 46 20 40
46 20 40 46 20 40 46 20 40 47 20 40 47 20 40 47 20 40 47 20 40 47 20
40 47 20 40 47 20 40 47 20 40 47 20 40 47 20 40 47 20 40 47 20 40 47
20 40 47 20 40 47 20 40 47 20 40 47 20 40 47 20 40 47 20 40 47 20 40
47 20 40 47 20 40 47 20 40 47 20 40 47 20 40 47 20 40 47 20 40 47 20
40 46 20 40 46 20 40 46 20 40 46 20 40 46 20 40 46 20 40 46 20 40 46
20 40 46 20 40 46 20 40 46 20 39 46 20 39 46 20 39 46 20 39 46 20 39
46 18 19 226 18 19 231 18 19 231 20 21 231 20 21 229 20 21 227 20 21
225 20 21 223 20 21 220 20 21 218 20 21 215 20 21 213 20 20 210 20 20
207 20 20 205 20 20 202 20 20 199 20 20 197 20 20 194 20 20 191 20 20
189 20 19 186 20 19 183 20 19 180 20 19 178 20 19 175 20 19 172 20 19
170 20 18 167 20 18 164 20 18 162 20 18 159 20 18 156 20 18 154 20 18
151 20 18 148 20 17 146 20 17 143 20 17 140 20 17 138 20 17 135 20 17
132 20 17 130 20 16 127 20 16 124 20 16 122 20 16 119 20 16 117 20 16
114 20 16 114 20 16 114 20 16 114 20 16 114 20 16 114 20 16 114 20 16
114 20 16 114 20 16 114 20 16 114 20 16 114 20 16 114 20 16 114 20 16
114 20 16 114 20 16 114 20 16 114 20 16 114 20 16 114 19 15 113 19 15
113 19 15 113 19 15 113 19 15 113 19 15 113 19 15 113 19 15 113 19 15
113 19 15 113 18 13 111 23 16 123 23 16 122 23 16 122 23 16 122 38 55
47 38 55 47 38 55 47 38 55 47 38 55 47 38 55 47 38 55 47 38 55 47 38
55 47 38 55 46 39 55 46 39 55 46 39 55 46 39 55 46 39 55 46 39 55 46
39 54 46 39 54 46 39 54 46 39 54 46 39 54 46 39 54 46 39 54 46 39 54
46 39 54 45 39 54 45 39 54 45 39 54 45 39 54 45 39 54 45 39 54 45 39
54 45 39 54 45 39 54 45 39 54 45 39 43 25 39 43 25 39 43 25 39 43 25
39 43 25 39 43 25 39 43 25 39 43 25 39 43 25 39 43 25 39 43 25 39 43
25 39 43 25 39 43 25 39 43 25 39 43 25 39 43 25 39 43 25 39 43 25 38
43 25 38 43 25 38 43 25 38 43 25 38 43 25 38 43 25 38 43 25 38 43 25
38 42 25 38 42 25 38 42 25 38 42 25 38 42 25 38 42 25 38 42 25 38 42
25 38 42 25 38 42 25 38 42 25 38 42 25 38 42 25 38 42 25 38 42 24 38
42 24 38 42 24 38 42 24 38 42 24 38 42 24 38 42 24 38 42 24 37 42 24
37 42 24 37 42 24 37 42 24 37 41 24 37 41 24 37 41 24 37 41 24 37 41
24 37 41 24 37 41 24 37 41 24 37 41 24 37 41 24 37 41 24 37 41 24 37
41 24 37 41 24 37 41 24 36 41 24 36 41 24 36 41 24 36 41 24 36 41 24
36 40 24 36 40 24 36 40 24 36 40 24 36 40 24 36 40 24 36 40 24 36 40
24 36 40 24 36 40 24 36 40 24 36 40 24 36 40 24 35 40 24 35 40 24 35
40 24 35 40 24 35 40 24 35 39 24 35 39 24 35 39 24 35 39 24 35 39 24
35 39 24 35 39 23 35 39 23 35 39 23 35 39 23 35 39 23 35 39 23 34 39
23 34 39 23 34 39 23 34 39 23 34 39 23 34 39 23 34 38 23 34 38 23 34
38 23 34 38 23 34 38 23 34 38 23 34 38 23 34 38 23 34 38 23 34 38 23
34 38 23 34 38 23 33 38 23 33 38 23 33 38 23 33 38 23 33 38 23 33 38
23 33 37 23 33 37 23 33 37 23 33 37 23 33 37 23 33 37 23 33 37 23 33
37 23 33 37 23 33 37 23 33 37 23 33 37 23 33 37 23 32 37 23 32 37 23
32 37 23 32 37 23 32 37 23 32 37 23 32 37 23 32 36 23 32 36 23 32 36
23 32 36 23 32 36 22 32 36 22 32 36 22 32 36 22 32 36 22 32 36 22 32
36 22 32 36 22
15 30 51 15 30 50 15 30 50 15 29 49 15 29 48 15 29 47 15 29 46 15 28
45 15 28 45 15 28 44 15 27 43 15 27 42 15 27 41 15 26 40 15 26 39 15
26 39 15 25 38 15 25 37 15 25 36 15 24 35 15 24 34 15 24 33 15 23 33
15 23 32 15 23 31 15 23 30 15 22 29 15 22 28 15 22 27 15 21 26 15 21
25 15 20 24 15 20 24 15 20 23 15 20 23 15 20 23 15 20 23 15 20 23 15
20 23 15 20 23 15 20 23 15 20 23 15 20 23 15 20 23 15 20 23 15 20 23
15 20 23 15 20 23 15 20 23 15 20 23 15 20 23 15 20 23 15 20 23 15 20
23 15 20 23 20 40 47 20 40 47 20 40 47 20 40 47 20 40 47 20 40 47 20
40 47 20 40 47 20 40 47 20 40 47 20 40 47 20 40 47 20 40 47 20 40 47
20 40 47 20 40 47 20 40 47 20 40 48 20 40 48 20 40 48 20 40 48 20 40
48 20 40 48 20 40 48 20 40 48 20 40 48 20 40 48 20 40 48 20 40 48 20
40 48 20 40 48 20 40 48 20 40 48 20 40 48 20 40 48 20 40 48 20 40 48
20 40 48 20 40 48 20 40 48 20 40 48 20 40 48 20 40 48 20 40 48 20 40
48 20 40 48 20 40 48 20 40 48 20 40 48 20 40 48 20 40 48 20 40 48 20
40 48 20 40 47 20 40 47 20 40 47 20 40 47 20 40 47 20 40 47 20 40 47
20 40 47 20 40 47 20 40 47 20 40 47 20 40 47 20 40 47 20 40 47 20 40
47 20 40 47 18 19 229 18 19 229 18 19 228 20 20 227 20 20 226 20 21
224 20 21 221 20 20 219 20 20 217 20 20 214 20 20 212 20 20 209 20 20
206 20 20 204 20 20 201 20 20 198 20 20 196 20 20 193 20 19 190 20 19
188 20 19 185 20 19 182 20 19 180 20 19 177 20 19 174 20 19 171 20 18
169 20 18 166 20 18 163 20 18 161 20 18 158 20 18 155 20 18 153 20 18
150 20 17 147 20 17 145 20 17 142 20 17 140 20 17 137 20 17 134 20 17
132 20 16 129 20 16 126 20 16 124 20 16 121 20 16 118 20 16 116 20 16
114 20 16 114 20 16 114 20 16 114 20 16 114 20 16 114 20 16 114 20 16
114 20 16 114 20 16 114 20 16 114 20 16 114 20 16 114 20 16 114 20 16
114 20 15 114 20 15 113 20 15 113 20 15 113 20 15 113 19 15 113 19 15
113 19 15 113 19 15 113 19 15 113 19 15 113 19 15 113 19 15 113 18 13
111 18 13 111 18 13 111 23 16 122 23 16 122 23 16 122 23 16 121 39 56
48 39 56 48 39 56 48 39 56 48 39 56 48 39 56 47 39 56 47 39 56 47 39
56 47 39 56 47 39 56 47 39 56 47 39 56 47 39 56 47 39 55 47 39 55 47
39 55 47 39 55 47 39 55 47 39 55 47 39 55 46 39 55 46 40 55 46 40 55
46 40 55 46 40 55 46 40 55 46 40 55 46 40 55 46 39 44 25 39 44 25 39
44 25 39 44 25 39 44 25 39 44 25 39 44 25 39 44 25 39 44 25 39 44 25
39 44 25 39 44 25 39 44 25 39 44 25 39 44 25 39 44 25 39 44 25 39 44
25 39 44 25 39 44 25 39 44 25 39 43 25 39 43 25 39 43 25 39 43 25 39
43 25 39 43 25 39 43 25 39 43 25 39 43 25 39 43 25 39 43 25 39 43 25
39 43 25 39 43 25 39 43 25 39 43 25 39 43 25 39 43 25 39 43 25 39 43
25 39 43 25 39 43 25 39 43 25 39 43 25 39 43 25 39 43 25 39 43 25 39
43 25 38 43 25 38 43 25 38 43 25 38 43 25 38 42 25 38 42 25 38 42 25
38 42 25 38 42 25 38 42 25 38 42 25 38 42 25 38 42 25 38 42 25 38 42
24 38 42 24 38 42 24 38 42 24 38 42 24 38 42 24 37 42 24 37 42 24 37
42 24 37 42 24 37 41 24 37 41 24 37 41 24 37 41 24 37 41 24 37 41 24
37 41 24 37 41 24 37 41 24 37 41 24 37 41 24 37 41 24 37 41 24 36 41
24 36 41 24 36 41 24 36 41 24 36 40 24 36 40 24 36 40 24 36 40 24 36
40 24 36 40 24 36 40 24 36 40 24 36 40 24 36 40 24 36 40 24 36 40 24
35 40 24 35 40 24 35 40 24 35 40 24 35 40 24 35 39 24 35 39 24 35 39
24 35 39 24 35 39 24 35 39 24 35 39 23 35 39 23 35 39 23 35 39 23 35
39 23 35 39 23 34 39 23 34 39 23 34 39 23 34 39 23 34 39 23 34 38 23
34 38 23 34 38 23 34 38 23 34 38 23 34 38 23 34 38 23 34 38 23 34 38
23 34 38 23 34 38 23 34 38 23 33 38 23 33 38 23 33 38 23 33 38 23 33
38 23 33 38 23 33 37 23 33 37 23 33 37 23 33 37 23 33 37 23 33 37 23
33 37 23 33 37 23 33 37 23 33 37 23 33 37 23 33 37 23 33 37 23 32 37
23 32 37 23 32 37 23 32 37 23 32 37 23 32 37 23 32 36 23 32 36 23 32
36 23 32 36 23
15 30 50 15 30 49 15 29 48 15 29 48 15 29 47 15 28 46 15 28 45 15 28
44 15 28 44 15 27 43 15 27 42 15 27 41 15 26 40 15 26 39 15 26 39 15
25 38 15 25 37 15 25 36 15 24 35 15 24 34 15 24 33 15 24 33 15 23 32
15 23 31 15 23 30 15 22 29 15 22 28 15 22 27 15 21 26 15 21 26 15 21
25 15 20 24 15 20 23 15 20 23 15 20 23 15 20 23 15 20 23 15 20 23 15
20 23 15 20 23 15 20 23 15 20 23 15 20 23 15 20 23 15 20 23 15 20 23
15 20 23 15 20 23 15 20 23 15 20 23 15 20 23 15 20 23 15 20 23 15 20
23 15 20 23 20 41 48 20 41 48 20 41 48 20 41 48 20 41 48 20 41 48 20
41 48 20 41 48 20 41 48 20 41 48 20 41 48 20 41 49 20 41 49 20 41 49
20 41 49 20 41 49 20 41 49 20 41 49 20 41 49 20 41 49 20 41 49 20 41
49 20 41 49 20 41 49 20 41 49 20 41 49 20 41 49 20 41 49 20 41 49 20
41 49 20 41 49 20 41 49 20 41 49 20 41 49 20 41 49 20 41 49 20 41 49
20 41 49 20 41 49 20 41 49 20 41 49 20 41 49 20 41 49 20 41 49 20 41
49 20 41 49 20 41 49 20 41 49 20 41 49 20 41 49 20 41 49 20 41 49 20
41 49 20 41 49 20 41 48 20 41 48 20 41 48 20 41 48 20 41 48 20 41 48
20 41 48 20 41 48 20 41 48 20 41 48 20 41 48 20 41 48 20 40 48 20 40
48 20 40 48 18 19 227 18 19 227 18 19 227 18 19 225 18 19 223 18 19
221 20 20 220 20 20 218 20 20 215 20 20 213 20 20 210 20 20 208 20 20
205 20 20 203 20 20 200 20 20 197 20 19 195 20 19 192 20 19 189 20 19
187 20 19 184 20 19 181 20 19 179 20 19 176 20 19 173 20 18 171 20 18
168 20 18 165 20 18 163 20 18 160 20 18 157 20 18 155 20 18 152 20 17
149 20 17 147 20 17 144 20 17 141 20 17 139 20 17 136 20 17 133 20 16
131 20 16 128 20 16 125 20 16 123 20 16 120 20 16 118 20 16 115 20 16
114 20 16 114 20 16 114 20 16 114 20 16 114 20 16 114 20 16 114 20 16
114 20 15 113 20 15 113 20 15 113 20 15 113 20 15 113 20 15 113 20 15
113 20 15 113 20 15 113 20 15 113 20 15 113 20 15 113 20 15 113 19 15
113 19 15 113 19 15 113 19 15 113 18 13 111 18 13 111 18 13 111 18 13
111 18 13 111 23 16 122 23 16 122 23 16 122 23 16 121 22 16 121 40 57
49 40 57 48 40 57 48 40 57 48 40 57 48 40 57 48 40 57 48 40 57 48 40
57 48 40 57 48 40 57 48 40 57 48 40 56 48 40 56 48 40 56 48 40 56 48
40 56 47 40 56 47 40 56 47 40 56 47 40 56 47 40 56 47 40 56 47 40 44
25 40 44 25 40 44 25 40 44 25 40 44 25 40 44 25 40 44 25 40 44 25 40
44 25 40 44 25 40 44 25 40 44 25 40 44 25 40 44 25 40 44 25 40 44 25
40 44 25 40 44 25 40 44 25 40 44 25 40 44 25 40 44 25 40 44 25 40 44
25 40 44 25 40 44 25 40 44 25 40 44 25 40 44 25 40 44 25 40 44 25 40
44 25 40 44 25 40 44 25 40 44 25 40 44 25 40 44 25 40 44 25 40 44 25
40 44 25 40 44 25 40 44 25 40 44 25 40 44 25 40 44 25 40 44 25 40 44
25 40 44 25 40 44 25 39 44 25 39 44 25 39 44 25 39 44 25 39 43 25 39
43 25 39 43 25 39 43 25 39 43 25 39 43 25 39 43 25 39 43 25 39 43 25
39 43 25 39 43 25 39 43 25 39 43 25 39 43 25 39 43 25 39 43 25 38 43
25 38 43 25 38 43 25 38 43 25 38 42 25 38 42 25 38 42 25 38 42 25 38
42 25 38 42 25 38 42 25 38 42 25 38 42 24 38 42 24 38 42 24 38 42 24
38 42 24 37 42 24 37 42 24 37 42 24 37 42 24 37 41 24 37 41 24 37 41
24 37 41 24 37 41 24 37 41 24 37 41 24 37 41 24 37 41 24 37 41 24 37
41 24 37 41 24 36 41 24 36 41 24 36 41 24 36 41 24 36 40 24 36 40 24
36 40 24 36 40 24 36 40 24 36 40 24 36 40 24 36 40 24 36 40 24 36 40
24 36 40 24 36 40 24 35 40 24 35 40 24 35 40 24 35 40 24 35 39 24 35
39 24 35 39 24 35 39 24 35 39 24 35 39 24 35 39 23 35 39 23 35 39 23
35 39 23 35 39 23 35 39 23 34 39 23 34 39 23 34 39 23 34 39 23 34 39
23 34 38 23 34 38 23 34 38 23 34 38 23 34 38 23 34 38 23 34 38 23 34
38 23 34 38 23 34 38 23 34 38 23 34 38 23 33 38 23 33 38 23 33 38 23
33 38 23 33 38 23 33 37 23 33 37 23 33 37 23 33 37 23 33 37 23 33 37
23 33 37 23 33 37 23 33 37 23 33 37 23 33 37 23 33 37 23 33 37 23 32
37 23 32 37 23
15 30 49 15 29 48 15 29 47 15 29 47 15 28 46 15 28 45 15 28 44 15 27
43 15 27 42 15 27 42 15 27 41 15 26 40 15 26 39 15 26 38 15 25 38 15
25 37 15 25 36 15 24 35 15 24 34 15 24 33 15 24 33 15 23 32 15 23 31
15 23 30 15 22 29 15 22 28 15 22 27 15 21 27 15 21 26 15 21 25 15 20
24 15 20 23 15 20 23 15 20 23 15 20 23 15 20 23 15 20 23 15 20 23 15
20 23 15 20 23 15 20 23 15 20 23 15 20 23 15 20 23 15 20 23 15 20 23
15 20 23 15 20 23 15 20 23 15 20 23 15 20 23 15 20 23 15 20 23 15 20
23 15 20 23 15 20 23 20 41 49 20 41 49 20 41 49 20 41 49 20 41 50 20
41 50 20 41 50 20 41 50 20 41 50 20 41 50 20 41 50 20 41 50 20 41 50
20 41 50 20 42 50 20 42 50 20 42 50 20 42 50 20 42 50 20 42 50 20 42
50 20 42 50 20 42 50 20 42 50 20 42 50 20 42 50 20 42 50 20 42 50 20
42 50 20 42 50 20 42 50 20 42 50 20 42 50 20 42 50 20 42 50 20 42 50
20 42 50 20 42 50 20 42 50 20 42 50 20 42 50 20 42 50 20 42 50 20 42
50 20 41 50 20 41 50 20 41 50 20 41 50 20 41 50 20 41 50 20 41 50 20
41 50 20 41 50 20 41 50 20 41 49 20 41 49 20 41 49 20 41 49 20 41 49
20 41 49 20 41 49 20 41 49 20 41 49 20 41 49 20 41 49 20 41 49 20 41
49 20 41 49 18 19 224 18 19 226 18 19 225 18 19 224 18 19 222 18 19
220 18 19 217 18 18 215 20 20 214 20 20 211 20 20 209 20 20 206 20 20
204 20 19 201 20 19 199 20 19 196 20 19 193 20 19 191 20 19 188 20 19
185 20 19 183 20 19 180 20 19 178 20 18 175 20 18 172 20 18 170 20 18
167 20 18 164 20 18 162 20 18 159 20 18 156 20 17 154 20 17 151 20 17
148 20 17 146 20 17 143 20 17 140 20 17 138 20 17 135 20 16 132 20 16
130 20 16 127 20 16 125 20 16 122 20 16 119 20 16 117 20 15 114 20 15
113 20 15 113 20 15 113 20 15 113 20 15 113 20 15 113 20 15 113 20 15
113 20 15 113 20 15 113 20 15 113 20 15 113 20 15 113 20 15 113 20 15
113 20 15 113 20 15 113 20 15 113 20 15 113 19 15 113 19 15 113 19 15
113 18 13 111 18 13 111 18 13 111 18 13 111 18 13 111 18 13 111 18 13
111 18 13 111 23 16 121 23 16 121 23 16 121 22 16 121 22 15 120 40 58
49 40 58 49 40 58 49 40 58 49 40 58 49 40 58 49 40 57 49 41 57 49 41
57 49 41 57 49 41 57 49 41 57 49 41 57 48 41 57 48 41 57 48 41 57 48
41 57 48 41 45 25 41 45 25 41 45 25 41 45 25 41 45 25 41 45 26 41 45
26 41 45 26 41 45 26 41 45 26 41 45 26 41 45 26 41 45 26 41 45 26 41
45 26 41 45 26 41 45 26 41 45 26 41 45 26 41 45 26 41 45 26 41 45 26
41 45 26 41 45 26 41 45 26 41 45 26 41 45 26 41 45 26 41 45 26 41 45
26 41 45 26 41 45 26 41 45 26 41 45 26 41 45 26 41 45 26 41 45 26 41
45 26 41 45 26 41 45 26 41 45 25 41 45 25 41 45 25 41 45 25 41 45 25
41 45 25 41 45 25 41 45 25 41 45 25 40 45 25 40 45 25 40 45 25 40 45
25 40 44 25 40 44 25 40 44 25 40 44 25 40 44 25 40 44 25 40 44 25 40
44 25 40 44 25 40 44 25 40 44 25 40 44 25 40 44 25 40 44 25 40 44 25
40 44 25 40 44 25 39 44 25 39 44 25 39 44 25 39 44 25 39 43 25 39 43
25 39 43 25 39 43 25 39 43 25 39 43 25 39 43 25 39 43 25 39 43 25 39
43 25 39 43 25 39 43 25 39 43 25 38 43 25 38 43 25 38 43 25 38 42 25
38 42 25 38 42 25 38 42 25 38 42 25 38 42 25 38 42 25 38 42 25 38 42
24 38 42 24 38 42 24 38 42 24 37 42 24 37 42 24 37 42 24 37 42 24 37
41 24 37 41 24 37 41 24 37 41 24 37 41 24 37 41 24 37 41 24 37 41 24
37 41 24 37 41 24 37 41 24 36 41 24 36 41 24 36 41 24 36 41 24 36 40
24 36 40 24 36 40 24 36 40 24 36 40 24 36 40 24 36 40 24 36 40 24 36
40 24 36 40 24 36 40 24 35 40 24 35 40 24 35 40 24 35 40 24 35 39 24
35 39 24 35 39 24 35 39 24 35 39 24 35 39 24 35 39 23 35 39 23 35 39
23 35 39 23 35 39 23 35 39 23 34 39 23 34 39 23 34 39 23 34 39 23 34
39 23 34 38 23 34 38 23 34 38 23 34 38 23 34 38 23 34 38 23 34 38 23
34 38 23 34 38 23 34 38 23 34 38 23 34 38 23 33 38 23 33 38 23 33 38
23 33 38 23 33 38 23 33 37 23 33 37 23 33 37 23 33 37 23 33 37 23 33
37 23 33 37 23
15 29 48 15 29 47 15 29 46 15 28 45 15 28 45 15 28 44 15 27 43 15 27
42 15 27 41 15 26 41 15 26 40 15 26 39 15 26 38 15 25 37 15 25 37 15
25 36 15 24 35 15 24 34 15 24 33 15 23 33 15 23 32 15 23 31 15 23 30
15 22 29 15 22 28 15 22 28 15 21 27 15 21 26 15 21 25 15 20 24 15 20
23 15 20 23 15 20 23 15 20 23 15 20 23 15 20 23 15 20 23 15 20 23 15
20 23 15 20 23 15 20 23 15 20 23 15 20 23 15 20 23 15 20 23 15 20 23
15 20 23 15 20 23 15 20 23 15 20 23 15 20 23 15 20 23 15 20 23 15 20
23 15 20 23 15 20 23 15 20 23 20 42 51 20 42 51 20 42 51 20 42 51 20
42 51 20 42 51 20 42 51 20 42 51 20 42 51 20 42 51 20 42 51 20 42 51
20 42 51 20 42 51 20 42 51 20 42 51 20 42 51 20 42 51 20 42 51 20 42
51 20 42 51 20 42 51 20 42 51 20 42 51 20 42 51 20 42 51 20 42 51 20
42 51 20 42 51 20 42 51 20 42 51 20 42 51 20 42 51 20 42 51 20 42 51
20 42 51 20 42 51 20 42 51 20 42 51 20 42 51 20 42 51 20 42 51 20 42
51 20 42 51 20 42 51 20 42 51 20 42 51 20 42 51 20 42 51 20 42 51 20
42 51 20 42 51 20 42 51 20 42 51 20 42 50 20 42 50 20 42 50 20 42 50
20 42 50 20 42 50 20 42 50 20 42 50 20 42 50 20 42 50 20 42 50 20 42
50 20 41 50 18 19 221 18 19 224 18 19 223 18 19 222 18 19 220 18 19
218 18 18 216 18 18 214 18 18 212 18 18 209 18 18 207 18 18 204 20 19
202 20 19 200 20 19 197 20 19 195 20 19 192 20 19 190 20 19 187 20 19
184 20 19 182 20 18 179 20 18 176 20 18 174 20 18 171 20 18 168 20 18
166 20 18 163 20 18 160 20 18 158 20 17 155 20 17 153 20 17 150 20 17
147 20 17 145 20 17 142 20 17 139 20 16 137 20 16 134 20 16 132 20 16
129 20 16 126 20 16 124 20 16 121 20 16 118 20 15 116 20 15 113 20 15
113 20 15 113 20 15 113 20 15 113 20 15 113 20 15 113 20 15 113 20 15
113 20 15 113 20 15 113 20 15 113 20 15 113 20 15 113 20 15 113 19 15
113 19 15 113 19 15 113 19 15 113 18 13 111 18 13 111 18 13 111 18 13
111 18 13 111 18 13 111 18 13 111 18 13 111 18 13 111 18 13 111 18 13
111 22 16 121 22 16 121 22 16 121 22 16 121 22 15 120 41 58 50 41 58
50 41 58 50 41 58 50 41 58 50 41 58 50 41 58 50 41 58 50 41 58 50 41
58 49 41 58 49 41 58 49 41 45 26 41 45 26 41 45 26 41 45 26 41 45 26
41 45 26 41 45 26 41 46 26 41 46 26 41 46 26 41 46 26 42 46 26 42 46
26 42 46 26 42 46 26 42 46 26 42 46 26 42 46 26 42 46 26 42 46 26 42
46 26 42 46 26 42 46 26 42 46 26 42 46 26 42 46 26 42 46 26 42 46 26
42 46 26 42 46 26 42 46 26 42 46 26 42 46 26 42 46 26 42 46 26 42 46
26 42 46 26 42 46 26 42 46 26 42 46 26 42 46 26 42 46 26 42 46 26 42
46 26 42 46 26 42 46 26 42 46 26 42 46 26 41 46 26 41 46 26 41 46 26
41 46 26 41 45 26 41 45 26 41 45 26 41 45 26 41 45 26 41 45 26 41 45
26 41 45 26 41 45 26 41 45 26 41 45 26 41 45 26 41 45 26 41 45 26 41
45 26 41 45 25 41 45 25 41 45 25 41 45 25 41 45 25 40 45 25 40 45 25
40 45 25 40 44 25 40 44 25 40 44 25 40 44 25 40 44 25 40 44 25 40 44
25 40 44 25 40 44 25 40 44 25 40 44 25 40 44 25 40 44 25 40 44 25 39
44 25 39 44 25 39 43 25 39 43 25 39 43 25 39 43 25 39 43 25 39 43 25
39 43 25 39 43 25 39 43 25 39 43 25 39 43 25 39 43 25 38 43 25 38 43
25 38 43 25 38 42 25 38 42 25 38 42 25 38 42 25 38 42 25 38 42 25 38
42 25 38 42 24 38 42 24 38 42 24 38 42 24 37 42 24 37 42 24 37 42 24
37 42 24 37 41 24 37 41 24 37 41 24 37 41 24 37 41 24 37 41 24 37 41
24 37 41 24 37 41 24 37 41 24 37 41 24 36 41 24 36 41 24 36 41 24 36
40 24 36 40 24 36 40 24 36 40 24 36 40 24 36 40 24 36 40 24 36 40 24
36 40 24 36 40 24 36 40 24 35 40 24 35 40 24 35 40 24 35 40 24 35 39
24 35 39 24 35 39 24 35 39 24 35 39 24 35 39 24 35 39 23 35 39 23 35
39 23 35 39 23 35 39 23 35 39 23 34 39 23 34 39 23 34 39 23 34 39 23
34 39 23 34 38 23 34 38 23 34 38 23 34 38 23 34 38 23 34 38 23 34 38
23 34 38 23 34 38 23 34 38 23 34 38 23 34 38 23 33 38 23 33 38 23 33
38 23 33 38 23
15 29 47 15 28 46 15 28 45 15 28 44 15 28 44 15 27 43 15 27 42 15 27
41 15 26 40 15 26 40 15 26 39 15 26 38 15 25 37 15 25 36 15 25 36 15
24 35 15 24 34 15 24 33 15 23 32 15 23 32 15 23 31 15 23 30 15 22 29
15 22 28 15 22 28 15 21 27 15 21 26 15 21 25 15 20 24 15 20 23 15 20
23 15 20 23 15 20 23 15 20 23 15 20 23 15 20 23 15 20 23 15 20 23 15
20 23 15 20 23 15 20 23 15 20 23 15 20 23 15 20 23 15 20 23 15 20 23
15 20 23 15 20 23 15 20 23 15 20 23 15 20 23 15 20 23 15 20 23 15 20
23 15 20 23 15 20 23 15 20 23 20 43 52 20 43 52 20 43 52 20 43 52 20
43 52 20 43 52 20 43 52 20 43 52 20 43 52 20 43 52 20 43 52 20 43 52
20 43 52 20 43 52 20 43 52 20 43 52 20 43 52 20 43 52 20 43 52 20 43
52 20 43 52 20 43 52 20 43 52 20 43 52 20 43 52 20 43 52 20 43 52 20
43 52 20 43 52 20 43 52 20 43 52 20 43 52 20 43 52 20 43 52 20 43 52
20 43 52 20 43 52 20 43 52 20 43 52 20 43 52 20 43 52 20 43 52 20 43
52 20 43 52 20 43 52 20 43 52 20 43 52 20 43 52 20 43 52 20 43 52 20
43 52 20 43 52 20 42 52 20 42 52 20 42 51 20 42 51 20 42 51 20 42 51
20 42 51 20 42 51 20 42 51 20 42 51 20 42 51 20 42 51 20 42 51 20 42
51 20 42 51 20 42 51 18 19 221 18 19 222 18 19 220 18 19 219 18 18 217
18 18 215 18 18 213 18 18 210 18 18 208 18 18 205 18 18 203 18 18 200
18 18 198 18 17 195 18 17 192 18 17 190 19 18 188 20 18 186 20 18 183
20 18 180 20 18 178 20 18 175 20 18 173 20 18 170 20 18 167 20 18 165
20 17 162 20 17 159 20 17 157 20 17 154 20 17 151 20 17 149 20 17 146
20 17 144 20 16 141 20 16 138 20 16 136 20 16 133 20 16 131 20 16 128
20 16 125 20 16 123 20 15 120 20 15 117 20 15 115 20 15 113 20 15 113
20 15 113 20 15 113 20 15 113 20 15 113 20 15 113 20 15 113 19 15 113
19 15 113 19 15 113 19 15 113 19 15 113 19 15 113 18 13 111 18 13 111
18 13 111 18 13 111 18 13 111 18 13 111 18 13 111 18 13 111 18 13 111
18 13 111 18 13 111 18 13 111 18 13 111 18 13 111 18 13 111 22 15 120
22 15 120 22 15 120 22 15 120 22 15 120 22 15 120 41 59 51 42 59 51 42
59 51 42 59 51 42 59 51 42 59 50 42 46 26 42 46 26 42 46 26 42 46 26
42 46 26 42 46 26 42 46 26 42 46 26 42 46 26 42 46 26 42 46 26 42 46
26 42 46 26 42 46 26 42 46 26 42 46 26 42 46 26 42 46 26 42 46 26 42
46 26 42 46 26 42 46 26 42 46 26 42 46 26 42 47 26 42 47 26 42 47 26
42 47 26 42 47 26 42 47 26 43 47 26 43 47 26 43 47 26 43 47 26 43 47
26 43 47 26 43 47 26 43 47 26 43 47 26 43 47 26 43 47 26 43 47 26 43
47 26 42 47 26 42 47 26 42 47 26 42 47 26 42 47 26 42 47 26 42 46 26
42 46 26 42 46 26 42 46 26 42 46 26 42 46 26 42 46 26 42 46 26 42 46
26 42 46 26 42 46 26 42 46 26 42 46 26 42 46 26 42 46 26 42 46 26 42
46 26 42 46 26 42 46 26 42 46 26 42 46 26 42 46 26 42 46 26 42 46 26
42 46 26 41 46 26 41 46 26 41 45 26 41 45 26 41 45 26 41 45 26 41 45
26 41 45 26 41 45 26 41 45 26 41 45 26 41 45 26 41 45 26 41 45 25 41
45 25 41 45 25 40 45 25 40 45 25 40 45 25 40 44 25 40 44 25 40 44 25
40 44 25 40 44 25 40 44 25 40 44 25 40 44 25 40 44 25 40 44 25 40 44
25 40 44 25 39 44 25 39 44 25 39 43 25 39 43 25 39 43 25 39 43 25 39
43 25 39 43 25 39 43 25 39 43 25 39 43 25 39 43 25 39 43 25 38 43 25
38 43 25 38 43 25 38 42 25 38 42 25 38 42 25 38 42 25 38 42 25 38 42
25 38 42 25 38 42 24 38 42 24 38 42 24 38 42 24 37 42 24 37 42 24 37
42 24 37 41 24 37 41 24 37 41 24 37 41 24 37 41 24 37 41 24 37 41 24
37 41 24 37 41 24 37 41 24 37 41 24 36 41 24 36 41 24 36 41 24 36 40
24 36 40 24 36 40 24 36 40 24 36 40 24 36 40 24 36 40 24 36 40 24 36
40 24 36 40 24 36 40 24 35 40 24 35 40 24 35 40 24 35 40 24 35 39 24
35 39 24 35 39 24 35 39 24 35 39 24 35 39 24 35 39 23 35 39 23 35 39
23 35 39 23 35 39 23 34 39 23 34 39 23 34 39 23 34 39 23 34 39 23 34
38 23 34 38 23 34 38 23 34 38 23 34 38 23 34 38 23 34 38 23 34 38 23
34 38 23
15 28 45 15 28 45 15 28 44 15 27 43 15 27 42 15 27 42 15 27 41 15 26
40 15 26 39 15 26 39 15 25 38 15 25 37 15 25 36 15 25 36 15 24 35 15
24 34 15 24 33 15 23 32 15 23 32 15 23 31 15 23 30 15 22 29 15 22 28
15 22 28 15 21 27 15 21 26 15 21 25 15 20 24 15 20 23 15 20 23 15 20
23 15 20 23 15 20 23 15 20 23 15 20 23 15 20 23 15 20 23 15 20 23 15
20 23 15 20 23 15 20 23 15 20 23 15 20 23 15 20 23 15 20 23 15 20 23
15 20 23 15 20 23 15 20 23 15 20 23 15 20 23 15 20 23 15 20 23 15 20
23 15 20 23 15 20 23 15 20 23 15 20 23 20 43 53 20 43 53 20 43 53 20
43 53 20 43 53 20 44 53 20 44 53 20 44 53 20 44 53 20 44 53 20 44 54
20 44 54 20 44 54 20 44 54 20 44 54 20 44 54 20 44 54 20 44 54 20 44
54 20 44 54 20 44 54 20 44 54 20 44 54 20 44 54 20 44 54 20 44 54 20
44 54 20 44 54 20 44 54 20 44 54 20 44 53 20 44 53 20 44 53 20 44 53
20 43 53 20 43 53 20 43 53 20 43 53 20 43 53 20 43 53 20 43 53 20 43
53 20 43 53 20 43 53 20 43 53 20 43 53 20 43 53 20 43 53 20 43 53 20
43 53 20 43 53 20 43 53 20 43 53 20 43 53 20 43 52 20 43 52 20 43 52
20 43 52 20 43 52 20 43 52 20 43 52 20 43 52 20 43 52 20 43 52 20 43
52 20 43 52 20 42 52 18 19 219 18 19 220 18 19 219 18 18 217 18 18 216
18 18 214 18 18 211 18 18 209 18 18 207 18 18 204 18 18 202 18 18 199
18 17 197 18 17 194 18 17 191 18 17 189 18 17 186 18 17 183 18 17 181
18 17 178 18 16 176 18 16 173 18 16 170 19 17 169 19 17 166 19 17 163
19 17 161 20 17 158 20 17 156 20 17 153 20 17 150 20 17 148 20 16 145
20 16 142 20 16 140 20 16 137 20 16 135 20 16 132 20 16 129 20 16 127
20 15 124 19 15 122 19 15 119 19 15 116 19 15 114 19 15 113 19 15 113
19 15 113 19 15 113 19 15 113 19 15 113 19 15 113 18 13 111 18 13 111
18 13 111 18 13 111 18 13 111 18 13 111 18 13 111 18 13 111 18 13 111
18 13 111 18 13 111 18 13 111 18 13 111 18 13 111 18 13 111 18 13 111
18 13 111 18 13 111 18 13 111 18 13 111 18 13 111 18 13 111 22 15 120
22 15 120 22 15 120 22 15 120 22 15 120 22 15 119 42 60 52 42 46 26 42
46 26 42 46 26 42 46 26 42 46 26 42 46 26 42 46 26 42 46 26 42 46 26
42 47 26 42 47 26 43 47 26 43 47 26 43 47 26 43 47 26 43 47 26 43 47
26 43 47 26 43 47 26 43 47 26 43 47 26 43 47 26 43 47 26 43 47 26 43
47 26 43 47 26 43 47 26 43 47 26 43 47 26 43 47 26 43 47 26 43 47 26
43 47 26 43 47 26 43 47 26 43 47 26 43 47 26 43 47 26 43 47 26 43 47
26 43 47 26 43 47 26 43 47 26 43 47 26 43 47 26 43 47 26 43 47 26 43
47 26 43 47 26 43 47 26 43 47 26 43 47 26 43 47 26 43 47 26 43 47 26
43 47 26 43 47 26 43 47 26 43 47 26 43 47 26 43 47 26 43 47 26 43 47
26 43 47 26 43 47 26 43 47 26 43 47 26 43 47 26 43 47 26 43 47 26 43
47 26 43 47 26 43 47 26 43 47 26 42 47 26 42 47 26 42 46 26 42 46 26
42 46 26 42 46 26 42 46 26 42 46 26 42 46 26 42 46 26 42 46 26 42 46
26 42 46 26 42 46 26 42 46 26 42 46 26 42 46 26 41 46 26 41 46 26 41
45 26 41 45 26 41 45 26 41 45 26 41 45 26 41 45 26 41 45 26 41 45 26
41 45 26 41 45 25 41 45 25 41 45 25 41 45 25 40 45 25 40 45 25 40 44
25 40 44 25 40 44 25 40 44 25 40 44 25 40 44 25 40 44 25 40 44 25 40
44 25 40 44 25 40 44 25 39 44 25 39 44 25 39 43 25 39 43 25 39 43 25
39 43 25 39 43 25 39 43 25 39 43 25 39 43 25 39 43 25 39 43 25 39 43
25 38 43 25 38 43 25 38 42 25 38 42 25 38 42 25 38 42 25 38 42 25 38
42 25 38 42 25 38 42 24 38 42 24 38 42 24 38 42 24 37 42 24 37 42 24
37 42 24 37 41 24 37 41 24 37 41 24 37 41 24 37 41 24 37 41 24 37 41
24 37 41 24 37 41 24 37 41 24 36 41 24 36 41 24 36 41 24 36 41 24 36
40 24 36 40 24 36 40 24 36 40 24 36 40 24 36 40 24 36 40 24 36 40 24
36 40 24 36 40 24 35 40 24 35 40 24 35 40 24 35 40 24 35 39 24 35 39
24 35 39 24 35 39 24 35 39 24 35 39 24 35 39 23 35 39 23 35 39 23 35
39 23 35 39 23 35 39 23 34 39 23 34 39 23 34 39 23 34 39 23 34 39 23
34 38 23
15 28 44 15 28 44 15 27 43 15 27 42 15 27 41 15 26 41 15 26 40 15 26
39 15 26 38 15 25 38 15 25 37 15 25 36 15 25 35 15 24 35 15 24 34 15
24 33 15 23 32 15 23 31 15 23 31 15 23 30 15 22 29 15 22 28 15 22 28
15 21 27 15 21 26 15 21 25 15 20 24 15 20 24 15 20 23 15 20 23 15 20
23 15 20 23 15 20 23 15 20 23 15 20 23 15 20 23 15 20 23 15 20 23 15
20 23 15 20 23 15 20 23 15 20 23 15 20 23 15 20 23 15 20 23 15 20 23
15 20 23 15 20 23 15 20 23 15 20 23 15 20 23 15 20 23 15 20 23 15 20
23 15 20 23 15 20 23 15 20 23 15 20 23 20 44 55 20 44 55 20 44 55 20
44 55 20 44 55 20 44 55 20 44 55 20 44 55 20 44 55 20 44 55 20 44 55
20 44 55 20 44 55 20 44 55 20 44 55 20 44 55 20 44 55 20 44 55 20 44
55 20 44 55 20 44 55 20 44 55 20 44 55 20 44 55 20 44 55 20 44 55 20
44 55 20 44 55 20 44 55 20 44 55 20 44 55 20 44 55 20 44 55 20 44 55
20 44 55 20 44 55 20 44 54 20 44 54 20 44 54 20 44 54 20 44 54 20 44
54 20 44 54 20 44 54 20 44 54 20 44 54 20 44 54 20 44 54 20 44 54 20
44 54 20 44 54 20 44 54 20 44 54 20 44 54 20 44 53 20 43 53 20 43 53
20 43 53 20 43 53 20 43 53 20 43 53 20 43 53 20 43 53 20 43 53 20 43
53 20 43 53 20 43 53 18 18 215 18 19 217 18 18 217 18 18 216 18 18 214
18 18 212 18 18 210 18 18 208 18 18 205 18 18 203 18 18 200 18 18 198
18 17 195 18 17 193 18 17 190 18 17 188 18 17 185 18 17 182 18 17 180
18 16 177 18 16 175 18 16 172 18 16 169 18 16 167 18 16 164 18 16 161
18 16 159 18 15 156 18 15 153 18 15 151 18 15 148 18 15 146 18 15 143
18 15 140 18 15 138 18 14 135 18 14 132 18 14 130 18 14 127 18 14 125
18 14 122 18 14 119 18 13 117 18 13 114 18 13 112 18 13 111 18 13 111
18 13 111 18 13 111 18 13 111 18 13 111 18 13 111 18 13 111 18 13 111
18 13 111 18 13 111 18 13 111 18 13 111 18 13 111 18 13 111 18 13 111
18 13 111 18 13 111 18 13 111 18 13 111 18 13 111 18 13 111 18 13 111
18 13 111 18 13 111 18 13 111 18 13 111 18 13 111 22 15 119 22 15 119
22 15 119 22 15 119 22 15 119 22 15 119 21 15 118 43 47 26 43 47 26 43
47 26 43 47 26 43 47 26 43 47 26 43 47 26 43 47 26 43 47 26 43 47 26
43 47 26 43 47 26 43 47 26 43 47 26 43 47 26 43 47 26 43 48 26 43 48
26 44 48 26 44 48 26 44 48 26 44 48 26 44 48 27 44 48 27 44 48 27 44
48 27 44 48 27 44 48 27 44 48 27 44 48 27 44 48 27 44 48 27 44 48 27
44 48 27 44 48 27 44 48 27 44 48 27 44 48 27 44 48 27 44 48 27 44 48
27 44 48 27 44 48 27 44 48 27 44 48 27 44 48 27 44 48 27 44 48 27 44
48 27 44 48 27 44 48 27 44 48 27 44 48 27 44 48 27 44 48 27 44 48 27
44 48 27 44 48 27 44 48 27 44 48 27 44 48 27 44 48 27 44 48 27 44 48
27 44 48 27 44 48 27 44 48 26 44 48 26 44 48 26 44 48 26 44 48 26 43
48 26 43 47 26 43 47 26 43 47 26 43 47 26 43 47 26 43 47 26 43 47 26
43 47 26 43 47 26 43 47 26 43 47 26 43 47 26 43 47 26 43 47 26 43 47
26 43 47 26 43 47 26 42 47 26 42 46 26 42 46 26 42 46 26 42 46 26 42
46 26 42 46 26 42 46 26 42 46 26 42 46 26 42 46 26 42 46 26 42 46 26
42 46 26 41 46 26 41 46 26 41 45 26 41 45 26 41 45 26 41 45 26 41 45
26 41 45 26 41 45 26 41 45 26 41 45 25 41 45 25 41 45 25 40 45 25 40
45 25 40 44 25 40 44 25 40 44 25 40 44 25 40 44 25 40 44 25 40 44 25
40 44 25 40 44 25 40 44 25 39 44 25 39 44 25 39 43 25 39 43 25 39 43
25 39 43 25 39 43 25 39 43 25 39 43 25 39 43 25 39 43 25 39 43 25 38
43 25 38 43 25 38 43 25 38 42 25 38 42 25 38 42 25 38 42 25 38 42 25
38 42 25 38 42 24 38 42 24 38 42 24 38 42 24 37 42 24 37 42 24 37 42
24 37 41 24 37 41 24 37 41 24 37 41 24 37 41 24 37 41 24 37 41 24 37
41 24 37 41 24 37 41 24 36 41 24 36 41 24 36 41 24 36 41 24 36 40 24
36 40 24 36 40 24 36 40 24 36 40 24 36 40 24 36 40 24 36 40 24 36 40
24 36 40 24 36 40 24 35 40 24 35 40 24 35 40 24 35 40 24 35 39 24 35
39 24 35 39 24 35 39 24 35 39 24 35 39 23 35 39 23 35 39 23 35 39 23
35 39 23
15 27 43 15 27 42 15 27 42 15 27 41 15 26 40 15 26 40 15 26 39 15 26
38 15 25 37 15 25 37 15 25 36 15 24 35 15 24 34 15 24 34 15 24 33 15
23 32 15 23 31 15 23 31 15 22 30 15 22 29 15 22 28 15 22 27 15 21 27
15 21 26 15 21 25 15 20 24 15 20 24 15 20 23 15 20 23 15 20 23 15 20
23 15 20 23 15 20 23 15 20 23 15 20 23 15 20 23 15 20 23 15 20 23 15
20 23 15 20 23 15 20 23 15 20 23 15 20 23 15 20 23 15 20 23 15 20 23
15 20 23 15 20 23 15 20 23 15 20 23 15 20 23 15 20 23 15 20 23 15 20
23 15 20 23 15 20 23 15 20 23 15 20 23 15 20 23 20 45 56 20 45 56 20
45 56 20 45 56 20 45 56 20 45 56 20 45 56 20 45 56 20 45 56 20 45 56
20 45 56 20 45 56 20 45 56 20 45 56 20 45 56 20 45 56 20 45 56 20 45
56 20 45 56 20 45 56 20 45 56 20 45 56 20 45 56 20 45 56 20 45 56 20
45 56 20 45 56 20 45 56 20 45 56 20 45 56 20 45 56 20 45 56 20 45 56
20 45 56 20 45 56 20 45 56 20 45 56 20 45 56 20 45 55 20 45 55 20 45
55 20 45 55 20 45 55 20 44 55 20 44 55 20 44 55 20 44 55 20 44 55 20
44 55 20 44 55 20 44 55 20 44 55 20 44 55 20 44 54 20 44 54 20 44 54
20 44 54 20 44 54 20 44 54 20 44 54 20 44 54 20 44 54 20 44 54 20 44
54 20 44 54 20 44 53 20 43 53 18 18 215 18 18 215 18 18 214 18 18 212
18 18 211 18 18 208 18 18 206 18 18 204 18 18 202 18 18 199 18 17 197
18 17 194 18 17 192 18 17 189 18 17 187 18 17 184 18 17 181 18 17 179
18 16 176 18 16 173 18 16 171 18 16 168 18 16 166 18 16 163 18 16 160
18 16 158 18 15 155 18 15 152 18 15 150 18 15 147 18 15 145 18 15 142
18 15 139 18 14 137 18 14 134 18 14 132 18 14 129 18 14 126 18 14 124
18 14 121 18 14 119 18 13 116 18 13 113 18 13 111 18 13 111 18 13 111
18 13 111 18 13 111 18 13 111 18 13 111 18 13 111 18 13 111 18 13 111
18 13 111 18 13 111 18 13 111 18 13 111 18 13 111 18 13 111 18 13 111
18 13 111 18 13 111 18 13 111 18 13 111 18 13 111 18 13 111 18 13 111
18 13 111 18 13 111 18 13 111 18 13 111 18 13 111 21 15 119 22 15 119
22 15 119 22 15 119 21 15 119 21 15 118 43 47 26 43 47 26 43 47 26 43
47 26 43 47 26 43 48 26 43 48 26 44 48 26 44 48 26 44 48 27 44 48 27
44 48 27 44 48 27 44 48 27 44 48 27 44 48 27 44 48 27 44 48 27 44 48
27 44 48 27 44 48 27 44 48 27 44 48 27 44 48 27 44 48 27 44 49 27 45
49 27 45 49 27 45 49 27 45 49 27 45 49 27 45 49 27 45 49 27 45 49 27
45 49 27 45 49 27 45 49 27 45 49 27 45 49 27 45 49 27 45 49 27 45 49
27 45 49 27 45 49 27 45 49 27 45 49 27 45 49 27 45 49 27 45 49 27 45
49 27 45 49 27 45 49 27 45 49 27 45 49 27 45 49 27 45 49 27 45 49 27
45 49 27 45 49 27 45 49 27 45 49 27 45 49 27 45 49 27 45 49 27 45 49
27 45 49 27 45 49 27 44 49 27 44 48 27 44 48 27 44 48 27 44 48 27 44
48 27 44 48 27 44 48 27 44 48 27 44 48 27 44 48 27 44 48 27 44 48 27
44 48 27 44 48 27 44 48 27 44 48 26 44 48 26 44 48 26 43 48 26 43 47
26 43 47 26 43 47 26 43 47 26 43 47 26 43 47 26 43 47 26 43 47 26 43
47 26 43 47 26 43 47 26 43 47 26 43 47 26 42 47 26 42 47 26 42 46 26
42 46 26 42 46 26 42 46 26 42 46 26 42 46 26 42 46 26 42 46 26 42 46
26 42 46 26 42 46 26 41 46 26 41 45 26 41 45 26 41 45 26 41 45 26 41
45 26 41 45 26 41 45 26 41 45 26 41 45 25 41 45 25 41 45 25 40 45 25
40 45 25 40 44 25 40 44 25 40 44 25 40 44 25 40 44 25 40 44 25 40 44
25 40 44 25 40 44 25 40 44 25 39 44 25 39 44 25 39 43 25 39 43 25 39
43 25 39 43 25 39 43 25 39 43 25 39 43 25 39 43 25 39 43 25 39 43 25
38 43 25 38 43 25 38 42 25 38 42 25 38 42 25 38 42 25 38 42 25 38 42
25 38 42 24 38 42 24 38 42 24 38 42 24 37 42 24 37 42 24 37 42 24 37
41 24 37 41 24 37 41 24 37 41 24 37 41 24 37 41 24 37 41 24 37 41 24
37 41 24 37 41 24 36 41 24 36 41 24 36 41 24 36 41 24 36 40 24 36 40
24 36 40 24 36 40 24 36 40 24 36 40 24 36 40 24 36 40 24 36 40 24 36
40 24 35 40 24 35 40 24 35 40 24 35 40 24 35 39 24 35 39 24 35 39 24
35 39 24
15 27 42 15 27 41 15 26 41 15 26 40 15 26 39 15 26 38 15 25 38 15 25
37 15 25 36 15 25 36 15 24 35 15 24 34 15 24 33 15 24 33 15 23 32 15
23 31 15 23 30 15 22 30 15 22 29 15 22 28 15 22 27 15 21 27 15 21 26
15 21 25 15 20 24 15 20 24 15 20 23 15 20 23 15 20 23 15 20 23 15 20
23 15 20 23 15 20 23 15 20 23 15 20 23 15 20 23 15 20 23 15 20 23 15
20 23 15 20 23 15 20 23 15 20 23 15 20 23 15 20 23 15 20 23 15 20 23
15 20 23 15 20 23 15 20 23 15 20 23 15 20 23 15 20 23 15 20 23 15 20
23 15 20 23 15 20 23 15 20 23 15 20 23 15 20 23 20 46 57 20 46 57 20
46 57 20 46 57 20 46 57 20 46 57 20 46 57 20 46 57 20 46 57 20 46 57
20 46 57 20 46 57 20 46 57 20 46 57 20 46 57 20 46 57 20 46 57 20 46
57 20 46 57 20 46 57 20 46 57 20 46 57 20 46 57 20 46 57 20 46 57 20
46 57 20 46 57 20 46 57 20 46 57 20 46 57 20 46 57 20 45 57 20 45 57
20 45 57 20 45 57 20 45 57 20 45 57 20 45 57 20 45 57 20 45 57 20 45
56 20 45 56 20 45 56 20 45 56 20 45 56 20 45 56 20 45 56 20 45 56 20
45 56 20 45 56 20 45 56 20 45 56 20 45 56 20 45 55 20 45 55 20 45 55
20 44 55 20 44 55 20 44 55 20 44 55 20 44 55 20 44 55 20 44 55 20 44
55 20 44 54 20 44 54 20 44 54 18 18 211 18 18 213 18 18 212 18 18 211
18 18 209 18 18 207 18 18 205 18 18 203 18 18 200 18 18 198 18 17 195
18 17 193 18 17 190 18 17 188 18 17 185 18 17 183 18 17 180 18 17 178
18 16 175 18 16 172 18 16 170 18 16 167 18 16 165 18 16 162 18 16 159
18 15 157 18 15 154 18 15 151 18 15 149 18 15 146 18 15 144 18 15 141
18 15 138 18 14 136 18 14 133 18 14 131 18 14 128 18 14 125 18 14 123
18 14 120 18 13 118 18 13 115 18 13 112 18 13 111 18 13 111 18 13 111
18 13 111 18 13 111 18 13 111 18 13 111 18 13 111 18 13 111 18 13 111
18 13 111 18 13 111 18 13 111 18 13 111 18 13 111 18 13 111 18 13 111
18 13 111 18 13 111 18 13 111 18 13 111 18 13 111 18 13 111 18 13 111
18 13 111 18 13 111 18 13 111 18 13 111 21 15 118 21 15 118 21 15 118
21 15 118 21 15 118 21 15 118 21 15 118 44 48 27 44 48 27 44 48 27 44
48 27 44 48 27 44 48 27 44 48 27 44 48 27 44 48 27 44 48 27 44 48 27
44 49 27 45 49 27 45 49 27 45 49 27 45 49 27 45 49 27 45 49 27 45 49
27 45 49 27 45 49 27 45 49 27 45 49 27 45 49 27 45 49 27 45 49 27 45
49 27 45 49 27 45 49 27 45 49 27 45 49 27 45 49 27 45 49 27 45 49 27
45 50 27 46 50 27 46 50 27 46 50 27 46 50 27 46 50 27 46 50 27 46 50
27 46 50 27 46 50 27 46 50 27 46 50 27 46 50 27 46 50 27 46 50 27 46
50 27 46 50 27 46 50 27 46 50 27 46 50 27 46 50 27 46 50 27 46 50 27
46 50 27 46 50 27 46 50 27 45 50 27 45 49 27 45 49 27 45 49 27 45 49
27 45 49 27 45 49 27 45 49 27 45 49 27 45 49 27 45 49 27 45 49 27 45
49 27 45 49 27 45 49 27 45 49 27 45 49 27 45 49 27 45 49 27 45 49 27
45 49 27 45 49 27 45 49 27 44 48 27 44 48 27 44 48 27 44 48 27 44 48
27 44 48 27 44 48 27 44 48 27 44 48 27 44 48 27 44 48 27 44 48 27 44
48 26 44 48 26 43 48 26 43 47 26 43 47 26 43 47 26 43 47 26 43 47 26
43 47 26 43 47 26 43 47 26 43 47 26 43 47 26 43 47 26 42 47 26 42 47
26 42 46 26 42 46 26 42 46 26 42 46 26 42 46 26 42 46 26 42 46 26 42
46 26 42 46 26 42 46 26 41 46 26 41 45 26 41 45 26 41 45 26 41 45 26
41 45 26 41 45 26 41 45 26 41 45 26 41 45 25 41 45 25 40 45 25 40 45
25 40 44 25 40 44 25 40 44 25 40 44 25 40 44 25 40 44 25 40 44 25 40
44 25 40 44 25 40 44 25 39 44 25 39 44 25 39 43 25 39 43 25 39 43 25
39 43 25 39 43 25 39 43 25 39 43 25 39 43 25 39 43 25 39 43 25 38 43
25 38 43 25 38 42 25 38 42 25 38 42 25 38 42 25 38 42 25 38 42 25 38
42 24 38 42 24 38 42 24 38 42 24 37 42 24 37 42 24 37 42 24 37 41 24
37 41 24 37 41 24 37 41 24 37 41 24 37 41 24 37 41 24 37 41 24 37 41
24 37 41 24 36 41 24 36 41 24 36 41 24 36 40 24 36 40 24 36 40 24 36
40 24 36 40 24 36 40 24 36 40 24 36 40 24 36 40 24 36 40 24 36 40 24
35 40 24
15 27 41 15 26 40 15 26 39 15 26 39 15 26 38 15 25 37 15 25 37 15 25
36 15 24 35 15 24 35 15 24 34 15 24 33 15 23 32 15 23 32 15 23 31 15
23 30 15 22 29 15 22 29 15 22 28 15 22 27 15 21 26 15 21 26 15 21 25
15 20 24 15 20 23 15 20 23 15 20 23 15 20 23 15 20 23 15 20 23 15 20
23 15 20 23 15 20 23 15 20 23 15 20 23 15 20 23 15 20 23 15 20 23 15
20 23 15 20 23 15 20 23 15 20 23 15 20 23 15 20 23 15 20 23 15 20 23
15 20 23 15 20 23 15 20 23 15 20 23 15 20 23 15 20 23 15 20 23 15 20
23 15 20 23 15 20 23 15 20 23 15 20 23 15 20 23 15 20 23 20 46 59 20
46 59 20 46 59 20 46 59 20 46 59 20 46 59 20 47 59 20 47 59 20 47 59
20 46 59 20 46 59 20 46 59 20 46 59 20 46 59 20 46 59 20 46 59 20 46
59 20 46 59 20 46 59 20 46 59 20 46 59 20 46 59 20 46 59 20 46 58 20
46 58 20 46 58 20 46 58 20 46 58 20 46 58 20 46 58 20 46 58 20 46 58
20 46 58 20 46 58 20 46 58 20 46 58 20 46 58 20 46 58 20 46 58 20 46
58 20 46 57 20 46 57 20 46 57 20 46 57 20 46 57 20 46 57 20 45 57 20
45 57 20 45 57 20 45 57 20 45 57 20 45 57 20 45 56 20 45 56 20 45 56
20 45 56 20 45 56 20 45 56 20 45 56 20 45 56 20 45 56 20 45 56 20 45
55 20 45 55 20 44 55 20 44 55 20 44 55 18 18 210 18 18 210 18 18 209
18 18 207 18 18 205 18 18 203 18 18 201 18 18 199 18 17 197 18 17 194
18 17 192 18 17 189 18 17 187 18 17 184 18 17 182 18 17 179 18 16 176
18 16 174 18 16 171 18 16 169 18 16 166 18 16 163 18 16 161 18 16 158
18 15 156 18 15 153 18 15 150 18 15 148 18 15 145 18 15 143 18 15 140
18 14 137 18 14 135 18 14 132 18 14 130 18 14 127 18 14 124 18 14 122
18 14 119 18 13 117 18 13 114 18 13 111 18 13 111 18 13 111 18 13 111
18 13 111 18 13 111 18 13 111 18 13 111 18 13 111 18 13 111 18 13 111
18 13 111 18 13 111 18 13 111 18 13 111 18 13 111 18 13 111 18 13 111
18 13 111 18 13 111 18 13 111 18 13 111 18 13 111 18 13 111 18 13 111
18 13 111 18 13 111 18 13 111 21 15 118 21 15 118 21 15 118 21 15 118
21 15 118 21 15 118 21 15 117 21 14 117 44 48 27 44 48 27 44 49 27 45
49 27 45 49 27 45 49 27 45 49 27 45 49 27 45 49 27 45 49 27 45 49 27
45 49 27 45 49 27 45 49 27 45 49 27 45 49 27 45 49 27 45 50 27 46 50
27 46 50 27 46 50 27 46 50 27 46 50 27 46 50 27 46 50 27 46 50 27 46
50 27 46 50 27 46 50 27 46 50 27 46 50 27 46 50 27 46 50 27 46 50 27
46 50 27 46 50 27 46 50 27 46 50 27 46 50 27 46 50 27 46 50 27 46 50
27 46 50 27 46 50 27 46 50 27 46 50 27 46 50 27 46 50 27 46 50 27 46
50 27 46 50 27 46 50 27 46 50 27 46 50 27 46 50 27 46 50 27 46 50 27
46 50 27 46 50 27 46 50 27 46 50 27 46 50 27 46 50 27 46 50 27 46 50
27 46 50 27 46 50 27 46 50 27 46 50 27 46 50 27 46 50 27 46 50 27 46
50 27 46 50 27 46 50 27 46 50 27 46 50 27 46 50 27 46 50 27 45 49 27
45 49 27 45 49 27 45 49 27 45 49 27 45 49 27 45 49 27 45 49 27 45 49
27 45 49 27 45 49 27 45 49 27 45 49 27 45 49 27 45 49 27 44 48 27 44
48 27 44 48 27 44 48 27 44 48 27 44 48 27 44 48 27 44 48 27 44 48 27
44 48 27 44 48 26 44 48 26 43 48 26 43 47 26 43 47 26 43 47 26 43 47
26 43 47 26 43 47 26 43 47 26 43 47 26 43 47 26 43 47 26 42 47 26 42
47 26 42 46 26 42 46 26 42 46 26 42 46 26 42 46 26 42 46 26 42 46 26
42 46 26 42 46 26 41 46 26 41 46 26 41 45 26 41 45 26 41 45 26 41 45
26 41 45 26 41 45 26 41 45 26 41 45 25 41 45 25 40 45 25 40 45 25 40
44 25 40 44 25 40 44 25 40 44 25 40 44 25 40 44 25 40 44 25 40 44 25
40 44 25 40 44 25 39 44 25 39 43 25 39 43 25 39 43 25 39 43 25 39 43
25 39 43 25 39 43 25 39 43 25 39 43 25 39 43 25 38 43 25 38 43 25 38
42 25 38 42 25 38 42 25 38 42 25 38 42 25 38 42 25 38 42 24 38 42 24
38 42 24 38 42 24 37 42 24 37 42 24 37 42 24 37 41 24 37 41 24 37 41
24 37 41 24 37 41 24 37 41 24 37 41 24 37 41 24 37 41 24 37 41 24 36
41 24 36 41 24 36 41 24 36 41 24 36 40 24 36 40 24 36 40 24 36 40 24
36 40 24
15 26 40 15 26 39 15 26 38 15 25 38 15 25 37 15 25 36 15 25 36 15 24
35 15 24 34 15 24 34 15 24 33 15 23 32 15 23 31 15 23 31 15 23 30 15
22 29 15 22 29 15 22 28 15 21 27 15 21 26 15 21 26 15 21 25 15 20 24
15 20 23 15 20 23 15 20 23 15 20 23 15 20 23 15 20 23 15 20 23 15 20
23 15 20 23 15 20 23 15 20 23 15 20 23 15 20 23 15 20 23 15 20 23 15
20 23 15 20 23 15 20 23 15 20 23 15 20 23 15 20 23 15 20 23 15 20 23
15 20 23 15 20 23 15 20 23 15 20 23 15 20 23 15 20 23 15 20 23 15 20
23 15 20 23 15 20 23 15 20 23 15 20 23 15 20 23 15 20 23 20 47 60 20
47 60 20 47 60 20 47 60 20 47 60 20 47 60 20 47 60 20 47 60 20 47 60
20 47 60 20 47 60 20 47 60 20 47 60 20 47 60 20 47 60 20 47 60 20 47
60 20 47 60 20 47 60 20 47 60 20 47 60 20 47 60 20 47 60 20 47 60 20
47 60 20 47 60 20 47 60 20 47 59 20 47 59 20 47 59 20 47 59 20 47 59
20 47 59 20 47 59 20 47 59 20 47 59 20 47 59 20 47 59 20 46 59 20 46
59 20 46 59 20 46 58 20 46 58 20 46 58 20 46 58 20 46 58 20 46 58 20
46 58 20 46 58 20 46 58 20 46 58 20 46 57 20 46 57 20 46 57 20 46 57
20 46 57 20 45 57 20 45 57 20 45 57 20 45 57 20 45 57 20 45 56 20 45
56 20 45 56 20 45 56 20 45 56 20 45 56 18 18 207 18 18 207 18 18 207
18 18 205 18 18 204 18 18 202 18 18 200 18 17 197 18 17 195 18 17 193
18 17 190 18 17 188 18 17 185 18 17 183 18 17 180 18 17 178 18 16 175
18 16 173 18 16 170 18 16 168 18 16 165 18 16 162 18 16 160 18 15 157
18 15 155 18 15 152 18 15 149 18 15 147 18 15 144 18 15 142 18 15 139
18 14 136 18 14 134 18 14 131 18 14 129 18 14 126 18 14 124 18 14 121
18 14 118 18 13 116 18 13 113 18 13 111 18 13 111 18 13 111 18 13 111
18 13 111 18 13 111 18 13 111 18 13 111 18 13 111 18 13 111 18 13 111
18 13 111 18 13 111 18 13 111 18 13 111 18 13 111 18 13 111 18 13 111
18 13 111 18 13 111 18 13 111 18 13 111 18 13 111 18 13 111 18 13 111
18 13 111 18 13 111 18 13 111 21 15 117 21 15 117 21 15 117 21 15 117
21 15 117 21 15 117 21 15 117 45 49 27 45 49 27 45 49 27 45 49 27 45
49 27 45 49 27 45 49 27 45 49 27 45 49 27 46 50 27 46 50 27 46 50 27
46 50 27 46 50 27 46 50 27 46 50 27 46 50 27 46 50 27 46 50 27 46 50
27 46 50 27 46 50 27 46 50 27 46 50 27 46 50 27 47 51 27 47 51 27 47
51 28 47 51 28 47 51 28 47 51 28 47 51 28 47 51 28 47 51 28 47 51 28
47 51 28 47 51 28 47 51 28 47 51 28 47 51 28 47 51 28 47 51 28 47 51
28 47 51 28 47 51 28 47 51 28 47 51 28 47 51 28 47 51 28 47 51 28 47
51 28 47 51 28 47 51 28 47 51 28 47 51 28 47 51 28 47 51 28 47 51 28
47 51 28 47 51 28 47 51 28 47 51 28 47 51 28 47 51 28 47 51 28 47 51
28 47 51 28 47 51 28 47 51 28 47 51 28 47 51 28 47 51 28 47 51 28 47
51 27 47 51 27 47 51 27 46 50 27 46 50 27 46 50 27 46 50 27 46 50 27
46 50 27 46 50 27 46 50 27 46 50 27 46 50 27 46 50 27 46 50 27 46 50
27 46 50 27 46 50 27 45 50 27 45 49 27 45 49 27 45 49 27 45 49 27 45
49 27 45 49 27 45 49 27 45 49 27 45 49 27 45 49 27 45 49 27 45 49 27
44 48 27 44 48 27 44 48 27 44 48 27 44 48 27 44 48 27 44 48 27 44 48
27 44 48 27 44 48 26 44 48 26 43 48 26 43 47 26 43 47 26 43 47 26 43
47 26 43 47 26 43 47 26 43 47 26 43 47 26 43 47 26 43 47 26 42 47 26
42 46 26 42 46 26 42 46 26 42 46 26 42 46 26 42 46 26 42 46 26 42 46
26 42 46 26 41 46 26 41 46 26 41 45 26 41 45 26 41 45 26 41 45 26 41
45 26 41 45 26 41 45 25 41 45 25 41 45 25 40 45 25 40 44 25 40 44 25
40 44 25 40 44 25 40 44 25 40 44 25 40 44 25 40 44 25 40 44 25 40 44
25 39 44 25 39 44 25 39 43 25 39 43 25 39 43 25 39 43 25 39 43 25 39
43 25 39 43 25 39 43 25 39 43 25 38 43 25 38 43 25 38 43 25 38 42 25
38 42 25 38 42 25 38 42 25 38 42 25 38 42 25 38 42 24 38 42 24 38 42
24 37 42 24 37 42 24 37 42 24 37 41 24 37 41 24 37 41 24 37 41 24 37
41 24 37 41 24 37 41 24 37 41 24 37 41 24 37 41 24 36 41 24 36 41 24
36 41 24
15 26 39 15 25 38 15 25 37 15 25 37 15 25 36 15 24 35 15 24 35 15 24
34 15 24 33 15 23 33 15 23 32 15 23 31 15 23 30 15 22 30 15 22 29 15
22 28 15 22 28 15 21 27 15 21 26 15 21 25 15 21 25 15 20 24 15 20 23
15 20 23 15 20 23 15 20 23 15 20 23 15 20 23 15 20 23 15 20 23 15 20
23 15 20 23 15 20 23 15 20 23 15 20 23 15 20 23 15 20 23 15 20 23 15
20 23 15 20 23 15 20 23 15 20 23 15 20 23 15 20 23 15 20 23 15 20 23
15 20 23 15 20 23 15 20 23 15 20 23 15 20 23 15 20 23 15 20 23 15 20
23 15 20 23 15 20 23 15 20 23 15 20 23 15 20 23 15 20 23 20 48 62 20
48 62 20 48 62 20 48 62 20 48 62 20 48 62 20 48 62 20 48 61 20 48 61
20 48 61 20 48 61 20 48 61 20 48 61 20 48 61 20 48 61 20 48 61 20 48
61 20 48 61 20 48 61 20 48 61 20 48 61 20 48 61 20 48 61 20 48 61 20
48 61 20 48 61 20 48 61 20 48 61 20 48 61 20 47 61 20 47 60 20 47 60
20 47 60 20 47 60 20 47 60 20 47 60 20 47 60 20 47 60 20 47 60 20 47
60 20 47 60 20 47 59 20 47 59 20 47 59 20 47 59 20 47 59 20 47 59 20
47 59 20 46 59 20 46 59 20 46 59 20 46 58 20 46 58 20 46 58 20 46 58
20 46 58 20 46 58 20 46 58 20 46 58 20 46 57 20 46 57 20 46 57 20 46
57 20 46 57 20 45 57 20 45 57 20 45 57 18 18 200 18 18 205 18 18 204
18 18 203 18 18 202 18 18 200 18 18 198 18 17 196 18 17 194 18 17 191
18 17 189 18 17 187 18 17 184 18 17 182 18 17 179 18 16 177 18 16 174
18 16 172 18 16 169 18 16 166 18 16 164 18 16 161 18 16 159 18 15 156
18 15 154 18 15 151 18 15 148 18 15 146 18 15 143 18 15 141 18 15 138
18 14 135 18 14 133 18 14 130 18 14 128 18 14 125 18 14 123 18 14 120
18 13 117 18 13 115 18 13 112 18 13 111 18 13 111 18 13 111 18 13 111
18 13 111 18 13 111 18 13 111 18 13 111 18 13 111 18 13 111 18 13 111
18 13 111 18 13 111 18 13 111 18 13 111 18 13 111 18 13 111 18 13 111
18 13 111 18 13 111 18 13 111 18 13 111 18 13 111 18 13 111 18 13 111
18 13 111 18 13 111 21 14 117 21 15 117 21 15 117 21 15 117 21 15 117
21 15 117 21 14 117 20 14 116 45 49 27 45 49 27 46 50 27 46 50 27 46
50 27 46 50 27 46 50 27 46 50 27 46 50 27 46 50 27 46 50 27 46 50 27
46 50 27 46 50 27 46 50 27 47 51 27 47 51 28 47 51 28 47 51 28 47 51
28 47 51 28 47 51 28 47 51 28 47 51 28 47 51 28 47 51 28 47 51 28 47
51 28 47 51 28 47 51 28 47 51 28 47 51 28 48 51 28 48 52 28 48 52 28
48 52 28 48 52 28 48 52 28 48 52 28 48 52 28 48 52 28 48 52 28 48 52
28 48 52 28 48 52 28 48 52 28 48 52 28 48 52 28 48 52 28 48 52 28 48
52 28 48 52 28 48 52 28 48 52 28 48 52 28 48 52 28 48 52 28 48 52 28
48 52 28 48 52 28 48 52 28 48 52 28 48 52 28 48 52 28 48 52 28 48 52
28 48 52 28 48 52 28 48 52 28 48 52 28 48 51 28 47 51 28 47 51 28 47
51 28 47 51 28 47 51 28 47 51 28 47 51 28 47 51 28 47 51 28 47 51 28
47 51 28 47 51 28 47 51 28 47 51 28 47 51 28 47 51 27 47 51 27 46 50
27 46 50 27 46 50 27 46 50 27 46 50 27 46 50 27 46 50 27 46 50 27 46
50 27 46 50 27 46 50 27 46 50 27 46 50 27 45 49 27 45 49 27 45 49 27
45 49 27 45 49 27 45 49 27 45 49 27 45 49 27 45 49 27 45 49 27 45 49
27 44 48 27 44 48 27 44 48 27 44 48 27 44 48 27 44 48 27 44 48 27 44
48 27 44 48 26 44 48 26 43 48 26 43 47 26 43 47 26 43 47 26 43 47 26
43 47 26 43 47 26 43 47 26 43 47 26 43 47 26 42 47 26 42 46 26 42 46
26 42 46 26 42 46 26 42 46 26 42 46 26 42 46 26 42 46 26 42 46 26 42
46 26 41 46 26 41 45 26 41 45 26 41 45 26 41 45 26 41 45 26 41 45 26
41 45 25 41 45 25 41 45 25 40 45 25 40 45 25 40 44 25 40 44 25 40 44
25 40 44 25 40 44 25 40 44 25 40 44 25 40 44 25 40 44 25 39 44 25 39
44 25 39 43 25 39 43 25 39 43 25 39 43 25 39 43 25 39 43 25 39 43 25
39 43 25 39 43 25 38 43 25 38 43 25 38 43 25 38 42 25 38 42 25 38 42
25 38 42 25 38 42 25 38 42 25 38 42 24 38 42 24 38 42 24 37 42 24 37
42 24 37 42 24 37 41 24 37 41 24 37 41 24 37 41 24 37 41 24 37 41 24
37 41 24
15 25 38 15 25 37 15 25 36 15 25 36 15 24 35 15 24 34 15 24 34 15 24
33 15 23 32 15 23 32 15 23 31 15 23 30 15 22 29 15 22 29 15 22 28 15
22 27 15 21 27 15 21 26 15 21 25 15 21 25 15 20 24 15 20 23 15 20 23
15 20 23 15 20 23 15 20 23 15 20 23 15 20 23 15 20 23 15 20 23 15 20
23 15 20 23 15 20 23 15 20 23 15 20 23 15 20 23 15 20 23 15 20 23 15
20 23 15 20 23 15 20 23 15 20 23 15 20 23 15 20 23 15 20 23 15 20 23
15 20 23 15 20 23 15 20 23 15 20 23 15 20 23 15 20 23 15 20 23 15 20
23 15 20 23 15 20 23 15 20 23 15 20 23 15 20 23 15 20 23 15 20 23 20
49 63 20 49 63 20 49 63 20 49 63 20 49 63 20 49 63 20 49 63 20 49 63
20 49 63 20 49 63 20 49 63 20 49 63 20 49 63 20 49 63 19 24 18 19 24
18 19 24 18 19 24 18 19 24 18 19 24 18 19 24 18 19 24 18 19 24 18 19
24 18 19 24 18 19 24 18 19 24 18 19 24 18 19 24 18 19 24 18 20 48 61
20 48 61 20 48 61 20 48 61 20 48 61 20 48 61 20 48 61 20 48 61 20 48
61 20 48 61 20 47 61 20 47 60 20 47 60 20 47 60 20 47 60 20 47 60 20
47 60 20 47 60 20 47 60 20 47 59 20 47 59 20 47 59 20 47 59 20 47 59
20 47 59 20 46 59 20 46 59 20 46 58 20 46 58 20 46 58 20 46 58 20 46
58 20 46 58 20 46 58 20 46 58 20 46 57 20 46 57 18 18 201 18 18 202 18
18 201 18 18 200 18 18 198 18 17 196 18 17 194 18 17 192 18 17 190 18
17 187 18 17 185 18 17 183 18 17 180 18 17 178 18 16 175 18 16 173 18
16 170 18 16 168 18 16 165 18 16 163 18 16 160 18 15 158 18 15 155 18
15 152 18 15 150 18 15 147 18 15 145 18 15 142 18 15 140 18 14 137 18
14 134 18 14 132 18 14 129 18 14 127 18 14 124 18 14 121 18 14 119 18
13 116 18 13 114 18 13 111 18 13 111 18 13 111 18 13 111 18 13 111 18
13 111 18 13 111 18 13 111 18 13 111 18 13 111 18 13 111 18 13 111 18
13 111 18 13 111 18 13 111 18 13 111 18 13 111 18 13 111 18 13 111 18
13 111 18 13 111 18 13 111 18 13 111 18 13 111 18 13 111 18 13 111 18
13 111 20 14 116 20 14 116 20 14 116 20 14 116 20 14 116 20 14 116 20
14 116 20 14 116 46 50 27 46 50 27 46 50 27 46 50 27 46 50 27 46 50 27
46 50 27 46 50 27 47 51 27 47 51 27 47 51 28 47 51 28 47 51 28 47 51
28 47 51 28 47 51 28 47 51 28 47 51 28 47 51 28 47 51 28 47 51 28 47
51 28 48 52 28 48 52 28 48 52 28 48 52 28 48 52 28 48 52 28 48 52 28
48 52 28 48 52 28 48 52 28 48 52 28 48 52 28 48 52 28 48 52 28 48 52
28 48 52 28 48 52 28 48 52 28 48 52 28 48 52 28 48 52 28 49 52 28 49
52 28 49 53 28 49 53 28 49 53 28 49 53 28 49 53 28 49 53 28 49 53 28
49 53 28 49 53 28 49 53 28 49 53 28 49 53 28 49 53 28 49 53 28 49 53
28 49 53 28 49 53 28 49 52 28 49 52 28 48 52 28 48 52 28 48 52 28 48
52 28 48 52 28 48 52 28 48 52 28 48 52 28 48 52 28 48 52 28 48 52 28
48 52 28 48 52 28 48 52 28 48 52 28 48 52 28 48 52 28 48 52 28 48 52
28 48 52 28 48 52 28 47 51 28 47 51 28 47 51 28 47 51 28 47 51 28 47
51 28 47 51 28 47 51 28 47 51 28 47 51 28 47 51 28 47 51 28 47 51 27
46 50 27 46 50 27 46 50 27 46 50 27 46 50 27 46 50 27 46 50 27 46 50
27 46 50 27 46 50 27 46 50 27 45 50 27 45 49 27 45 49 27 45 49 27 45
49 27 45 49 27 45 49 27 45 49 27 45 49 27 45 49 27 45 49 27 44 48 27
44 48 27 44 48 27 44 48 27 44 48 27 44 48 27 44 48 27 44 48 27 44 48
26 44 48 26 43 47 26 43 47 26 43 47 26 43 47 26 43 47 26 43 47 26 43
47 26 43 47 26 43 47 26 43 47 26 42 47 26 42 46 26 42 46 26 42 46 26
42 46 26 42 46 26 42 46 26 42 46 26 42 46 26 42 46 26 41 46 26 41 45
26 41 45 26 41 45 26 41 45 26 41 45 26 41 45 26 41 45 25 41 45 25 41
45 25 40 45 25 40 44 25 40 44 25 40 44 25 40 44 25 40 44 25 40 44 25
40 44 25 40 44 25 40 44 25 40 44 25 39 44 25 39 44 25 39 43 25 39 43
25 39 43 25 39 43 25 39 43 25 39 43 25 39 43 25 39 43 25 39 43 25 38
43 25 38 43 25 38 42 25 38 42 25 38 42 25 38 42 25 38 42 25 38 42 25
38 42 24 38 42 24 38 42 24 38 42 24 37 42 24 37 42 24 37 42 24 37 41
24
15 25 36 15 25 36 15 24 35 15 24 34 15 24 34 15 24 33 15 23 33 15 23
32 15 23 31 15 23 31 15 22 30 15 22 29 15 22 29 15 22 28 15 21 27 15
21 26 15 21 26 15 21 25 15 20 24 15 20 24 15 20 23 15 20 23 15 20 23
15 20 23 15 20 23 15 20 23 15 20 23 15 20 23 15 20 23 15 20 23 15 20
23 15 20 23 15 20 23 15 20 23 15 20 23 15 20 23 15 20 23 15 20 23 15
20 23 15 20 23 15 20 23 15 20 23 15 20 23 15 20 23 15 20 23 15 20 23
15 20 23 15 20 23 15 20 23 15 20 23 15 20 23 15 20 23 15 20 23 15 20
23 15 20 23 15 20 23 15 20 23 15 20 23 15 20 23 15 20 23 15 20 23 19
24 18 19 24 18 19 24 18 19 24 18 19 24 18 19 24 18 19 24 18 19 24 18
19 24 18 19 24 18 19 24 18 19 24 18 19 24 18 19 24 18 19 24 18 19 24
18 19 24 18 19 24 18 19 24 18 19 24 18 19 24 18 19 24 18 19 24 18 19
24 18 19 24 18 19 24 18 19 24 18 19 24 18 19 24 18 19 24 18 19 24 18
19 24 18 19 24 18 19 24 18 19 24 18 19 24 18 19 24 18 19 24 18 19 24
18 20 48 62 20 48 62 20 48 61 20 48 61 20 48 61 20 48 61 20 48 61 20
48 61 20 48 61 20 47 61 20 47 60 20 47 60 20 47 60 20 47 60 20 47 60
20 47 60 20 47 60 20 47 59 20 47 59 20 47 59 20 47 59 20 47 59 20 46
59 20 46 59 20 46 58 20 46 58 20 46 58 20 46 58 20 46 58 18 18 199 18
18 199 18 18 198 18 17 196 18 17 194 18 17 192 18 17 190 18 17 188 18
17 186 18 17 184 18 17 181 18 17 179 18 16 176 18 16 174 18 16 171 18
16 169 18 16 166 18 16 164 18 16 161 18 16 159 18 15 156 18 15 154 18
15 151 18 15 149 18 15 146 18 15 144 18 15 141 18 15 138 18 14 136 18
14 133 18 14 131 18 14 128 18 14 126 18 14 123 18 14 120 18 14 118 18
13 115 18 13 113 18 13 111 18 13 111 18 13 111 18 13 111 18 13 111 18
13 111 18 13 111 18 13 111 18 13 111 18 13 111 18 13 111 18 13 111 18
13 111 18 13 111 18 13 111 18 13 111 18 13 111 18 13 111 18 13 111 18
13 111 18 13 111 18 13 111 18 13 111 18 13 111 18 13 111 18 13 111 18
13 111 20 14 116 20 14 116 20 14 116 20 14 116 20 14 116 20 14 116 20
14 116 20 14 115 46 50 27 46 50 27 46 50 27 47 51 27 47 51 28 47 51 28
47 51 28 47 51 28 47 51 28 47 51 28 47 51 28 47 51 28 47 51 28 47 51
28 48 52 28 48 52 28 48 52 28 48 52 28 48 52 28 48 52 28 48 52 28 48
52 28 48 52 28 48 52 28 48 52 28 48 52 28 48 52 28 48 52 28 49 52 28
49 53 28 49 53 28 49 53 28 49 53 28 49 53 28 49 53 28 49 53 28 49 53
28 49 53 28 49 53 28 49 53 28 49 53 28 49 53 28 49 53 28 49 53 28 49
53 28 49 53 28 49 53 28 49 53 28 49 53 28 49 53 28 49 53 28 49 53 28
49 53 28 49 53 28 49 53 28 49 53 28 49 53 28 49 53 28 49 53 28 49 53
28 49 53 28 49 53 28 49 53 28 49 53 28 49 53 28 49 53 28 49 53 28 49
53 28 49 53 28 49 53 28 49 53 28 49 53 28 49 53 28 49 53 28 49 53 28
49 53 28 49 53 28 49 53 28 49 53 28 49 53 28 49 52 28 48 52 28 48 52
28 48 52 28 48 52 28 48 52 28 48 52 28 48 52 28 48 52 28 48 52 28 48
52 28 48 52 28 48 52 28 48 52 28 48 52 28 47 51 28 47 51 28 47 51 28
47 51 28 47 51 28 47 51 28 47 51 28 47 51 28 47 51 28 47 51 28 47 51
27 46 50 27 46 50 27 46 50 27 46 50 27 46 50 27 46 50 27 46 50 27 46
50 27 46 50 27 46 50 27 45 50 27 45 49 27 45 49 27 45 49 27 45 49 27
45 49 27 45 49 27 45 49 27 45 49 27 45 49 27 44 49 27 44 48 27 44 48
27 44 48 27 44 48 27 44 48 27 44 48 27 44 48 27 44 48 26 44 48 26 43
48 26 43 47 26 43 47 26 43 47 26 43 47 26 43 47 26 43 47 26 43 47 26
43 47 26 42 47 26 42 46 26 42 46 26 42 46 26 42 46 26 42 46 26 42 46
26 42 46 26 42 46 26 42 46 26 41 46 26 41 46 26 41 45 26 41 45 26 41
45 26 41 45 26 41 45 26 41 45 26 41 45 25 41 45 25 41 45 25 40 45 25
40 44 25 40 44 25 40 44 25 40 44 25 40 44 25 40 44 25 40 44 25 40 44
25 40 44 25 39 44 25 39 44 25 39 43 25 39 43 25 39 43 25 39 43 25 39
43 25 39 43 25 39 43 25 39 43 25 39 43 25 39 43 25 38 43 25 38 43 25
38 42 25 38 42 25 38 42 25 38 42 25 38 42 25 38 42 25 38 42 24 38 42
24
15 25 35 15 24 35 15 24 34 15 24 33 15 24 33 15 23 32 15 23 31 15 23
31 15 23 30 15 22 30 15 22 29 15 22 28 15 22 28 15 21 27 15 21 26 15
21 26 15 21 25 15 20 24 15 20 23 15 20 23 15 20 23 15 20 23 15 20 23
15 20 23 15 20 23 15 20 23 15 20 23 15 20 23 15 20 23 15 20 23 15 20
23 15 20 23 15 20 23 15 20 23 15 20 23 15 20 23 15 20 23 15 20 23 15
20 23 15 20 23 15 20 23 15 20 23 15 20 23 15 20 23 15 20 23 15 20 23
15 20 23 15 20 23 15 20 23 15 20 23 15 20 23 15 20 23 15 20 23 15 20
23 15 20 23 15 20 23 15 20 23 15 20 23 15 20 23 15 20 23 15 20 23 19
24 18 19 24 18 19 24 18 19 24 18 19 24 18 19 24 18 19 24 18 19 24 18
19 24 18 19 24 18 19 24 18 19 24 18 19 24 18 19 24 18 19 24 18 19 24
18 19 24 18 19 24 18 19 24 18 19 24 18 19 24 18 19 24 18 19 24 18 19
24 18 19 24 18 19 24 18 19 24 18 19 24 18 19 24 18 19 24 18 19 24 18
19 24 18 19 24 18 19 24 18 19 24 18 19 24 18 19 24 18 19 24 18 19 24
18 19 24 18 19 24 18 19 24 18 19 24 18 20 48 62 20 48 62 20 48 62 20
48 62 20 48 62 20 48 61 20 48 61 20 48 61 20 48 61 20 48 61 20 48 61
20 47 61 20 47 60 20 47 60 20 47 60 20 47 60 20 47 60 20 47 60 20 47
60 20 47 59 20 47 59 20 47 59 20 47 59 20 46 59 20 46 59 18 17 194 18
17 196 18 17 195 18 17 194 18 17 192 18 17 191 18 17 189 18 17 187 18
17 184 18 17 182 18 17 180 18 16 177 18 16 175 18 16 173 18 16 170 18
16 168 18 16 165 18 16 163 18 16 160 18 16 158 18 15 155 18 15 153 18
15 150 18 15 147 18 15 145 18 15 142 18 15 140 18 14 137 18 14 135 18
14 132 18 14 130 18 14 127 18 14 124 18 14 122 18 14 119 18 13 117 18
13 114 18 13 112 18 13 111 18 13 111 18 13 111 18 13 111 18 13 111 18
13 111 18 13 111 18 13 111 18 13 111 18 13 111 18 13 111 18 13 111 18
13 111 18 13 111 18 13 111 18 13 111 18 13 111 18 13 111 18 13 111 18
13 111 18 13 111 18 13 111 18 13 111 18 13 111 18 13 111 18 13 111 20
14 115 20 14 115 20 14 115 20 14 115 20 14 115 20 14 115 20 14 115 20
14 115 47 51 28 47 51 28 47 51 28 47 51 28 47 51 28 47 51 28 47 51 28
47 51 28 47 51 28 48 52 28 48 52 28 48 52 28 48 52 28 48 52 28 48 52
28 48 52 28 48 52 28 48 52 28 48 52 28 48 52 28 48 52 28 49 53 28 49
53 28 49 53 28 49 53 28 49 53 28 49 53 28 49 53 28 49 53 28 49 53 28
49 53 28 49 53 28 49 53 28 49 53 28 49 53 28 49 53 28 50 53 28 50 53
29 50 54 29 50 54 29 50 54 29 50 54 29 50 54 29 50 54 29 50 54 29 50
54 29 50 54 29 50 54 29 50 54 29 50 54 29 50 54 29 50 54 29 50 54 29
50 54 29 50 54 29 50 54 29 50 54 29 50 54 29 50 54 29 50 54 29 50 54
29 50 54 29 50 54 29 50 54 29 50 54 29 50 54 29 50 54 29 50 54 29 50
54 29 50 54 29 50 54 29 50 54 29 50 54 29 50 54 29 50 54 29 50 53 28
49 53 28 49 53 28 49 53 28 49 53 28 49 53 28 49 53 28 49 53 28 49 53
28 49 53 28 49 53 28 49 53 28 49 53 28 49 53 28 49 53 28 49 53 28 49
52 28 48 52 28 48 52 28 48 52 28 48 52 28 48 52 28 48 52 28 48 52 28
48 52 28 48 52 28 48 52 28 48 52 28 48 52 28 47 51 28 47 51 28 47 51
28 47 51 28 47 51 28 47 51 28 47 51 28 47 51 28 47 51 28 47 51 27 46
50 27 46 50 27 46 50 27 46 50 27 46 50 27 46 50 27 46 50 27 46 50 27
46 50 27 46 50 27 45 49 27 45 49 27 45 49 27 45 49 27 45 49 27 45 49
27 45 49 27 45 49 27 45 49 27 44 49 27 44 48 27 44 48 27 44 48 27 44
48 27 44 48 27 44 48 27 44 48 27 44 48 26 43 48 26 43 47 26 43 47 26
43 47 26 43 47 26 43 47 26 43 47 26 43 47 26 43 47 26 43 47 26 42 47
26 42 46 26 42 46 26 42 46 26 42 46 26 42 46 26 42 46 26 42 46 26 42
46 26 42 46 26 41 46 26 41 45 26 41 45 26 41 45 26 41 45 26 41 45 26
41 45 26 41 45 25 41 45 25 41 45 25 40 45 25 40 44 25 40 44 25 40 44
25 40 44 25 40 44 25 40 44 25 40 44 25 40 44 25 40 44 25 40 44 25 39
44 25 39 43 25 39 43 25 39 43 25 39 43 25 39 43 25 39 43 25 39 43 25
39 43 25 39 43 25 39 43 25 38 43 25 38 43 25 38 51 40 38 51 40 38 51
40
15 24 34 15 24 34 15 24 33 15 23 32 15 23 32 15 23 31 15 23 30 15 22
30 15 22 29 15 22 29 15 22 28 15 22 27 15 21 27 15 21 26 15 21 25 15
21 25 15 20 24 15 20 23 15 20 23 15 20 23 15 20 23 15 20 23 15 20 23
15 20 23 15 20 23 15 20 23 15 20 23 15 20 23 15 20 23 15 20 23 15 20
23 15 20 23 15 20 23 15 20 23 15 20 23 15 20 23 15 20 23 15 20 23 15
20 23 15 20 23 15 20 23 15 20 23 15 20 23 15 20 23 15 20 23 15 20 23
15 20 23 15 20 23 15 20 23 15 20 23 15 20 23 15 20 23 15 20 23 15 20
23 15 20 23 15 20 23 15 20 23 15 20 23 15 20 23 15 20 23 15 20 23 19
24 18 19 24 18 19 24 18 19 24 18 19 24 18 19 24 18 19 24 18 19 24 18
19 24 18 19 24 18 19 24 18 19 24 18 19 24 18 19 24 18 19 24 18 19 24
18 19 24 18 19 24 18 19 24 18 19 24 18 19 24 18 19 24 18 19 24 18 19
24 18 19 24 18 19 24 18 19 24 18 19 24 18 19 24 18 19 24 18 19 24 18
19 24 18 19 24 18 19 24 18 19 24 18 19 24 18 19 24 18 19 24 18 19 24
18 19 24 18 19 24 18 19 24 18 19 24 18 19 24 18 19 24 18 20 49 63 20
49 63 20 49 62 20 48 62 20 48 62 20 48 62 20 48 62 20 48 62 20 48 62
20 48 61 20 48 61 20 48 61 20 48 61 20 48 61 20 47 61 20 47 60 20 47
60 20 47 60 20 47 60 20 47 60 20 47 60 20 47 59 20 47 59 20 47 59 18
17 192 18 17 192 18 17 192 18 17 190 18 17 189 18 17 187 18 17 185 18
17 183 18 17 180 18 17 178 18 16 176 18 16 173 18 16 171 18 16 169 18
16 166 18 16 164 18 16 161 18 16 159 18 15 156 18 15 154 18 15 151 18
15 149 18 15 146 18 15 144 18 15 141 18 15 139 18 14 136 18 14 134 18
14 131 18 14 128 18 14 126 18 14 123 18 14 121 18 14 118 18 13 116 18
13 113 18 13 111 18 13 111 18 13 111 18 13 111 18 13 111 18 13 111 18
13 111 18 13 111 18 13 111 18 13 111 18 13 111 18 13 111 18 13 111 18
13 111 18 13 111 18 13 111 18 13 111 18 13 111 18 13 111 18 13 111 18
13 111 18 13 111 18 13 111 18 13 111 18 13 111 18 13 111 20 14 114 20
14 114 20 14 115 20 14 115 20 14 115 20 14 115 20 14 115 20 14 114 19
14 114 47 51 28 47 51 28 47 51 28 47 51 28 48 52 28 48 52 28 48 52 28
48 52 28 48 52 28 48 52 28 48 52 28 48 52 28 48 52 28 48 52 28 48 52
28 49 53 28 49 53 28 49 53 28 49 53 28 49 53 28 49 53 28 49 53 28 49
53 28 49 53 28 49 53 28 49 53 28 49 53 28 50 53 28 50 54 29 50 54 29
50 54 29 50 54 29 50 54 29 50 54 29 50 54 29 50 54 29 50 54 29 50 54
29 50 54 29 50 54 29 50 54 29 50 54 29 50 54 29 50 54 29 50 54 29 50
54 29 50 54 29 51 54 29 51 54 29 51 54 29 51 54 29 51 54 29 51 55 29
51 55 29 51 55 29 51 55 29 51 55 29 51 55 29 51 55 29 51 55 29 51 55
29 51 55 29 51 55 29 51 54 29 51 54 29 51 54 29 51 54 29 51 54 29 50
54 29 50 54 29 50 54 29 50 54 29 50 54 29 50 54 29 50 54 29 50 54 29
50 54 29 50 54 29 50 54 29 50 54 29 50 54 29 50 54 29 50 54 29 50 54
29 50 54 29 50 54 29 50 54 29 50 53 28 49 53 28 49 53 28 49 53 28 49
53 28 49 53 28 49 53 28 49 53 28 49 53 28 49 53 28 49 53 28 49 53 28
49 53 28 48 52 28 48 52 28 48 52 28 48 52 28 48 52 28 48 52 28 48 52
28 48 52 28 48 52 28 48 52 28 48 51 28 47 51 28 47 51 28 47 51 28 47
51 28 47 51 28 47 51 28 47 51 28 47 51 28 47 51 27 46 50 27 46 50 27
46 50 27 46 50 27 46 50 27 46 50 27 46 50 27 46 50 27 46 50 27 46 50
27 45 49 27 45 49 27 45 49 27 45 49 27 45 49 27 45 49 27 45 49 27 45
49 27 45 49 27 44 48 27 44 48 27 44 48 27 44 48 27 44 48 27 44 48 27
44 48 27 44 48 26 44 48 26 43 48 26 43 47 26 43 47 26 43 47 26 43 47
26 43 47 26 43 47 26 43 47 26 43 47 26 42 47 26 42 46 26 42 46 26 42
46 26 42 46 26 42 46 26 42 46 26 42 46 26 42 46 26 42 46 26 41 46 26
41 45 26 41 45 26 41 45 26 41 45 26 41 45 26 41 45 26 41 45 26 41 45
25 41 45 25 40 45 25 40 45 25 40 44 25 40 44 25 40 44 25 40 44 25 40
44 25 40 44 25 40 44 25 40 44 25 40 44 25 40 53 41 40 52 41 39 52 41
39 52 41 39 52 41 39 52 41 39 52 41 39 52 41 39 52 41 39 52 40 39 51
40
15 24 33 15 23 33 15 23 32 15 23 31 15 23 31 15 23 30 15 22 29 15 22
29 15 22 28 15 22 28 15 21 27 15 21 26 15 21 26 15 21 25 15 20 24 15
20 24 15 20 23 15 20 23 15 20 23 15 20 23 15 20 23 15 20 23 15 20 23
15 20 23 15 20 23 15 20 23 15 20 23 15 20 23 15 20 23 15 20 23 15 20
23 15 20 23 15 20 23 15 20 23 15 20 23 15 20 23 15 20 23 15 20 23 15
20 23 15 20 23 15 20 23 15 20 23 15 20 23 15 20 23 15 20 23 15 20 23
15 20 23 15 20 23 15 20 23 15 20 23 15 20 23 15 20 23 15 20 23 15 20
23 15 20 23 15 20 23 15 20 23 15 20 23 15 20 23 15 20 23 15 20 23 15
20 23 19 24 18 19 24 18 19 24 18 19 24 18 19 24 18 19 24 18 19 24 18
19 24 18 19 24 18 19 24 18 19 24 18 19 24 18 19 24 18 19 24 18 19 24
18 19 24 18 19 24 18 19 24 18 19 24 18 19 24 18 19 24 18 19 24 18 19
24 18 19 24 18 19 24 18 19 24 18 19 24 18 19 24 18 19 24 18 19 24 18
19 24 18 19 24 18 19 24 18 19 24 18 19 24 18 19 24 18 19 24 18 19 24
18 19 24 18 19 24 18 19 24 18 19 24 18 19 24 18 19 24 18 19 24 18 20
49 63 20 49 63 20 49 63 20 49 63 20 49 63 20 49 63 20 49 62 20 48 62
20 48 62 20 48 62 20 48 62 20 48 62 20 48 61 20 48 61 20 48 61 20 48
61 20 48 61 20 48 61 20 47 60 20 47 60 20 47 60 20 47 60 20 47 60 18
17 186 18 17 189 18 17 189 18 17 188 18 17 187 18 17 185 18 17 183 18
17 181 18 17 179 18 16 177 18 16 174 18 16 172 18 16 170 18 16 167 18
16 165 18 16 162 18 16 160 18 15 157 18 15 155 18 15 152 18 15 150 18
15 147 18 15 145 18 15 142 18 15 140 18 14 137 18 14 135 18 14 132 18
14 130 18 14 127 18 14 125 18 14 122 18 14 120 18 13 117 18 13 114 18
13 112 18 13 111 18 13 111 18 13 111 18 13 111 18 13 111 18 13 111 18
13 111 18 13 111 18 13 111 18 13 111 18 13 111 18 13 111 18 13 111 18
13 111 18 13 111 18 13 111 18 13 111 18 13 111 18 13 111 18 13 111 18
13 111 18 13 111 18 13 111 18 13 111 18 13 111 18 13 111 19 14 114 19
14 114 19 14 114 19 14 114 19 14 114 19 14 114 19 14 114 19 14 114 47
51 28 48 52 28 48 52 28 48 52 28 48 52 28 48 52 28 48 52 28 48 52 28
48 52 28 48 52 28 48 52 28 49 53 28 49 53 28 49 53 28 49 53 28 49 53
28 49 53 28 49 53 28 49 53 28 49 53 28 49 53 28 50 53 28 50 54 29 50
54 29 50 54 29 50 54 29 50 54 29 50 54 29 50 54 29 50 54 29 50 54 29
50 54 29 50 54 29 50 54 29 50 54 29 51 54 29 51 54 29 51 55 29 51 55
29 51 55 29 51 55 29 51 55 29 51 55 29 51 55 29 51 55 29 51 55 29 51
55 29 51 55 29 51 55 29 51 55 29 51 55 29 51 55 29 51 55 29 51 55 29
51 55 29 51 55 29 51 55 29 51 55 29 51 55 29 51 55 29 51 55 29 51 55
29 51 55 29 51 55 29 51 55 29 51 55 29 51 55 29 51 55 29 51 55 29 51
55 29 51 55 29 51 55 29 51 55 29 51 55 29 51 55 29 51 55 29 51 55 29
51 55 29 51 55 29 51 55 29 51 55 29 51 55 29 51 54 29 50 54 29 50 54
29 50 54 29 50 54 29 50 54 29 50 54 29 50 54 29 50 54 29 50 54 29 50
54 29 50 54 29 50 54 29 50 54 29 50 53 29 49 53 28 49 53 28 49 53 28
49 53 28 49 53 28 49 53 28 49 53 28 49 53 28 49 53 28 49 53 28 49 53
28 48 52 28 48 52 28 48 52 28 48 52 28 48 52 28 48 52 28 48 52 28 48
52 28 48 52 28 48 52 28 47 51 28 47 51 28 47 51 28 47 51 28 47 51 28
47 51 28 47 51 28 47 51 28 47 51 27 46 50 27 46 50 27 46 50 27 46 50
27 46 50 27 46 50 27 46 50 27 46 50 27 46 50 27 45 49 27 45 49 27 45
49 27 45 49 27 45 49 27 45 49 27 45 49 27 45 49 27 45 49 27 44 48 27
44 48 27 44 48 27 44 48 27 44 48 27 44 48 27 44 48 27 44 48 26 44 48
26 43 48 26 43 47 26 43 47 26 43 47 26 43 47 26 43 47 26 43 47 26 43
47 26 43 47 26 42 47 26 42 46 26 42 46 26 42 46 26 42 46 26 42 46 26
42 46 26 42 46 26 42 46 26 42 46 26 41 46 26 41 45 26 41 45 26 41 45
26 41 45 26 41 45 26 41 45 26 41 45 25 41 54 42 41 54 42 41 54 42 41
54 42 40 54 42 40 53 42 40 53 42 40 53 42 40 53 41 40 53 41 40 53 41
40 53 41 40 53 41 40 53 41 40 52 41 39 52 41 39 52 41 39 52 41 39 52
41
15 23 32 15 23 31 15 23 31 15 23 30 15 22 30 15 22 29 15 22 28 15 22
28 15 21 27 15 21 27 15 21 26 15 21 25 15 21 25 15 20 24 15 20 23 15
20 23 15 20 23 15 20 23 15 20 23 15 20 23 15 20 23 15 20 23 15 20 23
15 20 23 15 20 23 15 20 23 15 20 23 15 20 23 15 20 23 15 20 23 15 20
23 15 20 23 15 20 23 15 20 23 15 20 23 15 20 23 15 20 23 15 20 23 15
20 23 15 20 23 15 20 23 15 20 23 15 20 23 15 20 23 15 20 23 15 20 23
15 20 23 15 20 23 15 20 23 15 20 23 15 20 23 15 20 23 15 20 23 15 20
23 15 20 23 15 20 23 15 20 23 15 20 23 15 20 23 15 20 23 15 20 23 15
20 23 19 24 18 19 24 18 19 24 18 19 24 18 19 24 18 19 24 18 19 24 18
19 24 18 19 24 18 19 24 18 19 24 18 19 24 18 19 24 18 19 24 18 19 24
18 19 24 18 19 24 18 19 24 18 19 24 18 19 24 18 19 24 18 19 24 18 19
24 18 19 24 18 19 24 18 19 24 18 19 24 18 19 24 18 19 24 18 19 24 18
19 24 18 19 24 18 19 24 18 19 24 18 19 24 18 19 24 18 19 24 18 19 24
18 19 24 18 19 24 18 19 24 18 19 24 18 19 24 18 19 24 18 19 24 18 19
24 18 20 49 64 20 49 64 20 49 64 20 49 64 20 49 63 20 49 63 20 49 63
20 49 63 20 49 63 20 49 62 20 48 62 20 48 62 20 48 62 20 48 62 20 48
62 20 48 61 20 48 61 20 48 61 20 48 61 20 48 61 20 47 61 20 47 60 20
47 60 18 17 185 18 17 186 18 17 185 18 17 184 18 17 183 18 17 181 18
17 179 18 16 177 18 16 175 18 16 173 18 16 170 18 16 168 18 16 166 18
16 163 18 16 161 18 16 158 18 15 156 18 15 154 18 15 151 18 15 149 18
15 146 18 15 144 18 15 141 18 15 139 18 14 136 18 14 134 18 14 131 18
14 129 18 14 126 18 14 123 18 14 121 18 14 118 18 13 116 18 13 113 18
13 111 18 13 111 18 13 111 18 13 111 18 13 111 18 13 111 18 13 111 18
13 111 18 13 111 18 13 111 18 13 111 18 13 111 18 13 111 18 13 111 18
13 111 18 13 111 18 13 111 18 13 111 18 13 111 18 13 111 18 13 111 18
13 111 18 13 111 18 13 111 18 13 111 18 13 111 19 14 113 19 14 113 19
14 114 19 14 114 19 14 114 19 14 114 19 14 114 19 14 113 48 52 28 48
52 28 48 52 28 48 52 28 48 52 28 48 52 28 48 52 28 48 52 28 49 53 28
49 53 28 49 53 28 49 53 28 49 53 28 49 53 28 49 53 28 49 53 28 49 53
28 49 53 28 50 54 29 50 54 29 50 54 29 50 54 29 50 54 29 50 54 29 50
54 29 50 54 29 50 54 29 50 54 29 50 54 29 51 54 29 51 55 29 51 55 29
51 55 29 51 55 29 51 55 29 51 55 29 51 55 29 51 55 29 51 55 29 51 55
29 51 55 29 51 55 29 51 55 29 51 55 29 51 55 29 51 55 29 52 55 29 52
55 29 52 55 29 52 56 29 52 56 29 52 56 29 52 56 29 52 56 29 52 56 29
52 56 29 52 56 29 52 56 29 52 56 29 52 56 29 52 56 29 52 56 29 52 56
29 52 56 29 52 56 29 52 56 29 52 56 29 52 56 29 52 56 29 52 56 29 52
56 29 52 56 29 52 56 29 52 55 29 52 55 29 52 55 29 52 55 29 51 55 29
51 55 29 51 55 29 51 55 29 51 55 29 51 55 29 51 55 29 51 55 29 51 55
29 51 55 29 51 55 29 51 55 29 51 55 29 51 55 29 51 55 29 51 54 29 51
54 29 50 54 29 50 54 29 50 54 29 50 54 29 50 54 29 50 54 29 50 54 29
50 54 29 50 54 29 50 54 29 50 53 29 49 53 28 49 53 28 49 53 28 49 53
28 49 53 28 49 53 28 49 53 28 49 53 28 49 53 28 49 53 28 48 52 28 48
52 28 48 52 28 48 52 28 48 52 28 48 52 28 48 52 28 48 52 28 48 52 28
47 51 28 47 51 28 47 51 28 47 51 28 47 51 28 47 51 28 47 51 28 47 51
28 47 51 27 46 50 27 46 50 27 46 50 27 46 50 27 46 50 27 46 50 27 46
50 27 46 50 27 46 50 27 45 49 27 45 49 27 45 49 27 45 49 27 45 49 27
45 49 27 45 49 27 45 49 27 45 49 27 44 48 27 44 48 27 44 48 27 44 48
27 44 48 27 44 48 27 44 48 27 44 48 26 44 48 26 43 47 26 43 47 26 43
47 26 43 47 26 43 47 26 43 47 26 43 47 26 43 47 26 43 47 26 42 47 26
42 46 26 42 46 26 42 46 26 42 46 26 42 56 43 42 55 43 42 55 43 42 55
43 42 55 43 42 55 43 41 55 43 41 55 42 41 55 42 41 54 42 41 54 42 41
54 42 41 54 42 41 54 42 41 54 42 41 54 42 41 54 42 40 54 42 40 53 42
40 53 42 40 53 41 40 53 41 40 53 41 40 53 41 40 53 41 40 53 41 40 52
41
15 23 31 15 23 30 15 22 30 15 22 29 15 22 29 15 22 28 15 22 27 15 21
27 15 21 26 15 21 26 15 21 25 15 20 24 15 20 24 15 20 23 15 20 23 15
20 23 15 20 23 15 20 23 15 20 23 15 20 23 15 20 23 15 20 23 15 20 23
15 20 23 15 20 23 15 20 23 15 20 23 15 20 23 15 20 23 15 20 23 15 20
23 15 20 23 15 20 23 15 20 23 15 20 23 15 20 23 15 20 23 15 20 23 15
20 23 15 20 23 15 20 23 15 20 23 15 20 23 15 20 23 15 20 23 15 20 23
15 20 23 15 20 23 15 20 23 15 20 23 15 20 23 15 20 23 15 20 23 15 20
23 15 20 23 15 20 23 15 20 23 15 20 23 15 20 23 15 20 23 15 20 23 15
20 23 19 24 18 19 24 18 19 24 18 19 24 18 19 24 18 19 24 18 19 24 18
19 24 18 19 24 18 19 24 18 19 24 18 19 24 18 19 24 18 19 24 18 19 24
18 19 24 18 19 24 18 19 24 18 19 24 18 19 24 18 19 24 18 19 24 18 19
24 18 19 24 18 19 24 18 19 24 18 19 24 18 19 24 18 19 24 18 19 24 18
19 24 18 19 24 18 19 24 18 19 24 18 19 24 18 19 24 18 19 24 18 19 24
18 19 24 18 19 24 18 19 24 18 19 24 18 19 24 18 19 24 18 19 24 18 19
24 18 20 50 65 20 50 65 20 50 64 20 50 64 20 49 64 20 49 64 20 49 64
20 49 64 20 49 63 20 49 63 20 49 63 20 49 63 20 49 63 20 49 62 20 48
62 20 48 62 20 48 62 20 48 62 20 48 62 20 48 61 20 48 61 20 48 61 20
48 61 20 48 61 18 17 182 18 17 182 18 17 182 18 17 180 18 17 179 18 16
177 18 16 175 18 16 173 18 16 171 18 16 169 18 16 166 18 16 164 18 16
162 18 16 159 18 15 157 18 15 155 18 15 152 18 15 150 18 15 147 18 15
145 18 15 142 18 15 140 18 14 137 18 14 135 18 14 132 18 14 130 18 14
127 18 14 125 18 14 122 18 14 120 18 13 117 18 13 115 18 13 112 18 13
111 18 13 111 18 13 111 18 13 111 18 13 111 18 13 111 18 13 111 18 13
111 18 13 111 18 13 111 18 13 111 18 13 111 18 13 111 18 13 111 18 13
111 18 13 111 18 13 111 18 13 111 18 13 111 18 13 111 18 13 111 18 13
111 18 13 111 18 13 111 18 13 111 19 14 113 19 14 113 19 14 113 19 14
113 19 14 113 19 14 113 19 14 113 19 14 113 19 13 112 48 52 28 48 52
28 48 52 28 48 52 28 49 52 28 49 53 28 49 53 28 49 53 28 49 53 28 49
53 28 49 53 28 49 53 28 49 53 28 50 53 28 50 54 29 50 54 29 50 54 29
50 54 29 50 54 29 50 54 29 50 54 29 50 54 29 50 54 29 50 54 29 51 54
29 51 55 29 51 55 29 51 55 29 51 55 29 51 55 29 51 55 29 51 55 29 51
55 29 51 55 29 51 55 29 51 55 29 51 55 29 52 55 29 52 55 29 52 56 29
52 56 29 52 56 29 52 56 29 52 56 29 52 56 29 52 56 29 52 56 29 52 56
29 52 56 29 52 56 29 52 56 29 52 56 29 52 56 29 52 56 29 52 56 29 52
56 29 52 56 29 52 56 29 52 56 29 52 56 29 52 56 29 52 56 29 52 56 29
52 56 29 52 56 29 52 56 29 52 56 29 52 56 29 52 56 29 52 56 29 52 56
29 52 56 29 52 56 29 52 56 29 52 56 29 52 56 29 52 56 29 52 56 29 52
56 29 52 56 29 52 56 29 52 56 29 52 56 29 52 56 29 52 56 29 52 56 29
52 55 29 52 55 29 51 55 29 51 55 29 51 55 29 51 55 29 51 55 29 51 55
29 51 55 29 51 55 29 51 55 29 51 55 29 51 55 29 51 55 29 51 54 29 50
54 29 50 54 29 50 54 29 50 54 29 50 54 29 50 54 29 50 54 29 50 54 29
50 54 29 50 53 29 49 53 28 49 53 28 49 53 28 49 53 28 49 53 28 49 53
28 49 53 28 49 53 28 49 53 28 49 52 28 48 52 28 48 52 28 48 52 28 48
52 28 48 52 28 48 52 28 48 52 28 48 52 28 47 51 28 47 51 28 47 51 28
47 51 28 47 51 28 47 51 28 47 51 28 47 51 28 47 51 27 46 50 27 46 50
27 46 50 27 46 50 27 46 50 27 46 50 27 46 50 27 46 50 27 46 50 27 45
49 27 45 49 27 45 49 27 45 49 27 45 49 27 45 49 27 45 49 27 45 49 27
44 49 27 44 48 27 44 48 27 44 48 27 44 48 27 44 48 27 44 48 27 44 48
27 44 48 26 43 48 26 43 47 26 43 57 44 43 57 44 43 57 44 43 57 44 43
57 44 43 57 44 43 56 44 43 56 43 43 56 43 42 56 43 42 56 43 42 56 43
42 56 43 42 56 43 42 55 43 42 55 43 42 55 43 42 55 43 42 55 43 41 55
42 41 55 42 41 55 42 41 54 42 41 54 42 41 54 42 41 54 42 41 54 42 41
54 42 41 54 42 40 54 42 40 53 42 40 53 42 40 53 41 40 53 41 40 53 41
15 23 30 15 22 29 15 22 29 15 22 28 15 22 28 15 21 27 15 21 26 15 21
26 15 21 25 15 21 25 15 20 24 15 20 23 15 20 23 15 20 23 15 20 23 15
20 23 15 20 23 15 20 23 15 20 23 15 20 23 15 20 23 15 20 23 15 20 23
15 20 23 15 20 23 15 20 23 15 20 23 15 20 23 15 20 23 15 20 23 15 20
23 15 20 23 15 20 23 15 20 23 15 20 23 15 20 23 15 20 23 15 20 23 15
20 23 15 20 23 15 20 23 15 20 23 15 20 23 15 20 23 15 20 23 15 20 23
15 20 23 15 20 23 15 20 23 15 20 23 15 20 23 15 20 23 15 20 23 15 20
23 15 20 23 15 20 23 15 20 23 15 20 23 15 20 23 15 20 23 15 20 23 15
20 23 19 24 18 19 24 18 19 24 18 19 24 18 19 24 18 19 24 18 19 24 18
19 24 18 19 24 18 19 24 18 19 24 18 19 24 18 19 24 18 19 24 18 19 24
18 19 24 18 19 24 18 19 24 18 19 24 18 19 24 18 19 24 18 19 24 18 19
24 18 19 24 18 19 24 18 19 24 18 19 24 18 19 24 18 19 24 18 19 24 18
19 24 18 19 24 18 19 24 18 19 24 18 19 24 18 19 24 18 19 24 18 19 24
18 19 24 18 19 24 18 19 24 18 19 24 18 19 24 18 19 24 18 19 24 18 19
24 18 20 50 66 20 50 65 20 50 65 20 50 65 20 50 65 20 50 65 20 50 64
20 50 64 20 49 64 20 49 64 20 49 64 20 49 63 20 49 63 20 49 63 20 49
63 20 49 63 20 49 62 20 48 62 20 48 62 20 48 62 20 48 62 20 48 62 20
48 61 20 48 61 20 48 61 18 17 178 18 17 178 18 17 178 18 16 176 18 16
175 18 16 173 18 16 171 18 16 169 18 16 167 18 16 165 18 16 162 18 16
160 18 16 158 18 15 155 18 15 153 18 15 151 18 15 148 18 15 146 18 15
143 18 15 141 18 15 138 18 14 136 18 14 133 18 14 131 18 14 128 18 14
126 18 14 123 18 14 121 18 14 118 18 13 116 18 13 113 18 13 111 18 13
111 18 13 111 18 13 111 18 13 111 18 13 111 18 13 111 18 13 111 18 13
111 18 13 111 18 13 111 18 13 111 18 13 111 18 13 111 18 13 111 18 13
111 18 13 111 18 13 111 18 13 111 18 13 111 18 13 111 18 13 111 18 13
111 18 13 111 18 13 111 19 13 112 19 13 112 19 13 112 19 13 112 19 13
113 19 13 113 19 13 112 19 13 112 18 13 112 48 52 28 48 52 28 49 52 28
49 53 28 49 53 28 49 53 28 49 53 28 49 53 28 49 53 28 49 53 28 49 53
28 50 53 28 50 54 29 50 54 29 50 54 29 50 54 29 50 54 29 50 54 29 50
54 29 50 54 29 50 54 29 51 54 29 51 55 29 51 55 29 51 55 29 51 55 29
51 55 29 51 55 29 51 55 29 51 55 29 51 55 29 51 55 29 52 55 29 52 55
29 52 56 29 52 56 29 52 56 29 52 56 29 52 56 29 52 56 29 52 56 29 52
56 29 52 56 29 52 56 29 52 56 29 52 56 29 52 56 29 52 56 29 53 56 30
53 56 30 53 56 30 53 56 30 53 57 30 53 57 30 53 57 30 53 57 30 53 57
30 53 57 30 53 57 30 53 57 30 53 57 30 53 57 30 53 57 30 53 57 30 53
57 30 53 57 30 53 57 30 53 57 30 53 57 30 53 57 30 53 57 30 53 57 30
53 57 30 53 57 30 53 57 30 53 57 30 53 57 30 53 56 30 53 56 30 53 56
30 53 56 30 52 56 29 52 56 29 52 56 29 52 56 29 52 56 29 52 56 29 52
56 29 52 56 29 52 56 29 52 56 29 52 56 29 52 56 29 52 56 29 52 56 29
52 55 29 52 55 29 51 55 29 51 55 29 51 55 29 51 55 29 51 55 29 51 55
29 51 55 29 51 55 29 51 55 29 51 55 29 51 54 29 50 54 29 50 54 29 50
54 29 50 54 29 50 54 29 50 54 29 50 54 29 50 54 29 50 54 29 50 53 28
49 53 28 49 53 28 49 53 28 49 53 28 49 53 28 49 53 28 49 53 28 49 53
28 49 52 28 48 52 28 48 52 28 48 52 28 48 52 28 48 52 28 48 52 28 48
52 28 48 52 28 47 51 28 47 51 28 47 51 28 47 51 28 47 51 28 47 51 28
47 51 28 47 51 28 47 51 27 46 50 27 46 50 27 46 50 27 46 50 27 46 50
27 46 50 27 46 50 27 46 50 27 45 49 27 45 49 27 45 49 27 45 49 27 45
49 27 45 49 27 45 49 27 45 59 45 45 59 45 45 59 45 45 58 45 44 58 45
44 58 45 44 58 45 44 58 44 44 58 44 44 58 44 44 58 44 44 57 44 43 57
44 43 57 44 43 57 44 43 57 44 43 57 44 43 57 44 43 56 44 43 56 43 43
56 43 43 56 43 42 56 43 42 56 43 42 56 43 42 56 43 42 55 43 42 55 43
42 55 43 42 55 43 42 55 43 41 55 43 41 55 42 41 55 42 41 54 42 41 54
42 41 54 42 41 54 42 41 54 42 41 54 42 41 54 42 41 54 42 40 54 42
15 22 29 15 22 28 15 22 28 15 21 27 15 21 27 15 21 26 15 21 25 15 21
25 15 20 24 15 20 24 15 20 23 15 20 23 15 20 23 15 20 23 15 20 23 15
20 23 15 20 23 15 20 23 15 20 23 15 20 23 15 20 23 15 20 23 15 20 23
15 20 23 15 20 23 15 20 23 15 20 23 15 20 23 15 20 23 15 20 23 15 20
23 15 20 23 15 20 23 15 20 23 15 20 23 15 20 23 15 20 23 15 20 23 15
20 23 15 20 23 15 20 23 15 20 23 15 20 23 15 20 23 15 20 23 15 20 23
15 20 23 15 20 23 15 20 23 15 20 23 15 20 23 15 20 23 15 20 23 15 20
23 15 20 23 15 20 23 15 20 23 15 20 23 15 20 23 15 20 23 15 20 23 15
20 23 19 24 18 19 24 18 19 24 18 19 24 18 19 24 18 19 24 18 19 24 18
19 24 18 19 24 18 19 24 18 19 24 18 19 24 18 19 24 18 19 24 18 19 24
18 19 24 18 19 24 18 19 24 18 19 24 18 19 24 18 19 24 18 19 24 18 19
24 18 19 24 18 19 24 18 19 24 18 19 24 18 19 24 18 19 24 18 19 24 18
19 24 18 19 24 18 19 24 18 19 24 18 19 24 18 19 24 18 19 24 18 19 24
18 19 24 18 19 24 18 19 24 18 19 24 18 19 24 18 19 24 18 19 24 18 19
24 18 20 51 66 20 51 66 20 50 66 20 50 66 20 50 65 20 50 65 20 50 65
20 50 65 20 50 65 20 50 64 20 50 64 20 49 64 20 49 64 20 49 64 20 49
63 20 49 63 20 49 63 20 49 63 20 49 63 20 49 62 20 48 62 20 48 62 20
48 62 20 48 62 20 48 61 20 48 61 18 16 175 18 16 175 18 16 174 18 16
172 18 16 171 18 16 169 18 16 167 18 16 165 18 16 163 18 16 161 18 16
158 18 15 156 18 15 154 18 15 151 18 15 149 18 15 147 18 15 144 18 15
142 18 15 139 18 14 137 18 14 134 18 14 132 18 14 129 18 14 127 18 14
124 18 14 122 18 14 119 18 13 117 18 13 114 18 13 112 18 13 111 18 13
111 18 13 111 18 13 111 18 13 111 18 13 111 18 13 111 18 13 111 18 13
111 18 13 111 18 13 111 18 13 111 18 13 111 18 13 111 18 13 111 18 13
111 18 13 111 18 13 111 18 13 111 18 13 111 18 13 111 18 13 111 18 13
111 18 13 111 18 13 111 18 13 112 18 13 112 18 13 112 18 13 112 18 13
112 18 13 112 18 13 112 18 13 111 48 52 28 49 53 28 49 53 28 49 53 28
49 53 28 49 53 28 49 53 28 49 53 28 49 53 28 50 53 28 50 54 29 50 54
29 50 54 29 50 54 29 50 54 29 50 54 29 50 54 29 50 54 29 51 54 29 51
55 29 51 55 29 51 55 29 51 55 29 51 55 29 51 55 29 51 55 29 51 55 29
51 55 29 51 55 29 52 55 29 52 56 29 52 56 29 52 56 29 52 56 29 52 56
29 52 56 29 52 56 29 52 56 29 52 56 29 52 56 29 52 56 29 52 56 29 53
56 30 53 56 30 53 57 30 53 57 30 53 57 30 53 57 30 53 57 30 53 57 30
53 57 30 53 57 30 53 57 30 53 57 30 53 57 30 53 57 30 53 57 30 53 57
30 53 57 30 53 57 30 53 57 30 53 57 30 53 57 30 53 57 30 53 57 30 53
57 30 53 57 30 53 57 30 53 57 30 53 57 30 53 57 30 53 57 30 53 57 30
53 57 30 53 57 30 53 57 30 53 57 30 53 57 30 53 57 30 53 57 30 53 57
30 53 57 30 53 57 30 53 57 30 53 57 30 53 57 30 53 57 30 53 57 30 53
57 30 53 56 30 53 56 30 52 56 29 52 56 29 52 56 29 52 56 29 52 56 29
52 56 29 52 56 29 52 56 29 52 56 29 52 56 29 52 56 29 52 56 29 52 55
29 51 55 29 51 55 29 51 55 29 51 55 29 51 55 29 51 55 29 51 55 29 51
55 29 51 55 29 51 54 29 50 54 29 50 54 29 50 54 29 50 54 29 50 54 29
50 54 29 50 54 29 50 54 29 50 54 29 49 53 28 49 53 28 49 53 28 49 53
28 49 53 28 49 53 28 49 53 28 49 53 28 49 53 28 48 52 28 48 52 28 48
52 28 48 52 28 48 52 28 48 52 28 48 52 28 48 52 28 48 51 28 47 51 28
47 51 28 47 51 28 47 51 28 47 51 28 47 51 28 47 51 28 47 51 27 46 50
27 46 50 27 46 61 46 46 61 46 46 60 46 46 60 46 46 60 46 46 60 46 46
60 46 46 60 46 45 60 46 45 59 45 45 59 45 45 59 45 45 59 45 45 59 45
45 59 45 45 59 45 45 58 45 44 58 45 44 58 45 44 58 45 44 58 44 44 58
44 44 58 44 44 58 44 44 57 44 44 57 44 43 57 44 43 57 44 43 57 44 43
57 44 43 57 44 43 56 44 43 56 43 43 56 43 43 56 43 42 56 43 42 56 43
42 56 43 42 56 43 42 55 43 42 55 43 42 55 43 42 55 43 42 55 43 42 55
43 41 55 42 41 55 42 41 54 42 41 54 42 41 54 42 41 54 42 41 54 42
15 22 28 15 22 27 15 21 27 15 21 26 15 21 26 15 21 25 15 20 24 15 20
24 15 20 23 15 20 23 15 20 23 15 20 23 15 20 23 15 20 23 15 20 23 15
20 23 15 20 23 15 20 23 15 20 23 15 20 23 15 20 23 15 20 23 15 20 23
15 20 23 15 20 23 15 20 23 15 20 23 15 20 23 15 20 23 15 20 23 15 20
23 15 20 23 15 20 23 15 20 23 15 20 23 15 20 23 15 20 23 15 20 23 15
20 23 15 20 23 15 20 23 15 20 23 15 20 23 15 20 23 15 20 23 15 20 23
15 20 23 15 20 23 15 20 23 15 20 23 15 20 23 15 20 23 15 20 23 15 20
23 15 20 23 15 20 23 15 20 23 15 20 23 15 20 23 15 20 23 15 20 23 15
20 23 19 24 18 19 24 18 19 24 18 19 24 18 19 24 18 19 24 18 19 24 18
19 24 18 19 24 18 19 24 18 19 24 18 19 24 18 19 24 18 19 24 18 19 24
18 19 24 18 19 24 18 19 24 18 19 24 18 19 24 18 19 24 18 19 24 18 19
24 18 19 24 18 19 24 18 19 24 18 19 24 18 19 24 18 19 24 18 19 24 18
19 24 18 19 24 18 19 24 18 19 24 18 19 24 18 19 24 18 19 24 18 19 24
18 19 24 18 19 24 18 19 24 18 19 24 18 19 24 18 19 24 18 19 24 18 20
51 67 20 51 67 20 51 67 20 51 66 20 51 66 20 51 66 20 50 66 20 50 66
20 50 65 20 50 65 20 50 65 20 50 65 20 50 65 20 50 64 20 49 64 20 49
64 20 49 64 20 49 64 20 49 63 20 49 63 20 49 63 20 49 63 20 49 62 20
48 62 20 48 62 20 48 62 20 48 62 18 16 168 18 16 171 18 16 171 18 16
170 18 16 168 18 16 167 18 16 165 18 16 163 18 16 161 18 16 159 18 15
156 18 15 154 18 15 152 18 15 150 18 15 147 18 15 145 18 15 143 18 15
140 18 15 138 18 14 135 18 14 133 18 14 130 18 14 128 18 14 125 18 14
123 18 14 121 18 14 118 18 13 115 18 13 113 18 13 111 18 13 111 18 13
111 18 13 111 18 13 111 18 13 111 18 13 111 18 13 111 18 13 111 18 13
111 18 13 111 18 13 111 18 13 111 18 13 111 18 13 111 18 13 111 18 13
111 18 13 111 18 13 111 18 13 111 18 13 111 18 13 111 18 13 111 18 13
111 18 13 111 18 13 111 18 13 111 18 13 111 18 13 111 18 13 111 18 13
111 18 13 111 18 13 111 49 53 28 49 53 28 49 53 28 49 53 28 49 53 28
49 53 28 49 53 28 49 53 28 50 54 29 50 54 29 50 54 29 50 54 29 50 54
29 50 54 29 50 54 29 50 54 29 50 54 29 51 54 29 51 55 29 51 55 29 51
55 29 51 55 29 51 55 29 51 55 29 51 55 29 51 55 29 52 55 29 52 55 29
52 56 29 52 56 29 52 56 29 52 56 29 52 56 29 52 56 29 52 56 29 52 56
29 52 56 29 52 56 29 53 56 30 53 56 30 53 57 30 53 57 30 53 57 30 53
57 30 53 57 30 53 57 30 53 57 30 53 57 30 53 57 30 53 57 30 53 57 30
53 57 30 53 57 30 53 57 30 53 57 30 54 57 30 54 57 30 54 57 30 54 57
30 54 57 30 54 57 30 54 58 30 54 58 30 54 58 30 54 58 30 54 58 30 54
58 30 54 58 30 54 58 30 54 58 30 54 58 30 54 58 30 54 58 30 54 58 30
54 58 30 54 58 30 54 57 30 54 57 30 54 57 30 54 57 30 54 57 30 54 57
30 53 57 30 53 57 30 53 57 30 53 57 30 53 57 30 53 57 30 53 57 30 53
57 30 53 57 30 53 57 30 53 57 30 53 57 30 53 57 30 53 57 30 53 57 30
53 56 30 53 56 30 52 56 29 52 56 29 52 56 29 52 56 29 52 56 29 52 56
29 52 56 29 52 56 29 52 56 29 52 56 29 52 55 29 51 55 29 51 55 29 51
55 29 51 55 29 51 55 29 51 55 29 51 55 29 51 55 29 51 55 29 51 54 29
50 54 29 50 54 29 50 54 29 50 54 29 50 54 29 50 54 29 50 54 29 50 54
29 50 53 28 49 53 28 49 53 28 49 53 28 49 53 28 49 53 28 49 53 28 49
53 28 49 53 28 48 52 28 48 52 28 48 52 28 48 52 28 48 52 28 48 52 28
48 63 48 48 63 47 48 62 47 48 62 47 47 62 47 47 62 47 47 62 47 47 62
47 47 61 47 47 61 47 47 61 47 47 61 46 47 61 46 46 61 46 46 61 46 46
60 46 46 60 46 46 60 46 46 60 46 46 60 46 46 60 46 45 60 46 45 59 45
45 59 45 45 59 45 45 59 45 45 59 45 45 59 45 45 59 45 45 58 45 44 58
45 44 58 45 44 58 45 44 58 44 44 58 44 44 58 44 44 58 44 44 57 44 44
57 44 43 57 44 43 57 44 43 57 44 43 57 44 43 57 44 43 56 44 43 56 43
43 56 43 43 56 43 42 56 43 42 56 43 42 56 43 42 56 43 42 55 43 42 55
43 42 55 43 42 55 43 42 55 43 42 55 43 41 55 42 41 55 42 41 54 42
15 21 27 15 21 26 15 21 26 15 21 25 15 21 25 15 20 24 15 20 23 15 20
23 15 20 23 15 20 23 15 20 23 15 20 23 15 20 23 15 20 23 15 20 23 15
20 23 15 20 23 15 20 23 15 20 23 15 20 23 15 20 23 15 20 23 15 20 23
15 20 23 15 20 23 15 20 23 15 20 23 15 20 23 15 20 23 15 20 23 15 20
23 15 20 23 15 20 23 15 20 23 15 20 23 15 20 23 15 20 23 15 20 23 15
20 23 15 20 23 15 20 23 15 20 23 15 20 23 15 20 23 15 20 23 15 20 23
15 20 23 15 20 23 15 20 23 15 20 23 15 20 23 15 20 23 15 20 23 15 20
23 15 20 23 15 20 23 15 20 23 15 20 23 15 20 23 15 20 23 15 20 23 15
20 23 19 24 18 19 24 18 19 24 18 19 24 18 19 24 18 19 24 18 19 24 18
19 24 18 19 24 18 19 24 18 19 24 18 19 24 18 19 24 18 19 24 18 19 24
18 19 24 18 19 24 18 19 24 18 19 24 18 19 24 18 19 24 18 19 24 18 19
24 18 19 24 18 19 24 18 19 24 18 19 24 18 19 24 18 19 24 18 19 24 18
19 24 18 19 24 18 19 24 18 19 24 18 19 24 18 19 24 18 19 24 18 19 24
18 19 24 18 19 24 18 19 24 18 19 24 18 19 24 18 19 24 18 20 52 68 20
51 68 20 51 67 20 51 67 20 51 67 20 51 67 20 51 67 20 51 66 20 51 66
20 50 66 20 50 66 20 50 65 20 50 65 20 50 65 20 50 65 20 50 65 20 50
64 20 50 64 20 49 64 20 49 64 20 49 64 20 49 63 20 49 63 20 49 63 20
49 63 20 49 63 20 48 62 20 48 62 20 48 62 18 16 164 18 16 167 18 16
166 18 16 165 18 16 164 18 16 162 18 16 161 18 16 159 18 15 157 18 15
154 18 15 152 18 15 150 18 15 148 18 15 146 18 15 143 18 15 141 18 15
139 18 14 136 18 14 134 18 14 131 18 14 129 18 14 126 18 14 124 18 14
121 18 14 119 18 13 117 18 13 114 18 13 111 18 13 111 18 13 111 18 13
111 18 13 111 18 13 111 18 13 111 18 13 111 18 13 111 18 13 111 18 13
111 18 13 111 18 13 111 18 13 111 18 13 111 18 13 111 18 13 111 18 13
111 18 13 111 18 13 111 18 13 111 18 13 111 18 13 111 18 13 111 18 13
111 18 13 111 18 13 111 18 13 111 18 13 111 18 13 111 18 13 111 18 13
111 18 13 111 49 53 28 49 53 28 49 53 28 49 53 28 49 53 28 49 53 28 49
53 28 50 54 29 50 54 29 50 54 29 50 54 29 50 54 29 50 54 29 50 54 29
50 54 29 51 54 29 51 55 29 51 55 29 51 55 29 51 55 29 51 55 29 51 55
29 51 55 29 51 55 29 51 55 29 52 55 29 52 56 29 52 56 29 52 56 29 52
56 29 52 56 29 52 56 29 52 56 29 52 56 29 52 56 29 53 56 30 53 56 30
53 57 30 53 57 30 53 57 30 53 57 30 53 57 30 53 57 30 53 57 30 53 57
30 53 57 30 53 57 30 53 57 30 53 57 30 54 57 30 54 57 30 54 57 30 54
58 30 54 58 30 54 58 30 54 58 30 54 58 30 54 58 30 54 58 30 54 58 30
54 58 30 54 58 30 54 58 30 54 58 30 54 58 30 54 58 30 54 58 30 54 58
30 54 58 30 54 58 30 54 58 30 54 58 30 54 58 30 54 58 30 54 58 30 54
58 30 54 58 30 54 58 30 54 58 30 54 58 30 54 58 30 54 58 30 54 58 30
54 58 30 54 58 30 54 58 30 54 58 30 54 58 30 54 57 30 54 57 30 54 57
30 54 57 30 53 57 30 53 57 30 53 57 30 53 57 30 53 57 30 53 57 30 53
57 30 53 57 30 53 57 30 53 57 30 53 57 30 53 57 30 53 56 30 52 56 30
52 56 29 52 56 29 52 56 29 52 56 29 52 56 29 52 56 29 52 56 29 52 56
29 52 56 29 52 55 29 51 55 29 51 55 29 51 55 29 51 55 29 51 55 29 51
55 29 51 55 29 51 55 29 51 54 29 50 54 29 50 54 29 50 54 29 50 54 29
50 54 29 50 54 29 50 54 29 50 54 29 50 53 29 50 65 49 50 65 49 49 64
49 49 64 49 49 64 48 49 64 48 49 64 48 49 64 48 49 64 48 49 63 48 48
63 48 48 63 48 48 63 48 48 63 48 48 63 47 48 62 47 48 62 47 48 62 47
47 62 47 47 62 47 47 62 47 47 62 47 47 61 47 47 61 47 47 61 47 47 61
46 47 61 46 46 61 46 46 61 46 46 60 46 46 60 46 46 60 46 46 60 46 46
60 46 46 60 46 45 60 45 45 59 45 45 59 45 45 59 45 45 59 45 45 59 45
45 59 45 45 59 45 45 58 45 44 58 45 44 58 45 44 58 45 44 58 44 44 58
44 44 58 44 44 58 44 44 57 44 44 57 44 43 57 44 43 57 44 43 57 44 43
57 44 43 57 44 43 56 44 43 56 43 43 56 43 43 56 43 42 56 43 42 56 43
42 56 43 42 56 43 42 55 43 42 55 43 42 55 43 42 55 43 42 55 43
15 21 26 15 21 25 15 21 25 15 20 24 15 20 24 15 20 23 15 20 23 15 20
23 15 20 23 15 20 23 15 20 23 15 20 23 15 20 23 15 20 23 15 20 23 15
20 23 15 20 23 15 20 23 15 20 23 15 20 23 15 20 23 15 20 23 15 20 23
15 20 23 15 20 23 15 20 23 15 20 23 15 20 23 15 20 23 15 20 23 15 20
23 15 20 23 15 20 23 15 20 23 15 20 23 15 20 23 15 20 23 15 20 23 15
20 23 15 20 23 15 20 23 15 20 23 15 20 23 15 20 23 15 20 23 15 20 23
15 20 23 15 20 23 15 20 23 15 20 23 15 20 23 15 20 23 15 20 23 15 20
23 15 20 23 15 20 23 15 20 23 15 20 23 15 20 23 15 20 23 15 20 23 15
20 23 19 24 18 19 24 18 19 24 18 19 24 18 19 24 18 19 24 18 19 24 18
19 24 18 19 24 18 19 24 18 19 24 18 19 24 18 19 24 18 19 24 18 19 24
18 19 24 18 19 24 18 19 24 18 19 24 18 19 24 18 19 24 18 19 24 18 19
24 18 19 24 18 19 24 18 19 24 18 19 24 18 19 24 18 19 24 18 19 24 18
19 24 18 19 24 18 19 24 18 19 24 18 19 24 18 19 24 18 19 24 18 19 24
18 19 24 18 19 24 18 19 24 18 19 24 18 19 24 18 20 52 69 20 52 68 20
52 68 20 52 68 20 51 68 20 51 67 20 51 67 20 51 67 20 51 67 20 51 67
20 51 66 20 51 66 20 50 66 20 50 66 20 50 65 20 50 65 20 50 65 20 50
65 20 50 65 20 50 64 20 50 64 20 49 64 20 49 64 20 49 64 20 49 63 20
49 63 20 49 63 20 49 63 20 49 62 20 48 62 20 48 62 18 16 160 18 16 162
18 16 162 18 16 161 18 16 160 18 16 158 18 15 156 18 15 154 18 15 152
18 15 150 18 15 148 18 15 146 18 15 144 18 15 141 18 15 139 18 14 137
18 14 134 18 14 132 18 14 130 18 14 127 18 14 125 18 14 122 18 14 120
18 13 117 18 13 115 18 13 112 18 13 111 18 13 111 18 13 111 18 13 111
18 13 111 18 13 111 18 13 111 18 13 111 18 13 111 18 13 111 18 13 111
18 13 111 18 13 111 18 13 111 18 13 111 18 13 111 18 13 111 18 13 111
18 13 111 18 13 111 18 13 111 18 13 111 18 13 111 18 13 111 18 13 111
18 13 111 18 13 111 18 13 111 18 13 111 18 13 111 18 13 111 18 13 111
19 24 18 49 53 28 49 53 28 49 53 28 49 53 28 49 53 28 50 54 29 50 54
29 50 54 29 50 54 29 50 54 29 50 54 29 50 54 29 50 54 29 51 54 29 51
55 29 51 55 29 51 55 29 51 55 29 51 55 29 51 55 29 51 55 29 51 55 29
52 55 29 52 56 29 52 56 29 52 56 29 52 56 29 52 56 29 52 56 29 52 56
29 52 56 29 52 56 29 53 56 30 53 56 30 53 57 30 53 57 30 53 57 30 53
57 30 53 57 30 53 57 30 53 57 30 53 57 30 53 57 30 53 57 30 53 57 30
54 57 30 54 57 30 54 58 30 54 58 30 54 58 30 54 58 30 54 58 30 54 58
30 54 58 30 54 58 30 54 58 30 54 58 30 54 58 30 54 58 30 54 58 30 54
58 30 54 58 30 54 58 30 54 58 30 54 58 30 54 58 30 54 58 30 54 58 30
54 58 30 54 58 30 54 58 30 54 58 30 54 58 30 54 58 30 54 58 30 54 58
30 54 58 30 54 58 30 54 58 30 54 58 30 54 58 30 54 58 30 54 58 30 54
58 30 54 58 30 54 58 30 54 58 30 54 58 30 54 58 30 54 58 30 54 58 30
54 58 30 54 58 30 54 58 30 54 58 30 54 57 30 54 57 30 54 57 30 53 57
30 53 57 30 53 57 30 53 57 30 53 57 30 53 57 30 53 57 30 53 57 30 53
57 30 53 57 30 53 57 30 53 56 30 52 56 29 52 56 29 52 56 29 52 56 29
52 56 29 52 56 29 52 56 29 52 56 29 52 56 29 52 55 29 51 55 29 51 55
29 51 55 29 51 55 29 51 55 29 51 67 50 51 66 50 51 66 50 51 66 50 51
66 50 51 66 50 50 66 50 50 66 49 50 65 49 50 65 49 50 65 49 50 65 49
50 65 49 50 65 49 50 65 49 49 64 49 49 64 49 49 64 48 49 64 48 49 64
48 49 64 48 49 63 48 49 63 48 48 63 48 48 63 48 48 63 48 48 63 48 48
63 47 48 62 47 48 62 47 48 62 47 47 62 47 47 62 47 47 62 47 47 62 47
47 61 47 47 61 47 47 61 46 47 61 46 46 61 46 46 61 46 46 61 46 46 60
46 46 60 46 46 60 46 46 60 46 46 60 46 46 60 46 45 60 45 45 59 45 45
59 45 45 59 45 45 59 45 45 59 45 45 59 45 45 59 45 44 58 45 44 58 45
44 58 45 44 58 44 44 58 44 44 58 44 44 58 44 44 57 44 44 57 44 43 57
44 43 57 44 43 57 44 43 57 44 43 57 44 43 57 44 43 56 44 43 56 43 43
56 43 43 56 43 42 56 43 42 56 43 42 56 43 42 56 43 42 55 43
15 21 25 15 20 24 15 20 24 15 20 23 15 20 23 15 20 23 15 20 23 15 20
23 15 20 23 15 20 23 15 20 23 15 20 23 15 20 23 15 20 23 15 20 23 15
20 23 15 20 23 15 20 23 15 20 23 15 20 23 15 20 23 15 20 23 15 20 23
15 20 23 15 20 23 15 20 23 15 20 23 15 20 23 15 20 23 15 20 23 15 20
23 15 20 23 15 20 23 15 20 23 15 20 23 15 20 23 15 20 23 15 20 23 15
20 23 15 20 23 15 20 23 15 20 23 15 20 23 15 20 23 15 20 23 15 20 23
15 20 23 15 20 23 15 20 23 15 20 23 15 20 23 15 20 23 15 20 23 15 20
23 15 20 23 15 20 23 15 20 23 15 20 23 15 20 23 15 20 23 15 20 23 15
20 23 19 24 18 19 24 18 19 24 18 19 24 18 19 24 18 19 24 18 19 24 18
19 24 18 19 24 18 19 24 18 19 24 18 19 24 18 19 24 18 19 24 18 19 24
18 19 24 18 19 24 18 19 24 18 19 24 18 19 24 18 19 24 18 19 24 18 19
24 18 19 24 18 19 24 18 19 24 18 19 24 18 19 24 18 19 24 18 19 24 18
19 24 18 19 24 18 19 24 18 19 24 18 19 24 18 19 24 18 19 24 18 19 24
18 19 24 18 19 24 18 19 24 18 19 24 18 20 52 69 20 52 69 20 52 69 20
52 69 20 52 68 20 52 68 20 52 68 20 51 68 20 51 67 20 51 67 20 51 67
20 51 67 20 51 67 20 51 66 20 51 66 20 50 66 20 50 66 20 50 65 20 50
65 20 50 65 20 50 65 20 50 65 20 50 64 20 49 64 20 49 64 20 49 64 20
49 63 20 49 63 20 49 63 20 49 63 20 49 63 20 49 62 20 48 62 18 15 154
18 16 158 18 16 158 18 15 157 18 15 155 18 15 154 18 15 152 18 15 150
18 15 148 18 15 146 18 15 144 18 15 142 18 15 139 18 14 137 18 14 135
18 14 133 18 14 130 18 14 128 18 14 125 18 14 123 18 14 121 18 14 118
18 13 116 18 13 113 18 13 111 18 13 111 18 13 111 18 13 111 18 13 111
18 13 111 18 13 111 18 13 111 18 13 111 18 13 111 18 13 111 18 13 111
18 13 111 18 13 111 18 13 111 18 13 111 18 13 111 18 13 111 18 13 111
18 13 111 18 13 111 18 13 111 18 13 111 18 13 111 18 13 111 18 13 111
18 13 111 18 13 111 18 13 111 18 13 111 18 13 111 18 13 111 19 24 18
49 53 28 49 53 28 49 53 28 49 53 28 50 53 28 50 54 29 50 54 29 50 54
29 50 54 29 50 54 29 50 54 29 50 54 29 50 54 29 51 55 29 51 55 29 51
55 29 51 55 29 51 55 29 51 55 29 51 55 29 51 55 29 52 55 29 52 55 29
52 56 29 52 56 29 52 56 29 52 56 29 52 56 29 52 56 29 52 56 29 52 56
29 53 56 30 53 56 30 53 57 30 53 57 30 53 57 30 53 57 30 53 57 30 53
57 30 53 57 30 53 57 30 53 57 30 54 57 30 54 57 30 54 57 30 54 58 30
54 58 30 54 58 30 54 58 30 54 58 30 54 58 30 54 58 30 54 58 30 54 58
30 54 58 30 54 58 30 54 58 30 54 58 30 54 58 30 55 58 30 55 58 30 55
58 30 55 58 30 55 58 30 55 58 30 55 58 30 55 59 30 55 59 30 55 59 30
55 59 30 55 59 30 55 59 30 55 59 30 55 59 30 55 59 30 55 59 30 55 59
30 55 59 30 55 59 30 55 59 30 55 58 30 55 58 30 55 58 30 55 58 30 55
58 30 55 58 30 55 58 30 54 58 30 54 58 30 54 58 30 54 58 30 54 58 30
54 58 30 54 58 30 54 58 30 54 58 30 54 58 30 54 58 30 54 58 30 54 58
30 54 58 30 54 58 30 54 57 30 54 57 30 53 57 30 53 57 30 53 57 30 53
57 30 53 57 30 53 57 30 53 57 30 53 57 30 53 57 30 53 57 30 53 56 30
53 69 52 53 69 51 53 68 51 52 68 51 52 68 51 52 68 51 52 68 51 52 68
51 52 68 51 52 67 51 52 67 51 52 67 50 51 67 50 51 67 50 51 67 50 51
67 50 51 66 50 51 66 50 51 66 50 51 66 50 51 66 50 50 66 49 50 66 49
50 65 49 50 65 49 50 65 49 50 65 49 50 65 49 50 65 49 49 64 49 49 64
49 49 64 48 49 64 48 49 64 48 49 64 48 49 64 48 49 63 48 48 63 48 48
63 48 48 63 48 48 63 48 48 63 47 48 62 47 48 62 47 48 62 47 48 62 47
47 62 47 47 62 47 47 62 47 47 61 47 47 61 47 47 61 46 47 61 46 47 61
46 46 61 46 46 61 46 46 60 46 46 60 46 46 60 46 46 60 46 46 60 46 46
60 46 45 60 45 45 59 45 45 59 45 45 59 45 45 59 45 45 59 45 45 59 45
45 59 45 45 58 45 44 58 45 44 58 45 44 58 45 44 58 44 44 58 44 44 58
44 44 58 44 44 57 44 44 57 44 43 57 44 43 57 44 43 57 44 43 57 44 43
57 44 43 57 44 43 56 43 43 56 43 43 56 43 43 56 43 42 56 43
15 20 24 15 20 23 15 20 23 15 20 23 15 20 23 15 20 23 15 20 23 15 20
23 15 20 23 15 20 23 15 20 23 15 20 23 15 20 23 15 20 23 15 20 23 15
20 23 15 20 23 15 20 23 15 20 23 15 20 23 15 20 23 15 20 23 15 20 23
15 20 23 15 20 23 15 20 23 15 20 23 15 20 23 15 20 23 15 20 23 15 20
23 15 20 23 15 20 23 15 20 23 15 20 23 15 20 23 15 20 23 15 20 23 15
20 23 15 20 23 15 20 23 15 20 23 15 20 23 15 20 23 15 20 23 15 20 23
15 20 23 15 20 23 15 20 23 15 20 23 15 20 23 15 20 23 15 20 23 15 20
23 15 20 23 15 20 23 15 20 23 15 20 23 15 20 23 15 20 23 15 20 23 15
20 23 19 24 18 19 24 18 19 24 18 19 24 18 19 24 18 19 24 18 19 24 18
19 24 18 19 24 18 19 24 18 19 24 18 19 24 18 19 24 18 19 24 18 19 24
18 19 24 18 19 24 18 19 24 18 19 24 18 19 24 18 19 24 18 19 24 18 19
24 18 19 24 18 19 24 18 19 24 18 19 24 18 19 24 18 19 24 18 19 24 18
19 24 18 19 24 18 19 24 18 19 24 18 19 24 18 19 24 18 19 24 18 19 24
18 19 24 18 19 24 18 20 53 70 20 53 70 20 53 70 20 52 70 20 52 69 20
52 69 20 52 69 20 52 69 20 52 68 20 52 68 20 52 68 20 51 68 20 51 67
20 51 67 20 51 67 20 51 67 20 51 67 20 51 66 20 51 66 20 50 66 20 50
66 20 50 65 20 50 65 20 50 65 20 50 65 20 50 64 20 50 64 20 49 64 20
49 64 20 49 64 20 49 63 20 49 63 20 49 63 20 49 63 20 49 63 20 48 62
20 48 62 18 15 153 18 15 153 18 15 152 18 15 151 18 15 149 18 15 148
18 15 146 18 15 144 18 15 142 18 15 140 18 14 137 18 14 135 18 14 133
18 14 131 18 14 128 18 14 126 18 14 124 18 14 121 18 14 119 18 13 116
18 13 114 18 13 112 18 13 111 18 13 111 18 13 111 18 13 111 18 13 111
18 13 111 18 13 111 18 13 111 18 13 111 18 13 111 18 13 111 18 13 111
18 13 111 18 13 111 18 13 111 18 13 111 18 13 111 18 13 111 18 13 111
18 13 111 18 13 111 18 13 111 18 13 111 18 13 111 18 13 111 18 13 111
18 13 111 18 13 111 18 13 111 18 13 111 18 13 111 19 24 18 49 53 28 49
53 28 49 53 28 49 53 28 50 54 29 50 54 29 50 54 29 50 54 29 50 54 29
50 54 29 50 54 29 50 54 29 51 54 29 51 55 29 51 55 29 51 55 29 51 55
29 51 55 29 51 55 29 51 55 29 51 55 29 52 55 29 52 56 29 52 56 29 52
56 29 52 56 29 52 56 29 52 56 29 52 56 29 52 56 29 53 56 30 53 56 30
53 57 30 53 57 30 53 57 30 53 57 30 53 57 30 53 57 30 53 57 30 53 57
30 53 57 30 54 57 30 54 57 30 54 58 30 54 58 30 54 58 30 54 58 30 54
58 30 54 58 30 54 58 30 54 58 30 54 58 30 54 58 30 54 58 30 54 58 30
54 58 30 55 58 30 55 58 30 55 58 30 55 58 30 55 59 30 55 59 30 55 59
30 55 59 30 55 59 30 55 59 30 55 59 30 55 59 30 55 59 30 55 59 30 55
59 30 55 59 30 55 59 30 55 59 30 55 59 30 55 59 30 55 59 30 55 59 30
55 59 30 55 59 30 55 59 30 55 59 30 55 59 30 55 59 30 55 59 30 55 59
30 55 59 30 55 59 30 55 59 30 55 59 30 55 59 30 55 58 30 55 58 30 55
58 30 55 58 30 54 58 30 54 58 30 54 58 30 54 58 30 54 58 30 54 58 30
54 58 30 54 58 30 54 58 30 54 58 30 54 58 30 54 70 53 54 70 53 54 70
53 54 70 53 54 70 52 54 70 52 53 70 52 53 69 52 53 69 52 53 69 52 53
69 52 53 69 52 53 69 52 53 69 52 53 69 51 53 68 51 52 68 51 52 68 51
52 68 51 52 68 51 52 68 51 52 68 51 52 67 51 52 67 51 52 67 50 52 67
50 51 67 50 51 67 50 51 67 50 51 66 50 51 66 50 51 66 50 51 66 50 51
66 50 50 66 49 50 66 49 50 65 49 50 65 49 50 65 49 50 65 49 50 65 49
50 65 49 49 64 49 49 64 49 49 64 48 49 64 48 49 64 48 49 64 48 49 64
48 49 63 48 49 63 48 48 63 48 48 63 48 48 63 48 48 63 47 48 63 47 48
62 47 48 62 47 48 62 47 47 62 47 47 62 47 47 62 47 47 62 47 47 61 47
47 61 47 47 61 46 47 61 46 46 61 46 46 61 46 46 60 46 46 60 46 46 60
46 46 60 46 46 60 46 46 60 46 46 60 46 45 60 45 45 59 45 45 59 45 45
59 45 45 59 45 45 59 45 45 59 45 45 59 45 45 58 45 44 58 45 44 58 45
44 58 44 44 58 44 44 58 44 44 58 44 44 57 44 44 57 44 44 57 44 43 57
44 43 57 44 43 57 44 43 57 44 43 57 44 43 56 44 43 56 43
15 20 23 15 20 23 15 20 23 15 20 23 15 20 23 15 20 23 15 20 23 15 20
23 15 20 23 15 20 23 15 20 23 15 20 23 15 20 23 15 20 23 15 20 23 15
20 23 15 20 23 15 20 23 15 20 23 15 20 23 15 20 23 15 20 23 15 20 23
15 20 23 15 20 23 15 20 23 15 20 23 15 20 23 15 20 23 15 20 23 15 20
23 15 20 23 15 20 23 15 20 23 15 20 23 15 20 23 15 20 23 15 20 23 15
20 23 15 20 23 15 20 23 15 20 23 15 20 23 15 20 23 15 20 23 15 20 23
15 20 23 15 20 23 15 20 23 15 20 23 15 20 23 15 20 23 15 20 23 15 20
23 15 20 23 15 20 23 15 20 23 15 20 23 15 20 23 15 20 23 15 20 23 15
20 23 19 24 18 19 24 18 19 24 18 19 24 18 19 24 18 19 24 18 19 24 18
19 24 18 19 24 18 19 24 18 19 24 18 19 24 18 19 24 18 19 24 18 19 24
18 19 24 18 19 24 18 19 24 18 19 24 18 19 24 18 19 24 18 19 24 18 19
24 18 19 24 18 19 24 18 19 24 18 19 24 18 19 24 18 19 24 18 19 24 18
19 24 18 19 24 18 19 24 18 19 24 18 19 24 18 19 24 18 19 24 18 19 24
18 20 53 71 20 53 71 20 53 71 20 53 70 20 53 70 20 53 70 20 53 70 20
52 69 20 52 69 20 52 69 20 52 69 20 52 69 20 52 68 20 52 68 20 52 68
20 51 68 20 51 67 20 51 67 20 51 67 20 51 67 20 51 66 20 51 66 20 50
66 20 50 66 20 50 65 20 50 65 20 50 65 20 50 65 20 50 65 20 50 64 20
49 64 20 49 64 20 49 64 20 49 63 20 49 63 20 49 63 20 49 63 20 49 63
20 48 62 20 48 62 18 15 148 18 15 148 18 15 147 18 15 146 18 15 145 18
15 143 18 15 141 18 15 139 18 14 137 18 14 135 18 14 133 18 14 131 18
14 129 18 14 126 18 14 124 18 14 122 18 14 119 18 13 117 18 13 115 18
13 112 18 13 111 18 13 111 18 13 111 18 13 111 18 13 111 18 13 111 18
13 111 18 13 111 18 13 111 18 13 111 18 13 111 18 13 111 18 13 111 18
13 111 18 13 111 18 13 111 18 13 111 18 13 111 18 13 111 18 13 111 18
13 111 18 13 111 18 13 111 18 13 111 18 13 111 18 13 111 18 13 111 18
13 111 18 13 111 18 13 111 18 13 111 19 24 18 49 53 28 49 53 28 49 53
28 49 53 28 50 54 29 50 54 29 50 54 29 50 54 29 50 54 29 50 54 29 50
54 29 50 54 29 51 54 29 51 55 29 51 55 29 51 55 29 51 55 29 51 55 29
51 55 29 51 55 29 51 55 29 52 55 29 52 56 29 52 56 29 52 56 29 52 56
29 52 56 29 52 56 29 52 56 29 52 56 29 53 56 30 53 57 30 53 57 30 53
57 30 53 57 30 53 57 30 53 57 30 53 57 30 53 57 30 53 57 30 54 57 30
54 57 30 54 58 30 54 58 30 54 58 30 54 58 30 54 58 30 54 58 30 54 58
30 54 58 30 54 58 30 54 58 30 54 58 30 54 58 30 55 58 30 55 58 30 55
58 30 55 59 30 55 59 30 55 59 30 55 59 30 55 59 30 55 59 30 55 59 30
55 59 30 55 59 30 55 59 30 55 59 30 55 59 30 55 59 30 55 59 30 55 59
30 55 59 30 55 59 30 55 59 30 55 59 30 55 59 30 55 59 30 55 59 30 55
59 30 55 59 30 55 59 30 55 59 30 55 59 30 55 59 30 55 59 30 55 59 30
55 59 30 55 59 30 55 59 30 55 59 30 55 59 30 55 59 30 55 59 30 55 59
30 55 72 54 55 72 54 55 72 54 55 72 54 55 72 54 55 72 54 55 71 54 55
71 54 55 71 54 55 71 53 54 71 53 54 71 53 54 71 53 54 71 53 54 71 53
54 70 53 54 70 53 54 70 53 54 70 53 54 70 52 54 70 52 54 70 52 53 70
52 53 69 52 53 69 52 53 69 52 53 69 52 53 69 52 53 69 52 53 69 51 53
68 51 53 68 51 52 68 51 52 68 51 52 68 51 52 68 51 52 68 51 52 67 51
52 67 51 52 67 50 52 67 50 51 67 50 51 67 50 51 67 50 51 66 50 51 66
50 51 66 50 51 66 50 51 66 50 50 66 49 50 66 49 50 65 49 50 65 49 50
65 49 50 65 49 50 65 49 50 65 49 50 64 49 49 64 49 49 64 48 49 64 48
49 64 48 49 64 48 49 64 48 49 63 48 49 63 48 48 63 48 48 63 48 48 63
48 48 63 47 48 63 47 48 62 47 48 62 47 48 62 47 47 62 47 47 62 47 47
62 47 47 62 47 47 61 47 47 61 47 47 61 46 47 61 46 46 61 46 46 61 46
46 61 46 46 60 46 46 60 46 46 60 46 46 60 46 46 60 46 46 60 46 45 60
45 45 59 45 45 59 45 45 59 45 45 59 45 45 59 45 45 59 45 45 59 45 45
58 45 44 58 45 44 58 45 44 58 45 44 58 44 44 58 44 44 58 44 44 58 44
44 57 44 44 57 44 43 57 44 43 57 44 43 57 44 43 57 44
15 20 23 15 20 23 15 20 23 15 20 23 15 20 23 15 20 23 15 20 23 15 20
23 15 20 23 15 20 23 15 20 23 15 20 23 15 20 23 15 20 23 15 20 23 15
20 23 15 20 23 15 20 23 15 20 23 15 20 23 15 20 23 15 20 23 15 20 23
15 20 23 15 20 23 15 20 23 15 20 23 15 20 23 15 20 23 15 20 23 15 20
23 15 20 23 15 20 23 15 20 23 15 20 23 15 20 23 15 20 23 15 20 23 15
20 23 15 20 23 15 20 23 15 20 23 15 20 23 15 20 23 15 20 23 15 20 23
15 20 23 15 20 23 15 20 23 15 20 23 15 20 23 15 20 23 15 20 23 15 20
23 15 20 23 15 20 23 15 20 23 15 20 23 15 20 23 15 20 23 15 20 23 15
20 23 19 24 18 19 24 18 19 24 18 19 24 18 19 24 18 19 24 18 19 24 18
19 24 18 19 24 18 19 24 18 19 24 18 19 24 18 19 24 18 19 24 18 19 24
18 19 24 18 19 24 18 19 24 18 19 24 18 19 24 18 19 24 18 19 24 18 19
24 18 19 24 18 19 24 18 19 24 18 19 24 18 19 24 18 19 24 18 19 24 18
19 24 18 19 24 18 19 24 18 19 24 18 19 24 18 19 24 18 20 54 72 20 54
72 20 54 72 20 53 71 20 53 71 20 53 71 20 53 71 20 53 70 20 53 70 20
53 70 20 53 70 20 52 69 20 52 69 20 52 69 20 52 69 20 52 68 20 52 68
20 52 68 20 51 68 20 51 67 20 51 67 20 51 67 20 51 67 20 51 66 20 51
66 20 51 66 20 50 66 20 50 66 20 50 65 20 50 65 20 50 65 20 50 65 20
50 64 20 49 64 20 49 64 20 49 64 20 49 63 20 49 63 20 49 63 20 49 63
20 49 63 20 49 62 20 48 62 18 15 142 18 15 143 18 15 142 18 15 141 18
15 140 18 15 138 18 14 137 18 14 135 18 14 133 18 14 131 18 14 129 18
14 126 18 14 124 18 14 122 18 14 120 18 13 117 18 13 115 18 13 113 18
13 111 18 13 111 18 13 111 18 13 111 18 13 111 18 13 111 18 13 111 18
13 111 18 13 111 18 13 111 18 13 111 18 13 111 18 13 111 18 13 111 18
13 111 18 13 111 18 13 111 18 13 111 18 13 111 18 13 111 18 13 111 18
13 111 18 13 111 18 13 111 18 13 111 18 13 111 18 13 111 18 13 111 18
13 111 18 13 111 19 24 18 49 53 28 49 53 28 49 53 28 49 53 28 49 53 28
50 54 29 50 54 29 50 54 29 50 54 29 50 54 29 50 54 29 50 54 29 50 54
29 51 54 29 51 55 29 51 55 29 51 55 29 51 55 29 51 55 29 51 55 29 51
55 29 51 55 29 52 55 29 52 56 29 52 56 29 52 56 29 52 56 29 52 56 29
52 56 29 52 56 29 52 56 29 53 56 30 53 57 30 53 57 30 53 57 30 53 57
30 53 57 30 53 57 30 53 57 30 53 57 30 53 57 30 54 57 30 54 57 30 54
58 30 54 58 30 54 58 30 54 58 30 54 58 30 54 58 30 54 58 30 54 58 30
54 58 30 54 58 30 54 58 30 55 58 30 55 58 30 55 58 30 55 59 30 55 59
30 55 59 30 55 59 30 55 59 30 55 59 30 55 59 30 55 59 30 55 59 30 55
59 30 55 59 30 55 59 30 55 59 30 55 59 30 55 59 30 55 59 30 55 59 30
55 59 30 55 59 30 55 59 30 55 59 30 55 59 30 55 59 30 55 59 30 55 59
30 55 59 30 55 59 30 55 59 30 56 73 56 56 73 56 56 73 56 56 73 55 56
73 55 56 73 55 56 73 55 55 73 55 55 73 55 55 73 55 55 72 55 55 72 55
55 72 55 55 72 54 55 72 54 55 72 54 55 72 54 55 72 54 55 72 54 55 72
54 55 72 54 55 71 54 55 71 54 55 71 54 55 71 53 54 71 53 54 71 53 54
71 53 54 71 53 54 71 53 54 70 53 54 70 53 54 70 53 54 70 53 54 70 52
54 70 52 54 70 52 53 70 52 53 69 52 53 69 52 53 69 52 53 69 52 53 69
52 53 69 52 53 69 51 53 68 51 53 68 51 52 68 51 52 68 51 52 68 51 52
68 51 52 68 51 52 67 51 52 67 51 52 67 50 52 67 50 51 67 50 51 67 50
51 67 50 51 66 50 51 66 50 51 66 50 51 66 50 51 66 49 50 66 49 50 66
49 50 65 49 50 65 49 50 65 49 50 65 49 50 65 49 50 65 49 50 64 49 49
64 49 49 64 48 49 64 48 49 64 48 49 64 48 49 64 48 49 63 48 49 63 48
48 63 48 48 63 48 48 63 48 48 63 47 48 63 47 48 62 47 48 62 47 48 62
47 47 62 47 47 62 47 47 62 47 47 62 47 47 61 47 47 61 47 47 61 46 47
61 46 46 61 46 46 61 46 46 61 46 46 60 46 46 60 46 46 60 46 46 60 46
46 60 46 46 60 46 45 60 45 45 59 45 45 59 45 45 59 45 45 59 45 45 59
45 45 59 45 45 59 45 45 58 45 44 58 45 44 58 45 44 58 45 44 58 44 44
58 44 44 58 44 44 58 44 44 57 44 44 57 44 43 57 44
15 20 23 15 20 23 15 20 23 15 20 23 15 20 23 15 20 23 15 20 23 15 20
23 15 20 23 15 20 23 15 20 23 15 20 23 15 20 23 15 20 23 15 20 23 15
20 23 15 20 23 15 20 23 15 20 23 15 20 23 15 20 23 15 20 23 15 20 23
15 20 23 15 20 23 15 20 23 15 20 23 15 20 23 15 20 23 15 20 23 15 20
23 15 20 23 15 20 23 15 20 23 15 20 23 15 20 23 15 20 23 15 20 23 15
20 23 15 20 23 15 20 23 15 20 23 15 20 23 15 20 23 15 20 23 15 20 23
15 20 23 15 20 23 15 20 23 15 20 23 15 20 23 15 20 23 15 20 23 15 20
23 15 20 23 15 20 23 15 20 23 15 20 23 15 20 23 15 20 23 15 20 23 19
24 18 19 24 18 19 24 18 19 24 18 19 24 18 19 24 18 19 24 18 19 24 18
19 24 18 19 24 18 19 24 18 19 24 18 19 24 18 19 24 18 19 24 18 19 24
18 19 24 18 19 24 18 19 24 18 19 24 18 19 24 18 19 24 18 19 24 18 19
24 18 19 24 18 19 24 18 19 24 18 19 24 18 19 24 18 19 24 18 19 24 18
19 24 18 19 24 18 19 24 18 19 24 18 20 54 73 20 54 73 20 54 72 20 54
72 20 54 72 20 54 72 20 54 71 20 53 71 20 53 71 20 53 71 20 53 70 20
53 70 20 53 70 20 53 70 20 52 69 20 52 69 20 52 69 20 52 69 20 52 68
20 52 68 20 52 68 20 51 68 20 51 67 20 51 67 20 51 67 20 51 67 20 51
66 20 51 66 20 51 66 20 50 66 20 50 66 20 50 65 20 50 65 20 50 65 20
50 65 20 50 64 20 49 64 20 49 64 20 49 64 20 49 63 20 49 63 20 49 63
20 49 63 20 49 63 20 49 62 20 48 62 20 48 62 18 14 137 18 14 137 18 14
136 18 14 135 18 14 134 18 14 132 18 14 130 18 14 128 18 14 126 18 14
124 18 14 122 18 14 120 18 13 117 18 13 115 18 13 113 18 13 111 18 13
111 18 13 111 18 13 111 18 13 111 18 13 111 18 13 111 18 13 111 18 13
111 18 13 111 18 13 111 18 13 111 18 13 111 18 13 111 18 13 111 18 13
111 18 13 111 18 13 111 18 13 111 18 13 111 18 13 111 18 13 111 18 13
111 18 13 111 18 13 111 18 13 111 18 13 111 18 13 111 19 24 18 19 24
18 49 53 28 49 53 28 49 53 28 49 53 28 49 53 28 49 53 28 50 53 29 50
54 29 50 54 29 50 54 29 50 54 29 50 54 29 50 54 29 50 54 29 51 54 29
51 55 29 51 55 29 51 55 29 51 55 29 51 55 29 51 55 29 51 55 29 51 55
29 52 55 29 52 56 29 52 56 29 52 56 29 52 56 29 52 56 29 52 56 29 52
56 29 52 56 29 53 56 30 53 56 30 53 57 30 53 57 30 53 57 30 53 57 30
53 57 30 53 57 30 53 57 30 53 57 30 54 57 30 54 57 30 54 58 30 54 58
30 54 58 30 54 58 30 54 58 30 54 58 30 54 58 30 54 58 30 54 58 30 54
58 30 55 58 30 55 58 30 55 58 30 55 59 30 55 59 30 55 59 30 55 59 30
55 59 30 55 59 30 55 59 30 55 59 30 55 59 30 55 59 30 55 59 30 55 59
30 55 59 30 55 59 30 55 59 30 55 59 30 55 59 31 56 74 57 56 74 57 56
74 57 56 74 57 56 74 57 56 74 57 56 74 57 56 74 56 56 74 56 56 74 56
56 74 56 56 74 56 56 74 56 56 73 56 56 73 56 56 73 56 56 73 56 56 73
56 56 73 55 56 73 55 56 73 55 56 73 55 56 73 55 56 73 55 56 73 55 55
73 55 55 73 55 55 72 55 55 72 55 55 72 54 55 72 54 55 72 54 55 72 54
55 72 54 55 72 54 55 72 54 55 72 54 55 71 54 55 71 54 55 71 53 55 71
53 54 71 53 54 71 53 54 71 53 54 71 53 54 71 53 54 70 53 54 70 53 54
70 53 54 70 52 54 70 52 54 70 52 54 70 52 53 69 52 53 69 52 53 69 52
53 69 52 53 69 52 53 69 52 53 69 51 53 69 51 53 68 51 53 68 51 52 68
51 52 68 51 52 68 51 52 68 51 52 68 51 52 67 51 52 67 50 52 67 50 51
67 50 51 67 50 51 67 50 51 67 50 51 66 50 51 66 50 51 66 50 51 66 50
51 66 49 50 66 49 50 65 49 50 65 49 50 65 49 50 65 49 50 65 49 50 65
49 50 65 49 49 64 49 49 64 48 49 64 48 49 64 48 49 64 48 49 64 48 49
64 48 49 63 48 49 63 48 48 63 48 48 63 48 48 63 48 48 63 47 48 63 47
48 62 47 48 62 47 48 62 47 47 62 47 47 62 47 47 62 47 47 62 47 47 61
47 47 61 47 47 61 46 47 61 46 46 61 46 46 61 46 46 61 46 46 60 46 46
60 46 46 60 46 46 60 46 46 60 46 46 60 46 45 60 45 45 59 45 45 59 45
45 59 45 45 59 45 45 59 45 45 59 45 45 59 45 45 59 45 44 58 45 44 58
45 44 58 45 44 58 44 44 58 44 44 58 44 44 58 44
15 20 23 15 20 23 15 20 23 15 20 23 15 20 23 15 20 23 15 20 23 15 20
23 15 20 23 15 20 23 15 20 23 15 20 23 15 20 23 15 20 23 15 20 23 15
20 23 15 20 23 15 20 23 15 20 23 15 20 23 15 20 23 15 20 23 15 20 23
15 20 23 15 20 23 15 20 23 15 20 23 15 20 23 15 20 23 15 20 23 15 20
23 15 20 23 15 20 23 15 20 23 15 20 23 15 20 23 15 20 23 15 20 23 15
20 23 15 20 23 15 20 23 15 20 23 15 20 23 15 20 23 15 20 23 15 20 23
15 20 23 15 20 23 15 20 23 15 20 23 15 20 23 15 20 23 15 20 23 15 20
23 15 20 23 15 20 23 15 20 23 15 20 23 15 20 23 15 20 23 15 20 23 19
24 18 19 24 18 19 24 18 19 24 18 19 24 18 19 24 18 19 24 18 19 24 18
19 24 18 19 24 18 19 24 18 19 24 18 19 24 18 19 24 18 19 24 18 19 24
18 19 24 18 19 24 18 19 24 18 19 24 18 19 24 18 19 24 18 19 24 18 19
24 18 19 24 18 19 24 18 19 24 18 19 24 18 19 24 18 19 24 18 19 24 18
19 24 18 19 24 18 20 55 74 20 55 74 20 55 73 20 54 73 20 54 73 20 54
72 20 54 72 20 54 72 20 54 72 20 54 71 20 53 71 20 53 71 20 53 71 20
53 70 20 53 70 20 53 70 20 53 70 20 52 69 20 52 69 20 52 69 20 52 69
20 52 68 20 52 68 20 52 68 20 51 68 20 51 67 20 51 67 20 51 67 20 51
67 20 51 66 20 51 66 20 50 66 20 50 66 20 50 65 20 50 65 20 50 65 20
50 65 20 50 65 20 50 64 20 49 64 20 49 64 20 49 64 20 49 63 20 49 63
20 49 63 20 49 63 20 49 63 20 48 62 20 48 62 20 48 62 20 48 62 20 48
62 18 14 131 18 14 130 18 14 129 18 14 127 18 14 125 18 14 123 18 14
121 18 14 119 18 13 117 18 13 115 18 13 113 18 13 111 18 13 111 18 13
111 18 13 111 18 13 111 18 13 111 18 13 111 18 13 111 18 13 111 18 13
111 18 13 111 18 13 111 18 13 111 18 13 111 18 13 111 18 13 111 18 13
111 18 13 111 18 13 111 18 13 111 18 13 111 18 13 111 18 13 111 18 13
111 18 13 111 19 24 18 19 24 18 19 24 18 49 53 28 49 53 28 49 53 28 49
53 28 49 53 28 49 53 28 49 53 28 49 53 28 50 53 28 50 54 29 50 54 29
50 54 29 50 54 29 50 54 29 50 54 29 50 54 29 50 54 29 51 54 29 51 55
29 51 55 29 51 55 29 51 55 29 51 55 29 51 55 29 51 55 29 51 55 29 52
55 29 52 56 29 52 56 29 52 56 29 52 56 29 52 56 29 52 56 29 52 56 29
52 56 29 53 56 30 53 57 30 53 57 30 53 57 30 53 57 30 53 57 30 53 57
30 53 57 30 53 57 30 53 57 30 54 57 30 54 57 30 54 58 30 54 58 30 54
58 30 54 58 30 54 58 30 54 58 30 54 58 30 54 58 30 54 58 30 54 58 30
55 58 30 55 58 30 55 59 30 55 59 30 55 59 30 55 59 30 55 74 58 55 74
58 55 74 58 55 74 58 55 74 58 56 74 58 56 74 58 56 74 58 56 74 58 56
74 58 56 74 58 56 74 57 56 74 57 56 74 57 56 74 57 56 74 57 56 74 57
56 74 57 56 74 57 56 74 57 56 74 57 56 74 57 56 74 57 56 74 56 56 74
56 56 74 56 56 74 56 56 74 56 56 74 56 56 74 56 56 73 56 56 73 56 56
73 56 56 73 56 56 73 55 56 73 55 56 73 55 56 73 55 56 73 55 56 73 55
56 73 55 56 73 55 56 73 55 55 72 55 55 72 55 55 72 54 55 72 54 55 72
54 55 72 54 55 72 54 55 72 54 55 72 54 55 72 54 55 71 54 55 71 54 55
71 53 55 71 53 55 71 53 54 71 53 54 71 53 54 71 53 54 71 53 54 70 53
54 70 53 54 70 53 54 70 53 54 70 52 54 70 52 54 70 52 53 70 52 53 69
52 53 69 52 53 69 52 53 69 52 53 69 52 53 69 52 53 69 51 53 68 51 53
68 51 52 68 51 52 68 51 52 68 51 52 68 51 52 68 51 52 67 51 52 67 51
52 67 50 52 67 50 51 67 50 51 67 50 51 67 50 51 66 50 51 66 50 51 66
50 51 66 50 51 66 50 51 66 49 50 66 49 50 65 49 50 65 49 50 65 49 50
65 49 50 65 49 50 65 49 50 65 49 49 64 49 49 64 48 49 64 48 49 64 48
49 64 48 49 64 48 49 64 48 49 63 48 48 63 48 48 63 48 48 63 48 48 63
48 48 63 47 48 63 47 48 62 47 48 62 47 48 62 47 47 62 47 47 62 47 47
62 47 47 62 47 47 61 47 47 61 47 47 61 46 47 61 46 46 61 46 46 61 46
46 61 46 46 60 46 46 60 46 46 60 46 46 60 46 46 60 46 46 60 46 45 60
45 45 59 45 45 59 45 45 59 45 45 59 45 45 59 45 45 59 45 45 59 45 45
59 45 44 58 45 44 58 45 44 58 45 44 58 45
15 20 23 15 20 23 15 20 23 15 20 23 15 20 23 15 20 23 15 20 23 15 20
23 15 20 23 15 20 23 15 20 23 15 20 23 15 20 23 15 20 23 15 20 23 15
20 23 15 20 23 15 20 23 15 20 23 15 20 23 15 20 23 15 20 23 15 20 23
15 20 23 15 20 23 15 20 23 15 20 23 15 20 23 15 20 23 15 20 23 15 20
23 15 20 23 15 20 23 15 20 23 15 20 23 15 20 23 15 20 23 15 20 23 15
20 23 15 20 23 15 20 23 15 20 23 15 20 23 15 20 23 15 20 23 15 20 23
15 20 23 15 20 23 15 20 23 15 20 23 15 20 23 15 20 23 15 20 23 15 20
23 15 20 23 15 20 23 15 20 23 15 20 23 15 20 23 15 20 23 15 20 23 19
24 18 19 24 18 19 24 18 19 24 18 19 24 18 19 24 18 19 24 18 19 24 18
19 24 18 19 24 18 19 24 18 19 24 18 19 24 18 19 24 18 19 24 18 19 24
18 19 24 18 19 24 18 19 24 18 19 24 18 19 24 18 19 24 18 19 24 18 19
24 18 19 24 18 19 24 18 19 24 18 19 24 18 19 24 18 19 24 18 19 24 18
20 55 75 20 55 74 20 55 74 20 55 74 20 55 74 20 55 73 20 54 73 20 54
73 20 54 72 20 54 72 20 54 72 20 54 72 20 54 71 20 53 71 20 53 71 20
53 71 20 53 70 20 53 70 20 53 70 20 53 70 20 52 69 20 52 69 20 52 69
20 52 69 20 52 68 20 52 68 20 52 68 20 51 68 20 51 67 20 51 67 20 51
67 20 51 67 20 51 66 20 51 66 20 50 66 20 50 66 20 50 65 20 50 65 20
50 65 20 50 65 20 50 65 20 50 64 20 49 64 20 49 64 20 49 64 20 49 63
20 49 63 20 49 63 20 49 63 20 49 63 20 48 62 20 48 62 20 48 62 20 48
62 20 48 61 20 48 61 20 48 61 20 48 61 20 48 61 18 14 120 18 14 118 18
13 116 18 13 114 18 13 112 18 13 111 18 13 111 18 13 111 18 13 111 18
13 111 18 13 111 18 13 111 18 13 111 18 13 111 18 13 111 18 13 111 18
13 111 18 13 111 18 13 111 18 13 111 18 13 111 18 13 111 18 13 111 18
13 111 18 13 111 19 24 18 19 24 18 19 24 18 19 24 18 19 24 18 19 24 18
48 52 28 48 52 28 49 52 28 49 53 28 49 53 28 49 53 28 49 53 28 49 53
28 49 53 28 49 53 28 49 53 28 50 53 29 50 54 29 50 54 29 50 54 29 50
54 29 50 54 29 50 54 29 50 54 29 51 54 29 51 55 29 51 55 29 51 55 29
51 55 29 51 55 29 51 55 29 51 55 29 51 55 29 52 55 29 52 56 29 52 56
29 52 56 29 52 56 29 52 56 29 52 56 29 52 56 29 52 56 29 53 56 30 53
56 30 53 57 30 53 57 30 53 57 30 53 57 30 53 57 30 53 57 30 53 57 30
53 57 30 54 57 30 54 57 30 54 74 60 54 74 60 54 74 60 54 74 60 54 74
60 54 74 60 55 74 59 55 74 59 55 74 59 55 74 59 55 74 59 55 74 59 55
74 59 55 74 59 55 74 59 55 74 59 55 74 59 55 75 59 55 75 58 55 75 58
55 74 58 55 74 58 56 74 58 56 74 58 56 74 58 56 74 58 56 74 58 56 74
58 56 74 58 56 74 58 56 74 57 56 74 57 56 74 57 56 74 57 56 74 57 56
74 57 56 74 57 56 74 57 56 74 57 56 74 57 56 74 57 56 74 57 56 74 56
56 74 56 56 74 56 56 74 56 56 74 56 56 74 56 56 74 56 56 74 56 56 73
56 56 73 56 56 73 56 56 73 55 56 73 55 56 73 55 56 73 55 56 73 55 56
73 55 56 73 55 56 73 55 56 73 55 55 73 55 55 72 55 55 72 54 55 72 54
55 72 54 55 72 54 55 72 54 55 72 54 55 72 54 55 72 54 55 72 54 55 71
54 55 71 54 55 71 53 55 71 53 54 71 53 54 71 53 54 71 53 54 71 53 54
70 53 54 70 53 54 70 53 54 70 53 54 70 52 54 70 52 54 70 52 54 70 52
53 69 52 53 69 52 53 69 52 53 69 52 53 69 52 53 69 52 53 69 51 53 68
51 53 68 51 52 68 51 52 68 51 52 68 51 52 68 51 52 68 51 52 68 51 52
67 51 52 67 50 52 67 50 51 67 50 51 67 50 51 67 50 51 67 50 51 66 50
51 66 50 51 66 50 51 66 50 51 66 49 50 66 49 50 65 49 50 65 49 50 65
49 50 65 49 50 65 49 50 65 49 50 65 49 49 64 49 49 64 49 49 64 48 49
64 48 49 64 48 49 64 48 49 64 48 49 63 48 49 63 48 48 63 48 48 63 48
48 63 48 48 63 47 48 63 47 48 62 47 48 62 47 48 62 47 47 62 47 47 62
47 47 62 47 47 62 47 47 61 47 47 61 47 47 61 47 47 61 46 47 61 46 46
61 46 46 61 46 46 61 46 46 60 46 46 60 46 46 60 46 46 60 46 46 60 46
46 60 46 45 60 45 45 59 45 45 59 45 45 59 45 45 59 45 45 59 45 45 59
45 45 59 45 45 59 45 44 58 45
15 20 23 15 20 23 15 20 23 15 20 23 15 20 23 15 20 23 15 20 23 15 20
23 15 20 23 15 20 23 15 20 23 15 20 23 15 20 23 15 20 23 15 20 23 15
20 23 15 20 23 15 20 23 15 20 23 15 20 23 15 20 23 15 20 23 15 20 23
15 20 23 15 20 23 15 20 23 15 20 23 15 20 23 15 20 23 15 20 23 15 20
23 15 20 23 15 20 23 15 20 23 15 20 23 15 20 23 15 20 23 15 20 23 15
20 23 15 20 23 15 20 23 15 20 23 15 20 23 15 20 23 15 20 23 15 20 23
15 20 23 15 20 23 15 20 23 15 20 23 15 20 23 15 20 23 15 20 23 15 20
23 15 20 23 15 20 23 15 20 23 15 20 23 15 20 23 15 20 23 19 24 18 19
24 18 19 24 18 19 24 18 19 24 18 19 24 18 19 24 18 19 24 18 19 24 18
19 24 18 19 24 18 19 24 18 19 24 18 19 24 18 19 24 18 19 24 18 19 24
18 19 24 18 19 24 18 19 24 18 19 24 18 19 24 18 19 24 18 19 24 18 19
24 18 19 24 18 19 24 18 19 24 18 19 24 18 20 56 76 20 56 75 20 56 75
20 55 75 20 55 75 20 55 74 20 55 74 20 55 74 20 55 73 20 55 73 20 54
73 20 54 73 20 54 72 20 54 72 20 54 72 20 54 72 20 53 71 20 53 71 20
53 71 20 53 71 20 53 70 20 53 70 20 53 70 20 52 70 20 52 69 20 52 69
20 52 69 20 52 68 20 52 68 20 52 68 20 51 68 20 51 67 20 51 67 20 51
67 20 51 67 20 51 67 20 51 66 20 51 66 20 50 66 20 50 66 20 50 65 20
50 65 20 50 65 20 50 65 20 50 64 20 50 64 20 49 64 20 49 64 20 49 64
20 49 63 20 49 63 20 49 63 20 49 63 20 49 62 20 48 62 20 48 62 20 48
62 20 48 62 20 48 61 20 48 61 20 48 61 20 48 61 20 48 61 20 47 60 20
47 60 20 47 60 20 47 60 20 47 60 20 47 59 20 47 59 20 47 59 20 47 59
19 24 18 19 24 18 19 24 18 19 24 18 19 24 18 19 24 18 19 24 18 19 24
18 19 24 18 19 24 18 19 24 18 19 24 18 19 24 18 19 24 18 19 24 18 19
24 18 19 24 18 19 24 18 19 24 18 19 24 18 48 52 28 48 52 28 48 52 28
49 53 28 49 53 28 49 53 28 49 53 28 49 53 28 49 53 28 49 53 28 49 53
28 49 53 28 50 54 29 50 54 29 50 54 29 50 54 29 50 54 29 50 54 29 50
54 29 50 54 29 51 54 29 51 55 29 51 55 29 51 55 29 51 55 29 51 55 29
51 55 29 52 74 62 52 74 62 52 74 62 52 74 62 52 74 62 52 74 62 52 74
62 52 74 61 53 74 61 53 74 61 53 74 61 53 74 61 53 74 61 53 74 61 53
74 61 53 74 61 53 74 61 53 74 61 54 74 61 54 74 60 54 74 60 54 74 60
54 74 60 54 74 60 54 74 60 54 74 60 54 74 60 54 74 60 54 74 60 55 74
60 55 74 60 55 75 59 55 75 59 55 75 59 55 75 59 55 75 59 55 75 59 55
75 59 55 75 59 55 75 59 55 75 59 55 75 59 55 75 59 55 75 58 56 75 58
56 75 58 56 75 58 56 75 58 56 75 58 56 75 58 56 75 58 56 75 58 56 74
58 56 74 58 56 74 58 56 74 57 56 74 57 56 74 57 56 74 57 56 74 57 56
74 57 56 74 57 56 74 57 56 74 57 56 74 57 56 74 57 56 74 57 56 74 56
56 74 56 56 74 56 56 74 56 56 74 56 56 74 56 56 74 56 56 74 56 56 73
56 56 73 56 56 73 56 56 73 55 56 73 55 56 73 55 56 73 55 56 73 55 56
73 55 56 73 55 56 73 55 56 73 55 55 73 55 55 72 55 55 72 54 55 72 54
55 72 54 55 72 54 55 72 54 55 72 54 55 72 54 55 72 54 55 72 54 55 71
54 55 71 54 55 71 53 55 71 53 54 71 53 54 71 53 54 71 53 54 71 53 54
70 53 54 70 53 54 70 53 54 70 53 54 70 52 54 70 52 54 70 52 54 70 52
53 69 52 53 69 52 53 69 52 53 69 52 53 69 52 53 69 52 53 69 51 53 69
51 53 68 51 52 68 51 52 68 51 52 68 51 52 68 51 52 68 51 52 68 51 52
67 51 52 67 50 52 67 50 51 67 50 51 67 50 51 67 50 51 67 50 51 66 50
51 66 50 51 66 50 51 66 50 51 66 50 50 66 49 50 66 49 50 65 49 50 65
49 50 65 49 50 65 49 50 65 49 50 65 49 50 65 49 49 64 49 49 64 48 49
64 48 49 64 48 49 64 48 49 64 48 49 64 48 49 63 48 48 63 48 48 63 48
48 63 48 48 63 48 48 63 47 48 63 47 48 62 47 48 62 47 48 62 47 47 62
47 47 62 47 47 62 47 47 62 47 47 61 47 47 61 47 47 61 46 47 61 46 47
61 46 46 61 46 46 61 46 46 60 46 46 60 46 46 60 46 46 60 46 46 60 46
46 60 46 46 60 46 45 60 45 45 59 45 45 59 45 45 59 45 45 59 45 45 59
45 45 59 45
15 20 23 15 20 23 15 20 23 15 20 23 15 20 23 15 20 23 15 20 23 15 20
23 15 20 23 15 20 23 15 20 23 15 20 23 15 20 23 15 20 23 15 20 23 15
20 23 15 20 23 15 20 23 15 20 23 15 20 23 15 20 23 15 20 23 15 20 23
15 20 23 15 20 23 15 20 23 15 20 23 15 20 23 15 20 23 15 20 23 15 20
23 15 20 23 15 20 23 15 20 23 15 20 23 15 20 23 15 20 23 15 20 23 15
20 23 15 20 23 15 20 23 15 20 23 15 20 23 15 20 23 15 20 23 15 20 23
15 20 23 15 20 23 15 20 23 15 20 23 15 20 23 15 20 23 15 20 23 15 20
23 15 20 23 15 20 23 15 20 23 15 20 23 15 20 23 15 20 23 19 24 18 19
24 18 19 24 18 19 24 18 19 24 18 19 24 18 19 24 18 19 24 18 19 24 18
19 24 18 19 24 18 19 24 18 19 24 18 19 24 18 19 24 18 19 24 18 19 24
18 19 24 18 19 24 18 19 24 18 19 24 18 19 24 18 19 24 18 19 24 18 19
24 18 19 24 18 20 57 77 20 56 76 20 56 76 20 56 76 20 56 76 20 56 75
20 56 75 20 55 75 20 55 74 20 55 74 20 55 74 20 55 74 20 55 73 20 54
73 20 54 73 20 54 73 20 54 72 20 54 72 20 54 72 20 54 71 20 53 71 20
53 71 20 53 71 20 53 70 20 53 70 20 53 70 20 53 70 20 52 69 20 52 69
20 52 69 20 52 69 20 52 68 20 52 68 20 52 68 20 51 68 20 51 67 20 51
67 20 51 67 20 51 67 20 51 66 20 51 66 20 50 66 20 50 66 20 50 65 20
50 65 20 50 65 20 50 65 20 50 65 20 50 64 20 49 64 20 49 64 20 49 64
20 49 63 20 49 63 20 49 63 20 49 63 20 49 63 20 48 62 20 48 62 20 48
62 20 48 62 20 48 62 20 48 61 20 48 61 20 48 61 20 48 61 20 47 60 20
47 60 20 47 60 20 47 60 20 47 60 20 47 60 20 47 59 20 47 59 20 47 59
20 46 59 20 46 59 20 46 58 20 46 58 20 46 58 20 46 58 20 46 58 20 46
57 20 46 57 20 46 57 20 45 57 20 45 57 20 45 57 20 45 56 20 45 56 20
45 56 20 45 56 20 45 56 20 45 56 20 45 55 49 73 65 49 73 65 49 73 65
49 73 65 49 73 65 49 73 65 49 73 64 49 73 64 50 73 64 50 73 64 50 73
64 50 73 64 50 73 64 50 73 64 50 73 64 50 73 63 50 73 63 51 73 63 51
73 63 51 73 63 51 73 63 51 73 63 51 74 63 51 74 63 51 74 63 51 74 62
52 74 62 52 74 62 52 74 62 52 74 62 52 74 62 52 74 62 52 74 62 52 74
62 52 74 62 53 74 62 53 74 61 53 74 61 53 74 61 53 74 61 53 74 61 53
74 61 53 74 61 53 74 61 53 74 61 54 74 61 54 74 61 54 74 60 54 74 60
54 74 60 54 74 60 54 74 60 54 74 60 54 74 60 54 74 60 54 74 60 54 75
60 55 75 60 55 75 60 55 75 59 55 75 59 55 75 59 55 75 59 55 75 59 55
75 59 55 75 59 55 75 59 55 75 59 55 75 59 55 75 59 55 75 59 55 75 59
56 75 58 56 75 58 56 75 58 56 75 58 56 75 58 56 75 58 56 75 58 56 75
58 56 75 58 56 75 58 56 74 58 56 74 58 56 74 57 56 74 57 56 74 57 56
74 57 56 74 57 56 74 57 56 74 57 56 74 57 56 74 57 56 74 57 56 74 57
56 74 57 56 74 56 56 74 56 56 74 56 56 74 56 56 74 56 56 74 56 56 74
56 56 74 56 56 73 56 56 73 56 56 73 56 56 73 55 56 73 55 56 73 55 56
73 55 56 73 55 56 73 55 56 73 55 56 73 55 56 73 55 55 73 55 55 72 55
55 72 54 55 72 54 55 72 54 55 72 54 55 72 54 55 72 54 55 72 54 55 72
54 55 71 54 55 71 54 55 71 54 55 71 53 55 71 53 54 71 53 54 71 53 54
71 53 54 71 53 54 70 53 54 70 53 54 70 53 54 70 53 54 70 52 54 70 52
54 70 52 53 70 52 53 69 52 53 69 52 53 69 52 53 69 52 53 69 52 53 69
52 53 69 51 53 69 51 53 68 51 52 68 51 52 68 51 52 68 51 52 68 51 52
68 51 52 68 51 52 67 51 52 67 51 52 67 50 51 67 50 51 67 50 51 67 50
51 67 50 51 66 50 51 66 50 51 66 50 51 66 50 51 66 50 50 66 49 50 66
49 50 65 49 50 65 49 50 65 49 50 65 49 50 65 49 50 65 49 50 65 49 49
64 49 49 64 49 49 64 48 49 64 48 49 64 48 49 64 48 49 64 48 49 63 48
49 63 48 48 63 48 48 63 48 48 63 48 48 63 48 48 63 47 48 62 47 48 62
47 48 62 47 47 62 47 47 62 47 47 62 47 47 62 47 47 61 47 47 61 47 47
61 47 47 61 46 47 61 46 46 61 46 46 61 46 46 61 46 46 60 46 46 60 46
46 60 46 46 60 46 46 60 46 46 60 46 45 60 46 45 60 45 45 59 45 45 59
45 45 59 45
15 20 23 15 20 23 15 20 23 15 20 23 15 20 23 15 20 23 15 20 23 15 20
23 15 20 23 15 20 23 15 20 23 15 20 23 15 20 23 15 20 23 15 20 23 15
20 23 15 20 23 15 20 23 15 20 23 15 20 23 15 20 23 15 20 23 15 20 23
15 20 23 15 20 23 15 20 23 15 20 23 15 20 23 15 20 23 15 20 23 15 20
23 15 20 23 15 20 23 15 20 23 15 20 23 15 20 23 15 20 23 15 20 23 15
20 23 15 20 23 15 20 23 15 20 23 15 20 23 15 20 23 15 20 23 15 20 23
15 20 23 15 20 23 15 20 23 15 20 23 15 20 23 15 20 23 15 20 23 15 20
23 15 20 23 15 20 23 15 20 23 15 20 23 19 24 18 19 24 18 19 24 18 19
24 18 19 24 18 19 24 18 19 24 18 19 24 18 19 24 18 19 24 18 19 24 18
19 24 18 19 24 18 19 24 18 19 24 18 19 24 18 19 24 18 19 24 18 19 24
18 19 24 18 19 24 18 19 24 18 19 24 18 19 24 18 19 24 18 19 24 18 20
57 77 20 57 77 20 57 77 20 56 77 20 56 76 20 56 76 20 56 76 20 56 75
20 56 75 20 55 75 20 55 75 20 55 74 20 55 74 20 55 74 20 55 74 20 55
73 20 54 73 20 54 73 20 54 72 20 54 72 20 54 72 20 54 72 20 53 71 20
53 71 20 53 71 20 53 71 20 53 70 20 53 70 20 53 70 20 52 69 20 52 69
20 52 69 20 52 69 20 52 68 20 52 68 20 52 68 20 51 68 20 51 67 20 51
67 20 51 67 20 51 67 20 51 67 20 51 66 20 51 66 20 50 66 20 50 66 20
50 65 20 50 65 20 50 65 20 50 65 20 50 64 20 50 64 20 49 64 20 49 64
20 49 64 20 49 63 20 49 63 20 49 63 20 49 63 20 49 62 20 48 62 20 48
62 20 48 62 20 48 62 20 48 61 20 48 61 20 48 61 20 48 61 20 48 61 20
47 60 20 47 60 20 47 60 20 47 60 20 47 60 20 47 59 20 47 59 20 47 59
20 47 59 20 46 59 20 46 58 20 46 58 20 46 58 20 46 58 20 46 58 20 46
58 20 46 57 20 46 57 20 46 57 20 45 57 20 45 57 20 45 57 20 45 56 20
45 56 20 45 56 20 45 56 20 45 56 20 45 56 49 73 65 49 73 65 49 73 65
49 73 65 49 73 65 49 73 65 49 73 65 49 73 64 50 73 64 50 73 64 50 73
64 50 73 64 50 73 64 50 73 64 50 73 64 50 73 64 50 73 63 51 73 63 51
73 63 51 73 63 51 74 63 51 74 63 51 74 63 51 74 63 51 74 63 51 74 63
52 74 62 52 74 62 52 74 62 52 74 62 52 74 62 52 74 62 52 74 62 52 74
62 52 74 62 52 74 62 53 74 62 53 74 61 53 74 61 53 74 61 53 74 61 53
74 61 53 74 61 53 74 61 53 74 61 53 74 61 54 74 61 54 74 61 54 74 60
54 74 60 54 74 60 54 74 60 54 74 60 54 74 60 54 75 60 54 75 60 54 75
60 55 75 60 55 75 60 55 75 60 55 75 60 55 75 59 55 75 59 55 75 59 55
75 59 55 75 59 55 75 59 55 75 59 55 75 59 55 75 59 55 75 59 55 75 59
55 75 59 56 75 58 56 75 58 56 75 58 56 75 58 56 75 58 56 75 58 56 75
58 56 75 58 56 75 58 56 75 58 56 75 58 56 74 58 56 74 57 56 74 57 56
74 57 56 74 57 56 74 57 56 74 57 56 74 57 56 74 57 56 74 57 56 74 57
56 74 57 56 74 57 56 74 56 56 74 56 56 74 56 56 74 56 56 74 56 56 74
56 56 74 56 56 74 56 56 73 56 56 73 56 56 73 56 56 73 56 56 73 55 56
73 55 56 73 55 56 73 55 56 73 55 56 73 55 56 73 55 56 73 55 55 73 55
55 72 55 55 72 55 55 72 54 55 72 54 55 72 54 55 72 54 55 72 54 55 72
54 55 72 54 55 72 54 55 71 54 55 71 54 55 71 53 55 71 53 54 71 53 54
71 53 54 71 53 54 71 53 54 71 53 54 70 53 54 70 53 54 70 53 54 70 53
54 70 52 54 70 52 54 70 52 53 70 52 53 69 52 53 69 52 53 69 52 53 69
52 53 69 52 53 69 52 53 69 51 53 68 51 53 68 51 52 68 51 52 68 51 52
68 51 52 68 51 52 68 51 52 68 51 52 67 51 52 67 51 52 67 50 51 67 50
51 67 50 51 67 50 51 67 50 51 66 50 51 66 50 51 66 50 51 66 50 51 66
50 50 66 49 50 66 49 50 65 49 50 65 49 50 65 49 50 65 49 50 65 49 50
65 49 50 65 49 49 64 49 49 64 49 49 64 48 49 64 48 49 64 48 49 64 48
49 64 48 49 63 48 49 63 48 48 63 48 48 63 48 48 63 48 48 63 48 48 63
47 48 63 47 48 62 47 48 62 47 48 62 47 47 62 47 47 62 47 47 62 47 47
62 47 47 61 47 47 61 47 47 61 47 47 61 46 47 61 46 46 61 46 46 61 46
46 60 46 46 60 46 46 60 46 46 60 46 46 60 46 46 60 46 46 60 46 45 60
46 45 59 45
15 20 23 15 20 23 15 20 23 15 20 23 15 20 23 15 20 23 15 20 23 15 20
23 15 20 23 15 20 23 15 20 23 15 20 23 15 20 23 15 20 23 15 20 23 15
20 23 15 20 23 15 20 23 15 20 23 15 20 23 15 20 23 15 20 23 15 20 23
15 20 23 15 20 23 15 20 23 15 20 23 15 20 23 15 20 23 15 20 23 15 20
23 15 20 23 15 20 23 15 20 23 15 20 23 15 20 23 15 20 23 15 20 23 15
20 23 15 20 23 15 20 23 15 20 23 15 20 23 15 20 23 15 20 23 15 20 23
15 20 23 15 20 23 15 20 23 15 20 23 15 20 23 15 20 23 15 20 23 15 20
23 15 20 23 15 20 23 15 20 23 19 24 18 19 24 18 19 24 18 19 24 18 19
24 18 19 24 18 19 24 18 19 24 18 19 24 18 19 24 18 19 24 18 19 24 18
19 24 18 19 24 18 19 24 18 19 24 18 19 24 18 19 24 18 19 24 18 19 24
18 19 24 18 19 24 18 19 24 18 20 58 79 20 57 78 20 57 78 20 57 78 20
57 78 20 57 77 20 57 77 20 56 77 20 56 76 20 56 76 20 56 76 20 56 76
20 56 75 20 56 75 20 55 75 20 55 74 20 55 74 20 55 74 20 55 74 20 55
73 20 54 73 20 54 73 20 54 72 20 54 72 20 54 72 20 54 72 20 54 71 20
53 71 20 53 71 20 53 71 20 53 70 20 53 70 20 53 70 20 53 70 20 52 69
20 52 69 20 52 69 20 52 69 20 52 68 20 52 68 20 52 68 20 51 68 20 51
67 20 51 67 20 51 67 20 51 67 20 51 66 20 51 66 20 50 66 20 50 66 20
50 65 20 50 65 20 50 65 20 50 65 20 50 64 20 50 64 20 49 64 20 49 64
20 49 64 20 49 63 20 49 63 20 49 63 20 49 63 20 49 63 20 48 62 20 48
62 20 48 62 20 48 62 20 48 61 20 48 61 20 48 61 20 48 61 20 48 61 20
47 60 20 47 60 20 47 60 20 47 60 20 47 60 20 47 60 20 47 59 20 47 59
20 47 59 20 46 59 20 46 59 20 46 58 20 46 58 20 46 58 20 46 58 20 46
58 20 46 58 20 46 57 20 46 57 20 45 57 20 45 57 20 45 57 20 45 56 20
45 56 20 45 56 20 45 56 20 45 56 20 45 56 49 73 65 49 73 65 49 73 65
49 73 65 49 73 65 49 73 65 49 73 65 49 73 65 50 73 64 50 73 64 50 73
64 50 73 64 50 73 64 50 73 64 50 73 64 50 73 64 50 73 64 51 73 63 51
73 63 51 74 63 51 74 63 51 74 63 51 74 63 51 74 63 51 74 63 51 74 63
52 74 63 52 74 62 52 74 62 52 74 62 52 74 62 52 74 62 52 74 62 52 74
62 52 74 62 52 74 62 53 74 62 53 74 62 53 74 61 53 74 61 53 74 61 53
74 61 53 74 61 53 74 61 53 74 61 53 74 61 54 74 61 54 74 61 54 74 61
54 74 61 54 74 60 54 74 60 54 74 60 54 74 60 54 75 60 54 75 60 54 75
60 54 75 60 55 75 60 55 75 60 55 75 60 55 75 60 55 75 59 55 75 59 55
75 59 55 75 59 55 75 59 55 75 59 55 75 59 55 75 59 55 75 59 55 75 59
55 75 59 55 75 59 56 75 58 56 75 58 56 75 58 56 75 58 56 75 58 56 75
58 56 75 58 56 75 58 56 75 58 56 75 58 56 74 58 56 74 58 56 74 58 56
74 57 56 74 57 56 74 57 56 74 57 56 74 57 56 74 57 56 74 57 56 74 57
56 74 57 56 74 57 56 74 57 56 74 57 56 74 56 56 74 56 56 74 56 56 74
56 56 74 56 56 74 56 56 74 56 56 73 56 56 73 56 56 73 56 56 73 56 56
73 55 56 73 55 56 73 55 56 73 55 56 73 55 56 73 55 56 73 55 56 73 55
55 73 55 55 72 55 55 72 55 55 72 54 55 72 54 55 72 54 55 72 54 55 72
54 55 72 54 55 72 54 55 72 54 55 71 54 55 71 54 55 71 54 55 71 53 54
71 53 54 71 53 54 71 53 54 71 53 54 71 53 54 70 53 54 70 53 54 70 53
54 70 53 54 70 53 54 70 52 54 70 52 53 70 52 53 69 52 53 69 52 53 69
52 53 69 52 53 69 52 53 69 52 53 69 52 53 69 51 53 68 51 52 68 51 52
68 51 52 68 51 52 68 51 52 68 51 52 68 51 52 67 51 52 67 51 52 67 51
52 67 50 51 67 50 51 67 50 51 67 50 51 67 50 51 66 50 51 66 50 51 66
50 51 66 50 51 66 50 50 66 49 50 66 49 50 65 49 50 65 49 50 65 49 50
65 49 50 65 49 50 65 49 50 65 49 49 64 49 49 64 49 49 64 48 49 64 48
49 64 48 49 64 48 49 64 48 49 63 48 49 63 48 48 63 48 48 63 48 48 63
48 48 63 48 48 63 48 48 63 47 48 62 47 48 62 47 48 62 47 47 62 47 47
62 47 47 62 47 47 62 47 47 61 47 47 61 47 47 61 47 47 61 46 47 61 46
46 61 46 46 61 46 46 61 46 46 60 46 46 60 46 46 60 46 46 60 46 46 60
46 46 60 46
15 20 23 15 20 23 15 20 23 15 20 23 15 20 23 15 20 23 15 20 23 15 20
23 15 20 23 15 20 23 15 20 23 15 20 23 15 20 23 15 20 23 15 20 23 15
20 23 15 20 23 15 20 23 15 20 23 15 20 23 15 20 23 15 20 23 15 20 23
15 20 23 15 20 23 15 20 23 15 20 23 15 20 23 15 20 23 15 20 23 15 20
23 15 20 23 15 20 23 15 20 23 15 20 23 15 20 23 15 20 23 15 20 23 15
20 23 15 20 23 15 20 23 15 20 23 15 20 23 15 20 23 15 20 23 15 20 23
15 20 23 15 20 23 15 20 23 15 20 23 15 20 23 15 20 23 15 20 23 15 20
23 15 20 23 19 24 18 19 24 18 19 24 18 19 24 18 19 24 18 19 24 18 19
24 18 19 24 18 19 24 18 19 24 18 19 24 18 19 24 18 19 24 18 19 24 18
19 24 18 19 24 18 19 24 18 19 24 18 19 24 18 19 24 18 19 24 18 19 24
18 20 58 80 20 58 79 20 58 79 20 58 79 20 58 79 20 57 78 20 57 78 20
57 78 20 57 77 20 57 77 20 57 77 20 56 76 20 56 76 20 56 76 20 56 76
20 56 75 20 56 75 20 55 75 20 55 74 20 55 74 20 55 74 20 55 74 20 55
73 20 54 73 20 54 73 20 54 73 20 54 72 20 54 72 20 54 72 20 54 71 20
53 71 20 53 71 20 53 71 20 53 70 20 53 70 20 53 70 20 53 70 20 52 69
20 52 69 20 52 69 20 52 69 20 52 68 20 52 68 20 52 68 20 51 68 20 51
67 20 51 67 20 51 67 20 51 67 20 51 66 20 51 66 20 50 66 20 50 66 20
50 65 20 50 65 20 50 65 20 50 65 20 50 65 20 50 64 20 49 64 20 49 64
20 49 64 20 49 63 20 49 63 20 49 63 20 49 63 20 49 63 20 48 62 20 48
62 20 48 62 20 48 62 20 48 62 20 48 61 20 48 61 20 48 61 20 48 61 20
47 61 20 47 60 20 47 60 20 47 60 20 47 60 20 47 60 20 47 59 20 47 59
20 47 59 20 47 59 20 46 59 20 46 58 20 46 58 20 46 58 20 46 58 20 46
58 20 46 58 20 46 57 20 46 57 20 46 57 20 45 57 20 45 57 20 45 57 20
45 56 20 45 56 20 45 56 20 45 56 20 45 56 49 73 65 49 73 65 49 73 65
49 73 65 49 73 65 49 73 65 49 73 65 49 73 65 50 73 65 50 73 64 50 73
64 50 73 64 50 73 64 50 73 64 50 73 64 50 73 64 50 73 64 50 73 64 51
73 63 51 74 63 51 74 63 51 74 63 51 74 63 51 74 63 51 74 63 51 74 63
51 74 63 52 74 63 52 74 62 52 74 62 52 74 62 52 74 62 52 74 62 52 74
62 52 74 62 52 74 62 52 74 62 53 74 62 53 74 62 53 74 61 53 74 61 53
74 61 53 74 61 53 74 61 53 74 61 53 74 61 53 74 61 54 74 61 54 74 61
54 74 61 54 74 61 54 74 60 54 74 60 54 74 60 54 74 60 54 74 60 54 75
60 54 75 60 54 75 60 55 75 60 55 75 60 55 75 60 55 75 60 55 75 59 55
75 59 55 75 59 55 75 59 55 75 59 55 75 59 55 75 59 55 75 59 55 75 59
55 75 59 55 75 59 55 75 59 55 75 59 56 75 58 56 75 58 56 75 58 56 75
58 56 75 58 56 75 58 56 75 58 56 75 58 56 74 58 56 74 58 56 74 58 56
74 58 56 74 57 56 74 57 56 74 57 56 74 57 56 74 57 56 74 57 56 74 57
56 74 57 56 74 57 56 74 57 56 74 57 56 74 57 56 74 56 56 74 56 56 74
56 56 74 56 56 74 56 56 74 56 56 74 56 56 73 56 56 73 56 56 73 56 56
73 56 56 73 56 56 73 55 56 73 55 56 73 55 56 73 55 56 73 55 56 73 55
55 73 55 55 73 55 55 72 55 55 72 55 55 72 55 55 72 54 55 72 54 55 72
54 55 72 54 55 72 54 55 72 54 55 72 54 55 71 54 55 71 54 55 71 54 55
71 54 54 71 53 54 71 53 54 71 53 54 71 53 54 71 53 54 70 53 54 70 53
54 70 53 54 70 53 54 70 53 54 70 52 54 70 52 53 70 52 53 70 52 53 69
52 53 69 52 53 69 52 53 69 52 53 69 52 53 69 52 53 69 52 53 69 51 53
68 51 52 68 51 52 68 51 52 68 51 52 68 51 52 68 51 52 68 51 52 67 51
52 67 51 52 67 51 51 67 50 51 67 50 51 67 50 51 67 50 51 67 50 51 66
50 51 66 50 51 66 50 51 66 50 51 66 50 50 66 49 50 66 49 50 65 49 50
65 49 50 65 49 50 65 49 50 65 49 50 65 49 50 65 49 49 64 49 49 64 49
49 64 49 49 64 48 49 64 48 49 64 48 49 64 48 49 63 48 49 63 48 48 63
48 48 63 48 48 63 48 48 63 48 48 63 48 48 63 47 48 62 47 48 62 47 48
62 47 47 62 47 47 62 47 47 62 47 47 62 47 47 62 47 47 61 47 47 61 47
47 61 47 47 61 46 46 61 46 46 61 46 46 61 46 46 60 46 46 60 46 46 60
46 46 60 46
15 20 23 15 20 23 15 20 23 15 20 23 15 20 23 15 20 23 15 20 23 15 20
23 15 20 23 15 20 23 15 20 23 15 20 23 15 20 23 15 20 23 15 20 23 15
20 23 15 20 23 15 20 23 15 20 23 15 20 23 15 20 23 15 20 23 15 20 23
15 20 23 15 20 23 15 20 23 15 20 23 15 20 23 15 20 23 15 20 23 15 20
23 15 20 23 15 20 23 15 20 23 15 20 23 15 20 23 15 20 23 15 20 23 15
20 23 15 20 23 15 20 23 15 20 23 15 20 23 15 20 23 15 20 23 15 20 23
15 20 23 15 20 23 15 20 23 15 20 23 15 20 23 15 20 23 15 20 23 19 24
18 19 24 18 19 24 18 19 24 18 19 24 18 19 24 18 19 24 18 19 24 18 19
24 18 19 24 18 19 24 18 19 24 18 19 24 18 19 24 18 19 24 18 19 24 18
19 24 18 19 24 18 19 24 18 19 24 18 19 24 18 20 59 81 20 59 80 20 58
80 20 58 80 20 58 79 20 58 79 20 58 79 20 58 79 20 57 78 20 57 78 20
57 78 20 57 77 20 57 77 20 57 77 20 56 77 20 56 76 20 56 76 20 56 76
20 56 75 20 56 75 20 55 75 20 55 74 20 55 74 20 55 74 20 55 74 20 55
73 20 54 73 20 54 73 20 54 73 20 54 72 20 54 72 20 54 72 20 54 71 20
53 71 20 53 71 20 53 71 20 53 70 20 53 70 20 53 70 20 53 70 20 52 69
20 52 69 20 52 69 20 52 69 20 52 68 20 52 68 20 52 68 20 51 68 20 51
67 20 51 67 20 51 67 20 51 67 20 51 66 20 51 66 20 50 66 20 50 66 20
50 65 20 50 65 20 50 65 20 50 65 20 50 65 20 50 64 20 49 64 20 49 64
20 49 64 20 49 63 20 49 63 20 49 63 20 49 63 20 49 63 20 49 62 20 48
62 20 48 62 20 48 62 20 48 62 20 48 61 20 48 61 20 48 61 20 48 61 20
48 61 20 47 60 20 47 60 20 47 60 20 47 60 20 47 60 20 47 59 20 47 59
20 47 59 20 47 59 20 46 59 20 46 59 20 46 58 20 46 58 20 46 58 20 46
58 20 46 58 20 46 57 20 46 57 20 46 57 20 45 57 20 45 57 20 45 57 20
45 56 20 45 56 20 45 56 20 45 56 20 45 56 49 73 66 49 73 65 49 73 65
49 73 65 49 73 65 49 73 65 49 73 65 49 73 65 49 73 65 50 73 64 50 73
64 50 73 64 50 73 64 50 73 64 50 73 64 50 73 64 50 73 64 50 73 64 51
74 64 51 74 63 51 74 63 51 74 63 51 74 63 51 74 63 51 74 63 51 74 63
51 74 63 51 74 63 52 74 63 52 74 62 52 74 62 52 74 62 52 74 62 52 74
62 52 74 62 52 74 62 52 74 62 52 74 62 53 74 62 53 74 62 53 74 61 53
74 61 53 74 61 53 74 61 53 74 61 53 74 61 53 74 61 53 74 61 54 74 61
54 74 61 54 74 61 54 74 61 54 74 60 54 74 60 54 74 60 54 74 60 54 74
60 54 74 60 54 75 60 54 75 60 54 75 60 55 75 60 55 75 60 55 75 60 55
75 59 55 75 59 55 75 59 55 75 59 55 75 59 55 75 59 55 75 59 55 75 59
55 75 59 55 75 59 55 75 59 55 75 59 55 75 59 55 75 58 55 75 58 56 75
58 56 75 58 56 75 58 56 74 58 56 74 58 56 74 58 56 74 58 56 74 58 56
74 58 56 74 58 56 74 57 56 74 57 56 74 57 56 74 57 56 74 57 56 74 57
56 74 57 56 74 57 56 74 57 56 74 57 56 74 57 56 74 57 56 74 56 56 74
56 56 74 56 56 74 56 56 74 56 56 74 56 56 73 56 56 73 56 56 73 56 56
73 56 56 73 56 56 73 56 56 73 55 56 73 55 56 73 55 56 73 55 55 73 55
55 73 55 55 73 55 55 73 55 55 72 55 55 72 55 55 72 55 55 72 54 55 72
54 55 72 54 55 72 54 55 72 54 55 72 54 55 72 54 55 71 54 55 71 54 55
71 54 55 71 54 54 71 53 54 71 53 54 71 53 54 71 53 54 71 53 54 70 53
54 70 53 54 70 53 54 70 53 54 70 53 54 70 53 54 70 52 53 70 52 53 70
52 53 69 52 53 69 52 53 69 52 53 69 52 53 69 52 53 69 52 53 69 52 53
69 52 53 68 51 52 68 51 52 68 51 52 68 51 52 68 51 52 68 51 52 68 51
52 68 51 52 67 51 52 67 51 52 67 51 51 67 50 51 67 50 51 67 50 51 67
50 51 66 50 51 66 50 51 66 50 51 66 50 51 66 50 50 66 50 50 66 50 50
66 49 50 65 49 50 65 49 50 65 49 50 65 49 50 65 49 50 65 49 49 65 49
49 64 49 49 64 49 49 64 49 49 64 48 49 64 48 49 64 48 49 64 48 49 63
48 49 63 48 48 63 48 48 63 48 48 63 48 48 63 48 48 63 48 48 63 47 48
62 47 48 62 47 48 62 47 47 62 47 47 62 47 47 62 47 47 62 47 47 62 47
47 61 47 47 61 47 47 61 47 47 61 46 46 61 46 46 61 46 46 61 46 46 61
46 46 60 46
15 20 23 15 20 23 15 20 23 15 20 23 15 20 23 15 20 23 15 20 23 15 20
23 15 20 23 15 20 23 15 20 23 15 20 23 15 20 23 15 20 23 15 20 23 15
20 23 15 20 23 15 20 23 15 20 23 15 20 23 15 20 23 15 20 23 15 20 23
15 20 23 15 20 23 15 20 23 15 20 23 15 20 23 15 20 23 15 20 23 15 20
23 15 20 23 15 20 23 15 20 23 15 20 23 15 20 23 15 20 23 15 20 23 15
20 23 15 20 23 15 20 23 15 20 23 15 20 23 15 20 23 15 20 23 15 20 23
15 20 23 15 20 23 15 20 23 15 20 23 15 20 23 19 24 18 19 24 18 19 24
18 19 24 18 19 24 18 19 24 18 19 24 18 19 24 18 19 24 18 19 24 18 19
24 18 19 24 18 19 24 18 19 24 18 19 24 18 19 24 18 19 24 18 19 24 18
19 24 18 20 59 82 20 59 82 20 59 81 20 59 81 20 59 81 20 59 80 20 58
80 20 58 80 20 58 79 20 58 79 20 58 79 20 58 79 20 57 78 20 57 78 20
57 78 20 57 77 20 57 77 20 57 77 20 56 76 20 56 76 20 56 76 20 56 76
20 56 75 20 56 75 20 55 75 20 55 74 20 55 74 20 55 74 20 55 74 20 55
73 20 54 73 20 54 73 20 54 73 20 54 72 20 54 72 20 54 72 20 54 71 20
53 71 20 53 71 20 53 71 20 53 70 20 53 70 20 53 70 20 53 70 20 52 69
20 52 69 20 52 69 20 52 69 20 52 68 20 52 68 20 52 68 20 51 68 20 51
67 20 51 67 20 51 67 20 51 67 20 51 66 20 51 66 20 50 66 20 50 66 20
50 65 20 50 65 20 50 65 20 50 65 20 50 65 20 50 64 20 49 64 20 49 64
20 49 64 20 49 63 20 49 63 20 49 63 20 49 63 20 49 63 20 49 62 20 48
62 20 48 62 20 48 62 20 48 62 20 48 61 20 48 61 20 48 61 20 48 61 20
48 61 20 47 60 20 47 60 20 47 60 20 47 60 20 47 60 20 47 59 20 47 59
20 47 59 20 47 59 20 46 59 20 46 59 20 46 58 20 46 58 20 46 58 20 46
58 20 46 58 20 46 58 20 46 57 20 46 57 20 46 57 20 45 57 20 45 57 20
45 57 20 45 56 20 45 56 20 45 56 20 45 56 49 73 66 49 73 65 49 73 65
49 73 65 49 73 65 49 73 65 49 73 65 49 73 65 49 73 65 50 73 65 50 73
64 50 73 64 50 73 64 50 73 64 50 73 64 50 73 64 50 73 64 50 73 64 50
73 64 51 74 63 51 74 63 51 74 63 51 74 63 51 74 63 51 74 63 51 74 63
51 74 63 51 74 63 52 74 63 52 74 63 52 74 62 52 74 62 52 74 62 52 74
62 52 74 62 52 74 62 52 74 62 52 74 62 52 74 62 53 74 62 53 74 62 53
74 61 53 74 61 53 74 61 53 74 61 53 74 61 53 74 61 53 74 61 53 74 61
53 74 61 54 74 61 54 74 61 54 74 60 54 74 60 54 74 60 54 74 60 54 74
60 54 74 60 54 74 60 54 74 60 54 74 60 54 74 60 54 74 60 55 75 60 55
75 60 55 75 59 55 75 59 55 75 59 55 75 59 55 75 59 55 75 59 55 75 59
55 75 59 55 75 59 55 75 59 55 75 59 55 75 59 55 75 58 55 74 58 55 74
58 55 74 58 55 74 58 56 74 58 56 74 58 56 74 58 56 74 58 56 74 58 56
74 58 56 74 58 56 74 58 56 74 57 56 74 57 56 74 57 56 74 57 56 74 57
56 74 57 56 74 57 56 74 57 56 74 57 56 74 57 56 74 57 56 74 57 56 74
56 56 74 56 56 74 56 56 74 56 56 74 56 56 73 56 56 73 56 56 73 56 56
73 56 56 73 56 56 73 56 56 73 56 56 73 55 56 73 55 55 73 55 55 73 55
55 73 55 55 73 55 55 73 55 55 72 55 55 72 55 55 72 55 55 72 55 55 72
54 55 72 54 55 72 54 55 72 54 55 72 54 55 72 54 55 72 54 55 71 54 55
71 54 55 71 54 54 71 54 54 71 54 54 71 53 54 71 53 54 71 53 54 71 53
54 70 53 54 70 53 54 70 53 54 70 53 54 70 53 54 70 53 54 70 53 53 70
52 53 70 52 53 69 52 53 69 52 53 69 52 53 69 52 53 69 52 53 69 52 53
69 52 53 69 52 53 68 51 52 68 51 52 68 51 52 68 51 52 68 51 52 68 51
52 68 51 52 68 51 52 67 51 52 67 51 52 67 51 51 67 50 51 67 50 51 67
50 51 67 50 51 67 50 51 66 50 51 66 50 51 66 50 51 66 50 51 66 50 50
66 50 50 66 49 50 65 49 50 65 49 50 65 49 50 65 49 50 65 49 50 65 49
50 65 49 49 65 49 49 64 49 49 64 49 49 64 49 49 64 48 49 64 48 49 64
48 49 64 48 49 63 48 48 63 48 48 63 48 48 63 48 48 63 48 48 63 48 48
63 48 48 63 48 48 62 47 48 62 47 48 62 47 47 62 47 47 62 47 47 62 47
47 62 47 47 62 47 47 61 47 47 61 47 47 61 47 47 61 47 46 61 46 46 61
46 46 61 46
15 20 23 15 20 23 15 20 23 15 20 23 15 20 23 15 20 23 15 20 23 15 20
23 15 20 23 15 20 23 15 20 23 15 20 23 15 20 23 15 20 23 15 20 23 15
20 23 15 20 23 15 20 23 15 20 23 15 20 23 15 20 23 15 20 23 15 20 23
15 20 23 15 20 23 15 20 23 15 20 23 15 20 23 15 20 23 15 20 23 15 20
23 15 20 23 15 20 23 15 20 23 15 20 23 15 20 23 15 20 23 15 20 23 15
20 23 15 20 23 15 20 23 15 20 23 15 20 23 15 20 23 15 20 23 15 20 23
15 20 23 15 20 23 19 24 18 19 24 18 19 24 18 19 24 18 19 24 18 19 24
18 19 24 18 19 24 18 19 24 18 19 24 18 19 24 18 19 24 18 19 24 18 19
24 18 19 24 18 19 24 18 19 24 18 19 24 18 19 24 18 20 60 83 20 60 83
20 60 82 20 59 82 20 59 82 20 59 81 20 59 81 20 59 81 20 59 80 20 58
80 20 58 80 20 58 79 20 58 79 20 58 79 20 58 79 20 57 78 20 57 78 20
57 78 20 57 77 20 57 77 20 57 77 20 56 76 20 56 76 20 56 76 20 56 76
20 56 75 20 56 75 20 55 75 20 55 74 20 55 74 20 55 74 20 55 74 20 55
73 20 54 73 20 54 73 20 54 72 20 54 72 20 54 72 20 54 72 20 54 71 20
53 71 20 53 71 20 53 71 20 53 70 20 53 70 20 53 70 20 53 70 20 52 69
20 52 69 20 52 69 20 52 69 20 52 68 20 52 68 20 52 68 20 51 68 20 51
67 20 51 67 20 51 67 20 51 67 20 51 66 20 51 66 20 50 66 20 50 66 20
50 65 20 50 65 20 50 65 20 50 65 20 50 65 20 50 64 20 49 64 20 49 64
20 49 64 20 49 63 20 49 63 20 49 63 20 49 63 20 49 63 20 49 62 20 48
62 20 48 62 20 48 62 20 48 62 20 48 61 20 48 61 20 48 61 20 48 61 20
48 61 20 47 60 20 47 60 20 47 60 20 47 60 20 47 60 20 47 60 20 47 59
20 47 59 20 47 59 20 47 59 20 46 59 20 46 58 20 46 58 20 46 58 20 46
58 20 46 58 20 46 58 20 46 57 20 46 57 20 46 57 20 45 57 20 45 57 20
45 57 20 45 56 20 45 56 20 45 56 20 45 56 49 73 66 49 73 66 49 73 65
49 73 65 49 73 65 49 73 65 49 73 65 49 73 65 49 73 65 50 73 65 50 73
64 50 73 64 50 73 64 50 73 64 50 73 64 50 73 64 50 73 64 50 73 64 50
73 64 51 73 64 51 74 63 51 74 63 51 74 63 51 74 63 51 74 63 51 74 63
51 74 63 51 74 63 51 74 63 52 74 63 52 74 62 52 74 62 52 74 62 52 74
62 52 74 62 52 74 62 52 74 62 52 74 62 52 74 62 52 74 62 53 74 62 53
74 61 53 74 61 53 74 61 53 74 61 53 74 61 53 74 61 53 74 61 53 74 61
53 74 61 53 74 61 54 74 61 54 74 61 54 74 60 54 74 60 54 74 60 54 74
60 54 74 60 54 74 60 54 74 60 54 74 60 54 74 60 54 74 60 54 74 60 54
74 60 55 74 59 55 74 59 55 74 59 55 74 59 55 74 59 55 74 59 55 74 59
55 74 59 55 74 59 55 74 59 55 74 59 55 74 59 55 74 59 55 74 58 55 74
58 55 74 58 55 74 58 55 74 58 55 74 58 55 74 58 55 74 58 56 74 58 56
74 58 56 74 58 56 74 58 56 74 58 56 74 57 56 74 57 56 74 57 56 74 57
56 74 57 56 74 57 56 74 57 56 74 57 56 74 57 56 74 57 56 74 57 56 74
57 56 74 56 56 74 56 56 74 56 56 73 56 56 73 56 56 73 56 56 73 56 56
73 56 56 73 56 56 73 56 55 73 56 55 73 56 55 73 55 55 73 55 55 73 55
55 73 55 55 73 55 55 73 55 55 72 55 55 72 55 55 72 55 55 72 55 55 72
55 55 72 55 55 72 54 55 72 54 55 72 54 55 72 54 55 72 54 55 71 54 55
71 54 55 71 54 54 71 54 54 71 54 54 71 54 54 71 53 54 71 53 54 71 53
54 71 53 54 70 53 54 70 53 54 70 53 54 70 53 54 70 53 54 70 53 53 70
53 53 70 52 53 70 52 53 69 52 53 69 52 53 69 52 53 69 52 53 69 52 53
69 52 53 69 52 53 69 52 53 68 52 52 68 51 52 68 51 52 68 51 52 68 51
52 68 51 52 68 51 52 68 51 52 67 51 52 67 51 52 67 51 51 67 51 51 67
50 51 67 50 51 67 50 51 67 50 51 66 50 51 66 50 51 66 50 51 66 50 51
66 50 50 66 50 50 66 50 50 66 49 50 65 49 50 65 49 50 65 49 50 65 49
50 65 49 50 65 49 49 65 49 49 64 49 49 64 49 49 64 49 49 64 49 49 64
48 49 64 48 49 64 48 49 64 48 49 63 48 48 63 48 48 63 48 48 63 48 48
63 48 48 63 48 48 63 48 48 63 48 48 62 47 48 62 47 48 62 47 47 62 47
47 62 47 47 62 47 47 62 47 47 62 47 47 61 47 47 61 47 47 61 47 47 61
47 46 61 46
15 20 23 15 20 23 15 20 23 15 20 23 15 20 23 15 20 23 15 20 23 15 20
23 15 20 23 15 20 23 15 20 23 15 20 23 15 20 23 15 20 23 15 20 23 15
20 23 15 20 23 15 20 23 15 20 23 15 20 23 15 20 23 15 20 23 15 20 23
15 20 23 15 20 23 15 20 23 15 20 23 15 20 23 15 20 23 15 20 23 15 20
23 15 20 23 15 20 23 15 20 23 15 20 23 15 20 23 15 20 23 15 20 23 15
20 23 15 20 23 15 20 23 15 20 23 15 20 23 15 20 23 15 20 23 19 24 18
19 24 18 19 24 18 19 24 18 19 24 18 19 24 18 19 24 18 19 24 18 19 24
18 19 24 18 19 24 18 19 24 18 19 24 18 19 24 18 19 24 18 19 24 18 19
24 18 19 24 18 20 61 84 20 60 84 20 60 83 20 60 83 20 60 83 20 60 82
20 60 82 20 59 82 20 59 82 20 59 81 20 59 81 20 59 81 20 58 80 20 58
80 20 58 80 20 58 79 20 58 79 20 58 79 20 57 78 20 57 78 20 57 78 20
57 78 20 57 77 20 57 77 20 56 77 20 56 76 20 56 76 20 56 76 20 56 75
20 56 75 20 55 75 20 55 75 20 55 74 20 55 74 20 55 74 20 55 74 20 55
73 20 54 73 20 54 73 20 54 72 20 54 72 20 54 72 20 54 72 20 53 71 20
53 71 20 53 71 20 53 71 20 53 70 20 53 70 20 53 70 20 52 70 20 52 69
20 52 69 20 52 69 20 52 69 20 52 68 20 52 68 20 52 68 20 51 68 20 51
67 20 51 67 20 51 67 20 51 67 20 51 66 20 51 66 20 50 66 20 50 66 20
50 65 20 50 65 20 50 65 20 50 65 20 50 65 20 50 64 20 49 64 20 49 64
20 49 64 20 49 63 20 49 63 20 49 63 20 49 63 20 49 63 20 49 62 20 48
62 20 48 62 20 48 62 20 48 62 20 48 61 20 48 61 20 48 61 20 48 61 20
48 61 20 47 60 20 47 60 20 47 60 20 47 60 20 47 60 20 47 60 20 47 59
20 47 59 20 47 59 20 47 59 20 46 59 20 46 58 20 46 58 20 46 58 20 46
58 20 46 58 20 46 58 20 46 57 20 46 57 20 46 57 20 45 57 20 45 57 20
45 57 20 45 56 20 45 56 20 45 56 20 45 56 49 73 66 49 73 66 49 73 65
49 73 65 49 73 65 49 73 65 49 73 65 49 73 65 49 73 65 49 73 65 50 73
65 50 73 64 50 73 64 50 73 64 50 73 64 50 73 64 50 73 64 50 73 64 50
73 64 50 73 64 51 73 63 51 73 63 51 74 63 51 74 63 51 74 63 51 74 63
51 74 63 51 74 63 51 74 63 51 74 63 52 74 62 52 74 62 52 74 62 52 74
62 52 74 62 52 74 62 52 74 62 52 74 62 52 74 62 52 74 62 52 74 62 53
74 62 53 74 61 53 74 61 53 74 61 53 74 61 53 74 61 53 74 61 53 74 61
53 74 61 53 74 61 53 74 61 53 74 61 54 74 60 54 74 60 54 74 60 54 74
60 54 74 60 54 74 60 54 74 60 54 74 60 54 74 60 54 74 60 54 74 60 54
74 60 54 74 60 54 74 59 55 74 59 55 74 59 55 74 59 55 74 59 55 74 59
55 74 59 55 74 59 55 74 59 55 74 59 55 74 59 55 74 59 55 74 59 55 74
58 55 74 58 55 74 58 55 74 58 55 74 58 55 74 58 55 74 58 55 74 58 55
74 58 55 74 58 55 74 58 55 74 58 55 74 57 55 74 57 55 74 57 56 74 57
56 74 57 56 74 57 56 74 57 56 74 57 56 74 57 56 74 57 56 74 57 56 74
57 56 74 57 56 74 56 56 73 56 56 73 56 56 73 56 55 73 56 55 73 56 55
73 56 55 73 56 55 73 56 55 73 56 55 73 56 55 73 56 55 73 55 55 73 55
55 73 55 55 73 55 55 73 55 55 72 55 55 72 55 55 72 55 55 72 55 55 72
55 55 72 55 55 72 55 55 72 54 55 72 54 55 72 54 55 72 54 55 72 54 55
71 54 54 71 54 54 71 54 54 71 54 54 71 54 54 71 54 54 71 53 54 71 53
54 71 53 54 71 53 54 70 53 54 70 53 54 70 53 54 70 53 54 70 53 53 70
53 53 70 53 53 70 52 53 70 52 53 69 52 53 69 52 53 69 52 53 69 52 53
69 52 53 69 52 53 69 52 53 69 52 52 68 52 52 68 52 52 68 51 52 68 51
52 68 51 52 68 51 52 68 51 52 68 51 52 67 51 52 67 51 52 67 51 51 67
51 51 67 51 51 67 50 51 67 50 51 67 50 51 66 50 51 66 50 51 66 50 51
66 50 51 66 50 50 66 50 50 66 50 50 66 50 50 65 49 50 65 49 50 65 49
50 65 49 50 65 49 50 65 49 50 65 49 49 65 49 49 64 49 49 64 49 49 64
49 49 64 49 49 64 48 49 64 48 49 64 48 49 64 48 49 63 48 48 63 48 48
63 48 48 63 48 48 63 48 48 63 48 48 63 48 48 63 48 48 62 47 48 62 47
47 62 47 47 62 47 47 62 47 47 62 47 47 62 47 47 62 47 47 61 47 47 61
47 47 61 47
15 20 23 15 20 23 15 20 23 15 20 23 15 20 23 15 20 23 15 20 23 15 20
23 15 20 23 15 20 23 15 20 23 15 20 23 15 20 23 15 20 23 15 20 23 15
20 23 15 20 23 15 20 23 15 20 23 15 20 23 15 20 23 15 20 23 15 20 23
15 20 23 15 20 23 15 20 23 15 20 23 15 20 23 15 20 23 15 20 23 15 20
23 15 20 23 15 20 23 15 20 23 15 20 23 15 20 23 15 20 23 15 20 23 15
20 23 15 20 23 15 20 23 15 20 23 19 24 18 19 24 18 19 24 18 19 24 18
19 24 18 19 24 18 19 24 18 19 24 18 19 24 18 19 24 18 19 24 18 19 24
18 19 24 18 19 24 18 19 24 18 19 24 18 19 24 18 20 61 85 20 61 85 20
61 85 20 61 84 20 60 84 20 60 84 20 60 83 20 60 83 20 60 83 20 60 82
20 59 82 20 59 82 20 59 81 20 59 81 20 59 81 20 59 80 20 58 80 20 58
80 20 58 80 20 58 79 20 58 79 20 58 79 20 57 78 20 57 78 20 57 78 20
57 77 20 57 77 20 57 77 20 56 77 20 56 76 20 56 76 20 56 76 20 56 75
20 56 75 20 55 75 20 55 75 20 55 74 20 55 74 20 55 74 20 55 73 20 54
73 20 54 73 20 54 73 20 54 72 20 54 72 20 54 72 20 54 72 20 53 71 20
53 71 20 53 71 20 53 70 20 53 70 20 53 70 20 53 70 20 52 69 20 52 69
20 52 69 20 52 69 20 52 68 20 52 68 20 52 68 20 51 68 20 51 67 20 51
67 20 51 67 20 51 67 20 51 67 20 51 66 20 51 66 20 50 66 20 50 66 20
50 65 20 50 65 20 50 65 20 50 65 20 50 65 20 50 64 20 49 64 20 49 64
20 49 64 20 49 63 20 49 63 20 49 63 20 49 63 20 49 63 20 49 62 20 48
62 20 48 62 20 48 62 20 48 62 20 48 61 20 48 61 20 48 61 20 48 61 20
48 61 20 47 60 20 47 60 20 47 60 20 47 60 20 47 60 20 47 60 20 47 59
20 47 59 20 47 59 20 47 59 20 46 59 20 46 58 20 46 58 20 46 58 20 46
58 20 46 58 20 46 58 20 46 57 20 46 57 20 46 57 20 45 57 20 45 57 20
45 57 20 45 56 20 45 56 20 45 56 20 45 56 48 73 66 49 73 66 49 73 65
49 73 65 49 73 65 49 73 65 49 73 65 49 73 65 49 73 65 49 73 65 49 73
65 50 73 64 50 73 64 50 73 64 50 73 64 50 73 64 50 73 64 50 73 64 50
73 64 50 73 64 50 73 63 51 73 63 51 73 63 51 73 63 51 73 63 51 74 63
51 74 63 51 74 63 51 74 63 51 74 63 51 74 63 52 74 62 52 74 62 52 74
62 52 74 62 52 74 62 52 74 62 52 74 62 52 74 62 52 74 62 52 74 62 52
74 62 52 74 61 53 74 61 53 74 61 53 74 61 53 74 61 53 74 61 53 74 61
53 74 61 53 74 61 53 74 61 53 74 61 53 74 61 53 74 60 54 74 60 54 74
60 54 74 60 54 74 60 54 74 60 54 74 60 54 74 60 54 74 60 54 74 60 54
74 60 54 74 60 54 74 59 54 74 59 54 74 59 54 74 59 55 74 59 55 74 59
55 74 59 55 74 59 55 74 59 55 74 59 55 74 59 55 74 59 55 74 59 55 74
58 55 74 58 55 74 58 55 74 58 55 74 58 55 74 58 55 74 58 55 74 58 55
74 58 55 74 58 55 74 58 55 74 58 55 74 58 55 74 57 55 74 57 55 74 57
55 74 57 55 74 57 55 74 57 55 74 57 55 74 57 55 74 57 55 74 57 55 74
57 55 74 57 55 73 57 55 73 56 55 73 56 55 73 56 55 73 56 55 73 56 55
73 56 55 73 56 55 73 56 55 73 56 55 73 56 55 73 56 55 73 56 55 73 55
55 73 55 55 73 55 55 72 55 55 72 55 55 72 55 55 72 55 55 72 55 55 72
55 55 72 55 55 72 55 55 72 55 55 72 54 55 72 54 55 72 54 55 72 54 54
71 54 54 71 54 54 71 54 54 71 54 54 71 54 54 71 54 54 71 54 54 71 53
54 71 53 54 71 53 54 70 53 54 70 53 54 70 53 54 70 53 54 70 53 53 70
53 53 70 53 53 70 53 53 70 53 53 69 52 53 69 52 53 69 52 53 69 52 53
69 52 53 69 52 53 69 52 53 69 52 53 69 52 52 68 52 52 68 52 52 68 51
52 68 51 52 68 51 52 68 51 52 68 51 52 68 51 52 67 51 52 67 51 52 67
51 51 67 51 51 67 51 51 67 50 51 67 50 51 67 50 51 67 50 51 66 50 51
66 50 51 66 50 51 66 50 50 66 50 50 66 50 50 66 50 50 66 50 50 65 49
50 65 49 50 65 49 50 65 49 50 65 49 50 65 49 49 65 49 49 65 49 49 64
49 49 64 49 49 64 49 49 64 49 49 64 48 49 64 48 49 64 48 49 64 48 48
63 48 48 63 48 48 63 48 48 63 48 48 63 48 48 63 48 48 63 48 48 63 48
48 62 47 48 62 47 47 62 47 47 62 47 47 62 47 47 62 47 47 62 47 47 62
47 47 61 47
15 20 23 15 20 23 15 20 23 15 20 23 15 20 23 15 20 23 15 20 23 15 20
23 15 20 23 15 20 23 15 20 23 15 20 23 15 20 23 15 20 23 15 20 23 15
20 23 15 20 23 15 20 23 15 20 23 15 20 23 15 20 23 15 20 23 15 20 23
15 20 23 15 20 23 15 20 23 15 20 23 15 20 23 15 20 23 15 20 23 15 20
23 15 20 23 15 20 23 15 20 23 15 20 23 15 20 23 15 20 23 15 20 23 19
24 18 19 24 18 19 24 18 19 24 18 19 24 18 19 24 18 19 24 18 19 24 18
19 24 18 19 24 18 19 24 18 19 24 18 19 24 18 19 24 18 19 24 18 19 24
18 20 62 87 20 62 86 20 62 86 20 61 86 20 61 85 20 61 85 20 61 85 20
61 84 20 61 84 20 60 84 20 60 83 20 60 83 20 60 83 20 60 82 20 60 82
20 59 82 20 59 82 20 59 81 20 59 81 20 59 81 20 58 80 20 58 80 20 58
80 20 58 79 20 58 79 20 58 79 20 57 78 20 57 78 20 57 78 20 57 78 20
57 77 20 57 77 20 56 77 20 56 76 20 56 76 20 56 76 20 56 76 20 56 75
20 56 75 20 55 75 20 55 74 20 55 74 20 55 74 20 55 74 20 55 73 20 54
73 20 54 73 20 54 72 20 54 72 20 54 72 20 54 72 20 54 71 20 53 71 20
53 71 20 53 71 20 53 70 20 53 70 20 53 70 20 53 70 20 52 69 20 52 69
20 52 69 20 52 69 20 52 68 20 52 68 20 52 68 20 51 68 20 51 67 20 51
67 20 51 67 20 51 67 20 51 66 20 51 66 20 51 66 20 50 66 20 50 66 20
50 65 20 50 65 20 50 65 20 50 65 20 50 64 20 50 64 20 49 64 20 49 64
20 49 64 20 49 63 20 49 63 20 49 63 20 49 63 20 49 63 20 49 62 20 48
62 20 48 62 20 48 62 20 48 62 20 48 61 20 48 61 20 48 61 20 48 61 20
48 61 20 47 60 20 47 60 20 47 60 20 47 60 20 47 60 20 47 60 20 47 59
20 47 59 20 47 59 20 47 59 20 46 59 20 46 59 20 46 58 20 46 58 20 46
58 20 46 58 20 46 58 20 46 57 20 46 57 20 46 57 20 46 57 20 45 57 20
45 57 20 45 57 20 45 56 20 45 56 20 45 56 48 73 66 49 73 66 49 73 65
49 73 65 49 73 65 49 73 65 49 73 65 49 73 65 49 73 65 49 73 65 49 73
65 49 73 64 50 73 64 50 73 64 50 73 64 50 73 64 50 73 64 50 73 64 50
73 64 50 73 64 50 73 64 50 73 63 51 73 63 51 73 63 51 73 63 51 73 63
51 73 63 51 73 63 51 74 63 51 74 63 51 74 63 51 74 62 51 74 62 52 74
62 52 74 62 52 74 62 52 74 62 52 74 62 52 74 62 52 74 62 52 74 62 52
74 62 52 74 61 52 74 61 53 74 61 53 74 61 53 74 61 53 74 61 53 74 61
53 74 61 53 74 61 53 74 61 53 74 61 53 74 61 53 74 60 53 74 60 53 74
60 54 74 60 54 74 60 54 74 60 54 74 60 54 74 60 54 74 60 54 74 60 54
74 60 54 74 60 54 74 60 54 74 59 54 74 59 54 74 59 54 74 59 54 74 59
54 74 59 54 74 59 55 74 59 55 74 59 55 74 59 55 74 59 55 74 59 55 74
59 55 74 58 55 74 58 55 74 58 55 74 58 55 74 58 55 74 58 55 74 58 55
74 58 55 74 58 55 74 58 55 74 58 55 74 58 55 74 58 55 74 57 55 74 57
55 74 57 55 74 57 55 74 57 55 74 57 55 74 57 55 74 57 55 74 57 55 73
57 55 73 57 55 73 57 55 73 56 55 73 56 55 73 56 55 73 56 55 73 56 55
73 56 55 73 56 55 73 56 55 73 56 55 73 56 55 73 56 55 73 56 55 73 56
55 73 55 55 73 55 55 72 55 55 72 55 55 72 55 55 72 55 55 72 55 55 72
55 55 72 55 55 72 55 55 72 55 55 72 55 55 72 54 55 72 54 54 71 54 54
71 54 54 71 54 54 71 54 54 71 54 54 71 54 54 71 54 54 71 54 54 71 54
54 71 53 54 71 53 54 70 53 54 70 53 54 70 53 54 70 53 54 70 53 53 70
53 53 70 53 53 70 53 53 70 53 53 70 53 53 69 52 53 69 52 53 69 52 53
69 52 53 69 52 53 69 52 53 69 52 53 69 52 52 69 52 52 68 52 52 68 52
52 68 51 52 68 51 52 68 51 52 68 51 52 68 51 52 68 51 52 67 51 52 67
51 51 67 51 51 67 51 51 67 51 51 67 51 51 67 50 51 67 50 51 67 50 51
66 50 51 66 50 51 66 50 51 66 50 50 66 50 50 66 50 50 66 50 50 66 50
50 65 50 50 65 49 50 65 49 50 65 49 50 65 49 50 65 49 49 65 49 49 65
49 49 64 49 49 64 49 49 64 49 49 64 49 49 64 49 49 64 48 49 64 48 49
64 48 48 63 48 48 63 48 48 63 48 48 63 48 48 63 48 48 63 48 48 63 48
48 63 48 48 62 48 48 62 47 47 62 47 47 62 47 47 62 47 47 62 47 47 62
47 47 62 47
15 20 23 15 20 23 15 20 23 15 20 23 15 20 23 15 20 23 15 20 23 15 20
23 15 20 23 15 20 23 15 20 23 15 20 23 15 20 23 15 20 23 15 20 23 15
20 23 15 20 23 15 20 23 15 20 23 15 20 23 15 20 23 15 20 23 15 20 23
15 20 23 15 20 23 15 20 23 15 20 23 15 20 23 15 20 23 15 20 23 15 20
23 15 20 23 15 20 23 15 20 23 15 20 23 19 24 18 19 24 18 19 24 18 19
24 18 19 24 18 19 24 18 19 24 18 19 24 18 19 24 18 19 24 18 19 24 18
19 24 18 19 24 18 19 24 18 19 24 18 20 63 88 20 62 87 20 62 87 20 62
87 20 62 86 20 62 86 20 62 86 20 61 85 20 61 85 20 61 85 20 61 84 20
61 84 20 60 84 20 60 84 20 60 83 20 60 83 20 60 83 20 60 82 20 59 82
20 59 82 20 59 81 20 59 81 20 59 81 20 59 80 20 58 80 20 58 80 20 58
79 20 58 79 20 58 79 20 58 79 20 57 78 20 57 78 20 57 78 20 57 77 20
57 77 20 57 77 20 56 76 20 56 76 20 56 76 20 56 76 20 56 75 20 56 75
20 55 75 20 55 75 20 55 74 20 55 74 20 55 74 20 55 73 20 54 73 20 54
73 20 54 73 20 54 72 20 54 72 20 54 72 20 54 72 20 53 71 20 53 71 20
53 71 20 53 70 20 53 70 20 53 70 20 53 70 20 52 69 20 52 69 20 52 69
20 52 69 20 52 69 20 52 68 20 52 68 20 52 68 20 51 68 20 51 67 20 51
67 20 51 67 20 51 67 20 51 66 20 51 66 20 50 66 20 50 66 20 50 66 20
50 65 20 50 65 20 50 65 20 50 65 20 50 64 20 50 64 20 49 64 20 49 64
20 49 64 20 49 63 20 49 63 20 49 63 20 49 63 20 49 63 20 48 62 20 48
62 20 48 62 20 48 62 20 48 62 20 48 61 20 48 61 20 48 61 20 48 61 20
48 61 20 47 60 20 47 60 20 47 60 20 47 60 20 47 60 20 47 60 20 47 59
20 47 59 20 47 59 20 47 59 20 46 59 20 46 59 20 46 58 20 46 58 20 46
58 20 46 58 20 46 58 20 46 58 20 46 57 20 46 57 20 46 57 20 45 57 20
45 57 20 45 57 20 45 56 20 45 56 20 45 56 48 73 66 48 73 66 49 73 65
49 73 65 49 73 65 49 73 65 49 73 65 49 73 65 49 73 65 49 73 65 49 73
65 49 73 64 49 73 64 50 73 64 50 73 64 50 73 64 50 73 64 50 73 64 50
73 64 50 73 64 50 73 64 50 73 63 50 73 63 51 73 63 51 73 63 51 73 63
51 73 63 51 73 63 51 73 63 51 73 63 51 73 63 51 73 62 51 73 62 51 74
62 52 74 62 52 74 62 52 74 62 52 74 62 52 74 62 52 74 62 52 74 62 52
74 62 52 74 61 52 74 61 52 74 61 52 74 61 53 74 61 53 74 61 53 74 61
53 74 61 53 74 61 53 74 61 53 74 61 53 74 61 53 74 60 53 74 60 53 74
60 53 74 60 53 74 60 53 74 60 54 74 60 54 74 60 54 74 60 54 74 60 54
74 60 54 74 60 54 74 60 54 74 59 54 74 59 54 74 59 54 74 59 54 74 59
54 74 59 54 74 59 54 74 59 54 74 59 54 74 59 54 74 59 55 74 59 55 74
59 55 74 58 55 74 58 55 74 58 55 74 58 55 74 58 55 74 58 55 74 58 55
74 58 55 74 58 55 74 58 55 74 58 55 74 58 55 74 58 55 74 57 55 74 57
55 74 57 55 74 57 55 74 57 55 74 57 55 73 57 55 73 57 55 73 57 55 73
57 55 73 57 55 73 57 55 73 57 55 73 56 55 73 56 55 73 56 55 73 56 55
73 56 55 73 56 55 73 56 55 73 56 55 73 56 55 73 56 55 73 56 55 73 56
55 73 55 55 72 55 55 72 55 55 72 55 55 72 55 55 72 55 55 72 55 55 72
55 55 72 55 55 72 55 55 72 55 55 72 55 54 72 54 54 72 54 54 71 54 54
71 54 54 71 54 54 71 54 54 71 54 54 71 54 54 71 54 54 71 54 54 71 54
54 71 54 54 71 53 54 70 53 54 70 53 54 70 53 54 70 53 54 70 53 53 70
53 53 70 53 53 70 53 53 70 53 53 70 53 53 69 53 53 69 52 53 69 52 53
69 52 53 69 52 53 69 52 53 69 52 53 69 52 52 69 52 52 68 52 52 68 52
52 68 52 52 68 52 52 68 51 52 68 51 52 68 51 52 68 51 52 68 51 52 67
51 52 67 51 51 67 51 51 67 51 51 67 51 51 67 51 51 67 51 51 67 50 51
67 50 51 66 50 51 66 50 51 66 50 51 66 50 50 66 50 50 66 50 50 66 50
50 66 50 50 65 50 50 65 49 50 65 49 50 65 49 50 65 49 50 65 49 49 65
49 49 65 49 49 64 49 49 64 49 49 64 49 49 64 49 49 64 49 49 64 49 49
64 48 49 64 48 49 64 48 48 63 48 48 63 48 48 63 48 48 63 48 48 63 48
48 63 48 48 63 48 48 63 48 48 62 48 48 62 47 47 62 47 47 62 47 47 62
47 47 62 47
15 20 23 15 20 23 15 20 23 15 20 23 15 20 23 15 20 23 15 20 23 15 20
23 15 20 23 15 20 23 15 20 23 15 20 23 15 20 23 15 20 23 15 20 23 15
20 23 15 20 23 15 20 23 15 20 23 15 20 23 15 20 23 15 20 23 15 20 23
15 20 23 15 20 23 15 20 23 15 20 23 15 20 23 15 20 23 15 20 23 15 20
23 19 24 18 19 24 18 19 24 18 19 24 18 19 24 18 19 24 18 19 24 18 19
24 18 19 24 18 19 24 18 19 24 18 19 24 18 19 24 18 19 24 18 20 63 89
20 63 89 20 63 88 20 63 88 20 63 88 20 62 87 20 62 87 20 62 87 20 62
86 20 62 86 20 62 86 20 61 85 20 61 85 20 61 85 20 61 85 20 61 84 20
60 84 20 60 84 20 60 83 20 60 83 20 60 83 20 60 82 20 59 82 20 59 82
20 59 81 20 59 81 20 59 81 20 59 80 20 58 80 20 58 80 20 58 80 20 58
79 20 58 79 20 58 79 20 57 78 20 57 78 20 57 78 20 57 77 20 57 77 20
57 77 20 56 77 20 56 76 20 56 76 20 56 76 20 56 75 20 56 75 20 55 75
20 55 75 20 55 74 20 55 74 20 55 74 20 55 73 20 55 73 20 54 73 20 54
73 20 54 72 20 54 72 20 54 72 20 54 72 20 54 71 20 53 71 20 53 71 20
53 71 20 53 70 20 53 70 20 53 70 20 53 70 20 52 69 20 52 69 20 52 69
20 52 69 20 52 68 20 52 68 20 52 68 20 51 68 20 51 67 20 51 67 20 51
67 20 51 67 20 51 67 20 51 66 20 51 66 20 50 66 20 50 66 20 50 65 20
50 65 20 50 65 20 50 65 20 50 65 20 50 64 20 49 64 20 49 64 20 49 64
20 49 64 20 49 63 20 49 63 20 49 63 20 49 63 20 49 63 20 48 62 20 48
62 20 48 62 20 48 62 20 48 62 20 48 61 20 48 61 20 48 61 20 48 61 20
48 61 20 47 60 20 47 60 20 47 60 20 47 60 20 47 60 20 47 60 20 47 59
20 47 59 20 47 59 20 47 59 20 46 59 20 46 58 20 46 58 20 46 58 20 46
58 20 46 58 20 46 58 20 46 58 20 46 57 20 46 57 20 46 57 20 45 57 20
45 57 20 45 57 20 45 56 20 45 56 20 45 56 48 73 66 48 73 66 48 73 65
49 73 65 49 73 65 49 73 65 49 73 65 49 73 65 49 73 65 49 73 65 49 73
65 49 73 64 49 73 64 49 73 64 50 73 64 50 73 64 50 73 64 50 73 64 50
73 64 50 73 64 50 73 64 50 73 63 50 73 63 50 73 63 50 73 63 51 73 63
51 73 63 51 73 63 51 73 63 51 73 63 51 73 63 51 73 62 51 73 62 51 73
62 51 73 62 51 73 62 52 73 62 52 73 62 52 73 62 52 74 62 52 74 62 52
74 62 52 74 62 52 74 61 52 74 61 52 74 61 52 74 61 52 74 61 53 74 61
53 74 61 53 74 61 53 74 61 53 74 61 53 74 61 53 74 61 53 74 60 53 74
60 53 74 60 53 74 60 53 74 60 53 74 60 53 74 60 53 74 60 54 74 60 54
74 60 54 74 60 54 74 60 54 74 59 54 74 59 54 74 59 54 74 59 54 74 59
54 74 59 54 74 59 54 74 59 54 74 59 54 74 59 54 74 59 54 74 59 54 74
59 54 74 58 54 74 58 55 74 58 55 74 58 55 74 58 55 74 58 55 74 58 55
74 58 55 74 58 55 74 58 55 74 58 55 74 58 55 74 58 55 74 57 55 74 57
55 73 57 55 73 57 55 73 57 55 73 57 55 73 57 55 73 57 55 73 57 55 73
57 55 73 57 55 73 57 55 73 57 55 73 56 55 73 56 55 73 56 55 73 56 55
73 56 55 73 56 55 73 56 55 73 56 55 73 56 55 73 56 55 73 56 55 72 56
55 72 56 55 72 55 55 72 55 55 72 55 55 72 55 55 72 55 55 72 55 55 72
55 55 72 55 54 72 55 54 72 55 54 72 55 54 72 55 54 72 54 54 71 54 54
71 54 54 71 54 54 71 54 54 71 54 54 71 54 54 71 54 54 71 54 54 71 54
54 71 54 54 71 54 54 70 53 54 70 53 54 70 53 54 70 53 53 70 53 53 70
53 53 70 53 53 70 53 53 70 53 53 70 53 53 69 53 53 69 53 53 69 52 53
69 52 53 69 52 53 69 52 53 69 52 53 69 52 52 69 52 52 69 52 52 68 52
52 68 52 52 68 52 52 68 52 52 68 51 52 68 51 52 68 51 52 68 51 52 68
51 52 67 51 51 67 51 51 67 51 51 67 51 51 67 51 51 67 51 51 67 51 51
67 50 51 67 50 51 66 50 51 66 50 51 66 50 50 66 50 50 66 50 50 66 50
50 66 50 50 66 50 50 65 50 50 65 50 50 65 49 50 65 49 50 65 49 50 65
49 49 65 49 49 65 49 49 65 49 49 64 49 49 64 49 49 64 49 49 64 49 49
64 49 49 64 48 49 64 48 49 64 48 48 63 48 48 63 48 48 63 48 48 63 48
48 63 48 48 63 48 48 63 48 48 63 48 48 62 48 48 62 48 47 62 47 47 62
47 47 62 47
15 20 23 15 20 23 15 20 23 15 20 23 15 20 23 15 20 23 15 20 23 15 20
23 15 20 23 15 20 23 15 20 23 15 20 23 15 20 23 15 20 23 15 20 23 15
20 23 15 20 23 15 20 23 15 20 23 15 20 23 15 20 23 15 20 23 15 20 23
15 20 23 15 20 23 15 20 23 19 24 18 19 24 18 19 24 18 19 24 18 19 24
18 19 24 18 19 24 18 19 24 18 19 24 18 19 24 18 19 24 18 19 24 18 19
24 18 19 24 18 20 64 90 20 64 90 20 64 90 20 64 89 20 63 89 20 63 89
20 63 88 20 63 88 20 63 88 20 62 87 20 62 87 20 62 87 20 62 86 20 62
86 20 62 86 20 61 86 20 61 85 20 61 85 20 61 85 20 61 84 20 61 84 20
60 84 20 60 83 20 60 83 20 60 83 20 60 82 20 59 82 20 59 82 20 59 81
20 59 81 20 59 81 20 59 81 20 58 80 20 58 80 20 58 80 20 58 79 20 58
79 20 58 79 20 57 78 20 57 78 20 57 78 20 57 78 20 57 77 20 57 77 20
56 77 20 56 76 20 56 76 20 56 76 20 56 76 20 56 75 20 56 75 20 55 75
20 55 74 20 55 74 20 55 74 20 55 74 20 55 73 20 54 73 20 54 73 20 54
73 20 54 72 20 54 72 20 54 72 20 54 71 20 53 71 20 53 71 20 53 71 20
53 70 20 53 70 20 53 70 20 53 70 20 52 69 20 52 69 20 52 69 20 52 69
20 52 68 20 52 68 20 52 68 20 52 68 20 51 68 20 51 67 20 51 67 20 51
67 20 51 67 20 51 66 20 51 66 20 51 66 20 50 66 20 50 66 20 50 65 20
50 65 20 50 65 20 50 65 20 50 64 20 50 64 20 49 64 20 49 64 20 49 64
20 49 63 20 49 63 20 49 63 20 49 63 20 49 63 20 49 62 20 48 62 20 48
62 20 48 62 20 48 62 20 48 61 20 48 61 20 48 61 20 48 61 20 48 61 20
47 61 20 47 60 20 47 60 20 47 60 20 47 60 20 47 60 20 47 60 20 47 59
20 47 59 20 47 59 20 47 59 20 46 59 20 46 58 20 46 58 20 46 58 20 46
58 20 46 58 20 46 58 20 46 57 20 46 57 20 46 57 20 46 57 20 45 57 20
45 57 20 45 57 20 45 56 20 45 56 48 73 66 48 73 66 48 73 66 48 73 65
48 73 65 49 73 65 49 73 65 49 73 65 49 73 65 49 73 65 49 73 65 49 73
65 49 73 64 49 73 64 49 73 64 49 73 64 50 73 64 50 73 64 50 73 64 50
73 64 50 73 64 50 73 64 50 73 63 50 73 63 50 73 63 50 73 63 50 73 63
51 73 63 51 73 63 51 73 63 51 73 63 51 73 63 51 73 62 51 73 62 51 73
62 51 73 62 51 73 62 51 73 62 51 73 62 52 73 62 52 73 62 52 73 62 52
73 62 52 73 62 52 73 61 52 73 61 52 73 61 52 73 61 52 74 61 52 74 61
52 74 61 52 74 61 53 74 61 53 74 61 53 74 61 53 74 61 53 74 60 53 74
60 53 74 60 53 74 60 53 74 60 53 74 60 53 74 60 53 74 60 53 74 60 53
74 60 53 74 60 54 74 60 54 74 59 54 74 59 54 74 59 54 74 59 54 74 59
54 74 59 54 74 59 54 74 59 54 74 59 54 74 59 54 74 59 54 74 59 54 74
59 54 74 58 54 74 58 54 74 58 54 74 58 54 74 58 54 74 58 54 74 58 54
74 58 54 74 58 55 73 58 55 73 58 55 73 58 55 73 58 55 73 58 55 73 57
55 73 57 55 73 57 55 73 57 55 73 57 55 73 57 55 73 57 55 73 57 55 73
57 55 73 57 55 73 57 55 73 57 55 73 57 55 73 56 55 73 56 55 73 56 55
73 56 55 73 56 55 73 56 55 73 56 55 73 56 55 72 56 55 72 56 55 72 56
55 72 56 55 72 55 55 72 55 55 72 55 55 72 55 54 72 55 54 72 55 54 72
55 54 72 55 54 72 55 54 72 55 54 72 55 54 72 55 54 71 55 54 71 54 54
71 54 54 71 54 54 71 54 54 71 54 54 71 54 54 71 54 54 71 54 54 71 54
54 71 54 54 71 54 54 70 54 54 70 53 54 70 53 53 70 53 53 70 53 53 70
53 53 70 53 53 70 53 53 70 53 53 70 53 53 70 53 53 69 53 53 69 53 53
69 52 53 69 52 53 69 52 53 69 52 53 69 52 52 69 52 52 69 52 52 68 52
52 68 52 52 68 52 52 68 52 52 68 52 52 68 51 52 68 51 52 68 51 52 68
51 52 68 51 51 67 51 51 67 51 51 67 51 51 67 51 51 67 51 51 67 51 51
67 51 51 67 50 51 66 50 51 66 50 51 66 50 51 66 50 50 66 50 50 66 50
50 66 50 50 66 50 50 66 50 50 65 50 50 65 50 50 65 50 50 65 49 50 65
49 50 65 49 49 65 49 49 65 49 49 65 49 49 64 49 49 64 49 49 64 49 49
64 49 49 64 49 49 64 49 49 64 48 49 64 48 48 63 48 48 63 48 48 63 48
48 63 48 48 63 48 48 63 48 48 63 48 48 63 48 48 63 48 48 62 48 48 62
48 47 62 47
15 20 23 15 20 23 15 20 23 15 20 23 15 20 23 15 20 23 15 20 23 15 20
23 15 20 23 15 20 23 15 20 23 15 20 23 15 20 23 15 20 23 15 20 23 15
20 23 15 20 23 15 20 23 15 20 23 15 20 23 15 20 23 19 24 18 19 24 18
19 24 18 19 24 18 19 24 18 19 24 18 19 24 18 19 24 18 19 24 18 19 24
18 19 24 18 19 24 18 19 24 18 20 65 92 20 65 92 20 65 91 20 64 91 20
64 91 20 64 90 20 64 90 20 64 90 20 64 89 20 63 89 20 63 89 20 63 88
20 63 88 20 63 88 20 62 87 20 62 87 20 62 87 20 62 86 20 62 86 20 62
86 20 61 86 20 61 85 20 61 85 20 61 85 20 61 84 20 61 84 20 60 84 20
60 83 20 60 83 20 60 83 20 60 82 20 59 82 20 59 82 20 59 81 20 59 81
20 59 81 20 59 81 20 58 80 20 58 80 20 58 80 20 58 79 20 58 79 20 58
79 20 57 78 20 57 78 20 57 78 20 57 78 20 57 77 20 57 77 20 56 77 20
56 76 20 56 76 20 56 76 20 56 76 20 56 75 20 56 75 20 55 75 20 55 74
20 55 74 20 55 74 20 55 74 20 55 73 20 54 73 20 54 73 20 54 73 20 54
72 20 54 72 20 54 72 20 54 72 20 53 71 20 53 71 20 53 71 20 53 71 20
53 70 20 53 70 20 53 70 20 52 70 20 52 69 20 52 69 20 52 69 20 52 69
20 52 68 20 52 68 20 52 68 20 51 68 20 51 67 20 51 67 20 51 67 20 51
67 20 51 67 20 51 66 20 51 66 20 50 66 20 50 66 20 50 65 20 50 65 20
50 65 20 50 65 20 50 65 20 50 64 20 50 64 20 49 64 20 49 64 20 49 64
20 49 63 20 49 63 20 49 63 20 49 63 20 49 63 20 49 62 20 48 62 20 48
62 20 48 62 20 48 62 20 48 61 20 48 61 20 48 61 20 48 61 20 48 61 20
47 61 20 47 60 20 47 60 20 47 60 20 47 60 20 47 60 20 47 59 20 47 59
20 47 59 20 47 59 20 47 59 20 46 59 20 46 58 20 46 58 20 46 58 20 46
58 20 46 58 20 46 58 20 46 57 20 46 57 20 46 57 20 46 57 20 45 57 20
45 57 20 45 57 20 45 56 20 45 56 48 73 66 48 73 66 48 73 66 48 73 65
48 73 65 48 73 65 49 73 65 49 73 65 49 73 65 49 73 65 49 73 65 49 73
65 49 73 64 49 73 64 49 73 64 49 73 64 49 73 64 50 73 64 50 73 64 50
73 64 50 73 64 50 73 64 50 73 63 50 73 63 50 73 63 50 73 63 50 73 63
50 73 63 50 73 63 51 73 63 51 73 63 51 73 63 51 73 62 51 73 62 51 73
62 51 73 62 51 73 62 51 73 62 51 73 62 51 73 62 51 73 62 52 73 62 52
73 62 52 73 61 52 73 61 52 73 61 52 73 61 52 73 61 52 73 61 52 73 61
52 73 61 52 73 61 52 73 61 52 73 61 53 73 61 53 73 61 53 73 60 53 73
60 53 73 60 53 73 60 53 73 60 53 73 60 53 74 60 53 74 60 53 74 60 53
74 60 53 74 60 53 74 60 53 74 59 53 74 59 54 74 59 54 74 59 54 74 59
54 74 59 54 74 59 54 74 59 54 74 59 54 74 59 54 73 59 54 73 59 54 73
59 54 73 58 54 73 58 54 73 58 54 73 58 54 73 58 54 73 58 54 73 58 54
73 58 54 73 58 54 73 58 54 73 58 54 73 58 54 73 58 54 73 58 54 73 57
54 73 57 54 73 57 54 73 57 54 73 57 54 73 57 55 73 57 55 73 57 55 73
57 55 73 57 55 73 57 55 73 57 55 73 57 55 73 56 55 73 56 55 73 56 55
73 56 55 73 56 55 73 56 55 72 56 54 72 56 54 72 56 54 72 56 54 72 56
54 72 56 54 72 56 54 72 55 54 72 55 54 72 55 54 72 55 54 72 55 54 72
55 54 72 55 54 72 55 54 72 55 54 72 55 54 71 55 54 71 55 54 71 55 54
71 54 54 71 54 54 71 54 54 71 54 54 71 54 54 71 54 54 71 54 54 71 54
54 71 54 54 70 54 54 70 54 53 70 54 53 70 53 53 70 53 53 70 53 53 70
53 53 70 53 53 70 53 53 70 53 53 70 53 53 69 53 53 69 53 53 69 53 53
69 53 53 69 52 53 69 52 53 69 52 52 69 52 52 69 52 52 69 52 52 69 52
52 68 52 52 68 52 52 68 52 52 68 52 52 68 52 52 68 51 52 68 51 52 68
51 52 68 51 51 67 51 51 67 51 51 67 51 51 67 51 51 67 51 51 67 51 51
67 51 51 67 51 51 67 51 51 66 50 51 66 50 51 66 50 50 66 50 50 66 50
50 66 50 50 66 50 50 66 50 50 66 50 50 65 50 50 65 50 50 65 50 50 65
49 50 65 49 50 65 49 49 65 49 49 65 49 49 65 49 49 64 49 49 64 49 49
64 49 49 64 49 49 64 49 49 64 49 49 64 49 49 64 48 48 64 48 48 63 48
48 63 48 48 63 48 48 63 48 48 63 48 48 63 48 48 63 48 48 63 48 48 62
48 48 62 48
15 20 23 15 20 23 15 20 23 15 20 23 15 20 23 15 20 23 15 20 23 15 20
23 15 20 23 15 20 23 15 20 23 15 20 23 15 20 23 15 20 23 15 20 23 19
24 18 19 24 18 19 24 18 19 24 18 19 24 18 19 24 18 19 24 18 19 24 18
19 24 18 19 24 18 19 24 18 19 24 18 19 24 18 20 66 93 20 66 93 20 65
93 20 65 92 20 65 92 20 65 92 20 65 91 20 65 91 20 64 91 20 64 91 20
64 90 20 64 90 20 64 90 20 63 89 20 63 89 20 63 89 20 63 88 20 63 88
20 63 88 20 62 87 20 62 87 20 62 87 20 62 86 20 62 86 20 62 86 20 61
85 20 61 85 20 61 85 20 61 85 20 61 84 20 60 84 20 60 84 20 60 83 20
60 83 20 60 83 20 60 82 20 59 82 20 59 82 20 59 81 20 59 81 20 59 81
20 59 81 20 58 80 20 58 80 20 58 80 20 58 79 20 58 79 20 58 79 20 57
78 20 57 78 20 57 78 20 57 78 20 57 77 20 57 77 20 56 77 20 56 76 20
56 76 20 56 76 20 56 76 20 56 75 20 56 75 20 55 75 20 55 74 20 55 74
20 55 74 20 55 74 20 55 73 20 55 73 20 54 73 20 54 73 20 54 72 20 54
72 20 54 72 20 54 72 20 53 71 20 53 71 20 53 71 20 53 71 20 53 70 20
53 70 20 53 70 20 53 70 20 52 69 20 52 69 20 52 69 20 52 69 20 52 68
20 52 68 20 52 68 20 51 68 20 51 68 20 51 67 20 51 67 20 51 67 20 51
67 20 51 66 20 51 66 20 51 66 20 50 66 20 50 66 20 50 65 20 50 65 20
50 65 20 50 65 20 50 64 20 50 64 20 49 64 20 49 64 20 49 64 20 49 63
20 49 63 20 49 63 20 49 63 20 49 63 20 49 63 20 48 62 20 48 62 20 48
62 20 48 62 20 48 62 20 48 61 20 48 61 20 48 61 20 48 61 20 48 61 20
47 60 20 47 60 20 47 60 20 47 60 20 47 60 20 47 60 20 47 59 20 47 59
20 47 59 20 47 59 20 46 59 20 46 59 20 46 58 20 46 58 20 46 58 20 46
58 20 46 58 20 46 58 20 46 57 20 46 57 20 46 57 20 46 57 20 45 57 20
45 57 20 45 57 20 45 56 20 45 56 48 73 66 48 73 66 48 73 66 48 73 65
48 73 65 48 73 65 48 73 65 49 73 65 49 73 65 49 73 65 49 73 65 49 73
65 49 73 64 49 73 64 49 73 64 49 73 64 49 73 64 49 73 64 50 73 64 50
73 64 50 73 64 50 73 63 50 73 63 50 73 63 50 73 63 50 73 63 50 73 63
50 73 63 50 73 63 50 73 63 51 73 63 51 73 63 51 73 62 51 73 62 51 73
62 51 73 62 51 73 62 51 73 62 51 73 62 51 73 62 51 73 62 51 73 62 51
73 62 52 73 61 52 73 61 52 73 61 52 73 61 52 73 61 52 73 61 52 73 61
52 73 61 52 73 61 52 73 61 52 73 61 52 73 61 52 73 60 52 73 60 53 73
60 53 73 60 53 73 60 53 73 60 53 73 60 53 73 60 53 73 60 53 73 60 53
73 60 53 73 60 53 73 60 53 73 59 53 73 59 53 73 59 53 73 59 53 73 59
53 73 59 54 73 59 54 73 59 54 73 59 54 73 59 54 73 59 54 73 59 54 73
59 54 73 59 54 73 58 54 73 58 54 73 58 54 73 58 54 73 58 54 73 58 54
73 58 54 73 58 54 73 58 54 73 58 54 73 58 54 73 58 54 73 58 54 73 57
54 73 57 54 73 57 54 73 57 54 73 57 54 73 57 54 73 57 54 73 57 54 73
57 54 73 57 54 73 57 54 73 57 54 73 57 54 73 56 54 73 56 54 73 56 54
72 56 54 72 56 54 72 56 54 72 56 54 72 56 54 72 56 54 72 56 54 72 56
54 72 56 54 72 56 54 72 55 54 72 55 54 72 55 54 72 55 54 72 55 54 72
55 54 72 55 54 72 55 54 71 55 54 71 55 54 71 55 54 71 55 54 71 55 54
71 54 54 71 54 54 71 54 54 71 54 54 71 54 54 71 54 54 71 54 54 71 54
54 71 54 53 70 54 53 70 54 53 70 54 53 70 54 53 70 53 53 70 53 53 70
53 53 70 53 53 70 53 53 70 53 53 70 53 53 69 53 53 69 53 53 69 53 53
69 53 53 69 53 53 69 52 52 69 52 52 69 52 52 69 52 52 69 52 52 69 52
52 68 52 52 68 52 52 68 52 52 68 52 52 68 52 52 68 52 52 68 52 52 68
51 52 68 51 51 67 51 51 67 51 51 67 51 51 67 51 51 67 51 51 67 51 51
67 51 51 67 51 51 67 51 51 67 51 51 66 50 51 66 50 51 66 50 50 66 50
50 66 50 50 66 50 50 66 50 50 66 50 50 66 50 50 65 50 50 65 50 50 65
50 50 65 50 50 65 49 49 65 49 49 65 49 49 65 49 49 65 49 49 64 49 49
64 49 49 64 49 49 64 49 49 64 49 49 64 49 49 64 49 49 64 49 48 64 48
48 63 48 48 63 48 48 63 48 48 63 48 48 63 48 48 63 48 48 63 48 48 63
48 48 63 48
15 20 23 15 20 23 15 20 23 15 20 23 15 20 23 15 20 23 15 20 23 15 20
23 19 24 18 19 24 18 19 24 18 19 24 18 19 24 18 19 24 18 19 24 18 19
24 18 19 24 18 19 24 18 19 24 18 19 24 18 19 24 18 20 67 95 20 67 95
20 66 94 20 66 94 20 66 94 20 66 94 20 66 93 20 66 93 20 65 93 20 65
92 20 65 92 20 65 92 20 65 91 20 64 91 20 64 91 20 64 90 20 64 90 20
64 90 20 64 90 20 63 89 20 63 89 20 63 89 20 63 88 20 63 88 20 63 88
20 62 87 20 62 87 20 62 87 20 62 86 20 62 86 20 62 86 20 61 85 20 61
85 20 61 85 20 61 84 20 61 84 20 60 84 20 60 84 20 60 83 20 60 83 20
60 83 20 60 82 20 59 82 20 59 82 20 59 81 20 59 81 20 59 81 20 59 80
20 58 80 20 58 80 20 58 80 20 58 79 20 58 79 20 58 79 20 57 78 20 57
78 20 57 78 20 57 78 20 57 77 20 57 77 20 56 77 20 56 76 20 56 76 20
56 76 20 56 76 20 56 75 20 56 75 20 55 75 20 55 75 20 55 74 20 55 74
20 55 74 20 55 73 20 55 73 20 54 73 20 54 73 20 54 72 20 54 72 20 54
72 20 54 72 20 54 71 20 53 71 20 53 71 20 53 71 20 53 70 20 53 70 20
53 70 20 53 70 20 52 69 20 52 69 20 52 69 20 52 69 20 52 68 20 52 68
20 52 68 20 52 68 20 51 68 20 51 67 20 51 67 20 51 67 20 51 67 20 51
66 20 51 66 20 51 66 20 50 66 20 50 66 20 50 65 20 50 65 20 50 65 20
50 65 20 50 65 20 50 64 20 50 64 20 49 64 20 49 64 20 49 64 20 49 63
20 49 63 20 49 63 20 49 63 20 49 63 20 49 62 20 48 62 20 48 62 20 48
62 20 48 62 20 48 61 20 48 61 20 48 61 20 48 61 20 48 61 20 48 61 20
47 60 20 47 60 20 47 60 20 47 60 20 47 60 20 47 60 20 47 59 20 47 59
20 47 59 20 47 59 20 46 59 20 46 59 20 46 58 20 46 58 20 46 58 20 46
58 20 46 58 20 46 58 20 46 57 20 46 57 20 46 57 20 45 57 20 45 57 20
45 57 20 45 57 20 45 56 20 45 56 48 73 66 48 73 66 48 73 65 48 73 65
48 73 65 48 73 65 48 73 65 48 73 65 49 73 65 49 73 65 49 73 65 49 73
64 49 73 64 49 73 64 49 73 64 49 73 64 49 73 64 49 73 64 49 73 64 49
73 64 50 73 64 50 73 63 50 73 63 50 73 63 50 73 63 50 73 63 50 73 63
50 73 63 50 73 63 50 73 63 50 73 63 50 73 63 51 73 62 51 73 62 51 73
62 51 73 62 51 73 62 51 73 62 51 73 62 51 73 62 51 73 62 51 73 62 51
73 62 51 73 61 51 73 61 52 73 61 52 73 61 52 73 61 52 73 61 52 73 61
52 73 61 52 73 61 52 73 61 52 73 61 52 73 61 52 73 60 52 73 60 52 73
60 52 73 60 52 73 60 53 73 60 53 73 60 53 73 60 53 73 60 53 73 60 53
73 60 53 73 60 53 73 60 53 73 59 53 73 59 53 73 59 53 73 59 53 73 59
53 73 59 53 73 59 53 73 59 53 73 59 53 73 59 53 73 59 54 73 59 54 73
59 54 73 58 54 73 58 54 73 58 54 73 58 54 73 58 54 73 58 54 73 58 54
73 58 54 73 58 54 73 58 54 73 58 54 73 58 54 73 58 54 73 58 54 73 57
54 73 57 54 73 57 54 73 57 54 73 57 54 73 57 54 73 57 54 73 57 54 73
57 54 73 57 54 73 57 54 73 57 54 73 57 54 72 56 54 72 56 54 72 56 54
72 56 54 72 56 54 72 56 54 72 56 54 72 56 54 72 56 54 72 56 54 72 56
54 72 56 54 72 56 54 72 56 54 72 55 54 72 55 54 72 55 54 72 55 54 72
55 54 72 55 54 71 55 54 71 55 54 71 55 54 71 55 54 71 55 54 71 55 54
71 55 54 71 54 54 71 54 54 71 54 54 71 54 54 71 54 53 71 54 53 71 54
53 70 54 53 70 54 53 70 54 53 70 54 53 70 54 53 70 53 53 70 53 53 70
53 53 70 53 53 70 53 53 70 53 53 70 53 53 69 53 53 69 53 53 69 53 53
69 53 53 69 53 52 69 53 52 69 52 52 69 52 52 69 52 52 69 52 52 69 52
52 68 52 52 68 52 52 68 52 52 68 52 52 68 52 52 68 52 52 68 52 52 68
52 52 68 51 51 68 51 51 67 51 51 67 51 51 67 51 51 67 51 51 67 51 51
67 51 51 67 51 51 67 51 51 67 51 51 66 51 51 66 50 51 66 50 50 66 50
50 66 50 50 66 50 50 66 50 50 66 50 50 66 50 50 66 50 50 65 50 50 65
50 50 65 50 50 65 50 50 65 49 49 65 49 49 65 49 49 65 49 49 65 49 49
64 49 49 64 49 49 64 49 49 64 49 49 64 49 49 64 49 49 64 49 48 64 49
48 64 48 48 63 48 48 63 48 48 63 48 48 63 48 48 63 48 48 63 48 48 63
48 48 63 48
19 24 18 19 24 18 19 24 18 19 24 18 19 24 18 19 24 18 19 24 18 19 24
18 19 24 18 19 24 18 19 24 18 19 24 18 19 24 18 20 68 97 20 68 97 20
67 96 20 67 96 20 67 96 20 67 95 20 67 95 20 67 95 20 66 95 20 66 94
20 66 94 20 66 94 20 66 93 20 66 93 20 65 93 20 65 92 20 65 92 20 65
92 20 65 92 20 65 91 20 64 91 20 64 91 20 64 90 20 64 90 20 64 90 20
64 89 20 63 89 20 63 89 20 63 88 20 63 88 20 63 88 20 62 87 20 62 87
20 62 87 20 62 87 20 62 86 20 62 86 20 61 86 20 61 85 20 61 85 20 61
85 20 61 84 20 61 84 20 60 84 20 60 83 20 60 83 20 60 83 20 60 83 20
60 82 20 59 82 20 59 82 20 59 81 20 59 81 20 59 81 20 59 80 20 58 80
20 58 80 20 58 80 20 58 79 20 58 79 20 58 79 20 57 78 20 57 78 20 57
78 20 57 78 20 57 77 20 57 77 20 56 77 20 56 76 20 56 76 20 56 76 20
56 76 20 56 75 20 56 75 20 55 75 20 55 74 20 55 74 20 55 74 20 55 74
20 55 73 20 55 73 20 54 73 20 54 73 20 54 72 20 54 72 20 54 72 20 54
72 20 54 71 20 53 71 20 53 71 20 53 71 20 53 70 20 53 70 20 53 70 20
53 70 20 52 69 20 52 69 20 52 69 20 52 69 20 52 69 20 52 68 20 52 68
20 52 68 20 51 68 20 51 67 20 51 67 20 51 67 20 51 67 20 51 67 20 51
66 20 51 66 20 50 66 20 50 66 20 50 65 20 50 65 20 50 65 20 50 65 20
50 65 20 50 64 20 50 64 20 49 64 20 49 64 20 49 64 20 49 63 20 49 63
20 49 63 20 49 63 20 49 63 20 49 63 20 48 62 20 48 62 20 48 62 20 48
62 20 48 62 20 48 61 20 48 61 20 48 61 20 48 61 20 48 61 20 47 61 20
47 60 20 47 60 20 47 60 20 47 60 20 47 60 20 47 59 20 47 59 20 47 59
20 47 59 20 47 59 20 46 59 20 46 59 20 46 58 20 46 58 20 46 58 20 46
58 20 46 58 20 46 58 20 46 57 20 46 57 20 46 57 20 45 57 20 45 57 20
45 57 20 45 57 20 45 56 48 72 66 48 72 66 48 72 66 48 72 65 48 72 65
48 72 65 48 73 65 48 73 65 48 73 65 48 73 65 49 73 65 49 73 65 49 73
64 49 73 64 49 73 64 49 73 64 49 73 64 49 73 64 49 73 64 49 73 64 49
73 64 49 73 64 50 73 63 50 73 63 50 73 63 50 73 63 50 73 63 50 73 63
50 73 63 50 73 63 50 73 63 50 73 63 50 73 63 50 73 62 50 73 62 51 73
62 51 73 62 51 73 62 51 73 62 51 73 62 51 73 62 51 73 62 51 73 62 51
73 62 51 73 61 51 73 61 51 73 61 51 73 61 51 73 61 52 73 61 52 73 61
52 73 61 52 73 61 52 73 61 52 73 61 52 73 61 52 73 60 52 73 60 52 73
60 52 73 60 52 73 60 52 73 60 52 73 60 52 73 60 53 73 60 53 73 60 53
73 60 53 73 60 53 73 60 53 73 59 53 73 59 53 73 59 53 73 59 53 73 59
53 73 59 53 73 59 53 73 59 53 73 59 53 73 59 53 73 59 53 73 59 53 73
59 53 73 58 53 73 58 53 73 58 53 73 58 54 73 58 54 73 58 54 73 58 54
73 58 54 73 58 54 73 58 54 73 58 54 73 58 54 73 58 54 73 58 54 73 57
54 73 57 54 73 57 54 73 57 54 73 57 54 73 57 54 73 57 54 73 57 54 72
57 54 72 57 54 72 57 54 72 57 54 72 57 54 72 57 54 72 56 54 72 56 54
72 56 54 72 56 54 72 56 54 72 56 54 72 56 54 72 56 54 72 56 54 72 56
54 72 56 54 72 56 54 72 56 54 72 55 54 72 55 54 72 55 54 72 55 54 71
55 54 71 55 54 71 55 54 71 55 54 71 55 54 71 55 54 71 55 54 71 55 54
71 55 54 71 54 53 71 54 53 71 54 53 71 54 53 71 54 53 71 54 53 70 54
53 70 54 53 70 54 53 70 54 53 70 54 53 70 54 53 70 54 53 70 53 53 70
53 53 70 53 53 70 53 53 70 53 53 69 53 53 69 53 53 69 53 53 69 53 53
69 53 52 69 53 52 69 53 52 69 53 52 69 52 52 69 52 52 69 52 52 68 52
52 68 52 52 68 52 52 68 52 52 68 52 52 68 52 52 68 52 52 68 52 52 68
52 51 68 52 51 68 51 51 67 51 51 67 51 51 67 51 51 67 51 51 67 51 51
67 51 51 67 51 51 67 51 51 67 51 51 67 51 51 66 51 51 66 51 50 66 50
50 66 50 50 66 50 50 66 50 50 66 50 50 66 50 50 66 50 50 65 50 50 65
50 50 65 50 50 65 50 50 65 50 49 65 50 49 65 49 49 65 49 49 65 49 49
65 49 49 64 49 49 64 49 49 64 49 49 64 49 49 64 49 49 64 49 49 64 49
48 64 49 48 64 49 48 63 48 48 63 48 48 63 48 48 63 48 48 63 48 48 63
48 48 63 48
19 24 18 19 24 18 20 69 99 20 69 99 20 69 99 20 69 98 20 68 98 20 68
98 20 68 98 20 68 97 20 68 97 20 68 97 20 68 97 20 67 96 20 67 96 20
67 96 20 67 96 20 67 95 20 67 95 20 66 95 20 66 94 20 66 94 20 66 94
20 66 93 20 66 93 20 66 93 20 65 93 20 65 92 20 65 92 20 65 92 20 65
91 20 64 91 20 64 91 20 64 90 20 64 90 20 64 90 20 64 90 20 63 89 20
63 89 20 63 89 20 63 88 20 63 88 20 63 88 20 62 87 20 62 87 20 62 87
20 62 86 20 62 86 20 62 86 20 61 85 20 61 85 20 61 85 20 61 85 20 61
84 20 61 84 20 60 84 20 60 83 20 60 83 20 60 83 20 60 82 20 60 82 20
59 82 20 59 82 20 59 81 20 59 81 20 59 81 20 59 80 20 58 80 20 58 80
20 58 79 20 58 79 20 58 79 20 58 79 20 57 78 20 57 78 20 57 78 20 57
77 20 57 77 20 57 77 20 56 77 20 56 76 20 56 76 20 56 76 20 56 76 20
56 75 20 56 75 20 55 75 20 55 74 20 55 74 20 55 74 20 55 74 20 55 73
20 55 73 20 54 73 20 54 73 20 54 72 20 54 72 20 54 72 20 54 72 20 54
71 20 53 71 20 53 71 20 53 71 20 53 70 20 53 70 20 53 70 20 53 70 20
52 70 20 52 69 20 52 69 20 52 69 20 52 69 20 52 68 20 52 68 20 52 68
20 51 68 20 51 67 20 51 67 20 51 67 20 51 67 20 51 67 20 51 66 20 51
66 20 51 66 20 50 66 20 50 66 20 50 65 20 50 65 20 50 65 20 50 65 20
50 65 20 50 64 20 49 64 20 49 64 20 49 64 20 49 64 20 49 63 20 49 63
20 49 63 20 49 63 20 49 63 20 49 62 20 48 62 20 48 62 20 48 62 20 48
62 20 48 62 20 48 61 20 48 61 20 48 61 20 48 61 20 48 61 20 47 60 20
47 60 20 47 60 20 47 60 20 47 60 20 47 60 20 47 59 20 47 59 20 47 59
20 47 59 20 47 59 20 46 59 20 46 58 20 46 58 20 46 58 20 46 58 20 46
58 20 46 58 20 46 58 20 46 57 20 46 57 20 46 57 20 45 57 20 45 57 20
45 57 20 45 56 20 45 56 48 72 66 48 72 66 48 72 66 48 72 65 48 72 65
48 72 65 48 72 65 48 72 65 48 72 65 48 72 65 48 72 65 48 72 65 49 72
64 49 72 64 49 72 64 49 72 64 49 72 64 49 72 64 49 72 64 49 72 64 49
72 64 49 72 64 49 73 63 49 73 63 50 73 63 50 73 63 50 73 63 50 73 63
50 73 63 50 73 63 50 73 63 50 73 63 50 73 62 50 73 62 50 73 62 50 73
62 50 73 62 51 73 62 51 73 62 51 73 62 51 73 62 51 73 62 51 73 62 51
73 62 51 73 61 51 73 61 51 73 61 51 73 61 51 73 61 51 73 61 51 73 61
51 73 61 52 73 61 52 73 61 52 73 61 52 73 61 52 73 60 52 73 60 52 73
60 52 73 60 52 73 60 52 73 60 52 73 60 52 73 60 52 73 60 52 73 60 52
73 60 52 73 60 53 73 60 53 73 59 53 73 59 53 73 59 53 73 59 53 73 59
53 73 59 53 73 59 53 73 59 53 73 59 53 73 59 53 73 59 53 73 59 53 73
59 53 73 58 53 73 58 53 73 58 53 73 58 53 73 58 53 73 58 53 73 58 53
73 58 53 73 58 53 73 58 53 73 58 54 73 58 54 73 58 54 73 58 54 73 57
54 73 57 54 73 57 54 72 57 54 72 57 54 72 57 54 72 57 54 72 57 54 72
57 54 72 57 54 72 57 54 72 57 54 72 57 54 72 57 54 72 56 54 72 56 54
72 56 54 72 56 54 72 56 54 72 56 54 72 56 54 72 56 54 72 56 54 72 56
54 72 56 54 72 56 54 72 56 54 72 55 54 71 55 54 71 55 54 71 55 54 71
55 54 71 55 54 71 55 54 71 55 54 71 55 53 71 55 53 71 55 53 71 55 53
71 55 53 71 55 53 71 54 53 71 54 53 71 54 53 70 54 53 70 54 53 70 54
53 70 54 53 70 54 53 70 54 53 70 54 53 70 54 53 70 54 53 70 54 53 70
53 53 70 53 53 70 53 53 70 53 53 69 53 53 69 53 53 69 53 52 69 53 52
69 53 52 69 53 52 69 53 52 69 53 52 69 53 52 69 52 52 69 52 52 68 52
52 68 52 52 68 52 52 68 52 52 68 52 52 68 52 52 68 52 52 68 52 51 68
52 51 68 52 51 68 52 51 67 51 51 67 51 51 67 51 51 67 51 51 67 51 51
67 51 51 67 51 51 67 51 51 67 51 51 67 51 51 66 51 50 66 51 50 66 51
50 66 50 50 66 50 50 66 50 50 66 50 50 66 50 50 66 50 50 66 50 50 65
50 50 65 50 50 65 50 50 65 50 49 65 50 49 65 50 49 65 49 49 65 49 49
65 49 49 64 49 49 64 49 49 64 49 49 64 49 49 64 49 49 64 49 49 64 49
49 64 49 48 64 49 48 64 49 48 63 48 48 63 48 48 63 48 48 63 48 48 63
48 48 63 48
20 69 99 20 69 99 20 69 99 20 69 98 20 68 98 20 68 98 20 68 98 20 68
97 20 68 97 20 68 97 20 68 97 20 67 96 20 67 96 20 67 96 20 67 96 20
67 95 20 67 95 20 67 95 20 66 94 20 66 94 20 66 94 20 66 94 20 66 93
20 66 93 20 65 93 20 65 92 20 65 92 20 65 92 20 65 91 20 65 91 20 64
91 20 64 91 20 64 90 20 64 90 20 64 90 20 64 89 20 63 89 20 63 89 20
63 88 20 63 88 20 63 88 20 62 87 20 62 87 20 62 87 20 62 87 20 62 86
20 62 86 20 61 86 20 61 85 20 61 85 20 61 85 20 61 84 20 61 84 20 60
84 20 60 84 20 60 83 20 60 83 20 60 83 20 60 82 20 59 82 20 59 82 20
59 81 20 59 81 20 59 81 20 59 81 20 58 80 20 58 80 20 58 80 20 58 79
20 58 79 20 58 79 20 58 79 20 57 78 20 57 78 20 57 78 20 57 77 20 57
77 20 57 77 20 56 77 20 56 76 20 56 76 20 56 76 20 56 76 20 56 75 20
56 75 20 55 75 20 55 74 20 55 74 20 55 74 20 55 74 20 55 73 20 55 73
20 54 73 20 54 73 20 54 72 20 54 72 20 54 72 20 54 72 20 54 71 20 53
71 20 53 71 20 53 71 20 53 70 20 53 70 20 53 70 20 53 70 20 52 70 20
52 69 20 52 69 20 52 69 20 52 69 20 52 68 20 52 68 20 52 68 20 51 68
20 51 68 20 51 67 20 51 67 20 51 67 20 51 67 20 51 66 20 51 66 20 51
66 20 50 66 20 50 66 20 50 65 20 50 65 20 50 65 20 50 65 20 50 65 20
50 64 20 50 64 20 49 64 20 49 64 20 49 64 20 49 63 20 49 63 20 49 63
20 49 63 20 49 63 20 49 62 20 48 62 20 48 62 20 48 62 20 48 62 20 48
62 20 48 61 20 48 61 20 48 61 20 48 61 20 48 61 20 47 61 20 47 60 20
47 60 20 47 60 20 47 60 20 47 60 20 47 60 20 47 59 20 47 59 20 47 59
20 47 59 20 46 59 20 46 59 20 46 58 20 46 58 20 46 58 20 46 58 20 46
58 20 46 58 20 46 57 20 46 57 20 46 57 20 46 57 20 45 57 20 45 57 20
45 57 20 45 56 20 45 56 48 72 66 48 72 66 48 72 65 48 72 65 48 72 65
48 72 65 48 72 65 48 72 65 48 72 65 48 72 65 48 72 65 48 72 64 48 72
64 49 72 64 49 72 64 49 72 64 49 72 64 49 72 64 49 72 64 49 72 64 49
72 64 49 72 63 49 72 63 49 72 63 49 72 63 49 72 63 50 72 63 50 72 63
50 72 63 50 72 63 50 72 63 50 72 63 50 72 62 50 72 62 50 72 62 50 72
62 50 72 62 50 73 62 50 73 62 50 73 62 51 73 62 51 73 62 51 73 62 51
73 61 51 73 61 51 73 61 51 73 61 51 73 61 51 73 61 51 73 61 51 73 61
51 73 61 51 73 61 51 73 61 52 73 61 52 73 61 52 73 60 52 73 60 52 73
60 52 73 60 52 73 60 52 73 60 52 73 60 52 73 60 52 73 60 52 73 60 52
73 60 52 73 60 52 73 60 52 73 59 52 73 59 52 73 59 53 73 59 53 73 59
53 73 59 53 73 59 53 73 59 53 73 59 53 73 59 53 73 59 53 73 59 53 73
59 53 73 58 53 73 58 53 73 58 53 73 58 53 73 58 53 73 58 53 73 58 53
73 58 53 72 58 53 72 58 53 72 58 53 72 58 53 72 58 53 72 58 53 72 57
53 72 57 53 72 57 53 72 57 53 72 57 53 72 57 53 72 57 53 72 57 53 72
57 53 72 57 54 72 57 54 72 57 54 72 57 54 72 57 54 72 56 54 72 56 54
72 56 54 72 56 54 72 56 54 72 56 54 72 56 54 72 56 54 72 56 54 72 56
54 72 56 53 71 56 53 71 56 53 71 55 53 71 55 53 71 55 53 71 55 53 71
55 53 71 55 53 71 55 53 71 55 53 71 55 53 71 55 53 71 55 53 71 55 53
71 55 53 71 55 53 71 54 53 71 54 53 70 54 53 70 54 53 70 54 53 70 54
53 70 54 53 70 54 53 70 54 53 70 54 53 70 54 53 70 54 53 70 54 53 70
53 53 70 53 53 70 53 53 69 53 53 69 53 52 69 53 52 69 53 52 69 53 52
69 53 52 69 53 52 69 53 52 69 53 52 69 53 52 69 52 52 69 52 52 68 52
52 68 52 52 68 52 52 68 52 52 68 52 52 68 52 52 68 52 51 68 52 51 68
52 51 68 52 51 68 52 51 67 52 51 67 51 51 67 51 51 67 51 51 67 51 51
67 51 51 67 51 51 67 51 51 67 51 51 67 51 51 66 51 50 66 51 50 66 51
50 66 51 50 66 50 50 66 50 50 66 50 50 66 50 50 66 50 50 66 50 50 65
50 50 65 50 50 65 50 50 65 50 50 65 50 49 65 50 49 65 50 49 65 49 49
65 49 49 65 49 49 64 49 49 64 49 49 64 49 49 64 49 49 64 49 49 64 49
49 64 49 48 64 49 48 64 49 48 64 49 48 63 49 48 63 48 48 63 48 48 63
48 48 63 48
20 69 99 20 69 98 20 68 98 20 68 98 20 68 98 20 68 97 20 68 97 20 68
97 20 68 97 20 67 96 20 67 96 20 67 96 20 67 96 20 67 95 20 67 95 20
67 95 20 66 94 20 66 94 20 66 94 20 66 94 20 66 93 20 66 93 20 65 93
20 65 92 20 65 92 20 65 92 20 65 92 20 65 91 20 64 91 20 64 91 20 64
90 20 64 90 20 64 90 20 64 89 20 63 89 20 63 89 20 63 89 20 63 88 20
63 88 20 63 88 20 62 87 20 62 87 20 62 87 20 62 86 20 62 86 20 62 86
20 61 85 20 61 85 20 61 85 20 61 85 20 61 84 20 61 84 20 60 84 20 60
83 20 60 83 20 60 83 20 60 82 20 60 82 20 59 82 20 59 82 20 59 81 20
59 81 20 59 81 20 59 80 20 58 80 20 58 80 20 58 80 20 58 79 20 58 79
20 58 79 20 57 78 20 57 78 20 57 78 20 57 78 20 57 77 20 57 77 20 57
77 20 56 77 20 56 76 20 56 76 20 56 76 20 56 75 20 56 75 20 55 75 20
55 75 20 55 74 20 55 74 20 55 74 20 55 74 20 55 73 20 54 73 20 54 73
20 54 73 20 54 72 20 54 72 20 54 72 20 54 72 20 54 71 20 53 71 20 53
71 20 53 71 20 53 70 20 53 70 20 53 70 20 53 70 20 52 70 20 52 69 20
52 69 20 52 69 20 52 69 20 52 68 20 52 68 20 52 68 20 51 68 20 51 68
20 51 67 20 51 67 20 51 67 20 51 67 20 51 66 20 51 66 20 51 66 20 50
66 20 50 66 20 50 65 20 50 65 20 50 65 20 50 65 20 50 65 20 50 64 20
50 64 20 49 64 20 49 64 20 49 64 20 49 63 20 49 63 20 49 63 20 49 63
20 49 63 20 49 63 20 49 62 20 48 62 20 48 62 20 48 62 20 48 62 20 48
61 20 48 61 20 48 61 20 48 61 20 48 61 20 48 61 20 47 60 20 47 60 20
47 60 20 47 60 20 47 60 20 47 60 20 47 59 20 47 59 20 47 59 20 47 59
20 47 59 20 46 59 20 46 59 20 46 58 20 46 58 20 46 58 20 46 58 20 46
58 20 46 58 20 46 57 20 46 57 20 46 57 20 46 57 20 45 57 20 45 57 20
45 57 20 45 56 47 72 66 47 72 66 47 72 66 48 72 65 48 72 65 48 72 65
48 72 65 48 72 65 48 72 65 48 72 65 48 72 65 48 72 65 48 72 64 48 72
64 48 72 64 48 72 64 49 72 64 49 72 64 49 72 64 49 72 64 49 72 64 49
72 64 49 72 63 49 72 63 49 72 63 49 72 63 49 72 63 49 72 63 49 72 63
50 72 63 50 72 63 50 72 63 50 72 62 50 72 62 50 72 62 50 72 62 50 72
62 50 72 62 50 72 62 50 72 62 50 72 62 50 72 62 50 72 62 51 72 62 51
72 61 51 72 61 51 72 61 51 72 61 51 72 61 51 72 61 51 72 61 51 72 61
51 72 61 51 72 61 51 72 61 51 72 61 51 72 60 51 72 60 51 72 60 52 72
60 52 72 60 52 72 60 52 72 60 52 72 60 52 72 60 52 72 60 52 72 60 52
72 60 52 72 60 52 72 59 52 72 59 52 72 59 52 72 59 52 72 59 52 72 59
52 72 59 52 72 59 52 72 59 53 72 59 53 72 59 53 72 59 53 72 59 53 72
59 53 72 58 53 72 58 53 72 58 53 72 58 53 72 58 53 72 58 53 72 58 53
72 58 53 72 58 53 72 58 53 72 58 53 72 58 53 72 58 53 72 58 53 72 57
53 72 57 53 72 57 53 72 57 53 72 57 53 72 57 53 72 57 53 72 57 53 72
57 53 72 57 53 72 57 53 72 57 53 72 57 53 72 57 53 72 56 53 72 56 53
72 56 53 72 56 53 72 56 53 72 56 53 72 56 53 72 56 53 71 56 53 71 56
53 71 56 53 71 56 53 71 56 53 71 56 53 71 55 53 71 55 53 71 55 53 71
55 53 71 55 53 71 55 53 71 55 53 71 55 53 71 55 53 71 55 53 71 55 53
71 55 53 71 55 53 70 54 53 70 54 53 70 54 53 70 54 53 70 54 53 70 54
53 70 54 53 70 54 53 70 54 53 70 54 53 70 54 53 70 54 53 70 54 53 70
54 53 70 53 52 69 53 52 69 53 52 69 53 52 69 53 52 69 53 52 69 53 52
69 53 52 69 53 52 69 53 52 69 53 52 69 53 52 69 53 52 68 52 52 68 52
52 68 52 52 68 52 52 68 52 52 68 52 52 68 52 51 68 52 51 68 52 51 68
52 51 68 52 51 68 52 51 67 52 51 67 52 51 67 51 51 67 51 51 67 51 51
67 51 51 67 51 51 67 51 51 67 51 51 67 51 51 66 51 50 66 51 50 66 51
50 66 51 50 66 51 50 66 50 50 66 50 50 66 50 50 66 50 50 66 50 50 66
50 50 65 50 50 65 50 50 65 50 50 65 50 49 65 50 49 65 50 49 65 50 49
65 50 49 65 49 49 65 49 49 64 49 49 64 49 49 64 49 49 64 49 49 64 49
49 64 49 49 64 49 48 64 49 48 64 49 48 64 49 48 63 49 48 63 48 48 63
48 48 63 48
20 68 98 20 68 98 20 68 98 20 68 97 20 68 97 20 68 97 20 68 97 20 67
96 20 67 96 20 67 96 20 67 96 20 67 95 20 67 95 20 67 95 20 66 94 20
66 94 20 66 94 20 66 94 20 66 93 20 66 93 20 65 93 20 65 92 20 65 92
20 65 92 20 65 92 20 65 91 20 64 91 20 64 91 20 64 90 20 64 90 20 64
90 20 64 89 20 63 89 20 63 89 20 63 89 20 63 88 20 63 88 20 63 88 20
62 87 20 62 87 20 62 87 20 62 86 20 62 86 20 62 86 20 61 86 20 61 85
20 61 85 20 61 85 20 61 84 20 61 84 20 60 84 20 60 83 20 60 83 20 60
83 20 60 83 20 60 82 20 59 82 20 59 82 20 59 81 20 59 81 20 59 81 20
59 81 20 58 80 20 58 80 20 58 80 20 58 79 20 58 79 20 58 79 20 58 79
20 57 78 20 57 78 20 57 78 20 57 77 20 57 77 20 57 77 20 56 77 20 56
76 20 56 76 20 56 76 20 56 76 20 56 75 20 56 75 20 55 75 20 55 75 20
55 74 20 55 74 20 55 74 20 55 74 20 55 73 20 54 73 20 54 73 20 54 73
20 54 72 20 54 72 20 54 72 20 54 72 20 54 71 20 53 71 20 53 71 20 53
71 20 53 70 20 53 70 20 53 70 20 53 70 20 52 70 20 52 69 20 52 69 20
52 69 20 52 69 20 52 68 20 52 68 20 52 68 20 52 68 20 51 68 20 51 67
20 51 67 20 51 67 20 51 67 20 51 66 20 51 66 20 51 66 20 50 66 20 50
66 20 50 65 20 50 65 20 50 65 20 50 65 20 50 65 20 50 64 20 50 64 20
49 64 20 49 64 20 49 64 20 49 64 20 49 63 20 49 63 20 49 63 20 49 63
20 49 63 20 49 62 20 48 62 20 48 62 20 48 62 20 48 62 20 48 62 20 48
61 20 48 61 20 48 61 20 48 61 20 48 61 20 47 61 20 47 60 20 47 60 20
47 60 20 47 60 20 47 60 20 47 60 20 47 59 20 47 59 20 47 59 20 47 59
20 46 59 20 46 59 20 46 58 20 46 58 20 46 58 20 46 58 20 46 58 20 46
58 20 46 58 20 46 57 20 46 57 20 46 57 20 45 57 20 45 57 20 45 57 20
45 57 20 45 56 47 72 66 47 72 66 47 72 65 47 72 65 48 72 65 48 72 65
48 72 65 48 72 65 48 72 65 48 72 65 48 72 65 48 72 64 48 72 64 48 72
64 48 72 64 48 72 64 48 72 64 49 72 64 49 72 64 49 72 64 49 72 64 49
72 63 49 72 63 49 72 63 49 72 63 49 72 63 49 72 63 49 72 63 49 72 63
49 72 63 49 72 63 50 72 63 50 72 62 50 72 62 50 72 62 50 72 62 50 72
62 50 72 62 50 72 62 50 72 62 50 72 62 50 72 62 50 72 62 50 72 61 50
72 61 50 72 61 51 72 61 51 72 61 51 72 61 51 72 61 51 72 61 51 72 61
51 72 61 51 72 61 51 72 61 51 72 61 51 72 60 51 72 60 51 72 60 51 72
60 51 72 60 51 72 60 52 72 60 52 72 60 52 72 60 52 72 60 52 72 60 52
72 60 52 72 60 52 72 59 52 72 59 52 72 59 52 72 59 52 72 59 52 72 59
52 72 59 52 72 59 52 72 59 52 72 59 52 72 59 52 72 59 52 72 59 52 72
58 52 72 58 53 72 58 53 72 58 53 72 58 53 72 58 53 72 58 53 72 58 53
72 58 53 72 58 53 72 58 53 72 58 53 72 58 53 72 58 53 72 57 53 72 57
53 72 57 53 72 57 53 72 57 53 72 57 53 72 57 53 72 57 53 72 57 53 72
57 53 72 57 53 72 57 53 72 57 53 72 57 53 72 57 53 72 56 53 72 56 53
72 56 53 72 56 53 71 56 53 71 56 53 71 56 53 71 56 53 71 56 53 71 56
53 71 56 53 71 56 53 71 56 53 71 56 53 71 55 53 71 55 53 71 55 53 71
55 53 71 55 53 71 55 53 71 55 53 71 55 53 71 55 53 71 55 53 71 55 53
70 55 53 70 55 53 70 55 53 70 54 53 70 54 53 70 54 53 70 54 53 70 54
53 70 54 53 70 54 53 70 54 53 70 54 53 70 54 52 70 54 52 70 54 52 69
54 52 69 53 52 69 53 52 69 53 52 69 53 52 69 53 52 69 53 52 69 53 52
69 53 52 69 53 52 69 53 52 69 53 52 69 53 52 69 53 52 68 53 52 68 52
52 68 52 52 68 52 52 68 52 52 68 52 51 68 52 51 68 52 51 68 52 51 68
52 51 68 52 51 67 52 51 67 52 51 67 52 51 67 51 51 67 51 51 67 51 51
67 51 51 67 51 51 67 51 51 67 51 51 67 51 50 67 51 50 66 51 50 66 51
50 66 51 50 66 51 50 66 51 50 66 50 50 66 50 50 66 50 50 66 50 50 66
50 50 65 50 50 65 50 50 65 50 49 65 50 49 65 50 49 65 50 49 65 50 49
65 50 49 65 50 49 65 49 49 64 49 49 64 49 49 64 49 49 64 49 49 64 49
49 64 49 49 64 49 48 64 49 48 64 49 48 64 49 48 64 49 48 63 49 48 63
49 48 63 48
20 68 98 20 68 97 20 68 97 20 68 97 20 68 97 20 67 96 20 67 96 20 67
96 20 67 96 20 67 95 20 67 95 20 67 95 20 66 94 20 66 94 20 66 94 20
66 94 20 66 93 20 66 93 20 65 93 20 65 92 20 65 92 20 65 92 20 65 92
20 65 91 20 64 91 20 64 91 20 64 90 20 64 90 20 64 90 20 64 90 20 63
89 20 63 89 20 63 89 20 63 88 20 63 88 20 63 88 20 62 87 20 62 87 20
62 87 20 62 87 20 62 86 20 62 86 20 61 86 20 61 85 20 61 85 20 61 85
20 61 84 20 61 84 20 60 84 20 60 84 20 60 83 20 60 83 20 60 83 20 60
82 20 60 82 20 59 82 20 59 82 20 59 81 20 59 81 20 59 81 20 59 80 20
58 80 20 58 80 20 58 80 20 58 79 20 58 79 20 58 79 20 57 78 20 57 78
20 57 78 20 57 78 20 57 77 20 57 77 20 57 77 20 56 77 20 56 76 20 56
76 20 56 76 20 56 76 20 56 75 20 56 75 20 55 75 20 55 75 20 55 74 20
55 74 20 55 74 20 55 74 20 55 73 20 54 73 20 54 73 20 54 73 20 54 72
20 54 72 20 54 72 20 54 72 20 53 71 20 53 71 20 53 71 20 53 71 20 53
70 20 53 70 20 53 70 20 53 70 20 52 70 20 52 69 20 52 69 20 52 69 20
52 69 20 52 68 20 52 68 20 52 68 20 52 68 20 51 68 20 51 67 20 51 67
20 51 67 20 51 67 20 51 67 20 51 66 20 51 66 20 50 66 20 50 66 20 50
66 20 50 65 20 50 65 20 50 65 20 50 65 20 50 65 20 50 64 20 49 64 20
49 64 20 49 64 20 49 64 20 49 63 20 49 63 20 49 63 20 49 63 20 49 63
20 49 62 20 48 62 20 48 62 20 48 62 20 48 62 20 48 62 20 48 61 20 48
61 20 48 61 20 48 61 20 48 61 20 48 61 20 47 60 20 47 60 20 47 60 20
47 60 20 47 60 20 47 60 20 47 59 20 47 59 20 47 59 20 47 59 20 47 59
20 46 59 20 46 59 20 46 58 20 46 58 20 46 58 20 46 58 20 46 58 20 46
58 20 46 57 20 46 57 20 46 57 20 46 57 20 45 57 20 45 57 20 45 57 20
45 56 47 72 66 47 72 66 47 72 65 47 72 65 47 72 65 47 72 65 48 72 65
48 72 65 48 72 65 48 72 65 48 72 65 48 72 65 48 72 64 48 72 64 48 72
64 48 72 64 48 72 64 48 72 64 48 72 64 48 72 64 49 72 64 49 72 64 49
72 63 49 72 63 49 72 63 49 72 63 49 72 63 49 72 63 49 72 63 49 72 63
49 72 63 49 72 63 49 72 62 49 72 62 50 72 62 50 72 62 50 72 62 50 72
62 50 72 62 50 72 62 50 72 62 50 72 62 50 72 62 50 72 62 50 72 61 50
72 61 50 72 61 50 72 61 50 72 61 51 72 61 51 72 61 51 72 61 51 72 61
51 72 61 51 72 61 51 72 61 51 72 60 51 72 60 51 72 60 51 72 60 51 72
60 51 72 60 51 72 60 51 72 60 51 72 60 51 72 60 51 72 60 52 72 60 52
72 60 52 72 59 52 72 59 52 72 59 52 72 59 52 72 59 52 72 59 52 72 59
52 72 59 52 72 59 52 72 59 52 72 59 52 72 59 52 72 59 52 72 59 52 72
58 52 72 58 52 72 58 52 72 58 52 72 58 52 72 58 52 72 58 52 72 58 53
72 58 53 72 58 53 72 58 53 72 58 53 72 58 53 72 58 53 72 57 53 72 57
53 72 57 53 72 57 53 72 57 53 72 57 53 72 57 53 72 57 53 72 57 53 72
57 53 72 57 53 72 57 53 72 57 53 72 57 53 71 56 53 71 56 53 71 56 53
71 56 53 71 56 53 71 56 53 71 56 53 71 56 53 71 56 53 71 56 53 71 56
53 71 56 53 71 56 53 71 56 53 71 56 53 71 55 53 71 55 53 71 55 53 71
55 53 71 55 53 71 55 53 71 55 53 71 55 53 70 55 53 70 55 53 70 55 53
70 55 53 70 55 53 70 55 53 70 54 53 70 54 53 70 54 53 70 54 53 70 54
53 70 54 52 70 54 52 70 54 52 70 54 52 70 54 52 70 54 52 69 54 52 69
54 52 69 54 52 69 53 52 69 53 52 69 53 52 69 53 52 69 53 52 69 53 52
69 53 52 69 53 52 69 53 52 69 53 52 69 53 52 68 53 52 68 53 52 68 52
52 68 52 52 68 52 51 68 52 51 68 52 51 68 52 51 68 52 51 68 52 51 68
52 51 68 52 51 67 52 51 67 52 51 67 52 51 67 52 51 67 51 51 67 51 51
67 51 51 67 51 51 67 51 51 67 51 50 67 51 50 67 51 50 66 51 50 66 51
50 66 51 50 66 51 50 66 51 50 66 51 50 66 50 50 66 50 50 66 50 50 66
50 50 65 50 50 65 50 50 65 50 49 65 50 49 65 50 49 65 50 49 65 50 49
65 50 49 65 50 49 65 50 49 65 49 49 64 49 49 64 49 49 64 49 49 64 49
49 64 49 49 64 49 48 64 49 48 64 49 48 64 49 48 64 49 48 63 49 48 63
49 48 63 49
20 68 97 20 68 97 20 68 96 20 67 96 20 67 96 20 67 96 20 67 95 20 67
95 20 67 95 20 66 95 20 66 94 20 66 94 20 66 94 20 66 94 20 66 93 20
66 93 20 65 93 20 65 92 20 65 92 20 65 92 20 65 92 20 65 91 20 64 91
20 64 91 20 64 90 20 64 90 20 64 90 20 64 89 20 63 89 20 63 89 20 63
89 20 63 88 20 63 88 20 63 88 20 62 87 20 62 87 20 62 87 20 62 87 20
62 86 20 62 86 20 61 86 20 61 85 20 61 85 20 61 85 20 61 85 20 61 84
20 61 84 20 60 84 20 60 83 20 60 83 20 60 83 20 60 82 20 60 82 20 59
82 20 59 82 20 59 81 20 59 81 20 59 81 20 59 81 20 58 80 20 58 80 20
58 80 20 58 79 20 58 79 20 58 79 20 58 79 20 57 78 20 57 78 20 57 78
20 57 78 20 57 77 20 57 77 20 56 77 20 56 76 20 56 76 20 56 76 20 56
76 20 56 75 20 56 75 20 55 75 20 55 75 20 55 74 20 55 74 20 55 74 20
55 74 20 55 73 20 55 73 20 54 73 20 54 73 20 54 72 20 54 72 20 54 72
20 54 72 20 54 72 20 53 71 20 53 71 20 53 71 20 53 71 20 53 70 20 53
70 20 53 70 20 53 70 20 52 69 20 52 69 20 52 69 20 52 69 20 52 69 20
52 68 20 52 68 20 52 68 20 51 68 20 51 68 20 51 67 20 51 67 20 51 67
20 51 67 20 51 67 20 51 66 20 51 66 20 50 66 20 50 66 20 50 66 20 50
65 20 50 65 20 50 65 20 50 65 20 50 65 20 50 64 20 50 64 20 49 64 20
49 64 20 49 64 20 49 63 20 49 63 20 49 63 20 49 63 20 49 63 20 49 63
20 48 62 20 48 62 20 48 62 20 48 62 20 48 62 20 48 62 20 48 61 20 48
61 20 48 61 20 48 61 20 48 61 20 47 61 20 47 60 20 47 60 20 47 60 20
47 60 20 47 60 20 47 60 20 47 59 20 47 59 20 47 59 20 47 59 20 46 59
20 46 59 20 46 58 20 46 58 20 46 58 20 46 58 20 46 58 20 46 58 20 46
58 20 46 57 20 46 57 20 46 57 20 46 57 20 45 57 20 45 57 20 45 57 20
45 56 47 72 66 47 72 66 47 72 65 47 72 65 47 72 65 47 72 65 47 72 65
47 72 65 48 72 65 48 72 65 48 72 65 48 72 64 48 72 64 48 72 64 48 72
64 48 72 64 48 72 64 48 72 64 48 72 64 48 72 64 48 72 64 48 72 63 49
72 63 49 72 63 49 72 63 49 72 63 49 72 63 49 72 63 49 72 63 49 72 63
49 72 63 49 72 63 49 72 62 49 72 62 49 72 62 49 72 62 49 72 62 50 72
62 50 72 62 50 72 62 50 72 62 50 72 62 50 72 62 50 72 61 50 72 61 50
72 61 50 72 61 50 72 61 50 72 61 50 72 61 50 72 61 50 72 61 51 72 61
51 72 61 51 72 61 51 72 61 51 72 60 51 72 60 51 72 60 51 72 60 51 72
60 51 72 60 51 72 60 51 72 60 51 72 60 51 72 60 51 72 60 51 72 60 51
72 60 51 72 59 51 72 59 52 72 59 52 72 59 52 72 59 52 72 59 52 72 59
52 72 59 52 72 59 52 72 59 52 72 59 52 72 59 52 72 59 52 72 59 52 72
58 52 72 58 52 72 58 52 72 58 52 72 58 52 72 58 52 72 58 52 72 58 52
72 58 52 72 58 52 72 58 52 72 58 52 72 58 52 72 58 52 72 57 52 72 57
52 72 57 53 72 57 53 72 57 53 72 57 53 72 57 53 72 57 53 71 57 53 71
57 53 71 57 53 71 57 53 71 57 53 71 57 53 71 56 53 71 56 53 71 56 53
71 56 53 71 56 53 71 56 53 71 56 53 71 56 53 71 56 53 71 56 53 71 56
53 71 56 53 71 56 53 71 56 53 71 56 53 71 55 53 71 55 53 71 55 53 71
55 53 71 55 53 71 55 53 70 55 53 70 55 53 70 55 53 70 55 53 70 55 53
70 55 53 70 55 52 70 55 52 70 54 52 70 54 52 70 54 52 70 54 52 70 54
52 70 54 52 70 54 52 70 54 52 70 54 52 69 54 52 69 54 52 69 54 52 69
54 52 69 54 52 69 53 52 69 53 52 69 53 52 69 53 52 69 53 52 69 53 52
69 53 52 69 53 52 69 53 52 69 53 52 68 53 52 68 53 52 68 53 52 68 53
51 68 52 51 68 52 51 68 52 51 68 52 51 68 52 51 68 52 51 68 52 51 68
52 51 68 52 51 67 52 51 67 52 51 67 52 51 67 52 51 67 52 51 67 51 51
67 51 51 67 51 51 67 51 50 67 51 50 67 51 50 66 51 50 66 51 50 66 51
50 66 51 50 66 51 50 66 51 50 66 51 50 66 51 50 66 50 50 66 50 50 66
50 50 66 50 50 65 50 50 65 50 49 65 50 49 65 50 49 65 50 49 65 50 49
65 50 49 65 50 49 65 50 49 65 50 49 64 49 49 64 49 49 64 49 49 64 49
49 64 49 49 64 49 48 64 49 48 64 49 48 64 49 48 64 49 48 64 49 48 63
49 48 63 49
20 67 96 20 67 96 20 67 96 20 67 96 20 67 95 20 67 95 20 67 95 20 66
95 20 66 94 20 66 94 20 66 94 20 66 93 20 66 93 20 66 93 20 65 93 20
65 92 20 65 92 20 65 92 20 65 91 20 65 91 20 64 91 20 64 91 20 64 90
20 64 90 20 64 90 20 64 89 20 63 89 20 63 89 20 63 89 20 63 88 20 63
88 20 63 88 20 62 87 20 62 87 20 62 87 20 62 87 20 62 86 20 62 86 20
61 86 20 61 85 20 61 85 20 61 85 20 61 85 20 61 84 20 61 84 20 60 84
20 60 83 20 60 83 20 60 83 20 60 83 20 60 82 20 59 82 20 59 82 20 59
81 20 59 81 20 59 81 20 59 81 20 59 80 20 58 80 20 58 80 20 58 80 20
58 79 20 58 79 20 58 79 20 57 78 20 57 78 20 57 78 20 57 78 20 57 77
20 57 77 20 57 77 20 56 77 20 56 76 20 56 76 20 56 76 20 56 76 20 56
75 20 56 75 20 55 75 20 55 75 20 55 74 20 55 74 20 55 74 20 55 74 20
55 73 20 54 73 20 54 73 20 54 73 20 54 72 20 54 72 20 54 72 20 54 72
20 54 71 20 53 71 20 53 71 20 53 71 20 53 71 20 53 70 20 53 70 20 53
70 20 53 70 20 52 69 20 52 69 20 52 69 20 52 69 20 52 69 20 52 68 20
52 68 20 52 68 20 51 68 20 51 68 20 51 67 20 51 67 20 51 67 20 51 67
20 51 67 20 51 66 20 51 66 20 50 66 20 50 66 20 50 66 20 50 65 20 50
65 20 50 65 20 50 65 20 50 65 20 50 64 20 50 64 20 49 64 20 49 64 20
49 64 20 49 63 20 49 63 20 49 63 20 49 63 20 49 63 20 49 63 20 49 62
20 48 62 20 48 62 20 48 62 20 48 62 20 48 62 20 48 61 20 48 61 20 48
61 20 48 61 20 48 61 20 47 61 20 47 60 20 47 60 20 47 60 20 47 60 20
47 60 20 47 60 20 47 59 20 47 59 20 47 59 20 47 59 20 47 59 20 46 59
20 46 59 20 46 58 20 46 58 20 46 58 20 46 58 20 46 58 20 46 58 20 46
58 20 46 57 20 46 57 20 46 57 20 45 57 20 45 57 20 45 57 20 45 57 20
45 56 47 72 66 47 72 65 47 72 65 47 72 65 47 72 65 47 72 65 47 72 65
47 72 65 47 72 65 47 72 65 48 72 64 48 72 64 48 72 64 48 72 64 48 72
64 48 72 64 48 72 64 48 72 64 48 72 64 48 72 64 48 72 63 48 72 63 48
72 63 48 72 63 49 72 63 49 72 63 49 72 63 49 72 63 49 72 63 49 72 63
49 72 63 49 72 62 49 72 62 49 72 62 49 72 62 49 72 62 49 72 62 49 72
62 49 72 62 50 72 62 50 72 62 50 72 62 50 72 62 50 72 61 50 72 61 50
72 61 50 72 61 50 72 61 50 72 61 50 72 61 50 72 61 50 72 61 50 72 61
50 72 61 50 72 61 50 72 60 51 72 60 51 72 60 51 72 60 51 72 60 51 72
60 51 72 60 51 72 60 51 72 60 51 72 60 51 72 60 51 72 60 51 72 60 51
72 60 51 72 59 51 72 59 51 72 59 51 72 59 51 72 59 51 72 59 51 72 59
52 72 59 52 72 59 52 72 59 52 72 59 52 72 59 52 72 59 52 72 58 52 72
58 52 72 58 52 72 58 52 72 58 52 72 58 52 72 58 52 72 58 52 72 58 52
72 58 52 72 58 52 72 58 52 72 58 52 72 58 52 71 58 52 71 57 52 71 57
52 71 57 52 71 57 52 71 57 52 71 57 52 71 57 52 71 57 52 71 57 52 71
57 52 71 57 52 71 57 52 71 57 52 71 57 52 71 56 52 71 56 52 71 56 52
71 56 52 71 56 52 71 56 52 71 56 53 71 56 53 71 56 53 71 56 53 71 56
53 71 56 52 71 56 52 71 56 52 71 56 52 71 55 52 71 55 52 70 55 52 70
55 52 70 55 52 70 55 52 70 55 52 70 55 52 70 55 52 70 55 52 70 55 52
70 55 52 70 55 52 70 55 52 70 54 52 70 54 52 70 54 52 70 54 52 70 54
52 70 54 52 70 54 52 69 54 52 69 54 52 69 54 52 69 54 52 69 54 52 69
54 52 69 54 52 69 53 52 69 53 52 69 53 52 69 53 52 69 53 52 69 53 52
69 53 52 69 53 52 69 53 52 68 53 52 68 53 51 68 53 51 68 53 51 68 53
51 68 53 51 68 52 51 68 52 51 68 52 51 68 52 51 68 52 51 68 52 51 68
52 51 67 52 51 67 52 51 67 52 51 67 52 51 67 52 51 67 52 51 67 52 51
67 51 51 67 51 50 67 51 50 67 51 50 67 51 50 66 51 50 66 51 50 66 51
50 66 51 50 66 51 50 66 51 50 66 51 50 66 51 50 66 51 50 66 50 50 66
50 50 66 50 50 65 50 49 65 50 49 65 50 49 65 50 49 65 50 49 65 50 49
65 50 49 65 50 49 65 50 49 65 50 49 65 50 49 64 49 49 64 49 49 64 49
49 64 49 49 64 49 48 64 49 48 64 49 48 64 49 48 64 49 48 64 49 48 64
49 48 63 49
20 67 96 20 67 95 20 67 95 20 67 95 20 66 95 20 66 94 20 66 94 20 66
94 20 66 94 20 66 93 20 66 93 20 65 93 20 65 93 20 65 92 20 65 92 20
65 92 20 65 91 20 65 91 20 64 91 20 64 91 20 64 90 20 64 90 20 64 90
20 64 89 20 63 89 20 63 89 20 63 89 20 63 88 20 63 88 20 63 88 20 62
87 20 62 87 20 62 87 20 62 87 20 62 86 20 62 86 20 61 86 20 61 85 20
61 85 20 61 85 20 61 85 20 61 84 20 61 84 20 60 84 20 60 83 20 60 83
20 60 83 20 60 83 20 60 82 20 59 82 20 59 82 20 59 81 20 59 81 20 59
81 20 59 81 20 59 80 20 58 80 20 58 80 20 58 80 20 58 79 20 58 79 20
58 79 20 57 79 20 57 78 20 57 78 20 57 78 20 57 77 20 57 77 20 57 77
20 56 77 20 56 76 20 56 76 20 56 76 20 56 76 20 56 75 20 56 75 20 56
75 20 55 75 20 55 74 20 55 74 20 55 74 20 55 74 20 55 73 20 55 73 20
54 73 20 54 73 20 54 73 20 54 72 20 54 72 20 54 72 20 54 72 20 54 71
20 53 71 20 53 71 20 53 71 20 53 70 20 53 70 20 53 70 20 53 70 20 53
70 20 52 69 20 52 69 20 52 69 20 52 69 20 52 69 20 52 68 20 52 68 20
52 68 20 51 68 20 51 68 20 51 67 20 51 67 20 51 67 20 51 67 20 51 67
20 51 66 20 51 66 20 50 66 20 50 66 20 50 66 20 50 65 20 50 65 20 50
65 20 50 65 20 50 65 20 50 64 20 50 64 20 49 64 20 49 64 20 49 64 20
49 63 20 49 63 20 49 63 20 49 63 20 49 63 20 49 63 20 49 62 20 48 62
20 48 62 20 48 62 20 48 62 20 48 62 20 48 61 20 48 61 20 48 61 20 48
61 20 48 61 20 48 61 20 47 60 20 47 60 20 47 60 20 47 60 20 47 60 20
47 60 20 47 60 20 47 59 20 47 59 20 47 59 20 47 59 20 46 59 20 46 59
20 46 58 20 46 58 20 46 58 20 46 58 20 46 58 20 46 58 20 46 58 20 46
57 20 46 57 20 46 57 20 46 57 20 45 57 20 45 57 20 45 57 20 45 56 47
72 66 47 72 65 47 72 65 47 72 65 47 72 65 47 72 65 47 72 65 47 72 65
47 72 65 47 72 65 47 72 65 47 72 64 48 72 64 48 72 64 48 72 64 48 72
64 48 72 64 48 72 64 48 72 64 48 72 64 48 72 64 48 72 63 48 72 63 48
72 63 48 72 63 48 72 63 48 72 63 49 72 63 49 72 63 49 72 63 49 72 63
49 72 63 49 72 62 49 72 62 49 72 62 49 72 62 49 72 62 49 72 62 49 72
62 49 72 62 49 72 62 49 72 62 49 72 62 50 72 61 50 72 61 50 72 61 50
72 61 50 72 61 50 72 61 50 72 61 50 72 61 50 72 61 50 72 61 50 72 61
50 72 61 50 72 61 50 72 60 50 72 60 50 72 60 50 72 60 51 72 60 51 72
60 51 72 60 51 72 60 51 72 60 51 72 60 51 72 60 51 72 60 51 72 60 51
72 59 51 72 59 51 72 59 51 72 59 51 72 59 51 72 59 51 72 59 51 72 59
51 72 59 51 72 59 51 72 59 51 72 59 51 72 59 52 72 59 52 72 58 52 71
58 52 71 58 52 71 58 52 71 58 52 71 58 52 71 58 52 71 58 52 71 58 52
71 58 52 71 58 52 71 58 52 71 58 52 71 58 52 71 57 52 71 57 52 71 57
52 71 57 52 71 57 52 71 57 52 71 57 52 71 57 52 71 57 52 71 57 52 71
57 52 71 57 52 71 57 52 71 57 52 71 57 52 71 56 52 71 56 52 71 56 52
71 56 52 71 56 52 71 56 52 71 56 52 71 56 52 71 56 52 71 56 52 71 56
52 71 56 52 71 56 52 71 56 52 70 56 52 70 55 52 70 55 52 70 55 52 70
55 52 70 55 52 70 55 52 70 55 52 70 55 52 70 55 52 70 55 52 70 55 52
70 55 52 70 55 52 70 55 52 70 54 52 70 54 52 70 54 52 70 54 52 70 54
52 69 54 52 69 54 52 69 54 52 69 54 52 69 54 52 69 54 52 69 54 52 69
54 52 69 54 52 69 54 52 69 53 52 69 53 52 69 53 52 69 53 52 69 53 52
69 53 52 68 53 51 68 53 51 68 53 51 68 53 51 68 53 51 68 53 51 68 53
51 68 53 51 68 52 51 68 52 51 68 52 51 68 52 51 68 52 51 68 52 51 67
52 51 67 52 51 67 52 51 67 52 51 67 52 51 67 52 51 67 52 51 67 52 50
67 51 50 67 51 50 67 51 50 67 51 50 67 51 50 66 51 50 66 51 50 66 51
50 66 51 50 66 51 50 66 51 50 66 51 50 66 51 50 66 51 50 66 51 50 66
50 50 66 50 50 65 50 49 65 50 49 65 50 49 65 50 49 65 50 49 65 50 49
65 50 49 65 50 49 65 50 49 65 50 49 65 50 49 64 50 49 64 50 49 64 49
49 64 49 49 64 49 48 64 49 48 64 49 48 64 49 48 64 49 48 64 49 48 64
49 48 63 49
20 67 95 20 67 95 20 66 94 20 66 94 20 66 94 20 66 94 20 66 93 20 66
93 20 66 93 20 65 93 20 65 92 20 65 92 20 65 92 20 65 92 20 65 91 20
64 91 20 64 91 20 64 90 20 64 90 20 64 90 20 64 90 20 64 89 20 63 89
20 63 89 20 63 88 20 63 88 20 63 88 20 63 88 20 62 87 20 62 87 20 62
87 20 62 87 20 62 86 20 62 86 20 61 86 20 61 85 20 61 85 20 61 85 20
61 85 20 61 84 20 61 84 20 60 84 20 60 83 20 60 83 20 60 83 20 60 83
20 60 82 20 59 82 20 59 82 20 59 82 20 59 81 20 59 81 20 59 81 20 59
80 20 58 80 20 58 80 20 58 80 20 58 79 20 58 79 20 58 79 20 58 79 20
57 78 20 57 78 20 57 78 20 57 78 20 57 77 20 57 77 20 57 77 20 56 77
20 56 76 20 56 76 20 56 76 20 56 76 20 56 75 20 56 75 20 55 75 20 55
75 20 55 74 20 55 74 20 55 74 20 55 74 20 55 73 20 55 73 20 54 73 20
54 73 20 54 72 20 54 72 20 54 72 20 54 72 20 54 72 20 53 71 20 53 71
20 53 71 20 53 71 20 53 70 20 53 70 20 53 70 20 53 70 20 53 70 20 52
69 20 52 69 20 52 69 20 52 69 20 52 69 20 52 68 20 52 68 20 52 68 20
51 68 20 51 67 20 51 67 20 51 67 20 51 67 20 51 67 20 51 66 20 51 66
20 51 66 20 50 66 20 50 66 20 50 66 20 50 65 20 50 65 20 50 65 20 50
65 20 50 65 20 50 64 20 50 64 20 49 64 20 49 64 20 49 64 20 49 64 20
49 63 20 49 63 20 49 63 20 49 63 20 49 63 20 49 62 20 48 62 20 48 62
20 48 62 20 48 62 20 48 62 20 48 61 20 48 61 20 48 61 20 48 61 20 48
61 20 48 61 20 47 60 20 47 60 20 47 60 20 47 60 20 47 60 20 47 60 20
47 60 20 47 59 20 47 59 20 47 59 20 47 59 20 47 59 20 46 59 20 46 59
20 46 58 20 46 58 20 46 58 20 46 58 20 46 58 20 46 58 20 46 58 20 46
57 20 46 57 20 46 57 20 45 57 20 45 57 20 45 57 20 45 57 20 45 56 47
71 65 47 71 65 47 71 65 47 71 65 47 71 65 47 71 65 47 71 65 47 71 65
47 71 65 47 71 65 47 71 64 47 71 64 47 71 64 47 71 64 48 71 64 48 71
64 48 71 64 48 71 64 48 71 64 48 71 64 48 71 63 48 71 63 48 71 63 48
71 63 48 71 63 48 71 63 48 71 63 48 71 63 48 71 63 49 71 63 49 71 63
49 71 62 49 71 62 49 71 62 49 71 62 49 71 62 49 71 62 49 71 62 49 71
62 49 71 62 49 71 62 49 71 62 49 71 62 49 71 61 49 71 61 49 71 61 50
71 61 50 71 61 50 71 61 50 71 61 50 71 61 50 71 61 50 71 61 50 71 61
50 71 61 50 71 60 50 71 60 50 71 60 50 71 60 50 71 60 50 71 60 50 71
60 50 71 60 50 71 60 51 71 60 51 71 60 51 71 60 51 71 60 51 71 59 51
71 59 51 71 59 51 71 59 51 71 59 51 71 59 51 71 59 51 71 59 51 71 59
51 71 59 51 71 59 51 71 59 51 71 59 51 71 59 51 71 58 51 71 58 51 71
58 51 71 58 51 71 58 51 71 58 52 71 58 52 71 58 52 71 58 52 71 58 52
71 58 52 71 58 52 71 58 52 71 58 52 71 58 52 71 57 52 71 57 52 71 57
52 71 57 52 71 57 52 71 57 52 71 57 52 71 57 52 71 57 52 71 57 52 71
57 52 71 57 52 71 57 52 71 57 52 71 57 52 71 56 52 71 56 52 71 56 52
71 56 52 71 56 52 71 56 52 71 56 52 71 56 52 71 56 52 70 56 52 70 56
52 70 56 52 70 56 52 70 56 52 70 55 52 70 55 52 70 55 52 70 55 52 70
55 52 70 55 52 70 55 52 70 55 52 70 55 52 70 55 52 70 55 52 70 55 52
70 55 52 70 55 52 70 55 52 70 54 52 70 54 52 70 54 52 69 54 52 69 54
52 69 54 52 69 54 52 69 54 52 69 54 52 69 54 52 69 54 52 69 54 52 69
54 52 69 54 52 69 54 52 69 53 52 69 53 52 69 53 51 69 53 51 69 53 51
68 53 51 68 53 51 68 53 51 68 53 51 68 53 51 68 53 51 68 53 51 68 53
51 68 53 51 68 53 51 68 52 51 68 52 51 68 52 51 68 52 51 67 52 51 67
52 51 67 52 51 67 52 51 67 52 51 67 52 51 67 52 51 67 52 50 67 52 50
67 52 50 67 51 50 67 51 50 67 51 50 66 51 50 66 51 50 66 51 50 66 51
50 66 51 50 66 51 50 66 51 50 66 51 50 66 51 50 66 51 50 66 51 50 66
51 50 66 50 49 65 50 49 65 50 49 65 50 49 65 50 49 65 50 49 65 50 49
65 50 49 65 50 49 65 50 49 65 50 49 65 50 49 64 50 49 64 50 49 64 50
49 64 49 49 64 49 48 64 49 48 64 49 48 64 49 48 64 49 48 64 49 48 64
49 48 64 49
20 66 94 20 66 94 20 66 94 20 66 94 20 66 93 20 66 93 20 65 93 20 65
92 20 65 92 20 65 92 20 65 92 20 65 91 20 65 91 20 64 91 20 64 91 20
64 90 20 64 90 20 64 90 20 64 90 20 63 89 20 63 89 20 63 89 20 63 88
20 63 88 20 63 88 20 63 88 20 62 87 20 62 87 20 62 87 20 62 86 20 62
86 20 62 86 20 61 86 20 61 85 20 61 85 20 61 85 20 61 85 20 61 84 20
61 84 20 60 84 20 60 83 20 60 83 20 60 83 20 60 83 20 60 82 20 59 82
20 59 82 20 59 82 20 59 81 20 59 81 20 59 81 20 59 80 20 58 80 20 58
80 20 58 80 20 58 79 20 58 79 20 58 79 20 58 79 20 57 78 20 57 78 20
57 78 20 57 78 20 57 77 20 57 77 20 57 77 20 56 77 20 56 76 20 56 76
20 56 76 20 56 76 20 56 75 20 56 75 20 55 75 20 55 75 20 55 74 20 55
74 20 55 74 20 55 74 20 55 73 20 55 73 20 54 73 20 54 73 20 54 73 20
54 72 20 54 72 20 54 72 20 54 72 20 54 71 20 53 71 20 53 71 20 53 71
20 53 71 20 53 70 20 53 70 20 53 70 20 53 70 20 52 69 20 52 69 20 52
69 20 52 69 20 52 69 20 52 68 20 52 68 20 52 68 20 52 68 20 51 68 20
51 67 20 51 67 20 51 67 20 51 67 20 51 67 20 51 66 20 51 66 20 51 66
20 50 66 20 50 66 20 50 66 20 50 65 20 50 65 20 50 65 20 50 65 20 50
65 20 50 64 20 50 64 20 49 64 20 49 64 20 49 64 20 49 64 20 49 63 20
49 63 20 49 63 20 49 63 20 49 63 20 49 62 20 48 62 20 48 62 20 48 62
20 48 62 20 48 62 20 48 61 20 48 61 20 48 61 20 48 61 20 48 61 20 48
61 20 47 61 20 47 60 20 47 60 20 47 60 20 47 60 20 47 60 20 47 60 20
47 59 20 47 59 20 47 59 20 47 59 20 47 59 20 46 59 20 46 59 20 46 58
20 46 58 20 46 58 20 46 58 20 46 58 20 46 58 20 46 58 20 46 57 20 46
57 20 46 57 20 46 57 20 45 57 20 45 57 20 45 57 20 45 57 46 71 66 46
71 65 47 71 65 47 71 65 47 71 65 47 71 65 47 71 65 47 71 65 47 71 65
47 71 65 47 71 64 47 71 64 47 71 64 47 71 64 47 71 64 47 71 64 47 71
64 48 71 64 48 71 64 48 71 64 48 71 63 48 71 63 48 71 63 48 71 63 48
71 63 48 71 63 48 71 63 48 71 63 48 71 63 48 71 63 48 71 63 48 71 62
48 71 62 49 71 62 49 71 62 49 71 62 49 71 62 49 71 62 49 71 62 49 71
62 49 71 62 49 71 62 49 71 62 49 71 61 49 71 61 49 71 61 49 71 61 49
71 61 49 71 61 49 71 61 50 71 61 50 71 61 50 71 61 50 71 61 50 71 61
50 71 61 50 71 60 50 71 60 50 71 60 50 71 60 50 71 60 50 71 60 50 71
60 50 71 60 50 71 60 50 71 60 50 71 60 50 71 60 50 71 60 51 71 59 51
71 59 51 71 59 51 71 59 51 71 59 51 71 59 51 71 59 51 71 59 51 71 59
51 71 59 51 71 59 51 71 59 51 71 59 51 71 59 51 71 58 51 71 58 51 71
58 51 71 58 51 71 58 51 71 58 51 71 58 51 71 58 51 71 58 51 71 58 51
71 58 51 71 58 51 71 58 52 71 58 52 71 57 52 71 57 52 71 57 52 71 57
52 71 57 52 71 57 52 71 57 52 71 57 52 71 57 52 71 57 52 71 57 52 71
57 52 71 57 52 71 57 52 71 57 52 71 56 52 71 56 52 71 56 52 71 56 52
71 56 52 70 56 52 70 56 52 70 56 52 70 56 52 70 56 52 70 56 52 70 56
52 70 56 52 70 56 52 70 56 52 70 55 52 70 55 52 70 55 52 70 55 52 70
55 52 70 55 52 70 55 52 70 55 52 70 55 52 70 55 52 70 55 52 70 55 52
70 55 52 70 55 52 70 55 52 69 54 52 69 54 52 69 54 52 69 54 52 69 54
52 69 54 52 69 54 52 69 54 52 69 54 52 69 54 52 69 54 52 69 54 52 69
54 51 69 54 51 69 54 51 69 53 51 69 53 51 69 53 51 68 53 51 68 53 51
68 53 51 68 53 51 68 53 51 68 53 51 68 53 51 68 53 51 68 53 51 68 53
51 68 53 51 68 53 51 68 52 51 68 52 51 68 52 51 67 52 51 67 52 51 67
52 51 67 52 51 67 52 51 67 52 51 67 52 50 67 52 50 67 52 50 67 52 50
67 52 50 67 52 50 67 51 50 67 51 50 66 51 50 66 51 50 66 51 50 66 51
50 66 51 50 66 51 50 66 51 50 66 51 50 66 51 50 66 51 50 66 51 50 66
51 49 65 51 49 65 50 49 65 50 49 65 50 49 65 50 49 65 50 49 65 50 49
65 50 49 65 50 49 65 50 49 65 50 49 65 50 49 64 50 49 64 50 49 64 50
49 64 50 48 64 49 48 64 49 48 64 49 48 64 49 48 64 49 48 64 49 48 64
49 48 64 49
20 66 94 20 66 93 20 66 93 20 65 93 20 65 93 20 65 92 20 65 92 20 65
92 20 65 92 20 65 91 20 64 91 20 64 91 20 64 90 20 64 90 20 64 90 20
64 90 20 64 89 20 63 89 20 63 89 20 63 89 20 63 88 20 63 88 20 63 88
20 62 87 20 62 87 20 62 87 20 62 87 20 62 86 20 62 86 20 62 86 20 61
86 20 61 85 20 61 85 20 61 85 20 61 85 20 61 84 20 61 84 20 60 84 20
60 83 20 60 83 20 60 83 20 60 83 20 60 82 20 59 82 20 59 82 20 59 82
20 59 81 20 59 81 20 59 81 20 59 81 20 58 80 20 58 80 20 58 80 20 58
79 20 58 79 20 58 79 20 58 79 20 57 78 20 57 78 20 57 78 20 57 78 20
57 77 20 57 77 20 57 77 20 56 77 20 56 76 20 56 76 20 56 76 20 56 76
20 56 75 20 56 75 20 56 75 20 55 75 20 55 75 20 55 74 20 55 74 20 55
74 20 55 74 20 55 73 20 54 73 20 54 73 20 54 73 20 54 72 20 54 72 20
54 72 20 54 72 20 54 72 20 54 71 20 53 71 20 53 71 20 53 71 20 53 70
20 53 70 20 53 70 20 53 70 20 53 70 20 52 69 20 52 69 20 52 69 20 52
69 20 52 69 20 52 68 20 52 68 20 52 68 20 52 68 20 51 68 20 51 67 20
51 67 20 51 67 20 51 67 20 51 67 20 51 66 20 51 66 20 51 66 20 50 66
20 50 66 20 50 65 20 50 65 20 50 65 20 50 65 20 50 65 20 50 65 20 50
64 20 50 64 20 49 64 20 49 64 20 49 64 20 49 64 20 49 63 20 49 63 20
49 63 20 49 63 20 49 63 20 49 63 20 48 62 20 48 62 20 48 62 20 48 62
20 48 62 20 48 62 20 48 61 20 48 61 20 48 61 20 48 61 20 48 61 20 47
61 20 47 60 20 47 60 20 47 60 20 47 60 20 47 60 20 47 60 20 47 60 20
47 59 20 47 59 20 47 59 20 47 59 20 46 59 20 46 59 20 46 58 20 46 58
20 46 58 20 46 58 20 46 58 20 46 58 20 46 58 20 46 58 20 46 57 20 46
57 20 46 57 20 45 57 20 45 57 20 45 57 20 45 57 20 45 56 46 71 65 46
71 65 46 71 65 47 71 65 47 71 65 47 71 65 47 71 65 47 71 65 47 71 65
47 71 64 47 71 64 47 71 64 47 71 64 47 71 64 47 71 64 47 71 64 47 71
64 47 71 64 47 71 64 48 71 64 48 71 63 48 71 63 48 71 63 48 71 63 48
71 63 48 71 63 48 71 63 48 71 63 48 71 63 48 71 63 48 71 63 48 71 62
48 71 62 48 71 62 48 71 62 49 71 62 49 71 62 49 71 62 49 71 62 49 71
62 49 71 62 49 71 62 49 71 61 49 71 61 49 71 61 49 71 61 49 71 61 49
71 61 49 71 61 49 71 61 49 71 61 49 71 61 49 71 61 50 71 61 50 71 61
50 71 60 50 71 60 50 71 60 50 71 60 50 71 60 50 71 60 50 71 60 50 71
60 50 71 60 50 71 60 50 71 60 50 71 60 50 71 60 50 71 59 50 71 59 50
71 59 50 71 59 50 71 59 51 71 59 51 71 59 51 71 59 51 71 59 51 71 59
51 71 59 51 71 59 51 71 59 51 71 59 51 71 58 51 71 58 51 71 58 51 71
58 51 71 58 51 71 58 51 71 58 51 71 58 51 71 58 51 71 58 51 71 58 51
71 58 51 71 58 51 71 58 51 71 58 51 71 57 51 71 57 51 71 57 51 71 57
51 71 57 51 71 57 51 71 57 51 71 57 51 71 57 52 71 57 52 71 57 52 71
57 52 71 57 52 71 57 52 70 57 52 70 56 52 70 56 52 70 56 52 70 56 52
70 56 52 70 56 52 70 56 52 70 56 52 70 56 52 70 56 52 70 56 52 70 56
52 70 56 52 70 56 52 70 56 52 70 55 52 70 55 52 70 55 52 70 55 52 70
55 52 70 55 52 70 55 52 70 55 52 70 55 52 70 55 52 70 55 52 70 55 52
69 55 52 69 55 52 69 55 52 69 54 52 69 54 52 69 54 52 69 54 52 69 54
51 69 54 51 69 54 51 69 54 51 69 54 51 69 54 51 69 54 51 69 54 51 69
54 51 69 54 51 69 54 51 69 53 51 68 53 51 68 53 51 68 53 51 68 53 51
68 53 51 68 53 51 68 53 51 68 53 51 68 53 51 68 53 51 68 53 51 68 53
51 68 53 51 68 53 51 68 52 51 68 52 51 67 52 51 67 52 51 67 52 51 67
52 51 67 52 50 67 52 50 67 52 50 67 52 50 67 52 50 67 52 50 67 52 50
67 52 50 67 52 50 67 51 50 66 51 50 66 51 50 66 51 50 66 51 50 66 51
50 66 51 50 66 51 50 66 51 50 66 51 50 66 51 50 66 51 50 66 51 49 66
51 49 65 51 49 65 51 49 65 50 49 65 50 49 65 50 49 65 50 49 65 50 49
65 50 49 65 50 49 65 50 49 65 50 49 65 50 49 64 50 49 64 50 49 64 50
49 64 50 48 64 50 48 64 49 48 64 49 48 64 49 48 64 49 48 64 49 48 64
49 48 64 49
20 65 93 20 65 93 20 65 92 20 65 92 20 65 92 20 65 92 20 65 91 20 64
91 20 64 91 20 64 91 20 64 90 20 64 90 20 64 90 20 64 90 20 63 89 20
63 89 20 63 89 20 63 88 20 63 88 20 63 88 20 63 88 20 62 87 20 62 87
20 62 87 20 62 87 20 62 86 20 62 86 20 62 86 20 61 86 20 61 85 20 61
85 20 61 85 20 61 84 20 61 84 20 61 84 20 60 84 20 60 83 20 60 83 20
60 83 20 60 83 20 60 82 20 59 82 20 59 82 20 59 82 20 59 81 20 59 81
20 59 81 20 59 81 20 58 80 20 58 80 20 58 80 20 58 79 20 58 79 20 58
79 20 58 79 20 57 78 20 57 78 20 57 78 20 57 78 20 57 77 20 57 77 20
57 77 20 57 77 20 56 77 20 56 76 20 56 76 20 56 76 20 56 76 20 56 75
20 56 75 20 55 75 20 55 75 20 55 74 20 55 74 20 55 74 20 55 74 20 55
73 20 55 73 20 54 73 20 54 73 20 54 73 20 54 72 20 54 72 20 54 72 20
54 72 20 54 71 20 53 71 20 53 71 20 53 71 20 53 71 20 53 70 20 53 70
20 53 70 20 53 70 20 53 70 20 52 69 20 52 69 20 52 69 20 52 69 20 52
69 20 52 68 20 52 68 20 52 68 20 51 68 20 51 68 20 51 67 20 51 67 20
51 67 20 51 67 20 51 67 20 51 66 20 51 66 20 51 66 20 50 66 20 50 66
20 50 65 20 50 65 20 50 65 20 50 65 20 50 65 20 50 65 20 50 64 20 50
64 20 49 64 20 49 64 20 49 64 20 49 64 20 49 63 20 49 63 20 49 63 20
49 63 20 49 63 20 49 63 20 48 62 20 48 62 20 48 62 20 48 62 20 48 62
20 48 62 20 48 61 20 48 61 20 48 61 20 48 61 20 48 61 20 48 61 20 47
60 20 47 60 20 47 60 20 47 60 20 47 60 20 47 60 20 47 60 20 47 59 20
47 59 20 47 59 20 47 59 20 47 59 20 46 59 20 46 59 20 46 58 20 46 58
20 46 58 20 46 58 20 46 58 20 46 58 20 46 58 20 46 57 20 46 57 20 46
57 20 46 57 20 45 57 20 45 57 20 45 57 20 45 57 46 71 65 46 71 65 46
71 65 46 71 65 46 71 65 46 71 65 47 71 65 47 71 65 47 71 65 47 71 64
47 71 64 47 71 64 47 71 64 47 71 64 47 71 64 47 71 64 47 71 64 47 71
64 47 71 64 47 71 64 47 71 63 47 71 63 48 71 63 48 71 63 48 71 63 48
71 63 48 71 63 48 71 63 48 71 63 48 71 63 48 71 63 48 71 62 48 71 62
48 71 62 48 71 62 48 71 62 48 71 62 48 71 62 48 71 62 49 71 62 49 71
62 49 71 62 49 71 62 49 71 61 49 71 61 49 71 61 49 71 61 49 71 61 49
71 61 49 71 61 49 71 61 49 71 61 49 71 61 49 71 61 49 71 61 49 71 60
49 71 60 50 71 60 50 71 60 50 71 60 50 71 60 50 71 60 50 71 60 50 71
60 50 71 60 50 71 60 50 71 60 50 71 60 50 71 60 50 71 59 50 71 59 50
71 59 50 71 59 50 71 59 50 71 59 50 71 59 50 71 59 50 71 59 50 71 59
51 71 59 51 71 59 51 71 59 51 71 59 51 71 58 51 71 58 51 71 58 51 71
58 51 71 58 51 71 58 51 71 58 51 71 58 51 71 58 51 71 58 51 71 58 51
71 58 51 71 58 51 71 58 51 71 58 51 71 57 51 71 57 51 71 57 51 71 57
51 71 57 51 71 57 51 70 57 51 70 57 51 70 57 51 70 57 51 70 57 51 70
57 51 70 57 51 70 57 51 70 57 51 70 56 51 70 56 51 70 56 51 70 56 51
70 56 51 70 56 51 70 56 51 70 56 51 70 56 51 70 56 51 70 56 51 70 56
51 70 56 51 70 56 51 70 56 51 70 55 51 70 55 51 70 55 51 70 55 51 70
55 51 70 55 51 70 55 51 70 55 51 70 55 51 69 55 51 69 55 51 69 55 51
69 55 51 69 55 51 69 55 51 69 54 51 69 54 51 69 54 51 69 54 51 69 54
51 69 54 51 69 54 51 69 54 51 69 54 51 69 54 51 69 54 51 69 54 51 69
54 51 69 54 51 68 54 51 68 54 51 68 53 51 68 53 51 68 53 51 68 53 51
68 53 51 68 53 51 68 53 51 68 53 51 68 53 51 68 53 51 68 53 51 68 53
51 68 53 51 68 53 51 68 53 51 67 52 51 67 52 51 67 52 50 67 52 50 67
52 50 67 52 50 67 52 50 67 52 50 67 52 50 67 52 50 67 52 50 67 52 50
67 52 50 67 52 50 66 52 50 66 51 50 66 51 50 66 51 50 66 51 50 66 51
50 66 51 50 66 51 50 66 51 50 66 51 50 66 51 49 66 51 49 66 51 49 66
51 49 65 51 49 65 51 49 65 50 49 65 50 49 65 50 49 65 50 49 65 50 49
65 50 49 65 50 49 65 50 49 65 50 49 65 50 49 64 50 49 64 50 49 64 50
48 64 50 48 64 50 48 64 50 48 64 49 48 64 49 48 64 49 48 64 49 48 64
49 48 64 49
20 65 92 20 65 92 20 65 92 20 65 91 20 65 91 20 64 91 20 64 91 20 64
90 20 64 90 20 64 90 20 64 90 20 64 89 20 63 89 20 63 89 20 63 89 20
63 88 20 63 88 20 63 88 20 63 88 20 62 87 20 62 87 20 62 87 20 62 86
20 62 86 20 62 86 20 61 86 20 61 85 20 61 85 20 61 85 20 61 85 20 61
84 20 61 84 20 60 84 20 60 84 20 60 83 20 60 83 20 60 83 20 60 83 20
60 82 20 59 82 20 59 82 20 59 82 20 59 81 20 59 81 20 59 81 20 59 81
20 58 80 20 58 80 20 58 80 20 58 79 20 58 79 20 58 79 20 58 79 20 57
79 20 57 78 20 57 78 20 57 78 20 57 78 20 57 77 20 57 77 20 57 77 20
56 77 20 56 76 20 56 76 20 56 76 20 56 76 20 56 75 20 56 75 20 55 75
20 55 75 20 55 74 20 55 74 20 55 74 20 55 74 20 55 74 20 55 73 20 54
73 20 54 73 20 54 73 20 54 72 20 54 72 20 54 72 20 54 72 20 54 72 20
54 71 20 53 71 20 53 71 20 53 71 20 53 71 20 53 70 20 53 70 20 53 70
20 53 70 20 52 69 20 52 69 20 52 69 20 52 69 20 52 69 20 52 68 20 52
68 20 52 68 20 52 68 20 51 68 20 51 67 20 51 67 20 51 67 20 51 67 20
51 67 20 51 67 20 51 66 20 51 66 20 51 66 20 50 66 20 50 66 20 50 65
20 50 65 20 50 65 20 50 65 20 50 65 20 50 65 20 50 64 20 50 64 20 49
64 20 49 64 20 49 64 20 49 64 20 49 63 20 49 63 20 49 63 20 49 63 20
49 63 20 49 63 20 48 62 20 48 62 20 48 62 20 48 62 20 48 62 20 48 62
20 48 61 20 48 61 20 48 61 20 48 61 20 48 61 20 48 61 20 47 60 20 47
60 20 47 60 20 47 60 20 47 60 20 47 60 20 47 60 20 47 59 20 47 59 20
47 59 20 47 59 20 47 59 20 46 59 20 46 59 20 46 58 20 46 58 20 46 58
20 46 58 20 46 58 20 46 58 20 46 58 20 46 57 20 46 57 20 46 57 20 46
57 20 45 57 20 45 57 20 45 57 20 45 57 20 45 56 46 71 65 46 71 65 46
71 65 46 71 65 46 71 65 46 71 65 46 71 65 47 71 65 47 71 65 47 71 64
47 71 64 47 71 64 47 71 64 47 71 64 47 71 64 47 71 64 47 71 64 47 71
64 47 71 64 47 71 63 47 71 63 47 71 63 47 71 63 47 71 63 48 71 63 48
71 63 48 71 63 48 71 63 48 71 63 48 71 63 48 71 62 48 71 62 48 71 62
48 71 62 48 71 62 48 71 62 48 71 62 48 71 62 48 71 62 48 71 62 48 71
62 49 71 62 49 71 61 49 71 61 49 71 61 49 71 61 49 71 61 49 71 61 49
71 61 49 71 61 49 71 61 49 71 61 49 71 61 49 71 61 49 71 61 49 71 60
49 71 60 49 71 60 49 71 60 49 71 60 49 71 60 50 71 60 50 71 60 50 71
60 50 71 60 50 71 60 50 71 60 50 71 60 50 71 59 50 71 59 50 71 59 50
71 59 50 71 59 50 71 59 50 71 59 50 71 59 50 71 59 50 71 59 50 71 59
50 71 59 50 71 59 50 71 59 50 71 58 50 71 58 50 71 58 51 71 58 51 71
58 51 71 58 51 71 58 51 71 58 51 71 58 51 71 58 51 71 58 51 70 58 51
70 58 51 70 58 51 70 58 51 70 57 51 70 57 51 70 57 51 70 57 51 70 57
51 70 57 51 70 57 51 70 57 51 70 57 51 70 57 51 70 57 51 70 57 51 70
57 51 70 57 51 70 57 51 70 56 51 70 56 51 70 56 51 70 56 51 70 56 51
70 56 51 70 56 51 70 56 51 70 56 51 70 56 51 70 56 51 70 56 51 70 56
51 70 56 51 70 56 51 70 56 51 70 55 51 70 55 51 70 55 51 70 55 51 70
55 51 69 55 51 69 55 51 69 55 51 69 55 51 69 55 51 69 55 51 69 55 51
69 55 51 69 55 51 69 55 51 69 54 51 69 54 51 69 54 51 69 54 51 69 54
51 69 54 51 69 54 51 69 54 51 69 54 51 69 54 51 69 54 51 69 54 51 68
54 51 68 54 51 68 54 51 68 54 51 68 53 51 68 53 51 68 53 51 68 53 51
68 53 51 68 53 51 68 53 51 68 53 51 68 53 51 68 53 51 68 53 51 68 53
51 68 53 51 67 53 51 67 53 50 67 52 50 67 52 50 67 52 50 67 52 50 67
52 50 67 52 50 67 52 50 67 52 50 67 52 50 67 52 50 67 52 50 67 52 50
67 52 50 67 52 50 66 52 50 66 52 50 66 51 50 66 51 50 66 51 50 66 51
50 66 51 50 66 51 50 66 51 50 66 51 49 66 51 49 66 51 49 66 51 49 65
51 49 65 51 49 65 51 49 65 51 49 65 50 49 65 50 49 65 50 49 65 50 49
65 50 49 65 50 49 65 50 49 65 50 49 65 50 49 64 50 49 64 50 49 64 50
48 64 50 48 64 50 48 64 50 48 64 50 48 64 49 48 64 49 48 64 49 48 64
49 48 64 49
20 65 91 20 65 91 20 64 91 20 64 91 20 64 90 20 64 90 20 64 90 20 64
90 20 64 89 20 63 89 20 63 89 20 63 89 20 63 88 20 63 88 20 63 88 20
63 88 20 62 87 20 62 87 20 62 87 20 62 87 20 62 86 20 62 86 20 62 86
20 61 86 20 61 85 20 61 85 20 61 85 20 61 85 20 61 84 20 61 84 20 60
84 20 60 84 20 60 83 20 60 83 20 60 83 20 60 82 20 60 82 20 59 82 20
59 82 20 59 81 20 59 81 20 59 81 20 59 81 20 59 80 20 58 80 20 58 80
20 58 80 20 58 79 20 58 79 20 58 79 20 58 79 20 57 79 20 57 78 20 57
78 20 57 78 20 57 78 20 57 77 20 57 77 20 57 77 20 56 77 20 56 76 20
56 76 20 56 76 20 56 76 20 56 75 20 56 75 20 56 75 20 55 75 20 55 75
20 55 74 20 55 74 20 55 74 20 55 74 20 55 73 20 55 73 20 54 73 20 54
73 20 54 73 20 54 72 20 54 72 20 54 72 20 54 72 20 54 71 20 53 71 20
53 71 20 53 71 20 53 71 20 53 70 20 53 70 20 53 70 20 53 70 20 53 70
20 52 69 20 52 69 20 52 69 20 52 69 20 52 69 20 52 68 20 52 68 20 52
68 20 52 68 20 51 68 20 51 67 20 51 67 20 51 67 20 51 67 20 51 67 20
51 66 20 51 66 20 51 66 20 50 66 20 50 66 20 50 66 20 50 65 20 50 65
20 50 65 20 50 65 20 50 65 20 50 65 20 50 64 20 50 64 20 49 64 20 49
64 20 49 64 20 49 64 20 49 63 20 49 63 20 49 63 20 49 63 20 49 63 20
49 63 20 48 62 20 48 62 20 48 62 20 48 62 20 48 62 20 48 62 20 48 61
20 48 61 20 48 61 20 48 61 20 48 61 20 48 61 20 47 60 20 47 60 20 47
60 20 47 60 20 47 60 20 47 60 20 47 60 20 47 59 20 47 59 20 47 59 20
47 59 20 47 59 20 46 59 20 46 59 20 46 58 20 46 58 20 46 58 20 46 58
20 46 58 20 46 58 20 46 58 20 46 58 20 46 57 20 46 57 20 46 57 20 46
57 20 45 57 20 45 57 20 45 57 20 45 57 46 71 65 46 71 65 46 71 65 46
71 65 46 71 65 46 71 65 46 71 65 46 71 65 46 71 65 46 71 64 47 71 64
47 71 64 47 71 64 47 71 64 47 71 64 47 71 64 47 71 64 47 71 64 47 71
64 47 71 63 47 71 63 47 71 63 47 71 63 47 71 63 47 71 63 47 71 63 47
71 63 48 71 63 48 71 63 48 71 63 48 71 62 48 71 62 48 71 62 48 71 62
48 71 62 48 71 62 48 71 62 48 71 62 48 71 62 48 71 62 48 71 62 48 71
62 48 71 61 48 71 61 48 71 61 49 71 61 49 71 61 49 71 61 49 71 61 49
71 61 49 71 61 49 71 61 49 71 61 49 71 61 49 71 61 49 71 60 49 71 60
49 71 60 49 71 60 49 71 60 49 71 60 49 71 60 49 71 60 49 71 60 49 71
60 49 71 60 50 71 60 50 71 60 50 71 59 50 71 59 50 71 59 50 71 59 50
71 59 50 71 59 50 71 59 50 71 59 50 71 59 50 71 59 50 70 59 50 70 59
50 70 59 50 70 59 50 70 59 50 70 58 50 70 58 50 70 58 50 70 58 50 70
58 50 70 58 50 70 58 50 70 58 50 70 58 51 70 58 51 70 58 51 70 58 51
70 58 51 70 58 51 70 58 51 70 57 51 70 57 51 70 57 51 70 57 51 70 57
51 70 57 51 70 57 51 70 57 51 70 57 51 70 57 51 70 57 51 70 57 51 70
57 51 70 57 51 70 57 51 70 56 51 70 56 51 70 56 51 70 56 51 70 56 51
70 56 51 70 56 51 70 56 51 70 56 51 70 56 51 70 56 51 70 56 51 70 56
51 70 56 51 70 56 51 70 56 51 69 55 51 69 55 51 69 55 51 69 55 51 69
55 51 69 55 51 69 55 51 69 55 51 69 55 51 69 55 51 69 55 51 69 55 51
69 55 51 69 55 51 69 55 51 69 54 51 69 54 51 69 54 51 69 54 51 69 54
51 69 54 51 69 54 51 69 54 51 69 54 51 68 54 51 68 54 51 68 54 51 68
54 51 68 54 51 68 54 51 68 54 51 68 53 51 68 53 51 68 53 51 68 53 51
68 53 51 68 53 51 68 53 51 68 53 51 68 53 51 68 53 51 68 53 50 68 53
50 67 53 50 67 53 50 67 53 50 67 52 50 67 52 50 67 52 50 67 52 50 67
52 50 67 52 50 67 52 50 67 52 50 67 52 50 67 52 50 67 52 50 67 52 50
67 52 50 66 52 50 66 52 50 66 52 50 66 51 50 66 51 50 66 51 50 66 51
50 66 51 50 66 51 49 66 51 49 66 51 49 66 51 49 66 51 49 66 51 49 65
51 49 65 51 49 65 51 49 65 51 49 65 51 49 65 50 49 65 50 49 65 50 49
65 50 49 65 50 49 65 50 49 65 50 49 65 50 49 64 50 49 64 50 48 64 50
48 64 50 48 64 50 48 64 50 48 64 50 48 64 50 48 64 49 48 64 49 48 64
49 48 64 49
20 64 91 20 64 90 20 64 90 20 64 90 20 64 90 20 64 89 20 63 89 20 63
89 20 63 89 20 63 88 20 63 88 20 63 88 20 63 88 20 62 87 20 62 87 20
62 87 20 62 87 20 62 86 20 62 86 20 62 86 20 61 86 20 61 85 20 61 85
20 61 85 20 61 85 20 61 84 20 61 84 20 61 84 20 60 84 20 60 83 20 60
83 20 60 83 20 60 83 20 60 82 20 60 82 20 59 82 20 59 82 20 59 81 20
59 81 20 59 81 20 59 81 20 59 80 20 58 80 20 58 80 20 58 80 20 58 79
20 58 79 20 58 79 20 58 79 20 57 78 20 57 78 20 57 78 20 57 78 20 57
78 20 57 77 20 57 77 20 57 77 20 56 77 20 56 76 20 56 76 20 56 76 20
56 76 20 56 75 20 56 75 20 56 75 20 55 75 20 55 75 20 55 74 20 55 74
20 55 74 20 55 74 20 55 73 20 55 73 20 54 73 20 54 73 20 54 73 20 54
72 20 54 72 20 54 72 20 54 72 20 54 72 20 53 71 20 53 71 20 53 71 20
53 71 20 53 70 20 53 70 20 53 70 20 53 70 20 53 70 20 52 69 20 52 69
20 52 69 20 52 69 20 52 69 20 52 69 20 52 68 20 52 68 20 52 68 20 51
68 20 51 68 20 51 67 20 51 67 20 51 67 20 51 67 20 51 67 20 51 66 20
51 66 20 51 66 20 50 66 20 50 66 20 50 66 20 50 65 20 50 65 20 50 65
20 50 65 20 50 65 20 50 65 20 50 64 20 49 64 20 49 64 20 49 64 20 49
64 20 49 63 20 49 63 20 49 63 20 49 63 20 49 63 20 49 63 20 49 63 20
48 62 20 48 62 20 48 62 20 48 62 20 48 62 20 48 62 20 48 61 20 48 61
20 48 61 20 48 61 20 48 61 20 48 61 20 47 61 20 47 60 20 47 60 20 47
60 20 47 60 20 47 60 20 47 60 20 47 60 20 47 59 20 47 59 20 47 59 20
47 59 20 47 59 20 46 59 20 46 59 20 46 58 20 46 58 20 46 58 20 46 58
20 46 58 20 46 58 20 46 58 20 46 57 20 46 57 20 46 57 20 46 57 20 45
57 20 45 57 20 45 57 20 45 57 20 45 56 46 71 65 46 71 65 46 71 65 46
71 65 46 71 65 46 71 65 46 71 65 46 71 65 46 71 64 46 71 64 46 71 64
46 71 64 47 71 64 47 71 64 47 71 64 47 71 64 47 71 64 47 71 64 47 71
63 47 71 63 47 71 63 47 71 63 47 71 63 47 71 63 47 71 63 47 71 63 47
71 63 47 71 63 47 71 63 47 71 62 48 71 62 48 71 62 48 71 62 48 71 62
48 71 62 48 70 62 48 70 62 48 70 62 48 70 62 48 70 62 48 70 62 48 70
61 48 70 61 48 70 61 48 70 61 48 70 61 48 70 61 48 70 61 49 70 61 49
70 61 49 70 61 49 70 61 49 70 61 49 70 61 49 70 60 49 70 60 49 70 60
49 70 60 49 70 60 49 70 60 49 70 60 49 70 60 49 70 60 49 70 60 49 70
60 49 70 60 49 70 60 49 70 60 49 70 59 49 70 59 50 70 59 50 70 59 50
70 59 50 70 59 50 70 59 50 70 59 50 70 59 50 70 59 50 70 59 50 70 59
50 70 59 50 70 59 50 70 58 50 70 58 50 70 58 50 70 58 50 70 58 50 70
58 50 70 58 50 70 58 50 70 58 50 70 58 50 70 58 50 70 58 50 70 58 50
70 58 50 70 58 50 70 57 50 70 57 51 70 57 51 70 57 51 70 57 51 70 57
51 70 57 51 70 57 51 70 57 51 70 57 51 70 57 51 70 57 51 70 57 51 70
57 51 70 57 51 70 57 51 70 56 51 70 56 51 70 56 51 70 56 51 70 56 51
70 56 51 70 56 51 70 56 51 70 56 51 70 56 51 70 56 51 69 56 51 69 56
51 69 56 51 69 56 51 69 55 51 69 55 51 69 55 51 69 55 51 69 55 51 69
55 51 69 55 51 69 55 51 69 55 51 69 55 51 69 55 51 69 55 51 69 55 51
69 55 51 69 55 51 69 55 51 69 54 51 69 54 51 69 54 51 69 54 51 69 54
51 69 54 51 69 54 51 68 54 51 68 54 51 68 54 51 68 54 51 68 54 51 68
54 51 68 54 51 68 54 51 68 54 51 68 53 51 68 53 51 68 53 51 68 53 51
68 53 50 68 53 50 68 53 50 68 53 50 68 53 50 68 53 50 67 53 50 67 53
50 67 53 50 67 53 50 67 53 50 67 53 50 67 52 50 67 52 50 67 52 50 67
52 50 67 52 50 67 52 50 67 52 50 67 52 50 67 52 50 67 52 50 67 52 50
66 52 50 66 52 50 66 52 50 66 52 50 66 52 50 66 51 50 66 51 50 66 51
49 66 51 49 66 51 49 66 51 49 66 51 49 66 51 49 66 51 49 65 51 49 65
51 49 65 51 49 65 51 49 65 51 49 65 51 49 65 51 49 65 50 49 65 50 49
65 50 49 65 50 49 65 50 49 65 50 49 65 50 49 64 50 48 64 50 48 64 50
48 64 50 48 64 50 48 64 50 48 64 50 48 64 50 48 64 50 48 64 49 48 64
49 48 64 49
20 64 90 20 64 90 20 64 90 20 63 89 20 63 89 20 63 89 20 63 89 20 63
88 20 63 88 20 63 88 20 63 88 20 62 87 20 62 87 20 62 87 20 62 87 20
62 86 20 62 86 20 62 86 20 61 86 20 61 85 20 61 85 20 61 85 20 61 85
20 61 84 20 61 84 20 60 84 20 60 84 20 60 83 20 60 83 20 60 83 20 60
83 20 60 82 20 59 82 20 59 82 20 59 82 20 59 81 20 59 81 20 59 81 20
59 81 20 59 80 20 58 80 20 58 80 20 58 80 20 58 79 20 58 79 20 58 79
20 58 79 20 57 78 20 57 78 20 57 78 20 57 78 20 57 78 20 57 77 20 57
77 20 57 77 20 56 77 20 56 76 20 56 76 20 56 76 20 56 76 20 56 75 20
56 75 20 56 75 20 55 75 20 55 75 20 55 74 20 55 74 20 55 74 20 55 74
20 55 74 20 55 73 20 54 73 20 54 73 20 54 73 20 54 72 20 54 72 20 54
72 20 54 72 20 54 72 20 54 71 20 53 71 20 53 71 20 53 71 20 53 71 20
53 70 20 53 70 20 53 70 20 53 70 20 53 70 20 52 69 20 52 69 20 52 69
20 52 69 20 52 69 20 52 68 20 52 68 20 52 68 20 52 68 20 51 68 20 51
67 20 51 67 20 51 67 20 51 67 20 51 67 20 51 67 20 51 66 20 51 66 20
51 66 20 50 66 20 50 66 20 50 65 20 50 65 20 50 65 20 50 65 20 50 65
20 50 65 20 50 64 20 50 64 20 49 64 20 49 64 20 49 64 20 49 64 20 49
63 20 49 63 20 49 63 20 49 63 20 49 63 20 49 63 20 49 63 20 48 62 20
48 62 20 48 62 20 48 62 20 48 62 20 48 62 20 48 61 20 48 61 20 48 61
20 48 61 20 48 61 20 48 61 20 47 61 20 47 60 20 47 60 20 47 60 20 47
60 20 47 60 20 47 60 20 47 60 20 47 59 20 47 59 20 47 59 20 47 59 20
47 59 20 46 59 20 46 59 20 46 58 20 46 58 20 46 58 20 46 58 20 46 58
20 46 58 20 46 58 20 46 57 20 46 57 20 46 57 20 46 57 20 45 57 20 45
57 20 45 57 20 45 57 20 45 56 46 71 65 46 71 65 46 71 65 46 71 65 46
71 65 46 71 65 46 71 65 46 71 65 46 71 64 46 70 64 46 70 64 46 70 64
46 70 64 46 70 64 46 70 64 47 70 64 47 70 64 47 70 64 47 70 63 47 70
63 47 70 63 47 70 63 47 70 63 47 70 63 47 70 63 47 70 63 47 70 63 47
70 63 47 70 63 47 70 63 47 70 62 47 70 62 47 70 62 48 70 62 48 70 62
48 70 62 48 70 62 48 70 62 48 70 62 48 70 62 48 70 62 48 70 62 48 70
61 48 70 61 48 70 61 48 70 61 48 70 61 48 70 61 48 70 61 48 70 61 48
70 61 48 70 61 48 70 61 49 70 61 49 70 60 49 70 60 49 70 60 49 70 60
49 70 60 49 70 60 49 70 60 49 70 60 49 70 60 49 70 60 49 70 60 49 70
60 49 70 60 49 70 60 49 70 59 49 70 59 49 70 59 49 70 59 49 70 59 49
70 59 49 70 59 50 70 59 50 70 59 50 70 59 50 70 59 50 70 59 50 70 59
50 70 59 50 70 58 50 70 58 50 70 58 50 70 58 50 70 58 50 70 58 50 70
58 50 70 58 50 70 58 50 70 58 50 70 58 50 70 58 50 70 58 50 70 58 50
70 58 50 70 58 50 70 57 50 70 57 50 70 57 50 70 57 50 70 57 50 70 57
50 70 57 50 70 57 50 70 57 50 70 57 50 70 57 51 70 57 51 70 57 51 70
57 51 70 57 51 70 56 51 70 56 51 70 56 51 70 56 51 70 56 51 70 56 51
69 56 51 69 56 51 69 56 51 69 56 51 69 56 51 69 56 51 69 56 51 69 56
51 69 56 51 69 56 51 69 55 51 69 55 51 69 55 51 69 55 51 69 55 51 69
55 51 69 55 51 69 55 51 69 55 51 69 55 51 69 55 51 69 55 51 69 55 51
69 55 51 69 55 51 69 55 51 69 54 51 69 54 51 69 54 51 69 54 51 68 54
51 68 54 51 68 54 51 68 54 51 68 54 51 68 54 51 68 54 51 68 54 51 68
54 51 68 54 50 68 54 50 68 54 50 68 53 50 68 53 50 68 53 50 68 53 50
68 53 50 68 53 50 68 53 50 68 53 50 67 53 50 67 53 50 67 53 50 67 53
50 67 53 50 67 53 50 67 53 50 67 53 50 67 52 50 67 52 50 67 52 50 67
52 50 67 52 50 67 52 50 67 52 50 67 52 50 67 52 50 66 52 50 66 52 50
66 52 50 66 52 50 66 52 50 66 52 50 66 52 49 66 51 49 66 51 49 66 51
49 66 51 49 66 51 49 66 51 49 66 51 49 66 51 49 66 51 49 65 51 49 65
51 49 65 51 49 65 51 49 65 51 49 65 51 49 65 51 49 65 50 49 65 50 49
65 50 49 65 50 49 65 50 49 65 50 48 65 50 48 64 50 48 64 50 48 64 50
48 64 50 48 64 50 48 64 50 48 64 50 48 64 50 48 64 50 48 64 50 48 64
49 48 64 49
20 63 89 20 63 89 20 63 89 20 63 89 20 63 88 20 63 88 20 63 88 20 63
88 20 62 87 20 62 87 20 62 87 20 62 87 20 62 86 20 62 86 20 62 86 20
61 86 20 61 85 20 61 85 20 61 85 20 61 85 20 61 84 20 61 84 20 61 84
20 60 84 20 60 83 20 60 83 20 60 83 20 60 83 20 60 82 20 60 82 20 59
82 20 59 82 20 59 82 20 59 81 20 59 81 20 59 81 20 59 81 20 59 80 20
58 80 20 58 80 20 58 80 20 58 79 20 58 79 20 58 79 20 58 79 20 57 78
20 57 78 20 57 78 20 57 78 20 57 78 20 57 77 20 57 77 20 57 77 20 56
77 20 56 76 20 56 76 20 56 76 20 56 76 20 56 75 20 56 75 20 56 75 20
55 75 20 55 75 20 55 74 20 55 74 20 55 74 20 55 74 20 55 74 20 55 73
20 54 73 20 54 73 20 54 73 20 54 72 20 54 72 20 54 72 20 54 72 20 54
72 20 54 71 20 53 71 20 53 71 20 53 71 20 53 71 20 53 70 20 53 70 20
53 70 20 53 70 20 53 70 20 52 69 20 52 69 20 52 69 20 52 69 20 52 69
20 52 69 20 52 68 20 52 68 20 52 68 20 52 68 20 51 68 20 51 67 20 51
67 20 51 67 20 51 67 20 51 67 20 51 66 20 51 66 20 51 66 20 51 66 20
50 66 20 50 66 20 50 65 20 50 65 20 50 65 20 50 65 20 50 65 20 50 65
20 50 64 20 50 64 20 49 64 20 49 64 20 49 64 20 49 64 20 49 63 20 49
63 20 49 63 20 49 63 20 49 63 20 49 63 20 49 62 20 48 62 20 48 62 20
48 62 20 48 62 20 48 62 20 48 62 20 48 61 20 48 61 20 48 61 20 48 61
20 48 61 20 48 61 20 47 61 20 47 60 20 47 60 20 47 60 20 47 60 20 47
60 20 47 60 20 47 60 20 47 59 20 47 59 20 47 59 20 47 59 20 47 59 20
46 59 20 46 59 20 46 58 20 46 58 20 46 58 20 46 58 20 46 58 20 46 58
20 46 58 20 46 58 20 46 57 20 46 57 20 46 57 20 46 57 20 45 57 20 45
57 20 45 57 20 45 57 46 70 65 46 70 65 46 70 65 46 70 65 46 70 65 46
70 65 46 70 65 46 70 65 46 70 64 46 70 64 46 70 64 46 70 64 46 70 64
46 70 64 46 70 64 46 70 64 46 70 64 46 70 64 47 70 63 47 70 63 47 70
63 47 70 63 47 70 63 47 70 63 47 70 63 47 70 63 47 70 63 47 70 63 47
70 63 47 70 63 47 70 62 47 70 62 47 70 62 47 70 62 47 70 62 47 70 62
47 70 62 48 70 62 48 70 62 48 70 62 48 70 62 48 70 62 48 70 61 48 70
61 48 70 61 48 70 61 48 70 61 48 70 61 48 70 61 48 70 61 48 70 61 48
70 61 48 70 61 48 70 61 48 70 61 48 70 60 48 70 60 49 70 60 49 70 60
49 70 60 49 70 60 49 70 60 49 70 60 49 70 60 49 70 60 49 70 60 49 70
60 49 70 60 49 70 59 49 70 59 49 70 59 49 70 59 49 70 59 49 70 59 49
70 59 49 70 59 49 70 59 49 70 59 49 70 59 49 70 59 49 70 59 50 70 59
50 70 59 50 70 58 50 70 58 50 70 58 50 70 58 50 70 58 50 70 58 50 70
58 50 70 58 50 70 58 50 70 58 50 70 58 50 70 58 50 70 58 50 70 58 50
70 58 50 70 57 50 70 57 50 70 57 50 70 57 50 70 57 50 70 57 50 70 57
50 70 57 50 70 57 50 70 57 50 70 57 50 70 57 50 70 57 50 70 57 50 70
57 50 69 57 50 69 56 50 69 56 50 69 56 50 69 56 50 69 56 50 69 56 50
69 56 50 69 56 50 69 56 50 69 56 50 69 56 51 69 56 51 69 56 51 69 56
51 69 56 51 69 56 51 69 55 51 69 55 51 69 55 51 69 55 51 69 55 51 69
55 51 69 55 51 69 55 51 69 55 51 69 55 51 69 55 51 69 55 51 69 55 51
69 55 51 69 55 51 69 55 51 68 54 50 68 54 50 68 54 50 68 54 50 68 54
50 68 54 50 68 54 50 68 54 50 68 54 50 68 54 50 68 54 50 68 54 50 68
54 50 68 54 50 68 54 50 68 54 50 68 53 50 68 53 50 68 53 50 68 53 50
68 53 50 68 53 50 67 53 50 67 53 50 67 53 50 67 53 50 67 53 50 67 53
50 67 53 50 67 53 50 67 53 50 67 53 50 67 52 50 67 52 50 67 52 50 67
52 50 67 52 50 67 52 50 67 52 50 67 52 50 66 52 50 66 52 50 66 52 50
66 52 50 66 52 49 66 52 49 66 52 49 66 52 49 66 52 49 66 51 49 66 51
49 66 51 49 66 51 49 66 51 49 66 51 49 66 51 49 65 51 49 65 51 49 65
51 49 65 51 49 65 51 49 65 51 49 65 51 49 65 51 49 65 51 49 65 50 49
65 50 49 65 50 49 65 50 48 65 50 48 64 50 48 64 50 48 64 50 48 64 50
48 64 50 48 64 50 48 64 50 48 64 50 48 64 50 48 64 50 48 64 50 48 64
50 48 64 49
20 63 89 20 63 88 20 63 88 20 63 88 20 63 88 20 62 87 20 62 87 20 62
87 20 62 87 20 62 86 20 62 86 20 62 86 20 62 86 20 61 85 20 61 85 20
61 85 20 61 85 20 61 85 20 61 84 20 61 84 20 60 84 20 60 84 20 60 83
20 60 83 20 60 83 20 60 83 20 60 82 20 60 82 20 59 82 20 59 82 20 59
81 20 59 81 20 59 81 20 59 81 20 59 80 20 58 80 20 58 80 20 58 80 20
58 80 20 58 79 20 58 79 20 58 79 20 58 79 20 57 78 20 57 78 20 57 78
20 57 78 20 57 78 20 57 77 20 57 77 20 57 77 20 56 77 20 56 76 20 56
76 20 56 76 20 56 76 20 56 76 20 56 75 20 56 75 20 55 75 20 55 75 20
55 74 20 55 74 20 55 74 20 55 74 20 55 74 20 55 73 20 55 73 20 54 73
20 54 73 20 54 73 20 54 72 20 54 72 20 54 72 20 54 72 20 54 72 20 53
71 20 53 71 20 53 71 20 53 71 20 53 71 20 53 70 20 53 70 20 53 70 20
53 70 20 52 70 20 52 69 20 52 69 20 52 69 20 52 69 20 52 69 20 52 68
20 52 68 20 52 68 20 52 68 20 51 68 20 51 67 20 51 67 20 51 67 20 51
67 20 51 67 20 51 67 20 51 66 20 51 66 20 51 66 20 50 66 20 50 66 20
50 66 20 50 65 20 50 65 20 50 65 20 50 65 20 50 65 20 50 65 20 50 64
20 50 64 20 49 64 20 49 64 20 49 64 20 49 64 20 49 63 20 49 63 20 49
63 20 49 63 20 49 63 20 49 63 20 49 62 20 48 62 20 48 62 20 48 62 20
48 62 20 48 62 20 48 62 20 48 61 20 48 61 20 48 61 20 48 61 20 48 61
20 48 61 20 47 61 20 47 60 20 47 60 20 47 60 20 47 60 20 47 60 20 47
60 20 47 60 20 47 59 20 47 59 20 47 59 20 47 59 20 47 59 20 46 59 20
46 59 20 46 58 20 46 58 20 46 58 20 46 58 20 46 58 20 46 58 20 46 58
20 46 58 20 46 57 20 46 57 20 46 57 20 46 57 20 45 57 20 45 57 20 45
57 20 45 57 20 45 56 45 70 65 45 70 65 46 70 65 46 70 65 46 70 65 46
70 65 46 70 65 46 70 64 46 70 64 46 70 64 46 70 64 46 70 64 46 70 64
46 70 64 46 70 64 46 70 64 46 70 64 46 70 63 46 70 63 46 70 63 47 70
63 47 70 63 47 70 63 47 70 63 47 70 63 47 70 63 47 70 63 47 70 63 47
70 63 47 70 62 47 70 62 47 70 62 47 70 62 47 70 62 47 70 62 47 70 62
47 70 62 47 70 62 47 70 62 48 70 62 48 70 62 48 70 61 48 70 61 48 70
61 48 70 61 48 70 61 48 70 61 48 70 61 48 70 61 48 70 61 48 70 61 48
70 61 48 70 61 48 70 61 48 70 60 48 70 60 48 70 60 48 70 60 48 70 60
48 70 60 49 70 60 49 70 60 49 70 60 49 70 60 49 70 60 49 70 60 49 70
60 49 70 60 49 70 59 49 70 59 49 70 59 49 70 59 49 70 59 49 70 59 49
70 59 49 70 59 49 70 59 49 70 59 49 70 59 49 70 59 49 70 59 49 70 59
49 70 58 49 70 58 49 70 58 49 70 58 50 70 58 50 70 58 50 70 58 50 70
58 50 70 58 50 70 58 50 70 58 50 70 58 50 70 58 50 70 58 50 70 58 50
70 57 50 70 57 50 70 57 50 70 57 50 70 57 50 70 57 50 70 57 50 70 57
50 69 57 50 69 57 50 69 57 50 69 57 50 69 57 50 69 57 50 69 57 50 69
57 50 69 56 50 69 56 50 69 56 50 69 56 50 69 56 50 69 56 50 69 56 50
69 56 50 69 56 50 69 56 50 69 56 50 69 56 50 69 56 50 69 56 50 69 56
50 69 56 50 69 55 50 69 55 50 69 55 50 69 55 50 69 55 50 69 55 50 69
55 50 69 55 50 69 55 50 69 55 50 69 55 50 69 55 50 69 55 50 68 55 50
68 55 50 68 55 50 68 55 50 68 54 50 68 54 50 68 54 50 68 54 50 68 54
50 68 54 50 68 54 50 68 54 50 68 54 50 68 54 50 68 54 50 68 54 50 68
54 50 68 54 50 68 54 50 68 54 50 68 53 50 68 53 50 68 53 50 68 53 50
67 53 50 67 53 50 67 53 50 67 53 50 67 53 50 67 53 50 67 53 50 67 53
50 67 53 50 67 53 50 67 53 50 67 53 50 67 53 50 67 52 50 67 52 50 67
52 50 67 52 50 67 52 50 66 52 50 66 52 50 66 52 50 66 52 49 66 52 49
66 52 49 66 52 49 66 52 49 66 52 49 66 52 49 66 52 49 66 51 49 66 51
49 66 51 49 66 51 49 66 51 49 66 51 49 65 51 49 65 51 49 65 51 49 65
51 49 65 51 49 65 51 49 65 51 49 65 51 49 65 51 49 65 51 49 65 51 49
65 50 48 65 50 48 65 50 48 65 50 48 64 50 48 64 50 48 64 50 48 64 50
48 64 50 48 64 50 48 64 50 48 64 50 48 64 50 48 64 50 48 64 50 48 64
50 48 64 49
20 63 88 20 63 88 20 62 87 20 62 87 20 62 87 20 62 87 20 62 86 20 62
86 20 62 86 20 62 86 20 61 86 20 61 85 20 61 85 20 61 85 20 61 85 20
61 84 20 61 84 20 60 84 20 60 84 20 60 83 20 60 83 20 60 83 20 60 83
20 60 82 20 60 82 20 59 82 20 59 82 20 59 82 20 59 81 20 59 81 20 59
81 20 59 81 20 59 80 20 58 80 20 58 80 20 58 80 20 58 79 20 58 79 20
58 79 20 58 79 20 58 79 20 57 78 20 57 78 20 57 78 20 57 78 20 57 77
20 57 77 20 57 77 20 57 77 20 56 77 20 56 76 20 56 76 20 56 76 20 56
76 20 56 75 20 56 75 20 56 75 20 55 75 20 55 75 20 55 74 20 55 74 20
55 74 20 55 74 20 55 74 20 55 73 20 55 73 20 54 73 20 54 73 20 54 73
20 54 72 20 54 72 20 54 72 20 54 72 20 54 72 20 54 71 20 53 71 20 53
71 20 53 71 20 53 71 20 53 70 20 53 70 20 53 70 20 53 70 20 53 70 20
52 69 20 52 69 20 52 69 20 52 69 20 52 69 20 52 68 20 52 68 20 52 68
20 52 68 20 52 68 20 51 68 20 51 67 20 51 67 20 51 67 20 51 67 20 51
67 20 51 67 20 51 66 20 51 66 20 51 66 20 50 66 20 50 66 20 50 66 20
50 65 20 50 65 20 50 65 20 50 65 20 50 65 20 50 65 20 50 64 20 50 64
20 49 64 20 49 64 20 49 64 20 49 64 20 49 63 20 49 63 20 49 63 20 49
63 20 49 63 20 49 63 20 49 62 20 48 62 20 48 62 20 48 62 20 48 62 20
48 62 20 48 62 20 48 61 20 48 61 20 48 61 20 48 61 20 48 61 20 48 61
20 47 61 20 47 60 20 47 60 20 47 60 20 47 60 20 47 60 20 47 60 20 47
60 20 47 59 20 47 59 20 47 59 20 47 59 20 47 59 20 46 59 20 46 59 20
46 59 20 46 58 20 46 58 20 46 58 20 46 58 20 46 58 20 46 58 20 46 58
20 46 57 20 46 57 20 46 57 20 46 57 20 45 57 20 45 57 20 45 57 20 45
57 20 45 56 45 70 65 45 70 65 45 70 65 45 70 65 45 70 65 46 70 65 46
70 65 46 70 64 46 70 64 46 70 64 46 70 64 46 70 64 46 70 64 46 70 64
46 70 64 46 70 64 46 70 64 46 70 63 46 70 63 46 70 63 46 70 63 46 70
63 46 70 63 47 70 63 47 70 63 47 70 63 47 70 63 47 70 63 47 70 63 47
70 62 47 70 62 47 70 62 47 70 62 47 70 62 47 70 62 47 70 62 47 70 62
47 70 62 47 70 62 47 70 62 47 70 62 47 70 61 47 70 61 48 70 61 48 70
61 48 70 61 48 70 61 48 70 61 48 70 61 48 70 61 48 70 61 48 70 61 48
70 61 48 70 61 48 70 60 48 70 60 48 70 60 48 70 60 48 70 60 48 70 60
48 70 60 48 70 60 48 70 60 48 70 60 48 70 60 49 70 60 49 70 60 49 70
60 49 70 59 49 70 59 49 70 59 49 70 59 49 70 59 49 70 59 49 70 59 49
70 59 49 70 59 49 70 59 49 70 59 49 70 59 49 70 59 49 70 59 49 70 58
49 70 58 49 70 58 49 70 58 49 70 58 49 70 58 49 70 58 49 70 58 49 70
58 49 70 58 49 70 58 50 70 58 50 70 58 50 69 58 50 69 58 50 69 58 50
69 57 50 69 57 50 69 57 50 69 57 50 69 57 50 69 57 50 69 57 50 69 57
50 69 57 50 69 57 50 69 57 50 69 57 50 69 57 50 69 57 50 69 57 50 69
57 50 69 56 50 69 56 50 69 56 50 69 56 50 69 56 50 69 56 50 69 56 50
69 56 50 69 56 50 69 56 50 69 56 50 69 56 50 69 56 50 69 56 50 69 56
50 69 56 50 69 55 50 69 55 50 69 55 50 69 55 50 69 55 50 69 55 50 69
55 50 69 55 50 69 55 50 68 55 50 68 55 50 68 55 50 68 55 50 68 55 50
68 55 50 68 55 50 68 54 50 68 54 50 68 54 50 68 54 50 68 54 50 68 54
50 68 54 50 68 54 50 68 54 50 68 54 50 68 54 50 68 54 50 68 54 50 68
54 50 68 54 50 68 54 50 68 54 50 68 53 50 67 53 50 67 53 50 67 53 50
67 53 50 67 53 50 67 53 50 67 53 50 67 53 50 67 53 50 67 53 50 67 53
50 67 53 50 67 53 50 67 53 50 67 53 50 67 53 50 67 52 50 67 52 50 67
52 50 67 52 50 66 52 49 66 52 49 66 52 49 66 52 49 66 52 49 66 52 49
66 52 49 66 52 49 66 52 49 66 52 49 66 52 49 66 52 49 66 51 49 66 51
49 66 51 49 66 51 49 66 51 49 65 51 49 65 51 49 65 51 49 65 51 49 65
51 49 65 51 49 65 51 49 65 51 49 65 51 49 65 51 49 65 51 49 65 51 48
65 50 48 65 50 48 65 50 48 64 50 48 64 50 48 64 50 48 64 50 48 64 50
48 64 50 48 64 50 48 64 50 48 64 50 48 64 50 48 64 50 48 64 50 48 64
50 48 64 50
20 62 87 20 62 87 20 62 87 20 62 86 20 62 86 20 62 86 20 62 86 20 61
86 20 61 85 20 61 85 20 61 85 20 61 85 20 61 84 20 61 84 20 61 84 20
60 84 20 60 84 20 60 83 20 60 83 20 60 83 20 60 83 20 60 82 20 60 82
20 59 82 20 59 82 20 59 81 20 59 81 20 59 81 20 59 81 20 59 81 20 58
80 20 58 80 20 58 80 20 58 80 20 58 79 20 58 79 20 58 79 20 58 79 20
57 79 20 57 78 20 57 78 20 57 78 20 57 78 20 57 77 20 57 77 20 57 77
20 57 77 20 56 77 20 56 76 20 56 76 20 56 76 20 56 76 20 56 75 20 56
75 20 56 75 20 55 75 20 55 75 20 55 74 20 55 74 20 55 74 20 55 74 20
55 74 20 55 73 20 55 73 20 54 73 20 54 73 20 54 73 20 54 72 20 54 72
20 54 72 20 54 72 20 54 72 20 54 71 20 53 71 20 53 71 20 53 71 20 53
71 20 53 70 20 53 70 20 53 70 20 53 70 20 53 70 20 52 69 20 52 69 20
52 69 20 52 69 20 52 69 20 52 69 20 52 68 20 52 68 20 52 68 20 52 68
20 51 68 20 51 67 20 51 67 20 51 67 20 51 67 20 51 67 20 51 67 20 51
66 20 51 66 20 51 66 20 50 66 20 50 66 20 50 66 20 50 65 20 50 65 20
50 65 20 50 65 20 50 65 20 50 65 20 50 64 20 50 64 20 49 64 20 49 64
20 49 64 20 49 64 20 49 64 20 49 63 20 49 63 20 49 63 20 49 63 20 49
63 20 49 63 20 49 62 20 48 62 20 48 62 20 48 62 20 48 62 20 48 62 20
48 62 20 48 61 20 48 61 20 48 61 20 48 61 20 48 61 20 48 61 20 47 61
20 47 60 20 47 60 20 47 60 20 47 60 20 47 60 20 47 60 20 47 60 20 47
59 20 47 59 20 47 59 20 47 59 20 47 59 20 46 59 20 46 59 20 46 59 20
46 58 20 46 58 20 46 58 20 46 58 20 46 58 20 46 58 20 46 58 20 46 58
20 46 57 20 46 57 20 46 57 20 46 57 20 45 57 20 45 57 20 45 57 20 45
57 20 45 56 45 70 65 45 70 65 45 70 65 45 70 65 45 70 65 45 70 65 46
70 64 46 70 64 46 70 64 46 70 64 46 70 64 46 70 64 46 70 64 46 70 64
46 70 64 46 70 64 46 70 63 46 70 63 46 70 63 46 70 63 46 70 63 46 70
63 46 70 63 46 70 63 46 70 63 46 70 63 47 70 63 47 70 63 47 70 62 47
70 62 47 70 62 47 70 62 47 70 62 47 70 62 47 70 62 47 70 62 47 70 62
47 70 62 47 70 62 47 70 62 47 70 61 47 70 61 47 70 61 47 70 61 47 70
61 47 70 61 48 70 61 48 70 61 48 70 61 48 70 61 48 70 61 48 70 61 48
70 61 48 70 60 48 70 60 48 70 60 48 70 60 48 70 60 48 70 60 48 70 60
48 70 60 48 70 60 48 70 60 48 70 60 48 70 60 48 70 60 48 70 60 48 70
59 48 70 59 49 70 59 49 70 59 49 70 59 49 70 59 49 70 59 49 70 59 49
70 59 49 70 59 49 70 59 49 70 59 49 70 59 49 69 59 49 69 59 49 69 58
49 69 58 49 69 58 49 69 58 49 69 58 49 69 58 49 69 58 49 69 58 49 69
58 49 69 58 49 69 58 49 69 58 49 69 58 49 69 58 49 69 58 49 69 57 49
69 57 49 69 57 50 69 57 50 69 57 50 69 57 50 69 57 50 69 57 50 69 57
50 69 57 50 69 57 50 69 57 50 69 57 50 69 57 50 69 57 50 69 57 50 69
56 50 69 56 50 69 56 50 69 56 50 69 56 50 69 56 50 69 56 50 69 56 50
69 56 50 69 56 50 69 56 50 69 56 50 69 56 50 69 56 50 69 56 50 69 56
50 69 56 50 69 55 50 69 55 50 69 55 50 69 55 50 68 55 50 68 55 50 68
55 50 68 55 50 68 55 50 68 55 50 68 55 50 68 55 50 68 55 50 68 55 50
68 55 50 68 55 50 68 54 50 68 54 50 68 54 50 68 54 50 68 54 50 68 54
50 68 54 50 68 54 50 68 54 50 68 54 50 68 54 50 68 54 50 68 54 50 68
54 50 68 54 50 67 54 50 67 54 50 67 53 50 67 53 50 67 53 50 67 53 50
67 53 50 67 53 50 67 53 50 67 53 50 67 53 50 67 53 50 67 53 50 67 53
50 67 53 50 67 53 50 67 53 50 67 53 50 67 53 49 67 52 49 67 52 49 66
52 49 66 52 49 66 52 49 66 52 49 66 52 49 66 52 49 66 52 49 66 52 49
66 52 49 66 52 49 66 52 49 66 52 49 66 52 49 66 52 49 66 52 49 66 51
49 66 51 49 66 51 49 65 51 49 65 51 49 65 51 49 65 51 49 65 51 49 65
51 49 65 51 49 65 51 49 65 51 49 65 51 49 65 51 48 65 51 48 65 51 48
65 51 48 65 50 48 65 50 48 64 50 48 64 50 48 64 50 48 64 50 48 64 50
48 64 50 48 64 50 48 64 50 48 64 50 48 64 50 48 64 50 48 64 50 48 64
50 48 64 50
20 62 86 20 62 86 20 62 86 20 62 86 20 61 86 20 61 85 20 61 85 20 61
85 20 61 85 20 61 84 20 61 84 20 61 84 20 60 84 20 60 84 20 60 83 20
60 83 20 60 83 20 60 83 20 60 82 20 60 82 20 59 82 20 59 82 20 59 82
20 59 81 20 59 81 20 59 81 20 59 81 20 59 80 20 58 80 20 58 80 20 58
80 20 58 80 20 58 79 20 58 79 20 58 79 20 58 79 20 57 78 20 57 78 20
57 78 20 57 78 20 57 78 20 57 77 20 57 77 20 57 77 20 56 77 20 56 77
20 56 76 20 56 76 20 56 76 20 56 76 20 56 75 20 56 75 20 56 75 20 55
75 20 55 75 20 55 74 20 55 74 20 55 74 20 55 74 20 55 74 20 55 73 20
55 73 20 54 73 20 54 73 20 54 73 20 54 72 20 54 72 20 54 72 20 54 72
20 54 72 20 54 71 20 53 71 20 53 71 20 53 71 20 53 71 20 53 70 20 53
70 20 53 70 20 53 70 20 53 70 20 52 70 20 52 69 20 52 69 20 52 69 20
52 69 20 52 69 20 52 68 20 52 68 20 52 68 20 52 68 20 51 68 20 51 68
20 51 67 20 51 67 20 51 67 20 51 67 20 51 67 20 51 67 20 51 66 20 51
66 20 51 66 20 50 66 20 50 66 20 50 66 20 50 65 20 50 65 20 50 65 20
50 65 20 50 65 20 50 65 20 50 64 20 50 64 20 49 64 20 49 64 20 49 64
20 49 64 20 49 63 20 49 63 20 49 63 20 49 63 20 49 63 20 49 63 20 49
63 20 49 62 20 48 62 20 48 62 20 48 62 20 48 62 20 48 62 20 48 62 20
48 61 20 48 61 20 48 61 20 48 61 20 48 61 20 48 61 20 47 61 20 47 60
20 47 60 20 47 60 20 47 60 20 47 60 20 47 60 20 47 60 20 47 59 20 47
59 20 47 59 20 47 59 20 47 59 20 47 59 20 46 59 20 46 59 20 46 58 20
46 58 20 46 58 20 46 58 20 46 58 20 46 58 20 46 58 20 46 58 20 46 57
20 46 57 20 46 57 20 46 57 20 45 57 20 45 57 20 45 57 20 45 57 20 45
56 45 70 65 45 70 65 45 70 65 45 70 65 45 70 65 45 70 65 45 70 64 45
70 64 45 70 64 46 70 64 46 70 64 46 70 64 46 70 64 46 70 64 46 70 64
46 70 64 46 70 63 46 70 63 46 70 63 46 70 63 46 70 63 46 70 63 46 70
63 46 70 63 46 70 63 46 70 63 46 70 63 46 70 63 46 70 62 47 70 62 47
70 62 47 70 62 47 70 62 47 70 62 47 70 62 47 70 62 47 70 62 47 70 62
47 70 62 47 70 62 47 70 61 47 70 61 47 70 61 47 70 61 47 70 61 47 70
61 47 70 61 47 70 61 47 70 61 47 70 61 48 70 61 48 70 61 48 70 61 48
70 60 48 70 60 48 70 60 48 70 60 48 70 60 48 70 60 48 69 60 48 69 60
48 69 60 48 69 60 48 69 60 48 69 60 48 69 60 48 69 60 48 69 59 48 69
59 48 69 59 48 69 59 48 69 59 48 69 59 48 69 59 48 69 59 49 69 59 49
69 59 49 69 59 49 69 59 49 69 59 49 69 59 49 69 59 49 69 58 49 69 58
49 69 58 49 69 58 49 69 58 49 69 58 49 69 58 49 69 58 49 69 58 49 69
58 49 69 58 49 69 58 49 69 58 49 69 58 49 69 58 49 69 58 49 69 57 49
69 57 49 69 57 49 69 57 49 69 57 49 69 57 49 69 57 49 69 57 49 69 57
49 69 57 49 69 57 50 69 57 50 69 57 50 69 57 50 69 57 50 69 57 50 69
56 50 69 56 50 69 56 50 69 56 50 69 56 50 69 56 50 69 56 50 69 56 50
69 56 50 69 56 50 69 56 50 69 56 50 69 56 50 69 56 50 69 56 50 69 56
50 68 55 50 68 55 50 68 55 50 68 55 50 68 55 50 68 55 50 68 55 50 68
55 50 68 55 50 68 55 50 68 55 50 68 55 50 68 55 50 68 55 50 68 55 50
68 55 50 68 55 50 68 54 50 68 54 50 68 54 50 68 54 50 68 54 50 68 54
50 68 54 50 68 54 50 68 54 50 68 54 50 68 54 50 68 54 50 67 54 50 67
54 50 67 54 50 67 54 50 67 54 50 67 53 50 67 53 50 67 53 50 67 53 50
67 53 50 67 53 50 67 53 50 67 53 50 67 53 50 67 53 50 67 53 49 67 53
49 67 53 49 67 53 49 67 53 49 67 53 49 67 53 49 66 52 49 66 52 49 66
52 49 66 52 49 66 52 49 66 52 49 66 52 49 66 52 49 66 52 49 66 52 49
66 52 49 66 52 49 66 52 49 66 52 49 66 52 49 66 52 49 66 52 49 66 51
49 66 51 49 65 51 49 65 51 49 65 51 49 65 51 49 65 51 49 65 51 49 65
51 49 65 51 49 65 51 48 65 51 48 65 51 48 65 51 48 65 51 48 65 51 48
65 51 48 65 51 48 64 50 48 64 50 48 64 50 48 64 50 48 64 50 48 64 50
48 64 50 48 64 50 48 64 50 48 64 50 48 64 50 48 64 50 48 64 50 48 64
50 48 64 50
20 62 86 20 61 86 20 61 85 20 61 85 20 61 85 20 61 85 20 61 84 20 61
84 20 61 84 20 60 84 20 60 84 20 60 83 20 60 83 20 60 83 20 60 83 20
60 83 20 60 82 20 59 82 20 59 82 20 59 82 20 59 81 20 59 81 20 59 81
20 59 81 20 59 81 20 59 80 20 58 80 20 58 80 20 58 80 20 58 79 20 58
79 20 58 79 20 58 79 20 58 79 20 57 78 20 57 78 20 57 78 20 57 78 20
57 78 20 57 77 20 57 77 20 57 77 20 56 77 20 56 76 20 56 76 20 56 76
20 56 76 20 56 76 20 56 75 20 56 75 20 56 75 20 55 75 20 55 75 20 55
74 20 55 74 20 55 74 20 55 74 20 55 74 20 55 73 20 55 73 20 54 73 20
54 73 20 54 73 20 54 72 20 54 72 20 54 72 20 54 72 20 54 72 20 54 71
20 53 71 20 53 71 20 53 71 20 53 71 20 53 71 20 53 70 20 53 70 20 53
70 20 53 70 20 53 70 20 52 69 20 52 69 20 52 69 20 52 69 20 52 69 20
52 69 20 52 68 20 52 68 20 52 68 20 52 68 20 51 68 20 51 67 20 51 67
20 51 67 20 51 67 20 51 67 20 51 67 20 51 66 20 51 66 20 51 66 20 50
66 20 50 66 20 50 66 20 50 65 20 50 65 20 50 65 20 50 65 20 50 65 20
50 65 20 50 65 20 50 64 20 50 64 20 49 64 20 49 64 20 49 64 20 49 64
20 49 63 20 49 63 20 49 63 20 49 63 20 49 63 20 49 63 20 49 63 20 49
62 20 48 62 20 48 62 20 48 62 20 48 62 20 48 62 20 48 62 20 48 61 20
48 61 20 48 61 20 48 61 20 48 61 20 48 61 20 47 61 20 47 60 20 47 60
20 47 60 20 47 60 20 47 60 20 47 60 20 47 60 20 47 59 20 47 59 20 47
59 20 47 59 20 47 59 20 47 59 20 46 59 20 46 59 20 46 58 20 46 58 20
46 58 20 46 58 20 46 58 20 46 58 20 46 58 20 46 58 20 46 57 20 46 57
20 46 57 20 46 57 20 45 57 20 45 57 20 45 57 20 45 57 20 45 56 45 70
65 45 70 65 45 70 65 45 70 65 45 70 65 45 70 65 45 70 64 45 70 64 45
70 64 45 70 64 45 70 64 45 70 64 46 70 64 46 70 64 46 70 64 46 70 64
46 70 63 46 70 63 46 70 63 46 70 63 46 70 63 46 70 63 46 70 63 46 70
63 46 70 63 46 70 63 46 70 63 46 70 63 46 70 62 46 70 62 46 70 62 46
70 62 46 70 62 47 70 62 47 70 62 47 70 62 47 70 62 47 69 62 47 69 62
47 69 62 47 69 61 47 69 61 47 69 61 47 69 61 47 69 61 47 69 61 47 69
61 47 69 61 47 69 61 47 69 61 47 69 61 47 69 61 47 69 61 47 69 60 47
69 60 48 69 60 48 69 60 48 69 60 48 69 60 48 69 60 48 69 60 48 69 60
48 69 60 48 69 60 48 69 60 48 69 60 48 69 60 48 69 59 48 69 59 48 69
59 48 69 59 48 69 59 48 69 59 48 69 59 48 69 59 48 69 59 48 69 59 48
69 59 48 69 59 48 69 59 49 69 59 49 69 59 49 69 58 49 69 58 49 69 58
49 69 58 49 69 58 49 69 58 49 69 58 49 69 58 49 69 58 49 69 58 49 69
58 49 69 58 49 69 58 49 69 58 49 69 58 49 69 58 49 69 57 49 69 57 49
69 57 49 69 57 49 69 57 49 69 57 49 69 57 49 69 57 49 69 57 49 69 57
49 69 57 49 69 57 49 69 57 49 69 57 49 69 57 49 69 57 49 69 56 49 69
56 49 69 56 49 69 56 49 69 56 49 69 56 49 69 56 50 69 56 50 69 56 50
69 56 50 69 56 50 68 56 50 68 56 50 68 56 50 68 56 50 68 56 50 68 56
50 68 55 50 68 55 50 68 55 50 68 55 50 68 55 50 68 55 50 68 55 50 68
55 50 68 55 50 68 55 50 68 55 50 68 55 50 68 55 50 68 55 50 68 55 50
68 55 50 68 55 50 68 54 50 68 54 50 68 54 50 68 54 50 68 54 50 68 54
50 68 54 50 68 54 50 68 54 50 67 54 50 67 54 50 67 54 50 67 54 50 67
54 50 67 54 50 67 54 50 67 54 50 67 53 50 67 53 49 67 53 49 67 53 49
67 53 49 67 53 49 67 53 49 67 53 49 67 53 49 67 53 49 67 53 49 67 53
49 67 53 49 67 53 49 67 53 49 66 53 49 66 53 49 66 52 49 66 52 49 66
52 49 66 52 49 66 52 49 66 52 49 66 52 49 66 52 49 66 52 49 66 52 49
66 52 49 66 52 49 66 52 49 66 52 49 66 52 49 66 52 49 66 52 49 65 52
49 65 51 49 65 51 49 65 51 49 65 51 49 65 51 49 65 51 49 65 51 49 65
51 48 65 51 48 65 51 48 65 51 48 65 51 48 65 51 48 65 51 48 65 51 48
65 51 48 64 51 48 64 50 48 64 50 48 64 50 48 64 50 48 64 50 48 64 50
48 64 50 48 64 50 48 64 50 48 64 50 48 64 50 48 64 50 48 64 50 48 64
50 48 64 50
20 61 85 20 61 85 20 61 85 20 61 85 20 61 84 20 61 84 20 60 84 20 60
84 20 60 83 20 60 83 20 60 83 20 60 83 20 60 83 20 60 82 20 60 82 20
59 82 20 59 82 20 59 81 20 59 81 20 59 81 20 59 81 20 59 81 20 59 80
20 58 80 20 58 80 20 58 80 20 58 80 20 58 79 20 58 79 20 58 79 20 58
79 20 57 78 20 57 78 20 57 78 20 57 78 20 57 78 20 57 77 20 57 77 20
57 77 20 57 77 20 56 77 20 56 76 20 56 76 20 56 76 20 56 76 20 56 76
20 56 75 20 56 75 20 56 75 20 55 75 20 55 75 20 55 74 20 55 74 20 55
74 20 55 74 20 55 74 20 55 73 20 55 73 20 54 73 20 54 73 20 54 73 20
54 72 20 54 72 20 54 72 20 54 72 20 54 72 20 54 71 20 53 71 20 53 71
20 53 71 20 53 71 20 53 71 20 53 70 20 53 70 20 53 70 20 53 70 20 53
70 20 52 69 20 52 69 20 52 69 20 52 69 20 52 69 20 52 69 20 52 68 20
52 68 20 52 68 20 52 68 20 51 68 20 51 68 20 51 67 20 51 67 20 51 67
20 51 67 20 51 67 20 51 67 20 51 66 20 51 66 20 51 66 20 50 66 20 50
66 20 50 66 20 50 65 20 50 65 20 50 65 20 50 65 20 50 65 20 50 65 20
50 64 20 50 64 20 49 64 20 49 64 20 49 64 20 49 64 20 49 64 20 49 63
20 49 63 20 49 63 20 49 63 20 49 63 20 49 63 20 49 62 20 48 62 20 48
62 20 48 62 20 48 62 20 48 62 20 48 62 20 48 61 20 48 61 20 48 61 20
48 61 20 48 61 20 48 61 20 48 61 20 47 61 20 47 60 20 47 60 20 47 60
20 47 60 20 47 60 20 47 60 20 47 60 20 47 59 20 47 59 20 47 59 20 47
59 20 47 59 20 47 59 20 46 59 20 46 59 20 46 58 20 46 58 20 46 58 20
46 58 20 46 58 20 46 58 20 46 58 20 46 58 20 46 57 20 46 57 20 46 57
20 46 57 20 45 57 20 45 57 20 45 57 20 45 57 20 45 57 20 45 56 45 70
65 45 70 65 45 70 65 45 70 65 45 70 64 45 70 64 45 70 64 45 70 64 45
70 64 45 70 64 45 70 64 45 70 64 45 70 64 45 70 64 46 70 64 46 70 63
46 70 63 46 70 63 46 70 63 46 69 63 46 69 63 46 69 63 46 69 63 46 69
63 46 69 63 46 69 63 46 69 63 46 69 62 46 69 62 46 69 62 46 69 62 46
69 62 46 69 62 46 69 62 46 69 62 47 69 62 47 69 62 47 69 62 47 69 62
47 69 61 47 69 61 47 69 61 47 69 61 47 69 61 47 69 61 47 69 61 47 69
61 47 69 61 47 69 61 47 69 61 47 69 61 47 69 61 47 69 61 47 69 60 47
69 60 47 69 60 47 69 60 47 69 60 48 69 60 48 69 60 48 69 60 48 69 60
48 69 60 48 69 60 48 69 60 48 69 60 48 69 60 48 69 59 48 69 59 48 69
59 48 69 59 48 69 59 48 69 59 48 69 59 48 69 59 48 69 59 48 69 59 48
69 59 48 69 59 48 69 59 48 69 59 48 69 59 48 69 58 48 69 58 48 69 58
49 69 58 49 69 58 49 69 58 49 69 58 49 69 58 49 69 58 49 69 58 49 69
58 49 69 58 49 69 58 49 69 58 49 69 58 49 69 57 49 69 57 49 69 57 49
69 57 49 69 57 49 69 57 49 69 57 49 69 57 49 69 57 49 69 57 49 69 57
49 69 57 49 69 57 49 69 57 49 69 57 49 69 57 49 69 57 49 69 56 49 69
56 49 69 56 49 69 56 49 68 56 49 68 56 49 68 56 49 68 56 49 68 56 49
68 56 49 68 56 49 68 56 49 68 56 49 68 56 49 68 56 49 68 56 49 68 55
49 68 55 49 68 55 49 68 55 49 68 55 49 68 55 49 68 55 49 68 55 49 68
55 49 68 55 49 68 55 49 68 55 49 68 55 49 68 55 49 68 55 49 68 55 49
68 55 49 68 55 49 68 54 49 68 54 49 68 54 49 68 54 49 68 54 49 68 54
49 67 54 49 67 54 49 67 54 49 67 54 49 67 54 49 67 54 49 67 54 49 67
54 49 67 54 49 67 54 49 67 54 49 67 53 49 67 53 49 67 53 49 67 53 49
67 53 49 67 53 49 67 53 49 67 53 49 67 53 49 67 53 49 67 53 49 67 53
49 67 53 49 66 53 49 66 53 49 66 53 49 66 53 49 66 52 49 66 52 49 66
52 49 66 52 49 66 52 49 66 52 49 66 52 49 66 52 49 66 52 49 66 52 49
66 52 49 66 52 49 66 52 49 66 52 49 66 52 49 66 52 49 65 52 49 65 52
49 65 51 49 65 51 49 65 51 49 65 51 48 65 51 48 65 51 48 65 51 48 65
51 48 65 51 48 65 51 48 65 51 48 65 51 48 65 51 48 65 51 48 65 51 48
64 51 48 64 51 48 64 51 48 64 50 48 64 50 48 64 50 48 64 50 48 64 50
48 64 50 48 64 50 48 64 50 48 64 50 48 64 50 48 64 50 48 64 50 48 64
50 48 64 50
20 61 85 20 61 84 20 61 84 20 60 84 20 60 84 20 60 83 20 60 83 20 60
83 20 60 83 20 60 83 20 60 82 20 60 82 20 59 82 20 59 82 20 59 82 20
59 81 20 59 81 20 59 81 20 59 81 20 59 80 20 58 80 20 58 80 20 58 80
20 58 80 20 58 79 20 58 79 20 58 79 20 58 79 20 58 79 20 57 78 20 57
78 20 57 78 20 57 78 20 57 78 20 57 77 20 57 77 20 57 77 20 57 77 20
56 77 20 56 76 20 56 76 20 56 76 20 56 76 20 56 76 20 56 75 20 56 75
20 56 75 20 55 75 20 55 75 20 55 74 20 55 74 20 55 74 20 55 74 20 55
74 20 55 73 20 55 73 20 54 73 20 54 73 20 54 73 20 54 72 20 54 72 20
54 72 20 54 72 20 54 72 20 54 71 20 53 71 20 53 71 20 53 71 20 53 71
20 53 71 20 53 70 20 53 70 20 53 70 20 53 70 20 53 70 20 52 69 20 52
69 20 52 69 20 52 69 20 52 69 20 52 69 20 52 68 20 52 68 20 52 68 20
52 68 20 52 68 20 51 68 20 51 67 20 51 67 20 51 67 20 51 67 20 51 67
20 51 67 20 51 66 20 51 66 20 51 66 20 50 66 20 50 66 20 50 66 20 50
65 20 50 65 20 50 65 20 50 65 20 50 65 20 50 65 20 50 65 20 50 64 20
50 64 20 49 64 20 49 64 20 49 64 20 49 64 20 49 63 20 49 63 20 49 63
20 49 63 20 49 63 20 49 63 20 49 63 20 49 62 20 48 62 20 48 62 20 48
62 20 48 62 20 48 62 20 48 62 20 48 61 20 48 61 20 48 61 20 48 61 20
48 61 20 48 61 20 48 61 20 47 61 20 47 60 20 47 60 20 47 60 20 47 60
20 47 60 20 47 60 20 47 60 20 47 59 20 47 59 20 47 59 20 47 59 20 47
59 20 47 59 20 46 59 20 46 59 20 46 58 20 46 58 20 46 58 20 46 58 20
46 58 20 46 58 20 46 58 20 46 58 20 46 57 20 46 57 20 46 57 20 46 57
20 46 57 20 45 57 20 45 57 20 45 57 20 45 57 20 45 56 45 70 65 45 70
65 45 70 65 45 70 65 45 70 64 45 70 64 45 70 64 45 70 64 45 69 64 45
69 64 45 69 64 45 69 64 45 69 64 45 69 64 45 69 64 45 69 63 45 69 63
46 69 63 46 69 63 46 69 63 46 69 63 46 69 63 46 69 63 46 69 63 46 69
63 46 69 63 46 69 63 46 69 62 46 69 62 46 69 62 46 69 62 46 69 62 46
69 62 46 69 62 46 69 62 46 69 62 46 69 62 46 69 62 46 69 62 47 69 61
47 69 61 47 69 61 47 69 61 47 69 61 47 69 61 47 69 61 47 69 61 47 69
61 47 69 61 47 69 61 47 69 61 47 69 61 47 69 61 47 69 60 47 69 60 47
69 60 47 69 60 47 69 60 47 69 60 47 69 60 47 69 60 47 69 60 47 69 60
48 69 60 48 69 60 48 69 60 48 69 60 48 69 59 48 69 59 48 69 59 48 69
59 48 69 59 48 69 59 48 69 59 48 69 59 48 69 59 48 69 59 48 69 59 48
69 59 48 69 59 48 69 59 48 69 59 48 69 58 48 69 58 48 69 58 48 69 58
48 69 58 48 69 58 48 69 58 48 69 58 48 69 58 48 69 58 49 69 58 49 69
58 49 69 58 49 69 58 49 69 58 49 69 58 49 69 57 49 69 57 49 69 57 49
69 57 49 69 57 49 69 57 49 69 57 49 69 57 49 69 57 49 69 57 49 69 57
49 69 57 49 68 57 49 68 57 49 68 57 49 68 57 49 68 56 49 68 56 49 68
56 49 68 56 49 68 56 49 68 56 49 68 56 49 68 56 49 68 56 49 68 56 49
68 56 49 68 56 49 68 56 49 68 56 49 68 56 49 68 56 49 68 56 49 68 55
49 68 55 49 68 55 49 68 55 49 68 55 49 68 55 49 68 55 49 68 55 49 68
55 49 68 55 49 68 55 49 68 55 49 68 55 49 68 55 49 68 55 49 68 55 49
68 55 49 68 54 49 68 54 49 68 54 49 67 54 49 67 54 49 67 54 49 67 54
49 67 54 49 67 54 49 67 54 49 67 54 49 67 54 49 67 54 49 67 54 49 67
54 49 67 54 49 67 54 49 67 54 49 67 53 49 67 53 49 67 53 49 67 53 49
67 53 49 67 53 49 67 53 49 67 53 49 67 53 49 67 53 49 67 53 49 66 53
49 66 53 49 66 53 49 66 53 49 66 53 49 66 53 49 66 52 49 66 52 49 66
52 49 66 52 49 66 52 49 66 52 49 66 52 49 66 52 49 66 52 49 66 52 49
66 52 49 66 52 49 66 52 49 66 52 49 65 52 49 65 52 49 65 52 49 65 52
49 65 51 48 65 51 48 65 51 48 65 51 48 65 51 48 65 51 48 65 51 48 65
51 48 65 51 48 65 51 48 65 51 48 65 51 48 65 51 48 65 51 48 65 51 48
64 51 48 64 51 48 64 51 48 64 50 48 64 50 48 64 50 48 64 50 48 64 50
48 64 50 48 64 50 48 64 50 48 64 50 48 64 50 48 64 50 48 64 50 47 64
50 47 63 50
20 60 84 20 60 84 20 60 83 20 60 83 20 60 83 20 60 83 20 60 83 20 60
82 20 60 82 20 59 82 20 59 82 20 59 82 20 59 81 20 59 81 20 59 81 20
59 81 20 59 81 20 59 80 20 58 80 20 58 80 20 58 80 20 58 80 20 58 79
20 58 79 20 58 79 20 58 79 20 57 79 20 57 78 20 57 78 20 57 78 20 57
78 20 57 77 20 57 77 20 57 77 20 57 77 20 56 77 20 56 76 20 56 76 20
56 76 20 56 76 20 56 76 20 56 75 20 56 75 20 56 75 20 55 75 20 55 75
20 55 75 20 55 74 20 55 74 20 55 74 20 55 74 20 55 74 20 55 73 20 55
73 20 54 73 20 54 73 20 54 73 20 54 72 20 54 72 20 54 72 20 54 72 20
54 72 20 54 71 20 53 71 20 53 71 20 53 71 20 53 71 20 53 71 20 53 70
20 53 70 20 53 70 20 53 70 20 53 70 20 52 70 20 52 69 20 52 69 20 52
69 20 52 69 20 52 69 20 52 68 20 52 68 20 52 68 20 52 68 20 52 68 20
51 68 20 51 67 20 51 67 20 51 67 20 51 67 20 51 67 20 51 67 20 51 67
20 51 66 20 51 66 20 51 66 20 50 66 20 50 66 20 50 66 20 50 65 20 50
65 20 50 65 20 50 65 20 50 65 20 50 65 20 50 64 20 50 64 20 49 64 20
49 64 20 49 64 20 49 64 20 49 64 20 49 63 20 49 63 20 49 63 20 49 63
20 49 63 20 49 63 20 49 63 20 49 62 20 48 62 20 48 62 20 48 62 20 48
62 20 48 62 20 48 62 20 48 61 20 48 61 20 48 61 20 48 61 20 48 61 20
48 61 20 48 61 20 47 60 20 47 60 20 47 60 20 47 60 20 47 60 20 47 60
20 47 60 20 47 60 20 47 59 20 47 59 20 47 59 20 47 59 20 47 59 20 47
59 20 46 59 20 46 59 20 46 58 20 46 58 20 46 58 20 46 58 20 46 58 20
46 58 20 46 58 20 46 58 20 46 57 20 46 57 20 46 57 20 46 57 20 46 57
20 45 57 20 45 57 20 45 57 20 45 57 20 45 56 20 45 56 45 69 65 45 69
65 45 69 65 45 69 64 45 69 64 45 69 64 45 69 64 45 69 64 45 69 64 45
69 64 45 69 64 45 69 64 45 69 64 45 69 64 45 69 63 45 69 63 45 69 63
45 69 63 45 69 63 46 69 63 46 69 63 46 69 63 46 69 63 46 69 63 46 69
63 46 69 63 46 69 62 46 69 62 46 69 62 46 69 62 46 69 62 46 69 62 46
69 62 46 69 62 46 69 62 46 69 62 46 69 62 46 69 62 46 69 61 46 69 61
46 69 61 46 69 61 47 69 61 47 69 61 47 69 61 47 69 61 47 69 61 47 69
61 47 69 61 47 69 61 47 69 61 47 69 61 47 69 60 47 69 60 47 69 60 47
69 60 47 69 60 47 69 60 47 69 60 47 69 60 47 69 60 47 69 60 47 69 60
47 69 60 47 69 60 47 69 60 48 69 59 48 69 59 48 69 59 48 69 59 48 69
59 48 69 59 48 69 59 48 69 59 48 69 59 48 69 59 48 69 59 48 69 59 48
69 59 48 69 59 48 69 59 48 69 58 48 69 58 48 69 58 48 69 58 48 69 58
48 69 58 48 69 58 48 69 58 48 69 58 48 69 58 48 69 58 48 69 58 48 69
58 48 69 58 48 69 58 48 69 58 48 69 57 49 69 57 49 69 57 49 69 57 49
68 57 49 68 57 49 68 57 49 68 57 49 68 57 49 68 57 49 68 57 49 68 57
49 68 57 49 68 57 49 68 57 49 68 57 49 68 56 49 68 56 49 68 56 49 68
56 49 68 56 49 68 56 49 68 56 49 68 56 49 68 56 49 68 56 49 68 56 49
68 56 49 68 56 49 68 56 49 68 56 49 68 56 49 68 56 49 68 56 49 68 55
49 68 55 49 68 55 49 68 55 49 68 55 49 68 55 49 68 55 49 68 55 49 68
55 49 68 55 49 68 55 49 68 55 49 68 55 49 68 55 49 68 55 49 67 55 49
67 55 49 67 54 49 67 54 49 67 54 49 67 54 49 67 54 49 67 54 49 67 54
49 67 54 49 67 54 49 67 54 49 67 54 49 67 54 49 67 54 49 67 54 49 67
54 49 67 54 49 67 54 49 67 54 49 67 53 49 67 53 49 67 53 49 67 53 49
67 53 49 67 53 49 67 53 49 67 53 49 66 53 49 66 53 49 66 53 49 66 53
49 66 53 49 66 53 49 66 53 49 66 53 49 66 53 49 66 53 49 66 52 49 66
52 49 66 52 49 66 52 49 66 52 49 66 52 49 66 52 49 66 52 49 66 52 49
66 52 49 66 52 49 66 52 49 65 52 49 65 52 48 65 52 48 65 52 48 65 52
48 65 52 48 65 51 48 65 51 48 65 51 48 65 51 48 65 51 48 65 51 48 65
51 48 65 51 48 65 51 48 65 51 48 65 51 48 65 51 48 65 51 48 64 51 48
64 51 48 64 51 48 64 51 48 64 51 48 64 50 48 64 50 48 64 50 48 64 50
48 64 50 48 64 50 48 64 50 48 64 50 48 64 50 47 64 50 47 64 50 47 64
50 47 63 50
20 60 83 20 60 83 20 60 83 20 60 83 20 60 82 20 60 82 20 59 82 20 59
82 20 59 82 20 59 81 20 59 81 20 59 81 20 59 81 20 59 81 20 59 80 20
58 80 20 58 80 20 58 80 20 58 80 20 58 79 20 58 79 20 58 79 20 58 79
20 58 79 20 57 78 20 57 78 20 57 78 20 57 78 20 57 78 20 57 77 20 57
77 20 57 77 20 57 77 20 56 77 20 56 76 20 56 76 20 56 76 20 56 76 20
56 76 20 56 75 20 56 75 20 56 75 20 55 75 20 55 75 20 55 74 20 55 74
20 55 74 20 55 74 20 55 74 20 55 74 20 55 73 20 55 73 20 54 73 20 54
73 20 54 73 20 54 72 20 54 72 20 54 72 20 54 72 20 54 72 20 54 71 20
53 71 20 53 71 20 53 71 20 53 71 20 53 71 20 53 70 20 53 70 20 53 70
20 53 70 20 53 70 20 53 70 20 52 69 20 52 69 20 52 69 20 52 69 20 52
69 20 52 69 20 52 68 20 52 68 20 52 68 20 52 68 20 51 68 20 51 68 20
51 67 20 51 67 20 51 67 20 51 67 20 51 67 20 51 67 20 51 66 20 51 66
20 51 66 20 50 66 20 50 66 20 50 66 20 50 65 20 50 65 20 50 65 20 50
65 20 50 65 20 50 65 20 50 65 20 50 64 20 50 64 20 49 64 20 49 64 20
49 64 20 49 64 20 49 64 20 49 63 20 49 63 20 49 63 20 49 63 20 49 63
20 49 63 20 49 63 20 48 62 20 48 62 20 48 62 20 48 62 20 48 62 20 48
62 20 48 62 20 48 61 20 48 61 20 48 61 20 48 61 20 48 61 20 48 61 20
48 61 20 47 60 20 47 60 20 47 60 20 47 60 20 47 60 20 47 60 20 47 60
20 47 60 20 47 59 20 47 59 20 47 59 20 47 59 20 47 59 20 47 59 20 46
59 20 46 59 20 46 58 20 46 58 20 46 58 20 46 58 20 46 58 20 46 58 20
46 58 20 46 58 20 46 58 20 46 57 20 46 57 20 46 57 20 46 57 20 45 57
20 45 57 20 45 57 20 45 57 20 45 56 20 45 56 44 69 65 45 69 65 45 69
65 45 69 64 45 69 64 45 69 64 45 69 64 45 69 64 45 69 64 45 69 64 45
69 64 45 69 64 45 69 64 45 69 64 45 69 63 45 69 63 45 69 63 45 69 63
45 69 63 45 69 63 45 69 63 45 69 63 45 69 63 46 69 63 46 69 63 46 69
63 46 69 62 46 69 62 46 69 62 46 69 62 46 69 62 46 69 62 46 69 62 46
69 62 46 69 62 46 69 62 46 69 62 46 69 62 46 69 61 46 69 61 46 69 61
46 69 61 46 69 61 46 69 61 46 69 61 46 69 61 47 69 61 47 69 61 47 69
61 47 69 61 47 69 61 47 69 61 47 69 60 47 69 60 47 69 60 47 69 60 47
69 60 47 69 60 47 69 60 47 69 60 47 69 60 47 69 60 47 69 60 47 69 60
47 69 60 47 69 60 47 69 59 47 69 59 47 69 59 47 69 59 47 69 59 48 69
59 48 69 59 48 69 59 48 69 59 48 69 59 48 69 59 48 69 59 48 69 59 48
69 59 48 69 59 48 69 58 48 69 58 48 69 58 48 69 58 48 69 58 48 69 58
48 69 58 48 69 58 48 69 58 48 68 58 48 68 58 48 68 58 48 68 58 48 68
58 48 68 58 48 68 58 48 68 57 48 68 57 48 68 57 48 68 57 48 68 57 48
68 57 48 68 57 48 68 57 48 68 57 49 68 57 49 68 57 49 68 57 49 68 57
49 68 57 49 68 57 49 68 57 49 68 57 49 68 56 49 68 56 49 68 56 49 68
56 49 68 56 49 68 56 49 68 56 49 68 56 49 68 56 49 68 56 49 68 56 49
68 56 49 68 56 49 68 56 49 68 56 49 68 56 49 68 56 49 68 55 49 68 55
49 68 55 49 68 55 49 68 55 49 68 55 49 68 55 49 68 55 49 68 55 49 68
55 49 68 55 49 68 55 49 67 55 49 67 55 49 67 55 49 67 55 49 67 55 49
67 55 49 67 54 49 67 54 49 67 54 49 67 54 49 67 54 49 67 54 49 67 54
49 67 54 49 67 54 49 67 54 49 67 54 49 67 54 49 67 54 49 67 54 49 67
54 49 67 54 49 67 54 49 67 54 49 67 53 49 67 53 49 67 53 49 67 53 49
67 53 49 66 53 49 66 53 49 66 53 49 66 53 49 66 53 49 66 53 49 66 53
49 66 53 49 66 53 49 66 53 49 66 53 49 66 53 49 66 53 49 66 52 49 66
52 49 66 52 49 66 52 49 66 52 49 66 52 49 66 52 49 66 52 49 66 52 48
66 52 48 65 52 48 65 52 48 65 52 48 65 52 48 65 52 48 65 52 48 65 52
48 65 52 48 65 51 48 65 51 48 65 51 48 65 51 48 65 51 48 65 51 48 65
51 48 65 51 48 65 51 48 65 51 48 65 51 48 64 51 48 64 51 48 64 51 48
64 51 48 64 51 48 64 51 48 64 51 48 64 50 48 64 50 48 64 50 48 64 50
48 64 50 48 64 50 48 64 50 47 64 50 47 64 50 47 64 50 47 64 50 47 63
50 47 63 50
20 60 83 20 60 82 20 60 82 20 59 82 20 59 82 20 59 82 20 59 81 20 59
81 20 59 81 20 59 81 20 59 81 20 59 80 20 58 80 20 58 80 20 58 80 20
58 80 20 58 79 20 58 79 20 58 79 20 58 79 20 58 79 20 57 78 20 57 78
20 57 78 20 57 78 20 57 78 20 57 77 20 57 77 20 57 77 20 57 77 20 56
77 20 56 77 20 56 76 20 56 76 20 56 76 20 56 76 20 56 76 20 56 75 20
56 75 20 56 75 20 55 75 20 55 75 20 55 74 20 55 74 20 55 74 20 55 74
20 55 74 20 55 73 20 55 73 20 54 73 20 54 73 20 54 73 20 54 73 20 54
72 20 54 72 20 54 72 20 54 72 20 54 72 20 54 71 20 53 71 20 53 71 20
53 71 20 53 71 20 53 71 20 53 70 20 53 70 20 53 70 20 53 70 20 53 70
20 53 70 20 52 69 20 52 69 20 52 69 20 52 69 20 52 69 20 52 69 20 52
68 20 52 68 20 52 68 20 52 68 20 51 68 20 51 68 20 51 67 20 51 67 20
51 67 20 51 67 20 51 67 20 51 67 20 51 66 20 51 66 20 51 66 20 51 66
20 50 66 20 50 66 20 50 66 20 50 65 20 50 65 20 50 65 20 50 65 20 50
65 20 50 65 20 50 64 20 50 64 20 50 64 20 49 64 20 49 64 20 49 64 20
49 64 20 49 63 20 49 63 20 49 63 20 49 63 20 49 63 20 49 63 20 49 63
20 49 62 20 48 62 20 48 62 20 48 62 20 48 62 20 48 62 20 48 62 20 48
61 20 48 61 20 48 61 20 48 61 20 48 61 20 48 61 20 48 61 20 47 61 20
47 60 20 47 60 20 47 60 20 47 60 20 47 60 20 47 60 20 47 60 20 47 60
20 47 59 20 47 59 20 47 59 20 47 59 20 47 59 20 47 59 20 46 59 20 46
59 20 46 58 20 46 58 20 46 58 20 46 58 20 46 58 20 46 58 20 46 58 20
46 58 20 46 58 20 46 57 20 46 57 20 46 57 20 46 57 20 45 57 20 45 57
20 45 57 20 45 57 20 45 56 20 45 56 44 69 65 44 69 65 44 69 65 44 69
64 45 69 64 45 69 64 45 69 64 45 69 64 45 69 64 45 69 64 45 69 64 45
69 64 45 69 64 45 69 64 45 69 63 45 69 63 45 69 63 45 69 63 45 69 63
45 69 63 45 69 63 45 69 63 45 69 63 45 69 63 45 69 63 45 69 63 46 69
62 46 69 62 46 69 62 46 69 62 46 69 62 46 69 62 46 69 62 46 69 62 46
69 62 46 69 62 46 69 62 46 69 62 46 69 61 46 69 61 46 69 61 46 69 61
46 69 61 46 69 61 46 69 61 46 69 61 46 69 61 46 69 61 46 69 61 46 69
61 47 69 61 47 69 61 47 69 60 47 69 60 47 69 60 47 69 60 47 69 60 47
69 60 47 69 60 47 69 60 47 69 60 47 69 60 47 69 60 47 69 60 47 69 60
47 69 60 47 69 59 47 69 59 47 69 59 47 69 59 47 69 59 47 69 59 47 69
59 47 69 59 47 69 59 47 69 59 47 69 59 48 68 59 48 68 59 48 68 59 48
68 59 48 68 58 48 68 58 48 68 58 48 68 58 48 68 58 48 68 58 48 68 58
48 68 58 48 68 58 48 68 58 48 68 58 48 68 58 48 68 58 48 68 58 48 68
58 48 68 58 48 68 58 48 68 57 48 68 57 48 68 57 48 68 57 48 68 57 48
68 57 48 68 57 48 68 57 48 68 57 48 68 57 48 68 57 48 68 57 48 68 57
48 68 57 48 68 57 48 68 57 48 68 56 49 68 56 49 68 56 49 68 56 49 68
56 49 68 56 49 68 56 49 68 56 49 68 56 49 68 56 49 68 56 49 68 56 49
68 56 49 68 56 49 68 56 49 68 56 49 68 56 49 68 56 49 68 55 49 68 55
49 68 55 49 68 55 49 68 55 49 68 55 49 67 55 49 67 55 49 67 55 49 67
55 49 67 55 49 67 55 49 67 55 49 67 55 49 67 55 49 67 55 49 67 55 49
67 54 49 67 54 49 67 54 49 67 54 49 67 54 49 67 54 49 67 54 49 67 54
49 67 54 49 67 54 49 67 54 49 67 54 49 67 54 49 67 54 49 67 54 49 67
54 49 67 54 49 67 54 49 67 53 49 67 53 49 67 53 49 66 53 49 66 53 49
66 53 49 66 53 49 66 53 49 66 53 49 66 53 49 66 53 49 66 53 49 66 53
49 66 53 49 66 53 49 66 53 49 66 53 49 66 53 49 66 53 49 66 52 49 66
52 49 66 52 48 66 52 48 66 52 48 66 52 48 66 52 48 66 52 48 65 52 48
65 52 48 65 52 48 65 52 48 65 52 48 65 52 48 65 52 48 65 52 48 65 52
48 65 52 48 65 51 48 65 51 48 65 51 48 65 51 48 65 51 48 65 51 48 65
51 48 65 51 48 65 51 48 65 51 48 64 51 48 64 51 48 64 51 48 64 51 48
64 51 48 64 51 48 64 51 48 64 51 48 64 51 48 64 50 48 64 50 48 64 50
48 64 50 47 64 50 47 64 50 47 64 50 47 64 50 47 64 50 47 63 50 47 63
50 47 63 50
20 59 82 20 59 82 20 59 82 20 59 81 20 59 81 20 59 81 20 59 81 20 59
81 20 59 80 20 58 80 20 58 80 20 58 80 20 58 80 20 58 80 20 58 79 20
58 79 20 58 79 20 58 79 20 58 79 20 57 78 20 57 78 20 57 78 20 57 78
20 57 78 20 57 77 20 57 77 20 57 77 20 57 77 20 56 77 20 56 76 20 56
76 20 56 76 20 56 76 20 56 76 20 56 75 20 56 75 20 56 75 20 55 75 20
55 75 20 55 75 20 55 74 20 55 74 20 55 74 20 55 74 20 55 74 20 55 73
20 55 73 20 54 73 20 54 73 20 54 73 20 54 73 20 54 72 20 54 72 20 54
72 20 54 72 20 54 72 20 54 71 20 53 71 20 53 71 20 53 71 20 53 71 20
53 71 20 53 70 20 53 70 20 53 70 20 53 70 20 53 70 20 53 70 20 52 69
20 52 69 20 52 69 20 52 69 20 52 69 20 52 69 20 52 68 20 52 68 20 52
68 20 52 68 20 52 68 20 51 68 20 51 67 20 51 67 20 51 67 20 51 67 20
51 67 20 51 67 20 51 67 20 51 66 20 51 66 20 51 66 20 50 66 20 50 66
20 50 66 20 50 65 20 50 65 20 50 65 20 50 65 20 50 65 20 50 65 20 50
65 20 50 64 20 50 64 20 49 64 20 49 64 20 49 64 20 49 64 20 49 64 20
49 63 20 49 63 20 49 63 20 49 63 20 49 63 20 49 63 20 49 63 20 49 62
20 48 62 20 48 62 20 48 62 20 48 62 20 48 62 20 48 62 20 48 61 20 48
61 20 48 61 20 48 61 20 48 61 20 48 61 20 48 61 20 47 61 20 47 60 20
47 60 20 47 60 20 47 60 20 47 60 20 47 60 20 47 60 20 47 60 20 47 59
20 47 59 20 47 59 20 47 59 20 47 59 20 47 59 20 46 59 20 46 59 20 46
58 20 46 58 20 46 58 20 46 58 20 46 58 20 46 58 20 46 58 20 46 58 20
46 58 20 46 57 20 46 57 20 46 57 20 46 57 20 45 57 20 45 57 20 45 57
20 45 57 20 45 57 20 45 56 20 45 56 44 69 65 44 69 64 44 69 64 44 69
64 44 69 64 44 69 64 45 69 64 45 69 64 45 69 64 45 69 64 45 69 64 45
69 64 45 69 64 45 69 63 45 69 63 45 69 63 45 69 63 45 69 63 45 69 63
45 69 63 45 69 63 45 69 63 45 69 63 45 69 63 45 69 63 45 69 62 45 69
62 45 69 62 46 69 62 46 69 62 46 69 62 46 69 62 46 69 62 46 69 62 46
69 62 46 69 62 46 69 62 46 69 61 46 69 61 46 69 61 46 69 61 46 69 61
46 69 61 46 69 61 46 69 61 46 69 61 46 69 61 46 69 61 46 69 61 46 69
61 46 69 61 46 69 60 46 69 60 47 69 60 47 69 60 47 69 60 47 69 60 47
69 60 47 69 60 47 69 60 47 69 60 47 68 60 47 68 60 47 68 60 47 68 60
47 68 59 47 68 59 47 68 59 47 68 59 47 68 59 47 68 59 47 68 59 47 68
59 47 68 59 47 68 59 47 68 59 47 68 59 47 68 59 47 68 59 47 68 59 47
68 59 48 68 58 48 68 58 48 68 58 48 68 58 48 68 58 48 68 58 48 68 58
48 68 58 48 68 58 48 68 58 48 68 58 48 68 58 48 68 58 48 68 58 48 68
58 48 68 58 48 68 57 48 68 57 48 68 57 48 68 57 48 68 57 48 68 57 48
68 57 48 68 57 48 68 57 48 68 57 48 68 57 48 68 57 48 68 57 48 68 57
48 68 57 48 68 57 48 68 57 48 68 56 48 68 56 48 68 56 48 68 56 48 68
56 48 68 56 48 68 56 48 68 56 48 68 56 48 68 56 48 68 56 49 68 56 49
68 56 49 68 56 49 68 56 49 68 56 49 68 56 49 68 55 49 68 55 49 67 55
49 67 55 49 67 55 49 67 55 49 67 55 49 67 55 49 67 55 49 67 55 49 67
55 49 67 55 49 67 55 49 67 55 49 67 55 49 67 55 49 67 55 49 67 55 49
67 54 49 67 54 49 67 54 49 67 54 49 67 54 49 67 54 49 67 54 49 67 54
49 67 54 49 67 54 49 67 54 49 67 54 49 67 54 49 67 54 49 67 54 49 67
54 49 67 54 49 67 54 49 66 53 49 66 53 49 66 53 49 66 53 49 66 53 49
66 53 49 66 53 49 66 53 49 66 53 49 66 53 49 66 53 49 66 53 49 66 53
49 66 53 48 66 53 48 66 53 48 66 53 48 66 53 48 66 53 48 66 52 48 66
52 48 66 52 48 66 52 48 66 52 48 66 52 48 65 52 48 65 52 48 65 52 48
65 52 48 65 52 48 65 52 48 65 52 48 65 52 48 65 52 48 65 52 48 65 52
48 65 52 48 65 51 48 65 51 48 65 51 48 65 51 48 65 51 48 65 51 48 65
51 48 65 51 48 65 51 48 64 51 48 64 51 48 64 51 48 64 51 48 64 51 48
64 51 48 64 51 48 64 51 48 64 51 48 64 51 48 64 50 47 64 50 47 64 50
47 64 50 47 64 50 47 64 50 47 64 50 47 64 50 47 64 50 47 63 50 47 63
50 47 63 50
20 59 81 20 59 81 20 59 81 20 59 81 20 59 81 20 59 80 20 58 80 20 58
80 20 58 80 20 58 80 20 58 80 20 58 79 20 58 79 20 58 79 20 58 79 20
58 79 20 57 78 20 57 78 20 57 78 20 57 78 20 57 78 20 57 77 20 57 77
20 57 77 20 57 77 20 56 77 20 56 77 20 56 76 20 56 76 20 56 76 20 56
76 20 56 76 20 56 75 20 56 75 20 56 75 20 55 75 20 55 75 20 55 74 20
55 74 20 55 74 20 55 74 20 55 74 20 55 74 20 55 73 20 55 73 20 54 73
20 54 73 20 54 73 20 54 73 20 54 72 20 54 72 20 54 72 20 54 72 20 54
72 20 54 71 20 53 71 20 53 71 20 53 71 20 53 71 20 53 71 20 53 70 20
53 70 20 53 70 20 53 70 20 53 70 20 53 70 20 52 69 20 52 69 20 52 69
20 52 69 20 52 69 20 52 69 20 52 68 20 52 68 20 52 68 20 52 68 20 52
68 20 51 68 20 51 67 20 51 67 20 51 67 20 51 67 20 51 67 20 51 67 20
51 67 20 51 66 20 51 66 20 51 66 20 50 66 20 50 66 20 50 66 20 50 65
20 50 65 20 50 65 20 50 65 20 50 65 20 50 65 20 50 65 20 50 64 20 50
64 20 50 64 20 49 64 20 49 64 20 49 64 20 49 64 20 49 63 20 49 63 20
49 63 20 49 63 20 49 63 20 49 63 20 49 63 20 49 62 20 48 62 20 48 62
20 48 62 20 48 62 20 48 62 20 48 62 20 48 62 20 48 61 20 48 61 20 48
61 20 48 61 20 48 61 20 48 61 20 48 61 20 47 61 20 47 60 20 47 60 20
47 60 20 47 60 20 47 60 20 47 60 20 47 60 20 47 60 20 47 59 20 47 59
20 47 59 20 47 59 20 47 59 20 47 59 20 46 59 20 46 59 20 46 58 20 46
58 20 46 58 20 46 58 20 46 58 20 46 58 20 46 58 20 46 58 20 46 58 20
46 57 20 46 57 20 46 57 20 46 57 20 45 57 20 45 57 20 45 57 20 45 57
20 45 57 20 45 56 20 45 56 44 69 65 44 69 64 44 69 64 44 69 64 44 69
64 44 69 64 44 69 64 44 69 64 44 69 64 45 69 64 45 69 64 45 69 64 45
69 64 45 69 63 45 69 63 45 69 63 45 69 63 45 69 63 45 69 63 45 69 63
45 69 63 45 69 63 45 69 63 45 69 63 45 69 63 45 69 62 45 69 62 45 69
62 45 69 62 45 69 62 45 69 62 45 69 62 46 69 62 46 69 62 46 69 62 46
69 62 46 69 62 46 69 61 46 69 61 46 69 61 46 69 61 46 69 61 46 69 61
46 69 61 46 69 61 46 69 61 46 68 61 46 68 61 46 68 61 46 68 61 46 68
61 46 68 60 46 68 60 46 68 60 46 68 60 46 68 60 46 68 60 47 68 60 47
68 60 47 68 60 47 68 60 47 68 60 47 68 60 47 68 60 47 68 60 47 68 60
47 68 59 47 68 59 47 68 59 47 68 59 47 68 59 47 68 59 47 68 59 47 68
59 47 68 59 47 68 59 47 68 59 47 68 59 47 68 59 47 68 59 47 68 59 47
68 58 47 68 58 47 68 58 47 68 58 47 68 58 47 68 58 48 68 58 48 68 58
48 68 58 48 68 58 48 68 58 48 68 58 48 68 58 48 68 58 48 68 58 48 68
58 48 68 57 48 68 57 48 68 57 48 68 57 48 68 57 48 68 57 48 68 57 48
68 57 48 68 57 48 68 57 48 68 57 48 68 57 48 68 57 48 68 57 48 68 57
48 68 57 48 68 57 48 68 56 48 68 56 48 68 56 48 68 56 48 68 56 48 68
56 48 68 56 48 68 56 48 68 56 48 68 56 48 68 56 48 68 56 48 68 56 48
67 56 48 67 56 48 67 56 48 67 56 48 67 56 48 67 55 48 67 55 48 67 55
48 67 55 48 67 55 48 67 55 48 67 55 48 67 55 48 67 55 48 67 55 49 67
55 49 67 55 49 67 55 49 67 55 49 67 55 49 67 55 49 67 55 49 67 55 49
67 54 49 67 54 49 67 54 49 67 54 49 67 54 49 67 54 49 67 54 49 67 54
49 67 54 49 67 54 49 67 54 49 67 54 49 67 54 49 67 54 49 66 54 49 66
54 49 66 54 49 66 54 48 66 53 48 66 53 48 66 53 48 66 53 48 66 53 48
66 53 48 66 53 48 66 53 48 66 53 48 66 53 48 66 53 48 66 53 48 66 53
48 66 53 48 66 53 48 66 53 48 66 53 48 66 53 48 66 53 48 66 52 48 66
52 48 66 52 48 66 52 48 65 52 48 65 52 48 65 52 48 65 52 48 65 52 48
65 52 48 65 52 48 65 52 48 65 52 48 65 52 48 65 52 48 65 52 48 65 52
48 65 52 48 65 52 48 65 51 48 65 51 48 65 51 48 65 51 48 65 51 48 65
51 48 65 51 48 64 51 48 64 51 48 64 51 48 64 51 48 64 51 48 64 51 48
64 51 48 64 51 48 64 51 47 64 51 47 64 51 47 64 51 47 64 50 47 64 50
47 64 50 47 64 50 47 64 50 47 64 50 47 64 50 47 63 50 47 63 50 47 63
50 47 63 50
20 59 81 20 59 81 20 59 80 20 58 80 20 58 80 20 58 80 20 58 80 20 58
80 20 58 79 20 58 79 20 58 79 20 58 79 20 58 79 20 57 78 20 57 78 20
57 78 20 57 78 20 57 78 20 57 78 20 57 77 20 57 77 20 57 77 20 57 77
20 56 77 20 56 76 20 56 76 20 56 76 20 56 76 20 56 76 20 56 75 20 56
75 20 56 75 20 56 75 20 55 75 20 55 75 20 55 74 20 55 74 20 55 74 20
55 74 20 55 74 20 55 74 20 55 73 20 55 73 20 54 73 20 54 73 20 54 73
20 54 72 20 54 72 20 54 72 20 54 72 20 54 72 20 54 72 20 54 71 20 53
71 20 53 71 20 53 71 20 53 71 20 53 71 20 53 70 20 53 70 20 53 70 20
53 70 20 53 70 20 53 70 20 52 69 20 52 69 20 52 69 20 52 69 20 52 69
20 52 69 20 52 68 20 52 68 20 52 68 20 52 68 20 52 68 20 51 68 20 51
68 20 51 67 20 51 67 20 51 67 20 51 67 20 51 67 20 51 67 20 51 66 20
51 66 20 51 66 20 51 66 20 50 66 20 50 66 20 50 66 20 50 65 20 50 65
20 50 65 20 50 65 20 50 65 20 50 65 20 50 65 20 50 64 20 50 64 20 49
64 20 49 64 20 49 64 20 49 64 20 49 64 20 49 63 20 49 63 20 49 63 20
49 63 20 49 63 20 49 63 20 49 63 20 49 62 20 48 62 20 48 62 20 48 62
20 48 62 20 48 62 20 48 62 20 48 62 20 48 61 20 48 61 20 48 61 20 48
61 20 48 61 20 48 61 20 48 61 20 47 60 20 47 60 20 47 60 20 47 60 20
47 60 20 47 60 20 47 60 20 47 60 20 47 60 20 47 59 20 47 59 20 47 59
20 47 59 20 47 59 20 47 59 20 46 59 20 46 59 20 46 58 20 46 58 20 46
58 20 46 58 20 46 58 20 46 58 20 46 58 20 46 58 20 46 58 20 46 57 20
46 57 20 46 57 20 46 57 20 45 57 20 45 57 20 45 57 20 45 57 20 45 57
20 45 56 20 45 56 44 69 65 44 69 64 44 69 64 44 69 64 44 69 64 44 69
64 44 69 64 44 69 64 44 69 64 44 69 64 44 69 64 44 69 64 45 69 63 45
69 63 45 69 63 45 69 63 45 69 63 45 69 63 45 69 63 45 69 63 45 69 63
45 69 63 45 69 63 45 69 63 45 69 62 45 69 62 45 69 62 45 69 62 45 69
62 45 69 62 45 69 62 45 69 62 45 69 62 45 68 62 45 68 62 45 68 62 46
68 62 46 68 61 46 68 61 46 68 61 46 68 61 46 68 61 46 68 61 46 68 61
46 68 61 46 68 61 46 68 61 46 68 61 46 68 61 46 68 61 46 68 61 46 68
60 46 68 60 46 68 60 46 68 60 46 68 60 46 68 60 46 68 60 46 68 60 46
68 60 46 68 60 46 68 60 47 68 60 47 68 60 47 68 60 47 68 60 47 68 59
47 68 59 47 68 59 47 68 59 47 68 59 47 68 59 47 68 59 47 68 59 47 68
59 47 68 59 47 68 59 47 68 59 47 68 59 47 68 59 47 68 59 47 68 58 47
68 58 47 68 58 47 68 58 47 68 58 47 68 58 47 68 58 47 68 58 47 68 58
47 68 58 47 68 58 47 68 58 48 68 58 48 68 58 48 68 58 48 68 58 48 68
57 48 68 57 48 68 57 48 68 57 48 68 57 48 68 57 48 68 57 48 68 57 48
68 57 48 68 57 48 68 57 48 68 57 48 68 57 48 68 57 48 68 57 48 68 57
48 68 57 48 68 56 48 68 56 48 68 56 48 68 56 48 68 56 48 68 56 48 68
56 48 67 56 48 67 56 48 67 56 48 67 56 48 67 56 48 67 56 48 67 56 48
67 56 48 67 56 48 67 56 48 67 56 48 67 55 48 67 55 48 67 55 48 67 55
48 67 55 48 67 55 48 67 55 48 67 55 48 67 55 48 67 55 48 67 55 48 67
55 48 67 55 48 67 55 48 67 55 48 67 55 48 67 55 48 67 55 48 67 54 48
67 54 48 67 54 48 67 54 48 67 54 48 67 54 48 67 54 48 67 54 48 67 54
48 67 54 48 67 54 48 67 54 48 66 54 48 66 54 48 66 54 48 66 54 48 66
54 48 66 54 48 66 54 48 66 53 48 66 53 48 66 53 48 66 53 48 66 53 48
66 53 48 66 53 48 66 53 48 66 53 48 66 53 48 66 53 48 66 53 48 66 53
48 66 53 48 66 53 48 66 53 48 66 53 48 66 53 48 66 53 48 66 52 48 65
52 48 65 52 48 65 52 48 65 52 48 65 52 48 65 52 48 65 52 48 65 52 48
65 52 48 65 52 48 65 52 48 65 52 48 65 52 48 65 52 48 65 52 48 65 52
48 65 52 48 65 52 48 65 51 48 65 51 48 65 51 48 65 51 48 65 51 48 64
51 48 64 51 48 64 51 48 64 51 48 64 51 48 64 51 48 64 51 48 64 51 47
64 51 47 64 51 47 64 51 47 64 51 47 64 51 47 64 51 47 64 50 47 64 50
47 64 50 47 64 50 47 64 50 47 64 50 47 63 50 47 63 50 47 63 50 47 63
50 47 63 50
20 58 80 20 58 80 20 58 80 20 58 80 20 58 80 20 58 79 20 58 79 20 58
79 20 58 79 20 58 79 20 57 78 20 57 78 20 57 78 20 57 78 20 57 78 20
57 78 20 57 77 20 57 77 20 57 77 20 57 77 20 56 77 20 56 76 20 56 76
20 56 76 20 56 76 20 56 76 20 56 76 20 56 75 20 56 75 20 56 75 20 55
75 20 55 75 20 55 75 20 55 74 20 55 74 20 55 74 20 55 74 20 55 74 20
55 73 20 55 73 20 54 73 20 54 73 20 54 73 20 54 73 20 54 72 20 54 72
20 54 72 20 54 72 20 54 72 20 54 72 20 54 71 20 53 71 20 53 71 20 53
71 20 53 71 20 53 71 20 53 70 20 53 70 20 53 70 20 53 70 20 53 70 20
53 70 20 52 69 20 52 69 20 52 69 20 52 69 20 52 69 20 52 69 20 52 68
20 52 68 20 52 68 20 52 68 20 52 68 20 51 68 20 51 68 20 51 67 20 51
67 20 51 67 20 51 67 20 51 67 20 51 67 20 51 66 20 51 66 20 51 66 20
51 66 20 50 66 20 50 66 20 50 66 20 50 65 20 50 65 20 50 65 20 50 65
20 50 65 20 50 65 20 50 65 20 50 64 20 50 64 20 49 64 20 49 64 20 49
64 20 49 64 20 49 64 20 49 63 20 49 63 20 49 63 20 49 63 20 49 63 20
49 63 20 49 63 20 49 63 20 49 62 20 48 62 20 48 62 20 48 62 20 48 62
20 48 62 20 48 62 20 48 61 20 48 61 20 48 61 20 48 61 20 48 61 20 48
61 20 48 61 20 48 61 20 47 60 20 47 60 20 47 60 20 47 60 20 47 60 20
47 60 20 47 60 20 47 60 20 47 59 20 47 59 20 47 59 20 47 59 20 47 59
20 47 59 20 46 59 20 46 59 20 46 59 20 46 58 20 46 58 20 46 58 20 46
58 20 46 58 20 46 58 20 46 58 20 46 58 20 46 58 20 46 57 20 46 57 20
46 57 20 46 57 20 45 57 20 45 57 20 45 57 20 45 57 20 45 57 20 45 56
20 45 56 20 45 56 44 69 64 44 69 64 44 69 64 44 69 64 44 69 64 44 69
64 44 69 64 44 69 64 44 69 64 44 69 64 44 69 64 44 69 63 44 69 63 44
69 63 45 69 63 45 69 63 45 69 63 45 69 63 45 69 63 45 69 63 45 69 63
45 68 63 45 68 63 45 68 62 45 68 62 45 68 62 45 68 62 45 68 62 45 68
62 45 68 62 45 68 62 45 68 62 45 68 62 45 68 62 45 68 62 45 68 62 45
68 61 45 68 61 46 68 61 46 68 61 46 68 61 46 68 61 46 68 61 46 68 61
46 68 61 46 68 61 46 68 61 46 68 61 46 68 61 46 68 61 46 68 60 46 68
60 46 68 60 46 68 60 46 68 60 46 68 60 46 68 60 46 68 60 46 68 60 46
68 60 46 68 60 46 68 60 46 68 60 46 68 60 46 68 60 47 68 59 47 68 59
47 68 59 47 68 59 47 68 59 47 68 59 47 68 59 47 68 59 47 68 59 47 68
59 47 68 59 47 68 59 47 68 59 47 68 59 47 68 59 47 68 58 47 68 58 47
68 58 47 68 58 47 68 58 47 68 58 47 68 58 47 68 58 47 68 58 47 68 58
47 68 58 47 68 58 47 68 58 47 68 58 47 68 58 47 68 58 47 68 58 47 68
57 47 68 57 48 68 57 48 68 57 48 68 57 48 68 57 48 68 57 48 68 57 48
68 57 48 68 57 48 68 57 48 68 57 48 68 57 48 68 57 48 68 57 48 68 57
48 67 57 48 67 56 48 67 56 48 67 56 48 67 56 48 67 56 48 67 56 48 67
56 48 67 56 48 67 56 48 67 56 48 67 56 48 67 56 48 67 56 48 67 56 48
67 56 48 67 56 48 67 56 48 67 56 48 67 55 48 67 55 48 67 55 48 67 55
48 67 55 48 67 55 48 67 55 48 67 55 48 67 55 48 67 55 48 67 55 48 67
55 48 67 55 48 67 55 48 67 55 48 67 55 48 67 55 48 67 55 48 67 54 48
67 54 48 67 54 48 67 54 48 67 54 48 67 54 48 67 54 48 67 54 48 66 54
48 66 54 48 66 54 48 66 54 48 66 54 48 66 54 48 66 54 48 66 54 48 66
54 48 66 54 48 66 54 48 66 53 48 66 53 48 66 53 48 66 53 48 66 53 48
66 53 48 66 53 48 66 53 48 66 53 48 66 53 48 66 53 48 66 53 48 66 53
48 66 53 48 66 53 48 66 53 48 66 53 48 66 53 48 65 53 48 65 52 48 65
52 48 65 52 48 65 52 48 65 52 48 65 52 48 65 52 48 65 52 48 65 52 48
65 52 48 65 52 48 65 52 48 65 52 48 65 52 48 65 52 48 65 52 48 65 52
48 65 52 48 65 52 48 65 51 48 65 51 48 65 51 48 64 51 48 64 51 48 64
51 48 64 51 48 64 51 48 64 51 47 64 51 47 64 51 47 64 51 47 64 51 47
64 51 47 64 51 47 64 51 47 64 51 47 64 51 47 64 51 47 64 51 47 64 50
47 64 50 47 64 50 47 64 50 47 63 50 47 63 50 47 63 50 47 63 50 47 63
50 47 63 50
20 58 80 20 58 80 20 58 79 20 58 79 20 58 79 20 58 79 20 58 79 20 57
79 20 57 78 20 57 78 20 57 78 20 57 78 20 57 78 20 57 77 20 57 77 20
57 77 20 57 77 20 56 77 20 56 77 20 56 76 20 56 76 20 56 76 20 56 76
20 56 76 20 56 75 20 56 75 20 56 75 20 56 75 20 55 75 20 55 75 20 55
74 20 55 74 20 55 74 20 55 74 20 55 74 20 55 74 20 55 73 20 55 73 20
54 73 20 54 73 20 54 73 20 54 73 20 54 72 20 54 72 20 54 72 20 54 72
20 54 72 20 54 72 20 54 71 20 53 71 20 53 71 20 53 71 20 53 71 20 53
71 20 53 70 20 53 70 20 53 70 20 53 70 20 53 70 20 53 70 20 52 69 20
52 69 20 52 69 20 52 69 20 52 69 20 52 69 20 52 68 20 52 68 20 52 68
20 52 68 20 52 68 20 51 68 20 51 68 20 51 67 20 51 67 20 51 67 20 51
67 20 51 67 20 51 67 20 51 67 20 51 66 20 51 66 20 51 66 20 50 66 20
50 66 20 50 66 20 50 65 20 50 65 20 50 65 20 50 65 20 50 65 20 50 65
20 50 65 20 50 64 20 50 64 20 50 64 20 49 64 20 49 64 20 49 64 20 49
64 20 49 64 20 49 63 20 49 63 20 49 63 20 49 63 20 49 63 20 49 63 20
49 63 20 49 62 20 48 62 20 48 62 20 48 62 20 48 62 20 48 62 20 48 62
20 48 62 20 48 61 20 48 61 20 48 61 20 48 61 20 48 61 20 48 61 20 48
61 20 47 61 20 47 60 20 47 60 20 47 60 20 47 60 20 47 60 20 47 60 20
47 60 20 47 60 20 47 59 20 47 59 20 47 59 20 47 59 20 47 59 20 47 59
20 46 59 20 46 59 20 46 59 20 46 58 20 46 58 20 46 58 20 46 58 20 46
58 20 46 58 20 46 58 20 46 58 20 46 58 20 46 57 20 46 57 20 46 57 20
46 57 20 46 57 20 45 57 20 45 57 20 45 57 20 45 57 20 45 56 20 45 56
20 45 56 44 69 64 44 69 64 44 69 64 44 69 64 44 69 64 44 69 64 44 69
64 44 69 64 44 69 64 44 69 64 44 69 64 44 69 63 44 69 63 44 68 63 44
68 63 44 68 63 44 68 63 45 68 63 45 68 63 45 68 63 45 68 63 45 68 63
45 68 63 45 68 62 45 68 62 45 68 62 45 68 62 45 68 62 45 68 62 45 68
62 45 68 62 45 68 62 45 68 62 45 68 62 45 68 62 45 68 62 45 68 61 45
68 61 45 68 61 45 68 61 45 68 61 45 68 61 46 68 61 46 68 61 46 68 61
46 68 61 46 68 61 46 68 61 46 68 61 46 68 61 46 68 60 46 68 60 46 68
60 46 68 60 46 68 60 46 68 60 46 68 60 46 68 60 46 68 60 46 68 60 46
68 60 46 68 60 46 68 60 46 68 60 46 68 60 46 68 59 46 68 59 46 68 59
46 68 59 46 68 59 47 68 59 47 68 59 47 68 59 47 68 59 47 68 59 47 68
59 47 68 59 47 68 59 47 68 59 47 68 59 47 68 58 47 68 58 47 68 58 47
68 58 47 68 58 47 68 58 47 68 58 47 68 58 47 68 58 47 68 58 47 68 58
47 68 58 47 68 58 47 68 58 47 68 58 47 68 58 47 68 58 47 68 57 47 68
57 47 68 57 47 68 57 47 68 57 47 68 57 47 68 57 47 68 57 47 67 57 48
67 57 48 67 57 48 67 57 48 67 57 48 67 57 48 67 57 48 67 57 48 67 57
48 67 56 48 67 56 48 67 56 48 67 56 48 67 56 48 67 56 48 67 56 48 67
56 48 67 56 48 67 56 48 67 56 48 67 56 48 67 56 48 67 56 48 67 56 48
67 56 48 67 56 48 67 56 48 67 55 48 67 55 48 67 55 48 67 55 48 67 55
48 67 55 48 67 55 48 67 55 48 67 55 48 67 55 48 67 55 48 67 55 48 67
55 48 67 55 48 67 55 48 67 55 48 67 55 48 67 55 48 67 55 48 67 54 48
67 54 48 67 54 48 66 54 48 66 54 48 66 54 48 66 54 48 66 54 48 66 54
48 66 54 48 66 54 48 66 54 48 66 54 48 66 54 48 66 54 48 66 54 48 66
54 48 66 54 48 66 54 48 66 53 48 66 53 48 66 53 48 66 53 48 66 53 48
66 53 48 66 53 48 66 53 48 66 53 48 66 53 48 66 53 48 66 53 48 66 53
48 66 53 48 66 53 48 65 53 48 65 53 48 65 53 48 65 53 48 65 52 48 65
52 48 65 52 48 65 52 48 65 52 48 65 52 48 65 52 48 65 52 48 65 52 48
65 52 48 65 52 48 65 52 48 65 52 48 65 52 48 65 52 48 65 52 48 65 52
48 65 52 48 65 52 48 65 51 48 65 51 48 64 51 48 64 51 48 64 51 47 64
51 47 64 51 47 64 51 47 64 51 47 64 51 47 64 51 47 64 51 47 64 51 47
64 51 47 64 51 47 64 51 47 64 51 47 64 51 47 64 51 47 64 51 47 64 50
47 64 50 47 64 50 47 63 50 47 63 50 47 63 50 47 63 50 47 63 50 47 63
50 47 63 50
20 58 79 20 58 79 20 58 79 20 58 79 20 57 79 20 57 78 20 57 78 20 57
78 20 57 78 20 57 78 20 57 77 20 57 77 20 57 77 20 57 77 20 57 77 20
56 77 20 56 76 20 56 76 20 56 76 20 56 76 20 56 76 20 56 76 20 56 75
20 56 75 20 56 75 20 55 75 20 55 75 20 55 75 20 55 74 20 55 74 20 55
74 20 55 74 20 55 74 20 55 73 20 55 73 20 55 73 20 54 73 20 54 73 20
54 73 20 54 72 20 54 72 20 54 72 20 54 72 20 54 72 20 54 72 20 54 72
20 53 71 20 53 71 20 53 71 20 53 71 20 53 71 20 53 71 20 53 70 20 53
70 20 53 70 20 53 70 20 53 70 20 53 70 20 52 69 20 52 69 20 52 69 20
52 69 20 52 69 20 52 69 20 52 68 20 52 68 20 52 68 20 52 68 20 52 68
20 51 68 20 51 68 20 51 67 20 51 67 20 51 67 20 51 67 20 51 67 20 51
67 20 51 67 20 51 66 20 51 66 20 51 66 20 50 66 20 50 66 20 50 66 20
50 66 20 50 65 20 50 65 20 50 65 20 50 65 20 50 65 20 50 65 20 50 65
20 50 64 20 50 64 20 49 64 20 49 64 20 49 64 20 49 64 20 49 64 20 49
63 20 49 63 20 49 63 20 49 63 20 49 63 20 49 63 20 49 63 20 49 63 20
49 62 20 48 62 20 48 62 20 48 62 20 48 62 20 48 62 20 48 62 20 48 62
20 48 61 20 48 61 20 48 61 20 48 61 20 48 61 20 48 61 20 48 61 20 47
61 20 47 60 20 47 60 20 47 60 20 47 60 20 47 60 20 47 60 20 47 60 20
47 60 20 47 59 20 47 59 20 47 59 20 47 59 20 47 59 20 47 59 20 46 59
20 46 59 20 46 59 20 46 58 20 46 58 20 46 58 20 46 58 20 46 58 20 46
58 20 46 58 20 46 58 20 46 58 20 46 57 20 46 57 20 46 57 20 46 57 20
46 57 20 45 57 20 45 57 20 45 57 20 45 57 20 45 56 20 45 56 20 45 56
44 69 64 44 69 64 44 69 64 44 69 64 44 69 64 44 68 64 44 68 64 44 68
64 44 68 64 44 68 64 44 68 64 44 68 63 44 68 63 44 68 63 44 68 63 44
68 63 44 68 63 44 68 63 44 68 63 44 68 63 45 68 63 45 68 63 45 68 63
45 68 62 45 68 62 45 68 62 45 68 62 45 68 62 45 68 62 45 68 62 45 68
62 45 68 62 45 68 62 45 68 62 45 68 62 45 68 62 45 68 61 45 68 61 45
68 61 45 68 61 45 68 61 45 68 61 45 68 61 45 68 61 45 68 61 45 68 61
46 68 61 46 68 61 46 68 61 46 68 61 46 68 60 46 68 60 46 68 60 46 68
60 46 68 60 46 68 60 46 68 60 46 68 60 46 68 60 46 68 60 46 68 60 46
68 60 46 68 60 46 68 60 46 68 60 46 68 59 46 68 59 46 68 59 46 68 59
46 68 59 46 68 59 46 68 59 46 68 59 46 68 59 46 68 59 47 68 59 47 68
59 47 68 59 47 68 59 47 68 59 47 68 59 47 68 58 47 68 58 47 68 58 47
68 58 47 68 58 47 68 58 47 68 58 47 68 58 47 68 58 47 68 58 47 68 58
47 68 58 47 68 58 47 68 58 47 68 58 47 67 58 47 67 57 47 67 57 47 67
57 47 67 57 47 67 57 47 67 57 47 67 57 47 67 57 47 67 57 47 67 57 47
67 57 47 67 57 47 67 57 47 67 57 47 67 57 47 67 57 47 67 57 47 67 56
48 67 56 48 67 56 48 67 56 48 67 56 48 67 56 48 67 56 48 67 56 48 67
56 48 67 56 48 67 56 48 67 56 48 67 56 48 67 56 48 67 56 48 67 56 48
67 56 48 67 56 48 67 56 48 67 55 48 67 55 48 67 55 48 67 55 48 67 55
48 67 55 48 67 55 48 67 55 48 67 55 48 67 55 48 67 55 48 67 55 48 67
55 48 67 55 48 67 55 48 67 55 48 67 55 48 66 55 48 66 54 48 66 54 48
66 54 48 66 54 48 66 54 48 66 54 48 66 54 48 66 54 48 66 54 48 66 54
48 66 54 48 66 54 48 66 54 48 66 54 48 66 54 48 66 54 48 66 54 48 66
54 48 66 54 48 66 53 48 66 53 48 66 53 48 66 53 48 66 53 48 66 53 48
66 53 48 66 53 48 66 53 48 66 53 48 66 53 48 66 53 48 66 53 48 65 53
48 65 53 48 65 53 48 65 53 48 65 53 48 65 53 48 65 53 48 65 52 48 65
52 48 65 52 48 65 52 48 65 52 48 65 52 48 65 52 48 65 52 48 65 52 48
65 52 48 65 52 48 65 52 48 65 52 48 65 52 48 65 52 48 65 52 48 65 52
48 65 52 48 65 52 47 64 51 47 64 51 47 64 51 47 64 51 47 64 51 47 64
51 47 64 51 47 64 51 47 64 51 47 64 51 47 64 51 47 64 51 47 64 51 47
64 51 47 64 51 47 64 51 47 64 51 47 64 51 47 64 51 47 64 51 47 64 50
47 64 50 47 63 50 47 63 50 47 63 50 47 63 50 47 63 50 47 63 50 47 63
50 47 63 50
20 58 79 20 58 79 20 57 78 20 57 78 20 57 78 20 57 78 20 57 78 20 57
77 20 57 77 20 57 77 20 57 77 20 57 77 20 56 77 20 56 76 20 56 76 20
56 76 20 56 76 20 56 76 20 56 76 20 56 75 20 56 75 20 56 75 20 55 75
20 55 75 20 55 75 20 55 74 20 55 74 20 55 74 20 55 74 20 55 74 20 55
74 20 55 73 20 55 73 20 54 73 20 54 73 20 54 73 20 54 73 20 54 72 20
54 72 20 54 72 20 54 72 20 54 72 20 54 72 20 54 71 20 53 71 20 53 71
20 53 71 20 53 71 20 53 71 20 53 71 20 53 70 20 53 70 20 53 70 20 53
70 20 53 70 20 53 70 20 52 69 20 52 69 20 52 69 20 52 69 20 52 69 20
52 69 20 52 68 20 52 68 20 52 68 20 52 68 20 52 68 20 51 68 20 51 68
20 51 67 20 51 67 20 51 67 20 51 67 20 51 67 20 51 67 20 51 67 20 51
66 20 51 66 20 51 66 20 51 66 20 50 66 20 50 66 20 50 66 20 50 65 20
50 65 20 50 65 20 50 65 20 50 65 20 50 65 20 50 65 20 50 64 20 50 64
20 50 64 20 49 64 20 49 64 20 49 64 20 49 64 20 49 64 20 49 63 20 49
63 20 49 63 20 49 63 20 49 63 20 49 63 20 49 63 20 49 62 20 48 62 20
48 62 20 48 62 20 48 62 20 48 62 20 48 62 20 48 62 20 48 61 20 48 61
20 48 61 20 48 61 20 48 61 20 48 61 20 48 61 20 48 61 20 47 60 20 47
60 20 47 60 20 47 60 20 47 60 20 47 60 20 47 60 20 47 60 20 47 60 20
47 59 20 47 59 20 47 59 20 47 59 20 47 59 20 47 59 20 46 59 20 46 59
20 46 59 20 46 58 20 46 58 20 46 58 20 46 58 20 46 58 20 46 58 20 46
58 20 46 58 20 46 58 20 46 57 20 46 57 20 46 57 20 46 57 20 46 57 20
45 57 20 45 57 20 45 57 20 45 57 20 45 56 20 45 56 20 45 56 20 45 56
44 68 64 44 68 64 44 68 64 44 68 64 44 68 64 44 68 64 44 68 64 44 68
64 44 68 64 44 68 63 44 68 63 44 68 63 44 68 63 44 68 63 44 68 63 44
68 63 44 68 63 44 68 63 44 68 63 44 68 63 44 68 63 44 68 63 45 68 62
45 68 62 45 68 62 45 68 62 45 68 62 45 68 62 45 68 62 45 68 62 45 68
62 45 68 62 45 68 62 45 68 62 45 68 62 45 68 61 45 68 61 45 68 61 45
68 61 45 68 61 45 68 61 45 68 61 45 68 61 45 68 61 45 68 61 45 68 61
45 68 61 45 68 61 45 68 61 46 68 60 46 68 60 46 68 60 46 68 60 46 68
60 46 68 60 46 68 60 46 68 60 46 68 60 46 68 60 46 68 60 46 68 60 46
68 60 46 68 60 46 68 60 46 68 59 46 68 59 46 68 59 46 68 59 46 68 59
46 68 59 46 68 59 46 68 59 46 68 59 46 68 59 46 68 59 46 68 59 46 68
59 46 68 59 46 68 59 47 68 59 47 68 58 47 68 58 47 68 58 47 68 58 47
67 58 47 67 58 47 67 58 47 67 58 47 67 58 47 67 58 47 67 58 47 67 58
47 67 58 47 67 58 47 67 58 47 67 58 47 67 57 47 67 57 47 67 57 47 67
57 47 67 57 47 67 57 47 67 57 47 67 57 47 67 57 47 67 57 47 67 57 47
67 57 47 67 57 47 67 57 47 67 57 47 67 57 47 67 57 47 67 57 47 67 56
47 67 56 47 67 56 47 67 56 47 67 56 47 67 56 47 67 56 47 67 56 47 67
56 48 67 56 48 67 56 48 67 56 48 67 56 48 67 56 48 67 56 48 67 56 48
67 56 48 67 56 48 67 55 48 67 55 48 67 55 48 67 55 48 67 55 48 67 55
48 67 55 48 67 55 48 67 55 48 67 55 48 67 55 48 67 55 48 67 55 48 66
55 48 66 55 48 66 55 48 66 55 48 66 55 48 66 55 48 66 54 48 66 54 48
66 54 48 66 54 48 66 54 48 66 54 48 66 54 48 66 54 48 66 54 48 66 54
48 66 54 48 66 54 48 66 54 48 66 54 48 66 54 48 66 54 48 66 54 48 66
54 48 66 54 48 66 53 48 66 53 48 66 53 48 66 53 48 66 53 48 66 53 48
66 53 48 66 53 48 66 53 48 66 53 48 65 53 48 65 53 48 65 53 48 65 53
48 65 53 48 65 53 48 65 53 48 65 53 48 65 53 48 65 53 48 65 52 48 65
52 48 65 52 48 65 52 48 65 52 48 65 52 48 65 52 48 65 52 48 65 52 48
65 52 48 65 52 48 65 52 48 65 52 47 65 52 47 65 52 47 65 52 47 65 52
47 64 52 47 64 52 47 64 52 47 64 51 47 64 51 47 64 51 47 64 51 47 64
51 47 64 51 47 64 51 47 64 51 47 64 51 47 64 51 47 64 51 47 64 51 47
64 51 47 64 51 47 64 51 47 64 51 47 64 51 47 64 51 47 64 51 47 64 51
47 63 50 47 63 50 47 63 50 47 63 50 47 63 50 47 63 50 47 63 50 47 63
50 47 63 50
20 57 78 20 57 78 20 57 78 20 57 78 20 57 78 20 57 77 20 57 77 20 57
77 20 57 77 20 56 77 20 56 77 20 56 76 20 56 76 20 56 76 20 56 76 20
56 76 20 56 75 20 56 75 20 56 75 20 56 75 20 55 75 20 55 75 20 55 74
20 55 74 20 55 74 20 55 74 20 55 74 20 55 74 20 55 74 20 55 73 20 55
73 20 54 73 20 54 73 20 54 73 20 54 73 20 54 72 20 54 72 20 54 72 20
54 72 20 54 72 20 54 72 20 54 71 20 53 71 20 53 71 20 53 71 20 53 71
20 53 71 20 53 70 20 53 70 20 53 70 20 53 70 20 53 70 20 53 70 20 52
70 20 52 69 20 52 69 20 52 69 20 52 69 20 52 69 20 52 69 20 52 68 20
52 68 20 52 68 20 52 68 20 52 68 20 51 68 20 51 68 20 51 67 20 51 67
20 51 67 20 51 67 20 51 67 20 51 67 20 51 67 20 51 66 20 51 66 20 51
66 20 51 66 20 50 66 20 50 66 20 50 66 20 50 65 20 50 65 20 50 65 20
50 65 20 50 65 20 50 65 20 50 65 20 50 64 20 50 64 20 50 64 20 49 64
20 49 64 20 49 64 20 49 64 20 49 64 20 49 63 20 49 63 20 49 63 20 49
63 20 49 63 20 49 63 20 49 63 20 49 63 20 49 62 20 48 62 20 48 62 20
48 62 20 48 62 20 48 62 20 48 62 20 48 62 20 48 61 20 48 61 20 48 61
20 48 61 20 48 61 20 48 61 20 48 61 20 47 61 20 47 60 20 47 60 20 47
60 20 47 60 20 47 60 20 47 60 20 47 60 20 47 60 20 47 60 20 47 59 20
47 59 20 47 59 20 47 59 20 47 59 20 47 59 20 46 59 20 46 59 20 46 58
20 46 58 20 46 58 20 46 58 20 46 58 20 46 58 20 46 58 20 46 58 20 46
58 20 46 58 20 46 57 20 46 57 20 46 57 20 46 57 20 46 57 20 45 57 20
45 57 20 45 57 20 45 57 20 45 56 20 45 56 20 45 56 20 45 56 44 68 64
44 68 64 44 68 64 44 68 64 44 68 64 44 68 64 44 68 64 44 68 64 44 68
64 44 68 63 44 68 63 44 68 63 44 68 63 44 68 63 44 68 63 44 68 63 44
68 63 44 68 63 44 68 63 44 68 63 44 68 63 44 68 63 44 68 62 44 68 62
44 68 62 45 68 62 45 68 62 45 68 62 45 68 62 45 68 62 45 68 62 45 68
62 45 68 62 45 68 62 45 68 62 45 68 61 45 68 61 45 68 61 45 68 61 45
68 61 45 68 61 45 68 61 45 68 61 45 68 61 45 68 61 45 68 61 45 68 61
45 68 61 45 68 61 45 68 60 45 68 60 45 68 60 45 68 60 46 68 60 46 68
60 46 68 60 46 68 60 46 68 60 46 68 60 46 68 60 46 68 60 46 68 60 46
68 60 46 68 60 46 68 59 46 68 59 46 68 59 46 68 59 46 68 59 46 68 59
46 68 59 46 68 59 46 68 59 46 67 59 46 67 59 46 67 59 46 67 59 46 67
59 46 67 59 46 67 59 46 67 58 46 67 58 46 67 58 46 67 58 46 67 58 47
67 58 47 67 58 47 67 58 47 67 58 47 67 58 47 67 58 47 67 58 47 67 58
47 67 58 47 67 58 47 67 58 47 67 58 47 67 57 47 67 57 47 67 57 47 67
57 47 67 57 47 67 57 47 67 57 47 67 57 47 67 57 47 67 57 47 67 57 47
67 57 47 67 57 47 67 57 47 67 57 47 67 57 47 67 57 47 67 56 47 67 56
47 67 56 47 67 56 47 67 56 47 67 56 47 67 56 47 67 56 47 67 56 47 67
56 47 67 56 47 67 56 47 67 56 47 67 56 47 67 56 47 67 56 47 67 56 47
67 56 47 67 56 47 67 55 48 67 55 48 67 55 48 67 55 48 67 55 48 67 55
48 67 55 48 67 55 48 66 55 48 66 55 48 66 55 48 66 55 48 66 55 48 66
55 48 66 55 48 66 55 48 66 55 48 66 55 48 66 54 48 66 54 48 66 54 48
66 54 48 66 54 48 66 54 48 66 54 48 66 54 48 66 54 48 66 54 48 66 54
48 66 54 48 66 54 48 66 54 48 66 54 48 66 54 48 66 54 48 66 54 48 66
54 48 66 54 48 66 53 48 66 53 48 66 53 48 66 53 48 66 53 48 66 53 48
66 53 48 65 53 48 65 53 48 65 53 48 65 53 48 65 53 48 65 53 48 65 53
48 65 53 48 65 53 48 65 53 48 65 53 48 65 53 48 65 53 48 65 52 48 65
52 48 65 52 48 65 52 47 65 52 47 65 52 47 65 52 47 65 52 47 65 52 47
65 52 47 65 52 47 65 52 47 65 52 47 65 52 47 65 52 47 64 52 47 64 52
47 64 52 47 64 52 47 64 52 47 64 51 47 64 51 47 64 51 47 64 51 47 64
51 47 64 51 47 64 51 47 64 51 47 64 51 47 64 51 47 64 51 47 64 51 47
64 51 47 64 51 47 64 51 47 64 51 47 64 51 47 64 51 47 63 51 47 63 51
47 63 50 47 63 50 47 63 50 47 63 50 47 63 50 47 63 50 47 63 50 47 63
50 47 63 50
20 57 78 20 57 78 20 57 77 20 57 77 20 57 77 20 57 77 20 56 77 20 56
77 20 56 76 20 56 76 20 56 76 20 56 76 20 56 76 20 56 76 20 56 75 20
56 75 20 56 75 20 55 75 20 55 75 20 55 75 20 55 74 20 55 74 20 55 74
20 55 74 20 55 74 20 55 74 20 55 73 20 55 73 20 54 73 20 54 73 20 54
73 20 54 73 20 54 72 20 54 72 20 54 72 20 54 72 20 54 72 20 54 72 20
54 72 20 54 71 20 53 71 20 53 71 20 53 71 20 53 71 20 53 71 20 53 70
20 53 70 20 53 70 20 53 70 20 53 70 20 53 70 20 52 70 20 52 69 20 52
69 20 52 69 20 52 69 20 52 69 20 52 69 20 52 68 20 52 68 20 52 68 20
52 68 20 52 68 20 51 68 20 51 68 20 51 67 20 51 67 20 51 67 20 51 67
20 51 67 20 51 67 20 51 67 20 51 66 20 51 66 20 51 66 20 51 66 20 50
66 20 50 66 20 50 66 20 50 65 20 50 65 20 50 65 20 50 65 20 50 65 20
50 65 20 50 65 20 50 65 20 50 64 20 50 64 20 49 64 20 49 64 20 49 64
20 49 64 20 49 64 20 49 63 20 49 63 20 49 63 20 49 63 20 49 63 20 49
63 20 49 63 20 49 63 20 49 62 20 48 62 20 48 62 20 48 62 20 48 62 20
48 62 20 48 62 20 48 62 20 48 61 20 48 61 20 48 61 20 48 61 20 48 61
20 48 61 20 48 61 20 48 61 20 47 61 20 47 60 20 47 60 20 47 60 20 47
60 20 47 60 20 47 60 20 47 60 20 47 60 20 47 59 20 47 59 20 47 59 20
47 59 20 47 59 20 47 59 20 47 59 20 46 59 20 46 59 20 46 58 20 46 58
20 46 58 20 46 58 20 46 58 20 46 58 20 46 58 20 46 58 20 46 58 20 46
58 20 46 57 20 46 57 20 46 57 20 46 57 20 46 57 20 45 57 20 45 57 20
45 57 20 45 57 20 45 56 20 45 56 20 45 56 20 45 56 43 68 64 43 68 64
44 68 64 44 68 64 44 68 64 44 68 64 44 68 64 44 68 64 44 68 64 44 68
63 44 68 63 44 68 63 44 68 63 44 68 63 44 68 63 44 68 63 44 68 63 44
68 63 44 68 63 44 68 63 44 68 63 44 68 62 44 68 62 44 68 62 44 68 62
44 68 62 44 68 62 44 68 62 44 68 62 45 68 62 45 68 62 45 68 62 45 68
62 45 68 62 45 68 62 45 68 61 45 68 61 45 68 61 45 68 61 45 68 61 45
68 61 45 68 61 45 68 61 45 68 61 45 68 61 45 68 61 45 68 61 45 68 61
45 68 61 45 68 60 45 68 60 45 68 60 45 68 60 45 68 60 45 68 60 45 68
60 45 68 60 46 68 60 46 68 60 46 68 60 46 68 60 46 68 60 46 67 60 46
67 60 46 67 59 46 67 59 46 67 59 46 67 59 46 67 59 46 67 59 46 67 59
46 67 59 46 67 59 46 67 59 46 67 59 46 67 59 46 67 59 46 67 59 46 67
59 46 67 59 46 67 58 46 67 58 46 67 58 46 67 58 46 67 58 46 67 58 46
67 58 46 67 58 46 67 58 46 67 58 46 67 58 47 67 58 47 67 58 47 67 58
47 67 58 47 67 58 47 67 58 47 67 57 47 67 57 47 67 57 47 67 57 47 67
57 47 67 57 47 67 57 47 67 57 47 67 57 47 67 57 47 67 57 47 67 57 47
67 57 47 67 57 47 67 57 47 67 57 47 67 57 47 67 56 47 67 56 47 67 56
47 67 56 47 67 56 47 67 56 47 67 56 47 67 56 47 67 56 47 67 56 47 67
56 47 67 56 47 67 56 47 67 56 47 67 56 47 67 56 47 67 56 47 67 56 47
67 56 47 67 55 47 67 55 47 67 55 47 66 55 47 66 55 47 66 55 47 66 55
47 66 55 47 66 55 47 66 55 47 66 55 47 66 55 47 66 55 47 66 55 47 66
55 47 66 55 47 66 55 48 66 55 48 66 55 48 66 54 48 66 54 48 66 54 48
66 54 48 66 54 48 66 54 48 66 54 48 66 54 48 66 54 48 66 54 48 66 54
48 66 54 48 66 54 48 66 54 48 66 54 48 66 54 48 66 54 48 66 54 48 66
54 48 66 54 48 66 53 48 66 53 48 66 53 48 66 53 48 65 53 48 65 53 48
65 53 48 65 53 48 65 53 48 65 53 48 65 53 47 65 53 47 65 53 47 65 53
47 65 53 47 65 53 47 65 53 47 65 53 47 65 53 47 65 53 47 65 52 47 65
52 47 65 52 47 65 52 47 65 52 47 65 52 47 65 52 47 65 52 47 65 52 47
65 52 47 65 52 47 65 52 47 65 52 47 64 52 47 64 52 47 64 52 47 64 52
47 64 52 47 64 52 47 64 52 47 64 51 47 64 51 47 64 51 47 64 51 47 64
51 47 64 51 47 64 51 47 64 51 47 64 51 47 64 51 47 64 51 47 64 51 47
64 51 47 64 51 47 64 51 47 64 51 47 64 51 47 63 51 47 63 51 47 63 51
47 63 51 47 63 50 47 63 50 47 63 50 47 63 50 47 63 50 47 63 50 47 63
50 47 63 50
20 57 77 20 57 77 20 57 77 20 56 77 20 56 77 20 56 76 20 56 76 20 56
76 20 56 76 20 56 76 20 56 76 20 56 75 20 56 75 20 56 75 20 56 75 20
55 75 20 55 75 20 55 74 20 55 74 20 55 74 20 55 74 20 55 74 20 55 74
20 55 73 20 55 73 20 55 73 20 54 73 20 54 73 20 54 73 20 54 73 20 54
72 20 54 72 20 54 72 20 54 72 20 54 72 20 54 72 20 54 71 20 53 71 20
53 71 20 53 71 20 53 71 20 53 71 20 53 71 20 53 70 20 53 70 20 53 70
20 53 70 20 53 70 20 53 70 20 52 69 20 52 69 20 52 69 20 52 69 20 52
69 20 52 69 20 52 69 20 52 68 20 52 68 20 52 68 20 52 68 20 52 68 20
51 68 20 51 68 20 51 67 20 51 67 20 51 67 20 51 67 20 51 67 20 51 67
20 51 67 20 51 66 20 51 66 20 51 66 20 51 66 20 50 66 20 50 66 20 50
66 20 50 66 20 50 65 20 50 65 20 50 65 20 50 65 20 50 65 20 50 65 20
50 65 20 50 64 20 50 64 20 50 64 20 49 64 20 49 64 20 49 64 20 49 64
20 49 64 20 49 63 20 49 63 20 49 63 20 49 63 20 49 63 20 49 63 20 49
63 20 49 63 20 49 62 20 48 62 20 48 62 20 48 62 20 48 62 20 48 62 20
48 62 20 48 62 20 48 61 20 48 61 20 48 61 20 48 61 20 48 61 20 48 61
20 48 61 20 48 61 20 47 60 20 47 60 20 47 60 20 47 60 20 47 60 20 47
60 20 47 60 20 47 60 20 47 60 20 47 59 20 47 59 20 47 59 20 47 59 20
47 59 20 47 59 20 47 59 20 46 59 20 46 59 20 46 58 20 46 58 20 46 58
20 46 58 20 46 58 20 46 58 20 46 58 20 46 58 20 46 58 20 46 58 20 46
57 20 46 57 20 46 57 20 46 57 20 46 57 20 45 57 20 45 57 20 45 57 20
45 57 20 45 56 20 45 56 20 45 56 20 45 56 20 45 56 43 68 64 43 68 64
43 68 64 43 68 64 44 68 64 44 68 64 44 68 64 44 68 64 44 68 63 44 68
63 44 68 63 44 68 63 44 68 63 44 68 63 44 68 63 44 68 63 44 68 63 44
68 63 44 68 63 44 68 63 44 68 62 44 68 62 44 68 62 44 68 62 44 68 62
44 68 62 44 68 62 44 68 62 44 68 62 44 68 62 44 68 62 45 68 62 45 68
62 45 68 62 45 68 61 45 68 61 45 68 61 45 68 61 45 68 61 45 68 61 45
68 61 45 68 61 45 68 61 45 68 61 45 68 61 45 68 61 45 68 61 45 68 61
45 68 60 45 68 60 45 67 60 45 67 60 45 67 60 45 67 60 45 67 60 45 67
60 45 67 60 45 67 60 45 67 60 45 67 60 46 67 60 46 67 60 46 67 60 46
67 59 46 67 59 46 67 59 46 67 59 46 67 59 46 67 59 46 67 59 46 67 59
46 67 59 46 67 59 46 67 59 46 67 59 46 67 59 46 67 59 46 67 59 46 67
59 46 67 58 46 67 58 46 67 58 46 67 58 46 67 58 46 67 58 46 67 58 46
67 58 46 67 58 46 67 58 46 67 58 46 67 58 46 67 58 46 67 58 46 67 58
46 67 58 46 67 58 47 67 57 47 67 57 47 67 57 47 67 57 47 67 57 47 67
57 47 67 57 47 67 57 47 67 57 47 67 57 47 67 57 47 67 57 47 67 57 47
67 57 47 67 57 47 67 57 47 67 57 47 67 57 47 67 56 47 67 56 47 67 56
47 67 56 47 67 56 47 67 56 47 67 56 47 67 56 47 67 56 47 67 56 47 67
56 47 67 56 47 67 56 47 67 56 47 67 56 47 66 56 47 66 56 47 66 56 47
66 55 47 66 55 47 66 55 47 66 55 47 66 55 47 66 55 47 66 55 47 66 55
47 66 55 47 66 55 47 66 55 47 66 55 47 66 55 47 66 55 47 66 55 47 66
55 47 66 55 47 66 55 47 66 55 47 66 55 47 66 54 47 66 54 47 66 54 47
66 54 47 66 54 47 66 54 47 66 54 47 66 54 47 66 54 47 66 54 47 66 54
47 66 54 47 66 54 47 66 54 47 66 54 47 66 54 47 66 54 47 66 54 47 66
54 47 66 53 47 65 53 47 65 53 47 65 53 47 65 53 47 65 53 47 65 53 47
65 53 47 65 53 47 65 53 47 65 53 47 65 53 47 65 53 47 65 53 47 65 53
47 65 53 47 65 53 47 65 53 47 65 53 47 65 53 47 65 53 47 65 52 47 65
52 47 65 52 47 65 52 47 65 52 47 65 52 47 65 52 47 65 52 47 65 52 47
65 52 47 65 52 47 64 52 47 64 52 47 64 52 47 64 52 47 64 52 47 64 52
47 64 52 47 64 52 47 64 52 47 64 51 47 64 51 47 64 51 47 64 51 47 64
51 47 64 51 47 64 51 47 64 51 47 64 51 47 64 51 47 64 51 47 64 51 47
64 51 47 64 51 47 64 51 47 64 51 47 63 51 47 63 51 47 63 51 47 63 51
47 63 51 47 63 50 47 63 50 47 63 50 47 63 50 47 63 50 47 63 50 46 63
50 46 63 50
20 56 77 20 56 77 20 56 76 20 56 76 20 56 76 20 56 76 20 56 76 20 56
76 20 56 75 20 56 75 20 56 75 20 56 75 20 55 75 20 55 75 20 55 75 20
55 74 20 55 74 20 55 74 20 55 74 20 55 74 20 55 74 20 55 73 20 55 73
20 54 73 20 54 73 20 54 73 20 54 73 20 54 72 20 54 72 20 54 72 20 54
72 20 54 72 20 54 72 20 54 72 20 54 71 20 53 71 20 53 71 20 53 71 20
53 71 20 53 71 20 53 71 20 53 70 20 53 70 20 53 70 20 53 70 20 53 70
20 53 70 20 52 69 20 52 69 20 52 69 20 52 69 20 52 69 20 52 69 20 52
69 20 52 68 20 52 68 20 52 68 20 52 68 20 52 68 20 51 68 20 51 68 20
51 67 20 51 67 20 51 67 20 51 67 20 51 67 20 51 67 20 51 67 20 51 66
20 51 66 20 51 66 20 51 66 20 50 66 20 50 66 20 50 66 20 50 66 20 50
65 20 50 65 20 50 65 20 50 65 20 50 65 20 50 65 20 50 65 20 50 64 20
50 64 20 50 64 20 49 64 20 49 64 20 49 64 20 49 64 20 49 64 20 49 63
20 49 63 20 49 63 20 49 63 20 49 63 20 49 63 20 49 63 20 49 63 20 49
62 20 48 62 20 48 62 20 48 62 20 48 62 20 48 62 20 48 62 20 48 62 20
48 61 20 48 61 20 48 61 20 48 61 20 48 61 20 48 61 20 48 61 20 48 61
20 47 61 20 47 60 20 47 60 20 47 60 20 47 60 20 47 60 20 47 60 20 47
60 20 47 60 20 47 60 20 47 59 20 47 59 20 47 59 20 47 59 20 47 59 20
47 59 20 46 59 20 46 59 20 46 59 20 46 58 20 46 58 20 46 58 20 46 58
20 46 58 20 46 58 20 46 58 20 46 58 20 46 58 20 46 57 20 46 57 20 46
57 20 46 57 20 46 57 20 45 57 20 45 57 20 45 57 20 45 57 20 45 57 20
45 56 20 45 56 20 45 56 20 45 56 20 45 56 43 68 64 43 68 64 43 68 64
43 68 64 43 68 64 43 68 64 43 68 64 44 68 63 44 68 63 44 68 63 44 68
63 44 68 63 44 68 63 44 68 63 44 68 63 44 68 63 44 68 63 44 68 63 44
68 63 44 68 63 44 68 62 44 68 62 44 68 62 44 68 62 44 68 62 44 68 62
44 68 62 44 68 62 44 68 62 44 68 62 44 68 62 44 68 62 44 68 62 44 68
61 44 68 61 45 68 61 45 68 61 45 68 61 45 68 61 45 68 61 45 67 61 45
67 61 45 67 61 45 67 61 45 67 61 45 67 61 45 67 61 45 67 61 45 67 60
45 67 60 45 67 60 45 67 60 45 67 60 45 67 60 45 67 60 45 67 60 45 67
60 45 67 60 45 67 60 45 67 60 45 67 60 45 67 60 45 67 60 45 67 59 45
67 59 46 67 59 46 67 59 46 67 59 46 67 59 46 67 59 46 67 59 46 67 59
46 67 59 46 67 59 46 67 59 46 67 59 46 67 59 46 67 59 46 67 59 46 67
58 46 67 58 46 67 58 46 67 58 46 67 58 46 67 58 46 67 58 46 67 58 46
67 58 46 67 58 46 67 58 46 67 58 46 67 58 46 67 58 46 67 58 46 67 58
46 67 58 46 67 57 46 67 57 46 67 57 46 67 57 46 67 57 46 67 57 47 67
57 47 67 57 47 67 57 47 67 57 47 67 57 47 67 57 47 67 57 47 67 57 47
67 57 47 67 57 47 67 57 47 67 57 47 67 56 47 67 56 47 67 56 47 67 56
47 67 56 47 67 56 47 67 56 47 67 56 47 67 56 47 66 56 47 66 56 47 66
56 47 66 56 47 66 56 47 66 56 47 66 56 47 66 56 47 66 56 47 66 56 47
66 55 47 66 55 47 66 55 47 66 55 47 66 55 47 66 55 47 66 55 47 66 55
47 66 55 47 66 55 47 66 55 47 66 55 47 66 55 47 66 55 47 66 55 47 66
55 47 66 55 47 66 55 47 66 55 47 66 54 47 66 54 47 66 54 47 66 54 47
66 54 47 66 54 47 66 54 47 66 54 47 66 54 47 66 54 47 66 54 47 66 54
47 66 54 47 66 54 47 66 54 47 66 54 47 66 54 47 65 54 47 65 54 47 65
54 47 65 53 47 65 53 47 65 53 47 65 53 47 65 53 47 65 53 47 65 53 47
65 53 47 65 53 47 65 53 47 65 53 47 65 53 47 65 53 47 65 53 47 65 53
47 65 53 47 65 53 47 65 53 47 65 53 47 65 53 47 65 53 47 65 52 47 65
52 47 65 52 47 65 52 47 65 52 47 65 52 47 65 52 47 65 52 47 64 52 47
64 52 47 64 52 47 64 52 47 64 52 47 64 52 47 64 52 47 64 52 47 64 52
47 64 52 47 64 52 47 64 52 47 64 51 47 64 51 47 64 51 47 64 51 47 64
51 47 64 51 47 64 51 47 64 51 47 64 51 47 64 51 47 64 51 47 64 51 47
64 51 47 64 51 47 63 51 47 63 51 47 63 51 47 63 51 47 63 51 47 63 51
47 63 51 47 63 50 47 63 50 47 63 50 46 63 50 46 63 50 46 63 50 46 63
50 46 63 50
20 56 76 20 56 76 20 56 76 20 56 76 20 56 76 20 56 75 20 56 75 20 56
75 20 56 75 20 55 75 20 55 75 20 55 75 20 55 74 20 55 74 20 55 74 20
55 74 20 55 74 20 55 74 20 55 73 20 55 73 20 55 73 20 54 73 20 54 73
20 54 73 20 54 73 20 54 72 20 54 72 20 54 72 20 54 72 20 54 72 20 54
72 20 54 71 20 53 71 20 53 71 20 53 71 20 53 71 20 53 71 20 53 71 20
53 70 20 53 70 20 53 70 20 53 70 20 53 70 20 53 70 20 53 70 20 52 69
20 52 69 20 52 69 20 52 69 20 52 69 20 52 69 20 52 69 20 52 68 20 52
68 20 52 68 20 52 68 20 52 68 20 51 68 20 51 68 20 51 67 20 51 67 20
51 67 20 51 67 20 51 67 20 51 67 20 51 67 20 51 66 20 51 66 20 51 66
20 51 66 20 50 66 20 50 66 20 50 66 20 50 66 20 50 65 20 50 65 20 50
65 20 50 65 20 50 65 20 50 65 20 50 65 20 50 64 20 50 64 20 50 64 20
49 64 20 49 64 20 49 64 20 49 64 20 49 64 20 49 63 20 49 63 20 49 63
20 49 63 20 49 63 20 49 63 20 49 63 20 49 63 20 49 62 20 49 62 20 48
62 20 48 62 20 48 62 20 48 62 20 48 62 20 48 62 20 48 62 20 48 61 20
48 61 20 48 61 20 48 61 20 48 61 20 48 61 20 48 61 20 48 61 20 47 60
20 47 60 20 47 60 20 47 60 20 47 60 20 47 60 20 47 60 20 47 60 20 47
60 20 47 59 20 47 59 20 47 59 20 47 59 20 47 59 20 47 59 20 47 59 20
46 59 20 46 59 20 46 59 20 46 58 20 46 58 20 46 58 20 46 58 20 46 58
20 46 58 20 46 58 20 46 58 20 46 58 20 46 57 20 46 57 20 46 57 20 46
57 20 46 57 20 45 57 20 45 57 20 45 57 20 45 57 20 45 57 20 45 56 20
45 56 20 45 56 20 45 56 20 45 56 43 68 64 43 68 64 43 68 64 43 68 64
43 68 64 43 68 64 43 68 64 43 68 63 43 68 63 43 68 63 44 68 63 44 68
63 44 68 63 44 68 63 44 68 63 44 68 63 44 68 63 44 68 63 44 68 63 44
68 63 44 68 62 44 68 62 44 68 62 44 68 62 44 68 62 44 68 62 44 68 62
44 68 62 44 68 62 44 68 62 44 68 62 44 67 62 44 67 62 44 67 61 44 67
61 44 67 61 44 67 61 44 67 61 45 67 61 45 67 61 45 67 61 45 67 61 45
67 61 45 67 61 45 67 61 45 67 61 45 67 61 45 67 61 45 67 60 45 67 60
45 67 60 45 67 60 45 67 60 45 67 60 45 67 60 45 67 60 45 67 60 45 67
60 45 67 60 45 67 60 45 67 60 45 67 60 45 67 60 45 67 59 45 67 59 45
67 59 45 67 59 45 67 59 45 67 59 45 67 59 46 67 59 46 67 59 46 67 59
46 67 59 46 67 59 46 67 59 46 67 59 46 67 59 46 67 59 46 67 58 46 67
58 46 67 58 46 67 58 46 67 58 46 67 58 46 67 58 46 67 58 46 67 58 46
67 58 46 67 58 46 67 58 46 67 58 46 67 58 46 67 58 46 67 58 46 67 58
46 67 57 46 67 57 46 67 57 46 67 57 46 67 57 46 67 57 46 67 57 46 67
57 46 67 57 46 67 57 46 67 57 46 67 57 46 67 57 47 67 57 47 67 57 47
67 57 47 67 57 47 67 57 47 67 56 47 67 56 47 66 56 47 66 56 47 66 56
47 66 56 47 66 56 47 66 56 47 66 56 47 66 56 47 66 56 47 66 56 47 66
56 47 66 56 47 66 56 47 66 56 47 66 56 47 66 56 47 66 56 47 66 55 47
66 55 47 66 55 47 66 55 47 66 55 47 66 55 47 66 55 47 66 55 47 66 55
47 66 55 47 66 55 47 66 55 47 66 55 47 66 55 47 66 55 47 66 55 47 66
55 47 66 55 47 66 55 47 66 55 47 66 54 47 66 54 47 66 54 47 66 54 47
66 54 47 66 54 47 66 54 47 66 54 47 66 54 47 66 54 47 66 54 47 66 54
47 66 54 47 65 54 47 65 54 47 65 54 47 65 54 47 65 54 47 65 54 47 65
54 47 65 53 47 65 53 47 65 53 47 65 53 47 65 53 47 65 53 47 65 53 47
65 53 47 65 53 47 65 53 47 65 53 47 65 53 47 65 53 47 65 53 47 65 53
47 65 53 47 65 53 47 65 53 47 65 53 47 65 53 47 65 52 47 65 52 47 65
52 47 65 52 47 65 52 47 65 52 47 65 52 47 64 52 47 64 52 47 64 52 47
64 52 47 64 52 47 64 52 47 64 52 47 64 52 47 64 52 47 64 52 47 64 52
47 64 52 47 64 52 47 64 52 47 64 51 47 64 51 47 64 51 47 64 51 47 64
51 47 64 51 47 64 51 47 64 51 47 64 51 47 64 51 47 64 51 47 64 51 47
63 51 47 63 51 47 63 51 47 63 51 47 63 51 47 63 51 47 63 51 47 63 51
46 63 51 46 63 51 46 63 50 46 63 50 46 63 50 46 63 50 46 63 50 46 63
50 46 63 50
20 56 76 20 56 76 20 56 75 20 56 75 20 56 75 20 56 75 20 55 75 20 55
75 20 55 75 20 55 74 20 55 74 20 55 74 20 55 74 20 55 74 20 55 74 20
55 74 20 55 73 20 55 73 20 54 73 20 54 73 20 54 73 20 54 73 20 54 72
20 54 72 20 54 72 20 54 72 20 54 72 20 54 72 20 54 72 20 54 71 20 53
71 20 53 71 20 53 71 20 53 71 20 53 71 20 53 71 20 53 70 20 53 70 20
53 70 20 53 70 20 53 70 20 53 70 20 52 70 20 52 69 20 52 69 20 52 69
20 52 69 20 52 69 20 52 69 20 52 69 20 52 68 20 52 68 20 52 68 20 52
68 20 52 68 20 51 68 20 51 68 20 51 67 20 51 67 20 51 67 20 51 67 20
51 67 20 51 67 20 51 67 20 51 66 20 51 66 20 51 66 20 51 66 20 50 66
20 50 66 20 50 66 20 50 66 20 50 65 20 50 65 20 50 65 20 50 65 20 50
65 20 50 65 20 50 65 20 50 65 20 50 64 20 50 64 20 49 64 20 49 64 20
49 64 20 49 64 20 49 64 20 49 64 20 49 63 20 49 63 20 49 63 20 49 63
20 49 63 20 49 63 20 49 63 20 49 63 20 49 62 20 48 62 20 48 62 20 48
62 20 48 62 20 48 62 20 48 62 20 48 62 20 48 61 20 48 61 20 48 61 20
48 61 20 48 61 20 48 61 20 48 61 20 48 61 20 47 61 20 47 60 20 47 60
20 47 60 20 47 60 20 47 60 20 47 60 20 47 60 20 47 60 20 47 60 20 47
59 20 47 59 20 47 59 20 47 59 20 47 59 20 47 59 20 47 59 20 46 59 20
46 59 20 46 58 20 46 58 20 46 58 20 46 58 20 46 58 20 46 58 20 46 58
20 46 58 20 46 58 20 46 58 20 46 57 20 46 57 20 46 57 20 46 57 20 46
57 20 45 57 20 45 57 20 45 57 20 45 57 20 45 57 20 45 56 20 45 56 20
45 56 20 45 56 20 45 56 43 68 64 43 68 64 43 68 64 43 68 64 43 68 64
43 68 64 43 68 64 43 68 63 43 68 63 43 68 63 43 68 63 43 68 63 43 68
63 44 68 63 44 68 63 44 68 63 44 68 63 44 68 63 44 68 63 44 68 62 44
68 62 44 68 62 44 68 62 44 67 62 44 67 62 44 67 62 44 67 62 44 67 62
44 67 62 44 67 62 44 67 62 44 67 62 44 67 62 44 67 61 44 67 61 44 67
61 44 67 61 44 67 61 44 67 61 44 67 61 44 67 61 44 67 61 45 67 61 45
67 61 45 67 61 45 67 61 45 67 61 45 67 61 45 67 60 45 67 60 45 67 60
45 67 60 45 67 60 45 67 60 45 67 60 45 67 60 45 67 60 45 67 60 45 67
60 45 67 60 45 67 60 45 67 60 45 67 60 45 67 59 45 67 59 45 67 59 45
67 59 45 67 59 45 67 59 45 67 59 45 67 59 45 67 59 45 67 59 45 67 59
46 67 59 46 67 59 46 67 59 46 67 59 46 67 59 46 67 58 46 67 58 46 67
58 46 67 58 46 67 58 46 67 58 46 67 58 46 67 58 46 67 58 46 67 58 46
67 58 46 67 58 46 67 58 46 67 58 46 67 58 46 67 58 46 67 58 46 67 58
46 67 57 46 67 57 46 67 57 46 67 57 46 67 57 46 67 57 46 67 57 46 67
57 46 67 57 46 67 57 46 67 57 46 67 57 46 66 57 46 66 57 46 66 57 46
66 57 46 66 57 46 66 57 46 66 56 47 66 56 47 66 56 47 66 56 47 66 56
47 66 56 47 66 56 47 66 56 47 66 56 47 66 56 47 66 56 47 66 56 47 66
56 47 66 56 47 66 56 47 66 56 47 66 56 47 66 56 47 66 56 47 66 55 47
66 55 47 66 55 47 66 55 47 66 55 47 66 55 47 66 55 47 66 55 47 66 55
47 66 55 47 66 55 47 66 55 47 66 55 47 66 55 47 66 55 47 66 55 47 66
55 47 66 55 47 66 55 47 66 54 47 66 54 47 66 54 47 66 54 47 66 54 47
66 54 47 66 54 47 66 54 47 66 54 47 66 54 47 65 54 47 65 54 47 65 54
47 65 54 47 65 54 47 65 54 47 65 54 47 65 54 47 65 54 47 65 54 47 65
54 47 65 53 47 65 53 47 65 53 47 65 53 47 65 53 47 65 53 47 65 53 47
65 53 47 65 53 47 65 53 47 65 53 47 65 53 47 65 53 47 65 53 47 65 53
47 65 53 47 65 53 47 65 53 47 65 53 47 65 53 47 65 52 47 65 52 47 65
52 47 65 52 47 64 52 47 64 52 47 64 52 47 64 52 47 64 52 47 64 52 47
64 52 47 64 52 47 64 52 47 64 52 47 64 52 47 64 52 47 64 52 47 64 52
47 64 52 47 64 52 47 64 52 47 64 51 47 64 51 47 64 51 47 64 51 47 64
51 47 64 51 47 64 51 47 64 51 47 64 51 47 64 51 47 64 51 47 63 51 47
63 51 47 63 51 47 63 51 46 63 51 46 63 51 46 63 51 46 63 51 46 63 51
46 63 51 46 63 51 46 63 50 46 63 50 46 63 50 46 63 50 46 63 50 46 63
50 46 63 50
20 56 75 20 56 75 20 56 75 20 55 75 20 55 75 20 55 75 20 55 74 20 55
74 20 55 74 20 55 74 20 55 74 20 55 74 20 55 74 20 55 73 20 55 73 20
54 73 20 54 73 20 54 73 20 54 73 20 54 73 20 54 72 20 54 72 20 54 72
20 54 72 20 54 72 20 54 72 20 54 72 20 54 71 20 53 71 20 53 71 20 53
71 20 53 71 20 53 71 20 53 70 20 53 70 20 53 70 20 53 70 20 53 70 20
53 70 20 53 70 20 52 69 20 52 69 20 52 69 20 52 69 20 52 69 20 52 69
20 52 69 20 52 69 20 52 68 20 52 68 20 52 68 20 52 68 20 52 68 20 51
68 20 51 68 20 51 67 20 51 67 20 51 67 20 51 67 20 51 67 20 51 67 20
51 67 20 51 66 20 51 66 20 51 66 20 51 66 20 50 66 20 50 66 20 50 66
20 50 66 20 50 65 20 50 65 20 50 65 20 50 65 20 50 65 20 50 65 20 50
65 20 50 65 20 50 64 20 50 64 20 50 64 20 49 64 20 49 64 20 49 64 20
49 64 20 49 64 20 49 63 20 49 63 20 49 63 20 49 63 20 49 63 20 49 63
20 49 63 20 49 63 20 49 62 20 48 62 20 48 62 20 48 62 20 48 62 20 48
62 20 48 62 20 48 62 20 48 62 20 48 61 20 48 61 20 48 61 20 48 61 20
48 61 20 48 61 20 48 61 20 48 61 20 47 61 20 47 60 20 47 60 20 47 60
20 47 60 20 47 60 20 47 60 20 47 60 20 47 60 20 47 60 20 47 59 20 47
59 20 47 59 20 47 59 20 47 59 20 47 59 20 47 59 20 46 59 20 46 59 20
46 58 20 46 58 20 46 58 20 46 58 20 46 58 20 46 58 20 46 58 20 46 58
20 46 58 20 46 58 20 46 57 20 46 57 20 46 57 20 46 57 20 46 57 20 45
57 20 45 57 20 45 57 20 45 57 20 45 57 20 45 56 20 45 56 20 45 56 20
45 56 20 45 56 20 45 56 43 68 64 43 68 64 43 68 64 43 68 64 43 68 64
43 68 63 43 68 63 43 68 63 43 68 63 43 68 63 43 68 63 43 68 63 43 68
63 43 68 63 43 68 63 44 67 63 44 67 63 44 67 63 44 67 62 44 67 62 44
67 62 44 67 62 44 67 62 44 67 62 44 67 62 44 67 62 44 67 62 44 67 62
44 67 62 44 67 62 44 67 62 44 67 62 44 67 61 44 67 61 44 67 61 44 67
61 44 67 61 44 67 61 44 67 61 44 67 61 44 67 61 44 67 61 44 67 61 44
67 61 44 67 61 45 67 61 45 67 60 45 67 60 45 67 60 45 67 60 45 67 60
45 67 60 45 67 60 45 67 60 45 67 60 45 67 60 45 67 60 45 67 60 45 67
60 45 67 60 45 67 60 45 67 60 45 67 59 45 67 59 45 67 59 45 67 59 45
67 59 45 67 59 45 67 59 45 67 59 45 67 59 45 67 59 45 67 59 45 67 59
45 67 59 45 67 59 45 67 59 45 67 59 46 67 58 46 67 58 46 67 58 46 67
58 46 67 58 46 67 58 46 67 58 46 67 58 46 67 58 46 67 58 46 67 58 46
67 58 46 67 58 46 67 58 46 67 58 46 67 58 46 67 58 46 67 58 46 67 57
46 67 57 46 67 57 46 67 57 46 66 57 46 66 57 46 66 57 46 66 57 46 66
57 46 66 57 46 66 57 46 66 57 46 66 57 46 66 57 46 66 57 46 66 57 46
66 57 46 66 57 46 66 56 46 66 56 46 66 56 46 66 56 46 66 56 46 66 56
46 66 56 46 66 56 46 66 56 46 66 56 47 66 56 47 66 56 47 66 56 47 66
56 47 66 56 47 66 56 47 66 56 47 66 56 47 66 56 47 66 55 47 66 55 47
66 55 47 66 55 47 66 55 47 66 55 47 66 55 47 66 55 47 66 55 47 66 55
47 66 55 47 66 55 47 66 55 47 66 55 47 66 55 47 66 55 47 66 55 47 66
55 47 66 55 47 66 55 47 66 54 47 66 54 47 66 54 47 66 54 47 66 54 47
65 54 47 65 54 47 65 54 47 65 54 47 65 54 47 65 54 47 65 54 47 65 54
47 65 54 47 65 54 47 65 54 47 65 54 47 65 54 47 65 54 47 65 54 47 65
53 47 65 53 47 65 53 47 65 53 47 65 53 47 65 53 47 65 53 47 65 53 47
65 53 47 65 53 47 65 53 47 65 53 47 65 53 47 65 53 47 65 53 47 65 53
47 65 53 47 65 53 47 65 53 47 65 53 47 65 53 47 65 52 47 64 52 47 64
52 47 64 52 47 64 52 47 64 52 47 64 52 47 64 52 47 64 52 47 64 52 47
64 52 47 64 52 47 64 52 47 64 52 47 64 52 47 64 52 47 64 52 47 64 52
47 64 52 47 64 52 47 64 52 47 64 52 47 64 51 47 64 51 47 64 51 47 64
51 47 64 51 47 64 51 47 64 51 47 64 51 47 63 51 46 63 51 46 63 51 46
63 51 46 63 51 46 63 51 46 63 51 46 63 51 46 63 51 46 63 51 46 63 51
46 63 51 46 63 51 46 63 50 46 63 50 46 63 50 46 63 50 46 63 50 46 63
50 46 63 50
20 55 75 20 55 75 20 55 75 20 55 74 20 55 74 20 55 74 20 55 74 20 55
74 20 55 74 20 55 74 20 55 73 20 55 73 20 55 73 20 54 73 20 54 73 20
54 73 20 54 73 20 54 72 20 54 72 20 54 72 20 54 72 20 54 72 20 54 72
20 54 72 20 54 71 20 53 71 20 53 71 20 53 71 20 53 71 20 53 71 20 53
71 20 53 70 20 53 70 20 53 70 20 53 70 20 53 70 20 53 70 20 53 70 20
52 69 20 52 69 20 52 69 20 52 69 20 52 69 20 52 69 20 52 69 20 52 68
20 52 68 20 52 68 20 52 68 20 52 68 20 52 68 20 51 68 20 51 68 20 51
67 20 51 67 20 51 67 20 51 67 20 51 67 20 51 67 20 51 67 20 51 66 20
51 66 20 51 66 20 51 66 20 51 66 20 50 66 20 50 66 20 50 66 20 50 65
20 50 65 20 50 65 20 50 65 20 50 65 20 50 65 20 50 65 20 50 65 20 50
64 20 50 64 20 50 64 20 49 64 20 49 64 20 49 64 20 49 64 20 49 64 20
49 63 20 49 63 20 49 63 20 49 63 20 49 63 20 49 63 20 49 63 20 49 63
20 49 63 20 49 62 20 48 62 20 48 62 20 48 62 20 48 62 20 48 62 20 48
62 20 48 62 20 48 61 20 48 61 20 48 61 20 48 61 20 48 61 20 48 61 20
48 61 20 48 61 20 47 61 20 47 60 20 47 60 20 47 60 20 47 60 20 47 60
20 47 60 20 47 60 20 47 60 20 47 60 20 47 59 20 47 59 20 47 59 20 47
59 20 47 59 20 47 59 20 47 59 20 46 59 20 46 59 20 46 59 20 46 58 20
46 58 20 46 58 20 46 58 20 46 58 20 46 58 20 46 58 20 46 58 20 46 58
20 46 58 20 46 57 20 46 57 20 46 57 20 46 57 20 46 57 20 45 57 20 45
57 20 45 57 20 45 57 20 45 57 20 45 56 20 45 56 20 45 56 20 45 56 20
45 56 20 45 56 43 68 64 43 68 64 43 68 64 43 68 64 43 68 64 43 68 63
43 68 63 43 68 63 43 67 63 43 67 63 43 67 63 43 67 63 43 67 63 43 67
63 43 67 63 43 67 63 43 67 63 43 67 63 44 67 62 44 67 62 44 67 62 44
67 62 44 67 62 44 67 62 44 67 62 44 67 62 44 67 62 44 67 62 44 67 62
44 67 62 44 67 62 44 67 62 44 67 61 44 67 61 44 67 61 44 67 61 44 67
61 44 67 61 44 67 61 44 67 61 44 67 61 44 67 61 44 67 61 44 67 61 44
67 61 44 67 61 44 67 60 44 67 60 44 67 60 45 67 60 45 67 60 45 67 60
45 67 60 45 67 60 45 67 60 45 67 60 45 67 60 45 67 60 45 67 60 45 67
60 45 67 60 45 67 60 45 67 59 45 67 59 45 67 59 45 67 59 45 67 59 45
67 59 45 67 59 45 67 59 45 67 59 45 67 59 45 67 59 45 67 59 45 67 59
45 67 59 45 67 59 45 67 59 45 67 58 45 67 58 45 67 58 45 67 58 45 67
58 46 67 58 46 67 58 46 67 58 46 67 58 46 67 58 46 67 58 46 67 58 46
67 58 46 66 58 46 66 58 46 66 58 46 66 58 46 66 58 46 66 57 46 66 57
46 66 57 46 66 57 46 66 57 46 66 57 46 66 57 46 66 57 46 66 57 46 66
57 46 66 57 46 66 57 46 66 57 46 66 57 46 66 57 46 66 57 46 66 57 46
66 57 46 66 56 46 66 56 46 66 56 46 66 56 46 66 56 46 66 56 46 66 56
46 66 56 46 66 56 46 66 56 46 66 56 46 66 56 46 66 56 46 66 56 46 66
56 46 66 56 46 66 56 46 66 56 46 66 56 47 66 55 47 66 55 47 66 55 47
66 55 47 66 55 47 66 55 47 66 55 47 66 55 47 66 55 47 66 55 47 66 55
47 66 55 47 66 55 47 66 55 47 66 55 47 66 55 47 66 55 47 66 55 47 66
55 47 66 55 47 66 54 47 65 54 47 65 54 47 65 54 47 65 54 47 65 54 47
65 54 47 65 54 47 65 54 47 65 54 47 65 54 47 65 54 47 65 54 47 65 54
47 65 54 47 65 54 47 65 54 47 65 54 47 65 54 47 65 54 47 65 54 47 65
53 47 65 53 47 65 53 47 65 53 47 65 53 47 65 53 47 65 53 47 65 53 47
65 53 47 65 53 47 65 53 47 65 53 47 65 53 47 65 53 47 65 53 47 65 53
47 65 53 47 65 53 47 65 53 47 64 53 47 64 53 47 64 52 47 64 52 47 64
52 47 64 52 47 64 52 47 64 52 47 64 52 47 64 52 47 64 52 47 64 52 47
64 52 47 64 52 47 64 52 47 64 52 47 64 52 47 64 52 47 64 52 47 64 52
47 64 52 47 64 52 47 64 52 47 64 52 47 64 51 47 64 51 47 64 51 46 64
51 46 64 51 46 64 51 46 63 51 46 63 51 46 63 51 46 63 51 46 63 51 46
63 51 46 63 51 46 63 51 46 63 51 46 63 51 46 63 51 46 63 51 46 63 51
46 63 51 46 63 51 46 63 51 46 63 50 46 63 50 46 63 50 46 63 50 46 63
50 46 63 50
20 55 74 20 55 74 20 55 74 20 55 74 20 55 74 20 55 74 20 55 74 20 55
73 20 55 73 20 55 73 20 54 73 20 54 73 20 54 73 20 54 73 20 54 72 20
54 72 20 54 72 20 54 72 20 54 72 20 54 72 20 54 72 20 54 71 20 54 71
20 53 71 20 53 71 20 53 71 20 53 71 20 53 71 20 53 71 20 53 70 20 53
70 20 53 70 20 53 70 20 53 70 20 53 70 20 52 70 20 52 69 20 52 69 20
52 69 20 52 69 20 52 69 20 52 69 20 52 69 20 52 68 20 52 68 20 52 68
20 52 68 20 52 68 20 52 68 20 51 68 20 51 68 20 51 67 20 51 67 20 51
67 20 51 67 20 51 67 20 51 67 20 51 67 20 51 66 20 51 66 20 51 66 20
51 66 20 51 66 20 50 66 20 50 66 20 50 66 20 50 65 20 50 65 20 50 65
20 50 65 20 50 65 20 50 65 20 50 65 20 50 65 20 50 64 20 50 64 20 50
64 20 49 64 20 49 64 20 49 64 20 49 64 20 49 64 20 49 63 20 49 63 20
49 63 20 49 63 20 49 63 20 49 63 20 49 63 20 49 63 20 49 63 20 49 62
20 48 62 20 48 62 20 48 62 20 48 62 20 48 62 20 48 62 20 48 62 20 48
62 20 48 61 20 48 61 20 48 61 20 48 61 20 48 61 20 48 61 20 48 61 20
48 61 20 47 61 20 47 60 20 47 60 20 47 60 20 47 60 20 47 60 20 47 60
20 47 60 20 47 60 20 47 60 20 47 59 20 47 59 20 47 59 20 47 59 20 47
59 20 47 59 20 47 59 20 46 59 20 46 59 20 46 59 20 46 58 20 46 58 20
46 58 20 46 58 20 46 58 20 46 58 20 46 58 20 46 58 20 46 58 20 46 58
20 46 57 20 46 57 20 46 57 20 46 57 20 46 57 20 45 57 20 45 57 20 45
57 20 45 57 20 45 57 20 45 56 20 45 56 20 45 56 20 45 56 20 45 56 20
45 56 43 68 64 43 68 64 43 67 64 43 67 64 43 67 63 43 67 63 43 67 63
43 67 63 43 67 63 43 67 63 43 67 63 43 67 63 43 67 63 43 67 63 43 67
63 43 67 63 43 67 63 43 67 63 43 67 62 43 67 62 43 67 62 43 67 62 44
67 62 44 67 62 44 67 62 44 67 62 44 67 62 44 67 62 44 67 62 44 67 62
44 67 62 44 67 61 44 67 61 44 67 61 44 67 61 44 67 61 44 67 61 44 67
61 44 67 61 44 67 61 44 67 61 44 67 61 44 67 61 44 67 61 44 67 61 44
67 61 44 67 60 44 67 60 44 67 60 44 67 60 44 67 60 44 67 60 44 67 60
45 67 60 45 67 60 45 67 60 45 67 60 45 67 60 45 67 60 45 67 60 45 67
60 45 67 60 45 67 59 45 67 59 45 67 59 45 67 59 45 67 59 45 67 59 45
67 59 45 67 59 45 67 59 45 67 59 45 67 59 45 67 59 45 67 59 45 67 59
45 67 59 45 67 59 45 67 58 45 67 58 45 67 58 45 67 58 45 67 58 45 66
58 45 66 58 45 66 58 45 66 58 45 66 58 45 66 58 46 66 58 46 66 58 46
66 58 46 66 58 46 66 58 46 66 58 46 66 58 46 66 57 46 66 57 46 66 57
46 66 57 46 66 57 46 66 57 46 66 57 46 66 57 46 66 57 46 66 57 46 66
57 46 66 57 46 66 57 46 66 57 46 66 57 46 66 57 46 66 57 46 66 57 46
66 57 46 66 56 46 66 56 46 66 56 46 66 56 46 66 56 46 66 56 46 66 56
46 66 56 46 66 56 46 66 56 46 66 56 46 66 56 46 66 56 46 66 56 46 66
56 46 66 56 46 66 56 46 66 56 46 66 56 46 66 55 46 66 55 46 66 55 46
66 55 46 66 55 46 66 55 46 66 55 46 66 55 46 66 55 46 66 55 47 66 55
47 66 55 47 66 55 47 66 55 47 66 55 47 66 55 47 65 55 47 65 55 47 65
55 47 65 55 47 65 54 47 65 54 47 65 54 47 65 54 47 65 54 47 65 54 47
65 54 47 65 54 47 65 54 47 65 54 47 65 54 47 65 54 47 65 54 47 65 54
47 65 54 47 65 54 47 65 54 47 65 54 47 65 54 47 65 54 47 65 54 47 65
53 47 65 53 47 65 53 47 65 53 47 65 53 47 65 53 47 65 53 47 65 53 47
65 53 47 65 53 47 65 53 47 65 53 47 65 53 47 65 53 47 65 53 47 65 53
47 64 53 47 64 53 47 64 53 47 64 53 47 64 53 47 64 52 47 64 52 47 64
52 47 64 52 47 64 52 47 64 52 47 64 52 47 64 52 47 64 52 47 64 52 47
64 52 47 64 52 47 64 52 47 64 52 47 64 52 47 64 52 47 64 52 46 64 52
46 64 52 46 64 52 46 64 52 46 64 52 46 64 51 46 64 51 46 64 51 46 64
51 46 63 51 46 63 51 46 63 51 46 63 51 46 63 51 46 63 51 46 63 51 46
63 51 46 63 51 46 63 51 46 63 51 46 63 51 46 63 51 46 63 51 46 63 51
46 63 51 46 63 51 46 63 51 46 63 50 46 63 50 46 63 50 46 63 50 46 63
50 46 63 50
20 55 74 20 55 74 20 55 74 20 55 74 20 55 74 20 55 73 20 55 73 20 54
73 20 54 73 20 54 73 20 54 73 20 54 73 20 54 72 20 54 72 20 54 72 20
54 72 20 54 72 20 54 72 20 54 72 20 54 71 20 53 71 20 53 71 20 53 71
20 53 71 20 53 71 20 53 71 20 53 70 20 53 70 20 53 70 20 53 70 20 53
70 20 53 70 20 53 70 20 52 69 20 52 69 20 52 69 20 52 69 20 52 69 20
52 69 20 52 69 20 52 69 20 52 68 20 52 68 20 52 68 20 52 68 20 52 68
20 52 68 20 51 68 20 51 67 20 51 67 20 51 67 20 51 67 20 51 67 20 51
67 20 51 67 20 51 67 20 51 66 20 51 66 20 51 66 20 51 66 20 50 66 20
50 66 20 50 66 20 50 66 20 50 65 20 50 65 20 50 65 20 50 65 20 50 65
20 50 65 20 50 65 20 50 65 20 50 64 20 50 64 20 50 64 20 49 64 20 49
64 20 49 64 20 49 64 20 49 64 20 49 64 20 49 63 20 49 63 20 49 63 20
49 63 20 49 63 20 49 63 20 49 63 20 49 63 20 49 62 20 48 62 20 48 62
20 48 62 20 48 62 20 48 62 20 48 62 20 48 62 20 48 62 20 48 61 20 48
61 20 48 61 20 48 61 20 48 61 20 48 61 20 48 61 20 48 61 20 47 61 20
47 60 20 47 60 20 47 60 20 47 60 20 47 60 20 47 60 20 47 60 20 47 60
20 47 60 20 47 60 20 47 59 20 47 59 20 47 59 20 47 59 20 47 59 20 47
59 20 47 59 20 46 59 20 46 59 20 46 58 20 46 58 20 46 58 20 46 58 20
46 58 20 46 58 20 46 58 20 46 58 20 46 58 20 46 58 20 46 58 20 46 57
20 46 57 20 46 57 20 46 57 20 46 57 20 45 57 20 45 57 20 45 57 20 45
57 20 45 57 20 45 56 20 45 56 20 45 56 20 45 56 20 45 56 20 45 56 20
45 56 43 67 64 43 67 64 43 67 64 43 67 63 43 67 63 43 67 63 43 67 63
43 67 63 43 67 63 43 67 63 43 67 63 43 67 63 43 67 63 43 67 63 43 67
63 43 67 63 43 67 62 43 67 62 43 67 62 43 67 62 43 67 62 43 67 62 43
67 62 43 67 62 44 67 62 44 67 62 44 67 62 44 67 62 44 67 62 44 67 62
44 67 61 44 67 61 44 67 61 44 67 61 44 67 61 44 67 61 44 67 61 44 67
61 44 67 61 44 67 61 44 67 61 44 67 61 44 67 61 44 67 61 44 67 61 44
67 60 44 67 60 44 67 60 44 67 60 44 67 60 44 67 60 44 67 60 44 67 60
44 67 60 44 67 60 44 67 60 45 67 60 45 67 60 45 67 60 45 67 60 45 67
60 45 67 59 45 67 59 45 67 59 45 67 59 45 67 59 45 67 59 45 67 59 45
67 59 45 67 59 45 67 59 45 67 59 45 67 59 45 66 59 45 66 59 45 66 59
45 66 59 45 66 59 45 66 58 45 66 58 45 66 58 45 66 58 45 66 58 45 66
58 45 66 58 45 66 58 45 66 58 45 66 58 45 66 58 45 66 58 45 66 58 45
66 58 45 66 58 46 66 58 46 66 58 46 66 57 46 66 57 46 66 57 46 66 57
46 66 57 46 66 57 46 66 57 46 66 57 46 66 57 46 66 57 46 66 57 46 66
57 46 66 57 46 66 57 46 66 57 46 66 57 46 66 57 46 66 57 46 66 57 46
66 56 46 66 56 46 66 56 46 66 56 46 66 56 46 66 56 46 66 56 46 66 56
46 66 56 46 66 56 46 66 56 46 66 56 46 66 56 46 66 56 46 66 56 46 66
56 46 66 56 46 66 56 46 66 56 46 66 55 46 66 55 46 66 55 46 66 55 46
66 55 46 66 55 46 66 55 46 66 55 46 66 55 46 66 55 46 66 55 46 65 55
46 65 55 46 65 55 46 65 55 46 65 55 46 65 55 46 65 55 46 65 55 46 65
55 46 65 55 46 65 54 46 65 54 46 65 54 46 65 54 47 65 54 47 65 54 47
65 54 47 65 54 47 65 54 47 65 54 47 65 54 47 65 54 47 65 54 47 65 54
47 65 54 47 65 54 47 65 54 47 65 54 47 65 54 47 65 54 47 65 53 47 65
53 47 65 53 47 65 53 47 65 53 47 65 53 47 65 53 47 65 53 47 65 53 47
65 53 47 65 53 47 65 53 47 65 53 47 65 53 47 64 53 47 64 53 47 64 53
47 64 53 47 64 53 47 64 53 47 64 53 47 64 53 47 64 52 47 64 52 47 64
52 47 64 52 46 64 52 46 64 52 46 64 52 46 64 52 46 64 52 46 64 52 46
64 52 46 64 52 46 64 52 46 64 52 46 64 52 46 64 52 46 64 52 46 64 52
46 64 52 46 64 52 46 64 52 46 64 52 46 64 51 46 64 51 46 63 51 46 63
51 46 63 51 46 63 51 46 63 51 46 63 51 46 63 51 46 63 51 46 63 51 46
63 51 46 63 51 46 63 51 46 63 51 46 63 51 46 63 51 46 63 51 46 63 51
46 63 51 46 63 51 46 63 51 46 63 50 46 63 50 46 63 50 46 63 50 46 63
50 46 63 50
20 55 74 20 55 74 20 55 73 20 55 73 20 54 73 20 54 73 20 54 73 20 54
73 20 54 73 20 54 72 20 54 72 20 54 72 20 54 72 20 54 72 20 54 72 20
54 72 20 54 71 20 53 71 20 53 71 20 53 71 20 53 71 20 53 71 20 53 71
20 53 71 20 53 70 20 53 70 20 53 70 20 53 70 20 53 70 20 53 70 20 53
70 20 52 69 20 52 69 20 52 69 20 52 69 20 52 69 20 52 69 20 52 69 20
52 69 20 52 68 20 52 68 20 52 68 20 52 68 20 52 68 20 51 68 20 51 68
20 51 67 20 51 67 20 51 67 20 51 67 20 51 67 20 51 67 20 51 67 20 51
67 20 51 66 20 51 66 20 51 66 20 51 66 20 50 66 20 50 66 20 50 66 20
50 66 20 50 65 20 50 65 20 50 65 20 50 65 20 50 65 20 50 65 20 50 65
20 50 65 20 50 64 20 50 64 20 50 64 20 49 64 20 49 64 20 49 64 20 49
64 20 49 64 20 49 64 20 49 63 20 49 63 20 49 63 20 49 63 20 49 63 20
49 63 20 49 63 20 49 63 20 49 63 20 49 62 20 48 62 20 48 62 20 48 62
20 48 62 20 48 62 20 48 62 20 48 62 20 48 61 20 48 61 20 48 61 20 48
61 20 48 61 20 48 61 20 48 61 20 48 61 20 48 61 20 47 61 20 47 60 20
47 60 20 47 60 20 47 60 20 47 60 20 47 60 20 47 60 20 47 60 20 47 60
20 47 59 20 47 59 20 47 59 20 47 59 20 47 59 20 47 59 20 47 59 20 46
59 20 46 59 20 46 59 20 46 58 20 46 58 20 46 58 20 46 58 20 46 58 20
46 58 20 46 58 20 46 58 20 46 58 20 46 58 20 46 57 20 46 57 20 46 57
20 46 57 20 46 57 20 46 57 20 45 57 20 45 57 20 45 57 20 45 57 20 45
57 20 45 56 20 45 56 20 45 56 20 45 56 20 45 56 20 45 56 20 45 56 43
67 64 43 67 64 43 67 64 43 67 63 43 67 63 43 67 63 43 67 63 43 67 63
43 67 63 43 67 63 43 67 63 43 67 63 43 67 63 43 67 63 43 67 63 43 67
63 43 67 62 43 67 62 43 67 62 43 67 62 43 67 62 43 67 62 43 67 62 43
67 62 43 67 62 43 67 62 43 67 62 44 67 62 44 67 62 44 67 62 44 67 61
44 67 61 44 67 61 44 67 61 44 67 61 44 67 61 44 67 61 44 67 61 44 67
61 44 67 61 44 67 61 44 67 61 44 67 61 44 67 61 44 67 61 44 67 60 44
67 60 44 67 60 44 67 60 44 67 60 44 67 60 44 67 60 44 67 60 44 67 60
44 67 60 44 67 60 44 67 60 44 67 60 44 67 60 44 67 60 45 67 60 45 67
59 45 67 59 45 67 59 45 66 59 45 66 59 45 66 59 45 66 59 45 66 59 45
66 59 45 66 59 45 66 59 45 66 59 45 66 59 45 66 59 45 66 59 45 66 59
45 66 59 45 66 58 45 66 58 45 66 58 45 66 58 45 66 58 45 66 58 45 66
58 45 66 58 45 66 58 45 66 58 45 66 58 45 66 58 45 66 58 45 66 58 45
66 58 45 66 58 45 66 58 45 66 57 45 66 57 45 66 57 45 66 57 46 66 57
46 66 57 46 66 57 46 66 57 46 66 57 46 66 57 46 66 57 46 66 57 46 66
57 46 66 57 46 66 57 46 66 57 46 66 57 46 66 57 46 66 57 46 66 56 46
66 56 46 66 56 46 66 56 46 66 56 46 66 56 46 66 56 46 66 56 46 66 56
46 66 56 46 66 56 46 66 56 46 66 56 46 66 56 46 66 56 46 66 56 46 66
56 46 66 56 46 66 56 46 66 56 46 66 55 46 66 55 46 66 55 46 66 55 46
66 55 46 65 55 46 65 55 46 65 55 46 65 55 46 65 55 46 65 55 46 65 55
46 65 55 46 65 55 46 65 55 46 65 55 46 65 55 46 65 55 46 65 55 46 65
55 46 65 54 46 65 54 46 65 54 46 65 54 46 65 54 46 65 54 46 65 54 46
65 54 46 65 54 46 65 54 46 65 54 46 65 54 46 65 54 46 65 54 46 65 54
46 65 54 46 65 54 46 65 54 46 65 54 46 65 54 46 65 54 46 65 53 46 65
53 46 65 53 46 65 53 46 65 53 46 65 53 46 65 53 46 65 53 46 65 53 46
65 53 46 64 53 46 64 53 46 64 53 46 64 53 46 64 53 46 64 53 46 64 53
46 64 53 46 64 53 46 64 53 46 64 53 46 64 53 46 64 52 46 64 52 46 64
52 46 64 52 46 64 52 46 64 52 46 64 52 46 64 52 46 64 52 46 64 52 46
64 52 46 64 52 46 64 52 46 64 52 46 64 52 46 64 52 46 64 52 46 64 52
46 64 52 46 64 52 46 64 52 46 64 52 46 63 51 46 63 51 46 63 51 46 63
51 46 63 51 46 63 51 46 63 51 46 63 51 46 63 51 46 63 51 46 63 51 46
63 51 46 63 51 46 63 51 46 63 51 46 63 51 46 63 51 46 63 51 46 63 51
46 63 51 46 63 51 46 63 51 46 63 50 46 63 50 46 63 50 46 63 50 46 63
50 46 63 50
20 55 73 20 55 73 20 54 73 20 54 73 20 54 73 20 54 73 20 54 72 20 54
72 20 54 72 20 54 72 20 54 72 20 54 72 20 54 72 20 54 72 20 54 71 20
53 71 20 53 71 20 53 71 20 53 71 20 53 71 20 53 71 20 53 70 20 53 70
20 53 70 20 53 70 20 53 70 20 53 70 20 53 70 20 52 70 20 52 69 20 52
69 20 52 69 20 52 69 20 52 69 20 52 69 20 52 69 20 52 68 20 52 68 20
52 68 20 52 68 20 52 68 20 52 68 20 51 68 20 51 68 20 51 67 20 51 67
20 51 67 20 51 67 20 51 67 20 51 67 20 51 67 20 51 67 20 51 66 20 51
66 20 51 66 20 51 66 20 50 66 20 50 66 20 50 66 20 50 66 20 50 65 20
50 65 20 50 65 20 50 65 20 50 65 20 50 65 20 50 65 20 50 65 20 50 64
20 50 64 20 50 64 20 49 64 20 49 64 20 49 64 20 49 64 20 49 64 20 49
64 20 49 63 20 49 63 20 49 63 20 49 63 20 49 63 20 49 63 20 49 63 20
49 63 20 49 63 20 49 62 20 48 62 20 48 62 20 48 62 20 48 62 20 48 62
20 48 62 20 48 62 20 48 62 20 48 61 20 48 61 20 48 61 20 48 61 20 48
61 20 48 61 20 48 61 20 48 61 20 47 61 20 47 60 20 47 60 20 47 60 20
47 60 20 47 60 20 47 60 20 47 60 20 47 60 20 47 60 20 47 60 20 47 59
20 47 59 20 47 59 20 47 59 20 47 59 20 47 59 20 47 59 20 46 59 20 46
59 20 46 59 20 46 58 20 46 58 20 46 58 20 46 58 20 46 58 20 46 58 20
46 58 20 46 58 20 46 58 20 46 58 20 46 57 20 46 57 20 46 57 20 46 57
20 46 57 20 46 57 20 45 57 20 45 57 20 45 57 20 45 57 20 45 57 20 45
56 20 45 56 20 45 56 20 45 56 20 45 56 20 45 56 20 45 56 43 67 64 43
67 64 43 67 63 43 67 63 43 67 63 43 67 63 43 67 63 43 67 63 43 67 63
43 67 63 43 67 63 43 67 63 43 67 63 43 67 63 43 67 63 43 67 63 43 67
62 43 67 62 43 67 62 43 67 62 43 67 62 43 67 62 43 67 62 43 67 62 43
67 62 43 67 62 43 67 62 43 67 62 43 67 62 43 67 62 44 67 61 44 67 61
44 67 61 44 67 61 44 67 61 44 67 61 44 67 61 44 67 61 44 67 61 44 67
61 44 67 61 44 67 61 44 67 61 44 67 61 44 67 61 44 67 60 44 67 60 44
67 60 44 67 60 44 67 60 44 67 60 44 67 60 44 67 60 44 67 60 44 67 60
44 66 60 44 66 60 44 66 60 44 66 60 44 66 60 44 66 60 44 66 59 44 66
59 44 66 59 45 66 59 45 66 59 45 66 59 45 66 59 45 66 59 45 66 59 45
66 59 45 66 59 45 66 59 45 66 59 45 66 59 45 66 59 45 66 59 45 66 59
45 66 58 45 66 58 45 66 58 45 66 58 45 66 58 45 66 58 45 66 58 45 66
58 45 66 58 45 66 58 45 66 58 45 66 58 45 66 58 45 66 58 45 66 58 45
66 58 45 66 58 45 66 57 45 66 57 45 66 57 45 66 57 45 66 57 45 66 57
45 66 57 45 66 57 45 66 57 45 66 57 46 66 57 46 66 57 46 66 57 46 66
57 46 66 57 46 66 57 46 66 57 46 66 57 46 66 57 46 66 56 46 66 56 46
66 56 46 66 56 46 66 56 46 66 56 46 66 56 46 66 56 46 66 56 46 66 56
46 66 56 46 66 56 46 66 56 46 66 56 46 66 56 46 66 56 46 66 56 46 66
56 46 66 56 46 66 56 46 65 55 46 65 55 46 65 55 46 65 55 46 65 55 46
65 55 46 65 55 46 65 55 46 65 55 46 65 55 46 65 55 46 65 55 46 65 55
46 65 55 46 65 55 46 65 55 46 65 55 46 65 55 46 65 55 46 65 55 46 65
55 46 65 54 46 65 54 46 65 54 46 65 54 46 65 54 46 65 54 46 65 54 46
65 54 46 65 54 46 65 54 46 65 54 46 65 54 46 65 54 46 65 54 46 65 54
46 65 54 46 65 54 46 65 54 46 65 54 46 65 54 46 65 54 46 65 53 46 65
53 46 65 53 46 65 53 46 65 53 46 65 53 46 65 53 46 64 53 46 64 53 46
64 53 46 64 53 46 64 53 46 64 53 46 64 53 46 64 53 46 64 53 46 64 53
46 64 53 46 64 53 46 64 53 46 64 53 46 64 53 46 64 52 46 64 52 46 64
52 46 64 52 46 64 52 46 64 52 46 64 52 46 64 52 46 64 52 46 64 52 46
64 52 46 64 52 46 64 52 46 64 52 46 64 52 46 64 52 46 64 52 46 64 52
46 64 52 46 64 52 46 63 52 46 63 52 46 63 51 46 63 51 46 63 51 46 63
51 46 63 51 46 63 51 46 63 51 46 63 51 46 63 51 46 63 51 46 63 51 46
63 51 46 63 51 46 63 51 46 63 51 46 63 51 46 63 51 46 63 51 46 63 51
46 63 51 46 63 51 46 63 51 46 63 51 46 63 50 46 63 50 46 63 50 46 62
50 46 62 50
20 54 73 20 54 73 20 54 73 20 54 72 20 54 72 20 54 72 20 54 72 20 54
72 20 54 72 20 54 72 20 54 72 20 54 71 20 53 71 20 53 71 20 53 71 20
53 71 20 53 71 20 53 71 20 53 70 20 53 70 20 53 70 20 53 70 20 53 70
20 53 70 20 53 70 20 53 70 20 52 69 20 52 69 20 52 69 20 52 69 20 52
69 20 52 69 20 52 69 20 52 69 20 52 68 20 52 68 20 52 68 20 52 68 20
52 68 20 52 68 20 51 68 20 51 68 20 51 67 20 51 67 20 51 67 20 51 67
20 51 67 20 51 67 20 51 67 20 51 67 20 51 66 20 51 66 20 51 66 20 51
66 20 50 66 20 50 66 20 50 66 20 50 66 20 50 65 20 50 65 20 50 65 20
50 65 20 50 65 20 50 65 20 50 65 20 50 65 20 50 65 20 50 64 20 50 64
20 49 64 20 49 64 20 49 64 20 49 64 20 49 64 20 49 64 20 49 63 20 49
63 20 49 63 20 49 63 20 49 63 20 49 63 20 49 63 20 49 63 20 49 63 20
49 62 20 48 62 20 48 62 20 48 62 20 48 62 20 48 62 20 48 62 20 48 62
20 48 62 20 48 61 20 48 61 20 48 61 20 48 61 20 48 61 20 48 61 20 48
61 20 48 61 20 48 61 20 47 61 20 47 60 20 47 60 20 47 60 20 47 60 20
47 60 20 47 60 20 47 60 20 47 60 20 47 60 20 47 59 20 47 59 20 47 59
20 47 59 20 47 59 20 47 59 20 47 59 20 47 59 20 46 59 20 46 59 20 46
58 20 46 58 20 46 58 20 46 58 20 46 58 20 46 58 20 46 58 20 46 58 20
46 58 20 46 58 20 46 58 20 46 57 20 46 57 20 46 57 20 46 57 20 46 57
20 45 57 20 45 57 20 45 57 20 45 57 20 45 57 20 45 57 20 45 56 20 45
56 20 45 56 20 45 56 20 45 56 20 45 56 20 45 56 42 67 64 42 67 64 43
67 63 43 67 63 43 67 63 43 67 63 43 67 63 43 67 63 43 67 63 43 67 63
43 67 63 43 67 63 43 67 63 43 67 63 43 67 63 43 67 62 43 67 62 43 67
62 43 67 62 43 67 62 43 67 62 43 67 62 43 67 62 43 67 62 43 67 62 43
67 62 43 67 62 43 67 62 43 67 62 43 67 62 43 67 61 43 67 61 43 67 61
43 67 61 44 67 61 44 67 61 44 67 61 44 67 61 44 67 61 44 67 61 44 67
61 44 67 61 44 67 61 44 67 61 44 67 61 44 67 60 44 67 60 44 66 60 44
66 60 44 66 60 44 66 60 44 66 60 44 66 60 44 66 60 44 66 60 44 66 60
44 66 60 44 66 60 44 66 60 44 66 60 44 66 60 44 66 59 44 66 59 44 66
59 44 66 59 44 66 59 44 66 59 44 66 59 44 66 59 45 66 59 45 66 59 45
66 59 45 66 59 45 66 59 45 66 59 45 66 59 45 66 59 45 66 59 45 66 58
45 66 58 45 66 58 45 66 58 45 66 58 45 66 58 45 66 58 45 66 58 45 66
58 45 66 58 45 66 58 45 66 58 45 66 58 45 66 58 45 66 58 45 66 58 45
66 58 45 66 58 45 66 57 45 66 57 45 66 57 45 66 57 45 66 57 45 66 57
45 66 57 45 66 57 45 66 57 45 66 57 45 66 57 45 66 57 45 66 57 45 66
57 45 66 57 45 66 57 46 66 57 46 66 57 46 66 57 46 66 56 46 66 56 46
66 56 46 66 56 46 66 56 46 66 56 46 66 56 46 66 56 46 66 56 46 66 56
46 66 56 46 66 56 46 66 56 46 65 56 46 65 56 46 65 56 46 65 56 46 65
56 46 65 56 46 65 55 46 65 55 46 65 55 46 65 55 46 65 55 46 65 55 46
65 55 46 65 55 46 65 55 46 65 55 46 65 55 46 65 55 46 65 55 46 65 55
46 65 55 46 65 55 46 65 55 46 65 55 46 65 55 46 65 55 46 65 55 46 65
54 46 65 54 46 65 54 46 65 54 46 65 54 46 65 54 46 65 54 46 65 54 46
65 54 46 65 54 46 65 54 46 65 54 46 65 54 46 65 54 46 65 54 46 65 54
46 65 54 46 65 54 46 65 54 46 65 54 46 65 54 46 65 53 46 65 53 46 65
53 46 65 53 46 64 53 46 64 53 46 64 53 46 64 53 46 64 53 46 64 53 46
64 53 46 64 53 46 64 53 46 64 53 46 64 53 46 64 53 46 64 53 46 64 53
46 64 53 46 64 53 46 64 53 46 64 53 46 64 52 46 64 52 46 64 52 46 64
52 46 64 52 46 64 52 46 64 52 46 64 52 46 64 52 46 64 52 46 64 52 46
64 52 46 64 52 46 64 52 46 64 52 46 64 52 46 64 52 46 64 52 46 63 52
46 63 52 46 63 52 46 63 52 46 63 52 46 63 51 46 63 51 46 63 51 46 63
51 46 63 51 46 63 51 46 63 51 46 63 51 46 63 51 46 63 51 46 63 51 46
63 51 46 63 51 46 63 51 46 63 51 46 63 51 46 63 51 46 63 51 46 63 51
46 63 51 46 63 51 46 63 51 46 63 51 46 63 50 46 63 50 46 62 50 46 62
50 46 62 50
20 54 73 20 54 72 20 54 72 20 54 72 20 54 72 20 54 72 20 54 72 20 54
72 20 54 71 20 53 71 20 53 71 20 53 71 20 53 71 20 53 71 20 53 71 20
53 71 20 53 70 20 53 70 20 53 70 20 53 70 20 53 70 20 53 70 20 53 70
20 52 70 20 52 69 20 52 69 20 52 69 20 52 69 20 52 69 20 52 69 20 52
69 20 52 69 20 52 68 20 52 68 20 52 68 20 52 68 20 52 68 20 52 68 20
51 68 20 51 68 20 51 67 20 51 67 20 51 67 20 51 67 20 51 67 20 51 67
20 51 67 20 51 67 20 51 66 20 51 66 20 51 66 20 51 66 20 50 66 20 50
66 20 50 66 20 50 66 20 50 65 20 50 65 20 50 65 20 50 65 20 50 65 20
50 65 20 50 65 20 50 65 20 50 65 20 50 64 20 50 64 20 49 64 20 49 64
20 49 64 20 49 64 20 49 64 20 49 64 20 49 63 20 49 63 20 49 63 20 49
63 20 49 63 20 49 63 20 49 63 20 49 63 20 49 63 20 49 62 20 48 62 20
48 62 20 48 62 20 48 62 20 48 62 20 48 62 20 48 62 20 48 62 20 48 62
20 48 61 20 48 61 20 48 61 20 48 61 20 48 61 20 48 61 20 48 61 20 48
61 20 47 61 20 47 60 20 47 60 20 47 60 20 47 60 20 47 60 20 47 60 20
47 60 20 47 60 20 47 60 20 47 60 20 47 59 20 47 59 20 47 59 20 47 59
20 47 59 20 47 59 20 47 59 20 46 59 20 46 59 20 46 59 20 46 58 20 46
58 20 46 58 20 46 58 20 46 58 20 46 58 20 46 58 20 46 58 20 46 58 20
46 58 20 46 58 20 46 57 20 46 57 20 46 57 20 46 57 20 46 57 20 45 57
20 45 57 20 45 57 20 45 57 20 45 57 20 45 57 20 45 56 20 45 56 20 45
56 20 45 56 20 45 56 20 45 56 20 45 56 20 45 56 42 67 63 42 67 63 42
67 63 42 67 63 43 67 63 43 67 63 43 67 63 43 67 63 43 67 63 43 67 63
43 67 63 43 67 63 43 67 63 43 67 63 43 67 62 43 67 62 43 67 62 43 67
62 43 67 62 43 67 62 43 67 62 43 67 62 43 67 62 43 67 62 43 67 62 43
67 62 43 67 62 43 67 62 43 67 61 43 67 61 43 67 61 43 67 61 43 67 61
43 67 61 43 67 61 43 67 61 44 67 61 44 67 61 44 67 61 44 66 61 44 66
61 44 66 61 44 66 61 44 66 60 44 66 60 44 66 60 44 66 60 44 66 60 44
66 60 44 66 60 44 66 60 44 66 60 44 66 60 44 66 60 44 66 60 44 66 60
44 66 60 44 66 60 44 66 60 44 66 60 44 66 59 44 66 59 44 66 59 44 66
59 44 66 59 44 66 59 44 66 59 44 66 59 44 66 59 44 66 59 44 66 59 44
66 59 45 66 59 45 66 59 45 66 59 45 66 59 45 66 59 45 66 58 45 66 58
45 66 58 45 66 58 45 66 58 45 66 58 45 66 58 45 66 58 45 66 58 45 66
58 45 66 58 45 66 58 45 66 58 45 66 58 45 66 58 45 66 58 45 66 58 45
66 58 45 66 57 45 66 57 45 66 57 45 66 57 45 66 57 45 66 57 45 66 57
45 66 57 45 66 57 45 66 57 45 66 57 45 66 57 45 66 57 45 66 57 45 66
57 45 66 57 45 66 57 45 66 57 45 66 57 45 66 56 45 66 56 45 66 56 45
66 56 46 66 56 46 66 56 46 66 56 46 65 56 46 65 56 46 65 56 46 65 56
46 65 56 46 65 56 46 65 56 46 65 56 46 65 56 46 65 56 46 65 56 46 65
56 46 65 56 46 65 55 46 65 55 46 65 55 46 65 55 46 65 55 46 65 55 46
65 55 46 65 55 46 65 55 46 65 55 46 65 55 46 65 55 46 65 55 46 65 55
46 65 55 46 65 55 46 65 55 46 65 55 46 65 55 46 65 55 46 65 55 46 65
54 46 65 54 46 65 54 46 65 54 46 65 54 46 65 54 46 65 54 46 65 54 46
65 54 46 65 54 46 65 54 46 65 54 46 65 54 46 65 54 46 65 54 46 65 54
46 65 54 46 65 54 46 65 54 46 65 54 46 65 54 46 64 53 46 64 53 46 64
53 46 64 53 46 64 53 46 64 53 46 64 53 46 64 53 46 64 53 46 64 53 46
64 53 46 64 53 46 64 53 46 64 53 46 64 53 46 64 53 46 64 53 46 64 53
46 64 53 46 64 53 46 64 53 46 64 53 46 64 52 46 64 52 46 64 52 46 64
52 46 64 52 46 64 52 46 64 52 46 64 52 46 64 52 46 64 52 46 64 52 46
64 52 46 64 52 46 64 52 46 64 52 46 64 52 46 63 52 46 63 52 46 63 52
46 63 52 46 63 52 46 63 52 46 63 52 46 63 51 46 63 51 46 63 51 46 63
51 46 63 51 46 63 51 46 63 51 46 63 51 46 63 51 46 63 51 46 63 51 46
63 51 46 63 51 46 63 51 46 63 51 46 63 51 46 63 51 46 63 51 46 63 51
46 63 51 46 63 51 46 63 51 46 63 51 46 62 50 46 62 50 46 62 50 46 62
50 46 62 50
20 54 72 20 54 72 20 54 72 20 54 72 20 54 72 20 54 71 20 54 71 20 53
71 20 53 71 20 53 71 20 53 71 20 53 71 20 53 71 20 53 70 20 53 70 20
53 70 20 53 70 20 53 70 20 53 70 20 53 70 20 53 70 20 52 69 20 52 69
20 52 69 20 52 69 20 52 69 20 52 69 20 52 69 20 52 69 20 52 68 20 52
68 20 52 68 20 52 68 20 52 68 20 52 68 20 51 68 20 51 68 20 51 67 20
51 67 20 51 67 20 51 67 20 51 67 20 51 67 20 51 67 20 51 67 20 51 67
20 51 66 20 51 66 20 51 66 20 51 66 20 50 66 20 50 66 20 50 66 20 50
66 20 50 65 20 50 65 20 50 65 20 50 65 20 50 65 20 50 65 20 50 65 20
50 65 20 50 65 20 50 64 20 50 64 20 50 64 20 49 64 20 49 64 20 49 64
20 49 64 20 49 64 20 49 63 20 49 63 20 49 63 20 49 63 20 49 63 20 49
63 20 49 63 20 49 63 20 49 63 20 49 63 20 49 62 20 48 62 20 48 62 20
48 62 20 48 62 20 48 62 20 48 62 20 48 62 20 48 62 20 48 61 20 48 61
20 48 61 20 48 61 20 48 61 20 48 61 20 48 61 20 48 61 20 48 61 20 47
60 20 47 60 20 47 60 20 47 60 20 47 60 20 47 60 20 47 60 20 47 60 20
47 60 20 47 60 20 47 59 20 47 59 20 47 59 20 47 59 20 47 59 20 47 59
20 47 59 20 47 59 20 46 59 20 46 59 20 46 59 20 46 58 20 46 58 20 46
58 20 46 58 20 46 58 20 46 58 20 46 58 20 46 58 20 46 58 20 46 58 20
46 57 20 46 57 20 46 57 20 46 57 20 46 57 20 46 57 20 45 57 20 45 57
20 45 57 20 45 57 20 45 57 20 45 56 20 45 56 20 45 56 20 45 56 20 45
56 20 45 56 20 45 56 20 45 56 20 45 56 42 67 63 42 67 63 42 67 63 42
67 63 42 67 63 42 67 63 42 67 63 43 67 63 43 67 63 43 67 63 43 67 63
43 67 63 43 67 63 43 67 62 43 67 62 43 67 62 43 67 62 43 67 62 43 67
62 43 67 62 43 67 62 43 67 62 43 67 62 43 67 62 43 67 62 43 67 62 43
67 62 43 67 62 43 67 61 43 67 61 43 67 61 43 67 61 43 66 61 43 66 61
43 66 61 43 66 61 43 66 61 43 66 61 43 66 61 43 66 61 44 66 61 44 66
61 44 66 61 44 66 60 44 66 60 44 66 60 44 66 60 44 66 60 44 66 60 44
66 60 44 66 60 44 66 60 44 66 60 44 66 60 44 66 60 44 66 60 44 66 60
44 66 60 44 66 60 44 66 59 44 66 59 44 66 59 44 66 59 44 66 59 44 66
59 44 66 59 44 66 59 44 66 59 44 66 59 44 66 59 44 66 59 44 66 59 44
66 59 44 66 59 44 66 59 44 66 59 44 66 59 45 66 58 45 66 58 45 66 58
45 66 58 45 66 58 45 66 58 45 66 58 45 66 58 45 66 58 45 66 58 45 66
58 45 66 58 45 66 58 45 66 58 45 66 58 45 66 58 45 66 58 45 66 58 45
66 57 45 66 57 45 66 57 45 66 57 45 66 57 45 66 57 45 66 57 45 66 57
45 66 57 45 66 57 45 66 57 45 66 57 45 66 57 45 66 57 45 66 57 45 66
57 45 66 57 45 66 57 45 66 57 45 66 56 45 65 56 45 65 56 45 65 56 45
65 56 45 65 56 45 65 56 45 65 56 45 65 56 45 65 56 45 65 56 46 65 56
46 65 56 46 65 56 46 65 56 46 65 56 46 65 56 46 65 56 46 65 56 46 65
56 46 65 55 46 65 55 46 65 55 46 65 55 46 65 55 46 65 55 46 65 55 46
65 55 46 65 55 46 65 55 46 65 55 46 65 55 46 65 55 46 65 55 46 65 55
46 65 55 46 65 55 46 65 55 46 65 55 46 65 55 46 65 55 46 65 54 46 65
54 46 65 54 46 65 54 46 65 54 46 65 54 46 65 54 46 65 54 46 65 54 46
65 54 46 65 54 46 65 54 46 65 54 46 65 54 46 65 54 46 65 54 46 65 54
46 65 54 46 64 54 46 64 54 46 64 54 46 64 54 46 64 53 46 64 53 46 64
53 46 64 53 46 64 53 46 64 53 46 64 53 46 64 53 46 64 53 46 64 53 46
64 53 46 64 53 46 64 53 46 64 53 46 64 53 46 64 53 46 64 53 46 64 53
46 64 53 46 64 53 46 64 53 46 64 53 46 64 52 46 64 52 46 64 52 46 64
52 46 64 52 46 64 52 46 64 52 46 64 52 46 64 52 46 64 52 46 64 52 46
64 52 46 64 52 46 63 52 46 63 52 46 63 52 46 63 52 46 63 52 46 63 52
46 63 52 46 63 52 46 63 52 46 63 52 46 63 51 46 63 51 46 63 51 46 63
51 46 63 51 46 63 51 46 63 51 46 63 51 46 63 51 46 63 51 46 63 51 46
63 51 46 63 51 46 63 51 46 63 51 46 63 51 46 63 51 46 63 51 46 63 51
46 63 51 46 63 51 46 62 51 46 62 51 46 62 50 46 62 50 46 62 50 46 62
50 46 62 50
20 54 72 20 54 72 20 54 72 20 54 71 20 53 71 20 53 71 20 53 71 20 53
71 20 53 71 20 53 71 20 53 71 20 53 70 20 53 70 20 53 70 20 53 70 20
53 70 20 53 70 20 53 70 20 52 70 20 52 69 20 52 69 20 52 69 20 52 69
20 52 69 20 52 69 20 52 69 20 52 69 20 52 68 20 52 68 20 52 68 20 52
68 20 52 68 20 52 68 20 51 68 20 51 68 20 51 67 20 51 67 20 51 67 20
51 67 20 51 67 20 51 67 20 51 67 20 51 67 20 51 66 20 51 66 20 51 66
20 51 66 20 51 66 20 50 66 20 50 66 20 50 66 20 50 66 20 50 65 20 50
65 20 50 65 20 50 65 20 50 65 20 50 65 20 50 65 20 50 65 20 50 65 20
50 64 20 50 64 20 50 64 20 49 64 20 49 64 20 49 64 20 49 64 20 49 64
20 49 64 20 49 63 20 49 63 20 49 63 20 49 63 20 49 63 20 49 63 20 49
63 20 49 63 20 49 63 20 49 62 20 48 62 20 48 62 20 48 62 20 48 62 20
48 62 20 48 62 20 48 62 20 48 62 20 48 61 20 48 61 20 48 61 20 48 61
20 48 61 20 48 61 20 48 61 20 48 61 20 48 61 20 47 61 20 47 60 20 47
60 20 47 60 20 47 60 20 47 60 20 47 60 20 47 60 20 47 60 20 47 60 20
47 60 20 47 59 20 47 59 20 47 59 20 47 59 20 47 59 20 47 59 20 47 59
20 46 59 20 46 59 20 46 59 20 46 58 20 46 58 20 46 58 20 46 58 20 46
58 20 46 58 20 46 58 20 46 58 20 46 58 20 46 58 20 46 58 20 46 57 20
46 57 20 46 57 20 46 57 20 46 57 20 46 57 20 45 57 20 45 57 20 45 57
20 45 57 20 45 57 20 45 56 20 45 56 20 45 56 20 45 56 20 45 56 20 45
56 20 45 56 20 45 56 20 45 56 42 67 63 42 67 63 42 67 63 42 67 63 42
67 63 42 67 63 42 67 63 42 67 63 42 67 63 42 67 63 43 67 63 43 67 63
43 67 63 43 67 62 43 67 62 43 67 62 43 67 62 43 67 62 43 67 62 43 67
62 43 67 62 43 67 62 43 67 62 43 67 62 43 67 62 43 66 62 43 66 62 43
66 62 43 66 61 43 66 61 43 66 61 43 66 61 43 66 61 43 66 61 43 66 61
43 66 61 43 66 61 43 66 61 43 66 61 43 66 61 43 66 61 43 66 61 43 66
61 44 66 60 44 66 60 44 66 60 44 66 60 44 66 60 44 66 60 44 66 60 44
66 60 44 66 60 44 66 60 44 66 60 44 66 60 44 66 60 44 66 60 44 66 60
44 66 60 44 66 59 44 66 59 44 66 59 44 66 59 44 66 59 44 66 59 44 66
59 44 66 59 44 66 59 44 66 59 44 66 59 44 66 59 44 66 59 44 66 59 44
66 59 44 66 59 44 66 59 44 66 59 44 66 58 44 66 58 44 66 58 44 66 58
45 66 58 45 66 58 45 66 58 45 66 58 45 66 58 45 66 58 45 66 58 45 66
58 45 66 58 45 66 58 45 66 58 45 66 58 45 66 58 45 66 58 45 66 57 45
66 57 45 66 57 45 66 57 45 66 57 45 66 57 45 66 57 45 66 57 45 66 57
45 66 57 45 66 57 45 66 57 45 66 57 45 65 57 45 65 57 45 65 57 45 65
57 45 65 57 45 65 57 45 65 56 45 65 56 45 65 56 45 65 56 45 65 56 45
65 56 45 65 56 45 65 56 45 65 56 45 65 56 45 65 56 45 65 56 45 65 56
45 65 56 45 65 56 45 65 56 45 65 56 45 65 56 45 65 56 46 65 56 46 65
55 46 65 55 46 65 55 46 65 55 46 65 55 46 65 55 46 65 55 46 65 55 46
65 55 46 65 55 46 65 55 46 65 55 46 65 55 46 65 55 46 65 55 46 65 55
46 65 55 46 65 55 46 65 55 46 65 55 46 65 55 46 65 55 46 65 54 46 65
54 46 65 54 46 65 54 46 65 54 46 65 54 46 65 54 46 65 54 46 65 54 46
65 54 46 65 54 46 65 54 46 65 54 46 64 54 46 64 54 46 64 54 46 64 54
46 64 54 46 64 54 46 64 54 46 64 54 46 64 53 46 64 53 46 64 53 46 64
53 46 64 53 46 64 53 46 64 53 46 64 53 46 64 53 46 64 53 46 64 53 46
64 53 46 64 53 46 64 53 46 64 53 46 64 53 46 64 53 46 64 53 46 64 53
46 64 53 46 64 53 46 64 53 46 64 53 46 64 52 46 64 52 46 64 52 46 64
52 46 64 52 46 64 52 46 64 52 46 64 52 46 64 52 46 64 52 46 63 52 46
63 52 46 63 52 46 63 52 46 63 52 46 63 52 46 63 52 46 63 52 46 63 52
46 63 52 46 63 52 46 63 52 46 63 52 46 63 51 46 63 51 46 63 51 46 63
51 46 63 51 46 63 51 46 63 51 46 63 51 46 63 51 46 63 51 46 63 51 46
63 51 46 63 51 46 63 51 46 63 51 46 63 51 46 63 51 46 63 51 46 63 51
46 63 51 46 62 51 46 62 51 46 62 51 46 62 51 45 62 50 45 62 50 45 62
50 45 62 50
20 54 71 20 53 71 20 53 71 20 53 71 20 53 71 20 53 71 20 53 71 20 53
71 20 53 70 20 53 70 20 53 70 20 53 70 20 53 70 20 53 70 20 53 70 20
53 70 20 52 69 20 52 69 20 52 69 20 52 69 20 52 69 20 52 69 20 52 69
20 52 69 20 52 68 20 52 68 20 52 68 20 52 68 20 52 68 20 52 68 20 51
68 20 51 68 20 51 68 20 51 67 20 51 67 20 51 67 20 51 67 20 51 67 20
51 67 20 51 67 20 51 67 20 51 66 20 51 66 20 51 66 20 51 66 20 51 66
20 50 66 20 50 66 20 50 66 20 50 66 20 50 65 20 50 65 20 50 65 20 50
65 20 50 65 20 50 65 20 50 65 20 50 65 20 50 65 20 50 64 20 50 64 20
50 64 20 49 64 20 49 64 20 49 64 20 49 64 20 49 64 20 49 64 20 49 63
20 49 63 20 49 63 20 49 63 20 49 63 20 49 63 20 49 63 20 49 63 20 49
63 20 49 62 20 48 62 20 48 62 20 48 62 20 48 62 20 48 62 20 48 62 20
48 62 20 48 62 20 48 61 20 48 61 20 48 61 20 48 61 20 48 61 20 48 61
20 48 61 20 48 61 20 48 61 20 48 61 20 47 60 20 47 60 20 47 60 20 47
60 20 47 60 20 47 60 20 47 60 20 47 60 20 47 60 20 47 60 20 47 59 20
47 59 20 47 59 20 47 59 20 47 59 20 47 59 20 47 59 20 47 59 20 46 59
20 46 59 20 46 59 20 46 58 20 46 58 20 46 58 20 46 58 20 46 58 20 46
58 20 46 58 20 46 58 20 46 58 20 46 58 20 46 58 20 46 57 20 46 57 20
46 57 20 46 57 20 46 57 20 46 57 20 45 57 20 45 57 20 45 57 20 45 57
20 45 57 20 45 56 20 45 56 20 45 56 20 45 56 20 45 56 20 45 56 20 45
56 20 45 56 20 45 56 42 67 63 42 67 63 42 67 63 42 67 63 42 67 63 42
67 63 42 67 63 42 67 63 42 67 63 42 67 63 42 67 63 42 67 63 43 67 63
43 67 62 43 67 62 43 67 62 43 67 62 43 67 62 43 67 62 43 66 62 43 66
62 43 66 62 43 66 62 43 66 62 43 66 62 43 66 62 43 66 62 43 66 61 43
66 61 43 66 61 43 66 61 43 66 61 43 66 61 43 66 61 43 66 61 43 66 61
43 66 61 43 66 61 43 66 61 43 66 61 43 66 61 43 66 61 43 66 61 43 66
60 43 66 60 43 66 60 43 66 60 44 66 60 44 66 60 44 66 60 44 66 60 44
66 60 44 66 60 44 66 60 44 66 60 44 66 60 44 66 60 44 66 60 44 66 60
44 66 59 44 66 59 44 66 59 44 66 59 44 66 59 44 66 59 44 66 59 44 66
59 44 66 59 44 66 59 44 66 59 44 66 59 44 66 59 44 66 59 44 66 59 44
66 59 44 66 59 44 66 59 44 66 58 44 66 58 44 66 58 44 66 58 44 66 58
44 66 58 44 66 58 44 66 58 44 66 58 45 66 58 45 66 58 45 66 58 45 66
58 45 66 58 45 66 58 45 66 58 45 66 58 45 66 58 45 66 57 45 66 57 45
66 57 45 66 57 45 66 57 45 66 57 45 65 57 45 65 57 45 65 57 45 65 57
45 65 57 45 65 57 45 65 57 45 65 57 45 65 57 45 65 57 45 65 57 45 65
57 45 65 57 45 65 56 45 65 56 45 65 56 45 65 56 45 65 56 45 65 56 45
65 56 45 65 56 45 65 56 45 65 56 45 65 56 45 65 56 45 65 56 45 65 56
45 65 56 45 65 56 45 65 56 45 65 56 45 65 56 45 65 56 45 65 56 45 65
55 45 65 55 45 65 55 45 65 55 45 65 55 45 65 55 45 65 55 46 65 55 46
65 55 46 65 55 46 65 55 46 65 55 46 65 55 46 65 55 46 65 55 46 65 55
46 65 55 46 65 55 46 65 55 46 65 55 46 65 55 46 65 54 46 65 54 46 65
54 46 65 54 46 65 54 46 65 54 46 65 54 46 65 54 46 65 54 46 64 54 46
64 54 46 64 54 46 64 54 46 64 54 46 64 54 46 64 54 46 64 54 46 64 54
46 64 54 46 64 54 46 64 54 46 64 54 46 64 53 46 64 53 46 64 53 46 64
53 46 64 53 46 64 53 46 64 53 46 64 53 46 64 53 46 64 53 46 64 53 46
64 53 46 64 53 46 64 53 46 64 53 46 64 53 46 64 53 46 64 53 46 64 53
46 64 53 46 64 53 46 64 53 46 64 53 46 64 52 46 64 52 46 64 52 46 64
52 46 64 52 46 64 52 46 64 52 46 63 52 46 63 52 46 63 52 46 63 52 46
63 52 46 63 52 46 63 52 46 63 52 46 63 52 46 63 52 46 63 52 46 63 52
46 63 52 46 63 52 46 63 52 46 63 52 46 63 51 46 63 51 46 63 51 46 63
51 46 63 51 46 63 51 46 63 51 46 63 51 46 63 51 46 63 51 46 63 51 46
63 51 46 63 51 46 63 51 46 63 51 46 63 51 46 63 51 46 63 51 45 62 51
45 62 51 45 62 51 45 62 51 45 62 51 45 62 51 45 62 50 45 62 50 45 62
50 45 62 50
20 53 71 20 53 71 20 53 71 20 53 71 20 53 71 20 53 70 20 53 70 20 53
70 20 53 70 20 53 70 20 53 70 20 53 70 20 53 70 20 52 69 20 52 69 20
52 69 20 52 69 20 52 69 20 52 69 20 52 69 20 52 69 20 52 69 20 52 68
20 52 68 20 52 68 20 52 68 20 52 68 20 52 68 20 51 68 20 51 68 20 51
67 20 51 67 20 51 67 20 51 67 20 51 67 20 51 67 20 51 67 20 51 67 20
51 67 20 51 66 20 51 66 20 51 66 20 51 66 20 51 66 20 50 66 20 50 66
20 50 66 20 50 66 20 50 65 20 50 65 20 50 65 20 50 65 20 50 65 20 50
65 20 50 65 20 50 65 20 50 65 20 50 64 20 50 64 20 50 64 20 49 64 20
49 64 20 49 64 20 49 64 20 49 64 20 49 64 20 49 63 20 49 63 20 49 63
20 49 63 20 49 63 20 49 63 20 49 63 20 49 63 20 49 63 20 49 62 20 48
62 20 48 62 20 48 62 20 48 62 20 48 62 20 48 62 20 48 62 20 48 62 20
48 62 20 48 61 20 48 61 20 48 61 20 48 61 20 48 61 20 48 61 20 48 61
20 48 61 20 48 61 20 47 61 20 47 60 20 47 60 20 47 60 20 47 60 20 47
60 20 47 60 20 47 60 20 47 60 20 47 60 20 47 60 20 47 59 20 47 59 20
47 59 20 47 59 20 47 59 20 47 59 20 47 59 20 47 59 20 46 59 20 46 59
20 46 59 20 46 58 20 46 58 20 46 58 20 46 58 20 46 58 20 46 58 20 46
58 20 46 58 20 46 58 20 46 58 20 46 58 20 46 57 20 46 57 20 46 57 20
46 57 20 46 57 20 45 57 20 45 57 20 45 57 20 45 57 20 45 57 20 45 57
20 45 56 20 45 56 20 45 56 20 45 56 20 45 56 20 45 56 20 45 56 20 45
56 20 45 56 20 45 56 42 67 63 42 67 63 42 67 63 42 67 63 42 67 63 42
67 63 42 67 63 42 67 63 42 67 63 42 67 63 42 67 63 42 67 62 42 66 62
42 66 62 43 66 62 43 66 62 43 66 62 43 66 62 43 66 62 43 66 62 43 66
62 43 66 62 43 66 62 43 66 62 43 66 62 43 66 62 43 66 61 43 66 61 43
66 61 43 66 61 43 66 61 43 66 61 43 66 61 43 66 61 43 66 61 43 66 61
43 66 61 43 66 61 43 66 61 43 66 61 43 66 61 43 66 61 43 66 60 43 66
60 43 66 60 43 66 60 43 66 60 43 66 60 43 66 60 43 66 60 44 66 60 44
66 60 44 66 60 44 66 60 44 66 60 44 66 60 44 66 60 44 66 60 44 66 59
44 66 59 44 66 59 44 66 59 44 66 59 44 66 59 44 66 59 44 66 59 44 66
59 44 66 59 44 66 59 44 66 59 44 66 59 44 66 59 44 66 59 44 66 59 44
66 59 44 66 59 44 66 58 44 66 58 44 66 58 44 66 58 44 66 58 44 66 58
44 66 58 44 66 58 44 66 58 44 66 58 44 66 58 44 66 58 44 66 58 44 66
58 45 66 58 45 66 58 45 65 58 45 65 58 45 65 57 45 65 57 45 65 57 45
65 57 45 65 57 45 65 57 45 65 57 45 65 57 45 65 57 45 65 57 45 65 57
45 65 57 45 65 57 45 65 57 45 65 57 45 65 57 45 65 57 45 65 57 45 65
57 45 65 57 45 65 56 45 65 56 45 65 56 45 65 56 45 65 56 45 65 56 45
65 56 45 65 56 45 65 56 45 65 56 45 65 56 45 65 56 45 65 56 45 65 56
45 65 56 45 65 56 45 65 56 45 65 56 45 65 56 45 65 56 45 65 55 45 65
55 45 65 55 45 65 55 45 65 55 45 65 55 45 65 55 45 65 55 45 65 55 45
65 55 45 65 55 45 65 55 45 65 55 45 65 55 45 65 55 45 65 55 45 65 55
46 65 55 46 65 55 46 65 55 46 65 55 46 65 55 46 65 54 46 65 54 46 65
54 46 65 54 46 64 54 46 64 54 46 64 54 46 64 54 46 64 54 46 64 54 46
64 54 46 64 54 46 64 54 46 64 54 46 64 54 46 64 54 46 64 54 46 64 54
46 64 54 46 64 54 46 64 54 46 64 54 46 64 53 46 64 53 46 64 53 46 64
53 46 64 53 46 64 53 46 64 53 46 64 53 46 64 53 46 64 53 46 64 53 46
64 53 46 64 53 46 64 53 46 64 53 46 64 53 46 64 53 46 64 53 46 64 53
46 64 53 46 64 53 46 64 53 46 64 53 46 64 52 46 64 52 46 64 52 46 64
52 46 64 52 46 63 52 46 63 52 46 63 52 46 63 52 46 63 52 46 63 52 46
63 52 46 63 52 46 63 52 46 63 52 46 63 52 46 63 52 46 63 52 46 63 52
46 63 52 46 63 52 46 63 52 46 63 52 46 63 51 46 63 51 46 63 51 46 63
51 46 63 51 46 63 51 46 63 51 46 63 51 46 63 51 46 63 51 46 63 51 45
63 51 45 63 51 45 63 51 45 63 51 45 63 51 45 62 51 45 62 51 45 62 51
45 62 51 45 62 51 45 62 51 45 62 51 45 62 51 45 62 50 45 62 50 45 62
50 45 62 50
20 53 71 20 53 71 20 53 71 20 53 70 20 53 70 20 53 70 20 53 70 20 53
70 20 53 70 20 53 70 20 52 70 20 52 69 20 52 69 20 52 69 20 52 69 20
52 69 20 52 69 20 52 69 20 52 69 20 52 68 20 52 68 20 52 68 20 52 68
20 52 68 20 52 68 20 52 68 20 51 68 20 51 68 20 51 67 20 51 67 20 51
67 20 51 67 20 51 67 20 51 67 20 51 67 20 51 67 20 51 67 20 51 66 20
51 66 20 51 66 20 51 66 20 50 66 20 50 66 20 50 66 20 50 66 20 50 65
20 50 65 20 50 65 20 50 65 20 50 65 20 50 65 20 50 65 20 50 65 20 50
65 20 50 65 20 50 64 20 50 64 20 50 64 20 49 64 20 49 64 20 49 64 20
49 64 20 49 64 20 49 64 20 49 63 20 49 63 20 49 63 20 49 63 20 49 63
20 49 63 20 49 63 20 49 63 20 49 63 20 49 62 20 49 62 20 48 62 20 48
62 20 48 62 20 48 62 20 48 62 20 48 62 20 48 62 20 48 62 20 48 61 20
48 61 20 48 61 20 48 61 20 48 61 20 48 61 20 48 61 20 48 61 20 48 61
20 47 61 20 47 60 20 47 60 20 47 60 20 47 60 20 47 60 20 47 60 20 47
60 20 47 60 20 47 60 20 47 60 20 47 59 20 47 59 20 47 59 20 47 59 20
47 59 20 47 59 20 47 59 20 47 59 20 46 59 20 46 59 20 46 59 20 46 58
20 46 58 20 46 58 20 46 58 20 46 58 20 46 58 20 46 58 20 46 58 20 46
58 20 46 58 20 46 58 20 46 57 20 46 57 20 46 57 20 46 57 20 46 57 20
46 57 20 45 57 20 45 57 20 45 57 20 45 57 20 45 57 20 45 57 20 45 56
20 45 56 20 45 56 20 45 56 20 45 56 20 45 56 20 45 56 20 45 56 20 45
56 20 45 56 42 67 63 42 67 63 42 67 63 42 67 63 42 67 63 42 67 63 42
66 63 42 66 63 42 66 63 42 66 63 42 66 63 42 66 62 42 66 62 42 66 62
42 66 62 42 66 62 42 66 62 43 66 62 43 66 62 43 66 62 43 66 62 43 66
62 43 66 62 43 66 62 43 66 62 43 66 62 43 66 61 43 66 61 43 66 61 43
66 61 43 66 61 43 66 61 43 66 61 43 66 61 43 66 61 43 66 61 43 66 61
43 66 61 43 66 61 43 66 61 43 66 61 43 66 60 43 66 60 43 66 60 43 66
60 43 66 60 43 66 60 43 66 60 43 66 60 43 66 60 43 66 60 43 66 60 43
66 60 43 66 60 44 66 60 44 66 60 44 66 60 44 66 60 44 66 59 44 66 59
44 66 59 44 66 59 44 66 59 44 66 59 44 66 59 44 66 59 44 66 59 44 66
59 44 66 59 44 66 59 44 66 59 44 66 59 44 66 59 44 66 59 44 66 59 44
66 59 44 66 58 44 66 58 44 66 58 44 66 58 44 66 58 44 66 58 44 66 58
44 66 58 44 66 58 44 65 58 44 65 58 44 65 58 44 65 58 44 65 58 44 65
58 44 65 58 44 65 58 44 65 58 44 65 57 44 65 57 45 65 57 45 65 57 45
65 57 45 65 57 45 65 57 45 65 57 45 65 57 45 65 57 45 65 57 45 65 57
45 65 57 45 65 57 45 65 57 45 65 57 45 65 57 45 65 57 45 65 57 45 65
57 45 65 56 45 65 56 45 65 56 45 65 56 45 65 56 45 65 56 45 65 56 45
65 56 45 65 56 45 65 56 45 65 56 45 65 56 45 65 56 45 65 56 45 65 56
45 65 56 45 65 56 45 65 56 45 65 56 45 65 56 45 65 55 45 65 55 45 65
55 45 65 55 45 65 55 45 65 55 45 65 55 45 65 55 45 65 55 45 65 55 45
65 55 45 65 55 45 65 55 45 65 55 45 65 55 45 65 55 45 65 55 45 65 55
45 65 55 45 65 55 45 65 55 45 65 55 45 64 54 45 64 54 45 64 54 45 64
54 45 64 54 45 64 54 45 64 54 45 64 54 46 64 54 46 64 54 46 64 54 46
64 54 46 64 54 46 64 54 46 64 54 46 64 54 46 64 54 46 64 54 46 64 54
46 64 54 46 64 54 46 64 54 46 64 53 46 64 53 46 64 53 46 64 53 46 64
53 46 64 53 46 64 53 46 64 53 46 64 53 46 64 53 46 64 53 46 64 53 46
64 53 46 64 53 46 64 53 46 64 53 46 64 53 46 64 53 46 64 53 46 64 53
46 64 53 46 64 53 46 64 53 46 64 52 46 64 52 46 63 52 46 63 52 46 63
52 46 63 52 46 63 52 46 63 52 46 63 52 46 63 52 46 63 52 46 63 52 46
63 52 46 63 52 46 63 52 46 63 52 46 63 52 46 63 52 46 63 52 46 63 52
46 63 52 46 63 52 46 63 52 46 63 52 46 63 51 45 63 51 45 63 51 45 63
51 45 63 51 45 63 51 45 63 51 45 63 51 45 63 51 45 63 51 45 63 51 45
63 51 45 63 51 45 63 51 45 62 51 45 62 51 45 62 51 45 62 51 45 62 51
45 62 51 45 62 51 45 62 51 45 62 51 45 62 51 45 62 50 45 62 50 45 62
50 45 62 50
20 53 70 20 53 70 20 53 70 20 53 70 20 53 70 20 53 70 20 53 70 20 53
70 20 52 69 20 52 69 20 52 69 20 52 69 20 52 69 20 52 69 20 52 69 20
52 69 20 52 69 20 52 68 20 52 68 20 52 68 20 52 68 20 52 68 20 52 68
20 51 68 20 51 68 20 51 67 20 51 67 20 51 67 20 51 67 20 51 67 20 51
67 20 51 67 20 51 67 20 51 67 20 51 66 20 51 66 20 51 66 20 51 66 20
51 66 20 50 66 20 50 66 20 50 66 20 50 66 20 50 65 20 50 65 20 50 65
20 50 65 20 50 65 20 50 65 20 50 65 20 50 65 20 50 65 20 50 64 20 50
64 20 50 64 20 50 64 20 49 64 20 49 64 20 49 64 20 49 64 20 49 64 20
49 64 20 49 63 20 49 63 20 49 63 20 49 63 20 49 63 20 49 63 20 49 63
20 49 63 20 49 63 20 49 62 20 49 62 20 48 62 20 48 62 20 48 62 20 48
62 20 48 62 20 48 62 20 48 62 20 48 62 20 48 61 20 48 61 20 48 61 20
48 61 20 48 61 20 48 61 20 48 61 20 48 61 20 48 61 20 48 61 20 47 60
20 47 60 20 47 60 20 47 60 20 47 60 20 47 60 20 47 60 20 47 60 20 47
60 20 47 60 20 47 60 20 47 59 20 47 59 20 47 59 20 47 59 20 47 59 20
47 59 20 47 59 20 47 59 20 46 59 20 46 59 20 46 59 20 46 58 20 46 58
20 46 58 20 46 58 20 46 58 20 46 58 20 46 58 20 46 58 20 46 58 20 46
58 20 46 58 20 46 57 20 46 57 20 46 57 20 46 57 20 46 57 20 46 57 20
45 57 20 45 57 20 45 57 20 45 57 20 45 57 20 45 57 20 45 56 20 45 56
20 45 56 20 45 56 20 45 56 20 45 56 20 45 56 20 45 56 20 45 56 20 45
56 42 67 63 42 66 63 42 66 63 42 66 63 42 66 63 42 66 63 42 66 63 42
66 63 42 66 63 42 66 63 42 66 62 42 66 62 42 66 62 42 66 62 42 66 62
42 66 62 42 66 62 42 66 62 42 66 62 42 66 62 42 66 62 43 66 62 43 66
62 43 66 62 43 66 62 43 66 61 43 66 61 43 66 61 43 66 61 43 66 61 43
66 61 43 66 61 43 66 61 43 66 61 43 66 61 43 66 61 43 66 61 43 66 61
43 66 61 43 66 61 43 66 61 43 66 60 43 66 60 43 66 60 43 66 60 43 66
60 43 66 60 43 66 60 43 66 60 43 66 60 43 66 60 43 66 60 43 66 60 43
66 60 43 66 60 43 66 60 43 66 60 43 66 60 44 66 59 44 66 59 44 66 59
44 66 59 44 66 59 44 66 59 44 66 59 44 66 59 44 66 59 44 66 59 44 66
59 44 66 59 44 66 59 44 66 59 44 66 59 44 66 59 44 66 59 44 66 59 44
66 58 44 66 58 44 65 58 44 65 58 44 65 58 44 65 58 44 65 58 44 65 58
44 65 58 44 65 58 44 65 58 44 65 58 44 65 58 44 65 58 44 65 58 44 65
58 44 65 58 44 65 58 44 65 57 44 65 57 44 65 57 44 65 57 44 65 57 44
65 57 44 65 57 45 65 57 45 65 57 45 65 57 45 65 57 45 65 57 45 65 57
45 65 57 45 65 57 45 65 57 45 65 57 45 65 57 45 65 57 45 65 57 45 65
56 45 65 56 45 65 56 45 65 56 45 65 56 45 65 56 45 65 56 45 65 56 45
65 56 45 65 56 45 65 56 45 65 56 45 65 56 45 65 56 45 65 56 45 65 56
45 65 56 45 65 56 45 65 56 45 65 56 45 65 56 45 65 55 45 65 55 45 65
55 45 65 55 45 65 55 45 65 55 45 65 55 45 65 55 45 65 55 45 65 55 45
65 55 45 65 55 45 65 55 45 65 55 45 65 55 45 65 55 45 65 55 45 64 55
45 64 55 45 64 55 45 64 55 45 64 54 45 64 54 45 64 54 45 64 54 45 64
54 45 64 54 45 64 54 45 64 54 45 64 54 45 64 54 45 64 54 45 64 54 45
64 54 45 64 54 45 64 54 45 64 54 45 64 54 45 64 54 45 64 54 45 64 54
45 64 54 45 64 54 45 64 54 45 64 53 45 64 53 45 64 53 45 64 53 46 64
53 46 64 53 46 64 53 46 64 53 46 64 53 46 64 53 46 64 53 46 64 53 46
64 53 46 64 53 46 64 53 46 64 53 46 64 53 46 64 53 46 64 53 46 64 53
46 64 53 46 64 53 46 63 53 46 63 52 46 63 52 46 63 52 46 63 52 46 63
52 46 63 52 46 63 52 46 63 52 46 63 52 45 63 52 45 63 52 45 63 52 45
63 52 45 63 52 45 63 52 45 63 52 45 63 52 45 63 52 45 63 52 45 63 52
45 63 52 45 63 52 45 63 52 45 63 52 45 63 51 45 63 51 45 63 51 45 63
51 45 63 51 45 63 51 45 63 51 45 63 51 45 63 51 45 63 51 45 63 51 45
63 51 45 62 51 45 62 51 45 62 51 45 62 51 45 62 51 45 62 51 45 62 51
45 62 51 45 62 51 45 62 51 45 62 51 45 62 51 45 62 50 45 62 50 45 62
50 45 62 50
20 53 70 20 53 70 20 53 70 20 53 70 20 53 70 20 52 70 20 52 69 20 52
69 20 52 69 20 52 69 20 52 69 20 52 69 20 52 69 20 52 69 20 52 68 20
52 68 20 52 68 20 52 68 20 52 68 20 52 68 20 52 68 20 51 68 20 51 68
20 51 67 20 51 67 20 51 67 20 51 67 20 51 67 20 51 67 20 51 67 20 51
67 20 51 67 20 51 66 20 51 66 20 51 66 20 51 66 20 51 66 20 50 66 20
50 66 20 50 66 20 50 66 20 50 65 20 50 65 20 50 65 20 50 65 20 50 65
20 50 65 20 50 65 20 50 65 20 50 65 20 50 64 20 50 64 20 50 64 20 49
64 20 49 64 20 49 64 20 49 64 20 49 64 20 49 64 20 49 64 20 49 63 20
49 63 20 49 63 20 49 63 20 49 63 20 49 63 20 49 63 20 49 63 20 49 63
20 49 63 20 49 62 20 48 62 20 48 62 20 48 62 20 48 62 20 48 62 20 48
62 20 48 62 20 48 62 20 48 61 20 48 61 20 48 61 20 48 61 20 48 61 20
48 61 20 48 61 20 48 61 20 48 61 20 48 61 20 47 61 20 47 60 20 47 60
20 47 60 20 47 60 20 47 60 20 47 60 20 47 60 20 47 60 20 47 60 20 47
60 20 47 59 20 47 59 20 47 59 20 47 59 20 47 59 20 47 59 20 47 59 20
47 59 20 46 59 20 46 59 20 46 59 20 46 58 20 46 58 20 46 58 20 46 58
20 46 58 20 46 58 20 46 58 20 46 58 20 46 58 20 46 58 20 46 58 20 46
58 20 46 57 20 46 57 20 46 57 20 46 57 20 46 57 20 46 57 20 45 57 20
45 57 20 45 57 20 45 57 20 45 57 20 45 56 20 45 56 20 45 56 20 45 56
20 45 56 20 45 56 20 45 56 20 45 56 20 45 56 20 45 56 20 45 56 42 66
63 42 66 63 42 66 63 42 66 63 42 66 63 42 66 63 42 66 63 42 66 63 42
66 63 42 66 63 42 66 62 42 66 62 42 66 62 42 66 62 42 66 62 42 66 62
42 66 62 42 66 62 42 66 62 42 66 62 42 66 62 42 66 62 42 66 62 42 66
62 43 66 62 43 66 61 43 66 61 43 66 61 43 66 61 43 66 61 43 66 61 43
66 61 43 66 61 43 66 61 43 66 61 43 66 61 43 66 61 43 66 61 43 66 61
43 66 61 43 66 61 43 66 60 43 66 60 43 66 60 43 66 60 43 66 60 43 66
60 43 66 60 43 66 60 43 66 60 43 66 60 43 66 60 43 66 60 43 66 60 43
66 60 43 66 60 43 66 60 43 66 60 43 66 59 43 66 59 43 66 59 43 66 59
44 66 59 44 66 59 44 66 59 44 66 59 44 66 59 44 66 59 44 66 59 44 66
59 44 65 59 44 65 59 44 65 59 44 65 59 44 65 59 44 65 59 44 65 58 44
65 58 44 65 58 44 65 58 44 65 58 44 65 58 44 65 58 44 65 58 44 65 58
44 65 58 44 65 58 44 65 58 44 65 58 44 65 58 44 65 58 44 65 58 44 65
58 44 65 58 44 65 57 44 65 57 44 65 57 44 65 57 44 65 57 44 65 57 44
65 57 44 65 57 44 65 57 44 65 57 44 65 57 44 65 57 44 65 57 45 65 57
45 65 57 45 65 57 45 65 57 45 65 57 45 65 57 45 65 57 45 65 56 45 65
56 45 65 56 45 65 56 45 65 56 45 65 56 45 65 56 45 65 56 45 65 56 45
65 56 45 65 56 45 65 56 45 65 56 45 65 56 45 65 56 45 65 56 45 65 56
45 65 56 45 65 56 45 65 56 45 65 56 45 65 55 45 65 55 45 65 55 45 65
55 45 65 55 45 65 55 45 65 55 45 65 55 45 65 55 45 65 55 45 65 55 45
65 55 45 64 55 45 64 55 45 64 55 45 64 55 45 64 55 45 64 55 45 64 55
45 64 55 45 64 55 45 64 55 45 64 54 45 64 54 45 64 54 45 64 54 45 64
54 45 64 54 45 64 54 45 64 54 45 64 54 45 64 54 45 64 54 45 64 54 45
64 54 45 64 54 45 64 54 45 64 54 45 64 54 45 64 54 45 64 54 45 64 54
45 64 54 45 64 54 45 64 54 45 64 53 45 64 53 45 64 53 45 64 53 45 64
53 45 64 53 45 64 53 45 64 53 45 64 53 45 64 53 45 64 53 45 64 53 45
64 53 45 64 53 45 64 53 45 64 53 45 64 53 45 64 53 45 64 53 45 63 53
45 63 53 45 63 53 45 63 53 45 63 52 45 63 52 45 63 52 45 63 52 45 63
52 45 63 52 45 63 52 45 63 52 45 63 52 45 63 52 45 63 52 45 63 52 45
63 52 45 63 52 45 63 52 45 63 52 45 63 52 45 63 52 45 63 52 45 63 52
45 63 52 45 63 52 45 63 52 45 63 52 45 63 51 45 63 51 45 63 51 45 63
51 45 63 51 45 63 51 45 63 51 45 63 51 45 63 51 45 63 51 45 62 51 45
62 51 45 62 51 45 62 51 45 62 51 45 62 51 45 62 51 45 62 51 45 62 51
45 62 51 45 62 51 45 62 51 45 62 51 45 62 51 45 62 51 45 62 50 45 62
50 45 62 50
20 53 70 20 53 70 20 52 70 20 52 69 20 52 69 20 52 69 20 52 69 20 52
69 20 52 69 20 52 69 20 52 69 20 52 69 20 52 68 20 52 68 20 52 68 20
52 68 20 52 68 20 52 68 20 51 68 20 51 68 20 51 68 20 51 67 20 51 67
20 51 67 20 51 67 20 51 67 20 51 67 20 51 67 20 51 67 20 51 67 20 51
66 20 51 66 20 51 66 20 51 66 20 51 66 20 50 66 20 50 66 20 50 66 20
50 66 20 50 65 20 50 65 20 50 65 20 50 65 20 50 65 20 50 65 20 50 65
20 50 65 20 50 65 20 50 64 20 50 64 20 50 64 20 49 64 20 49 64 20 49
64 20 49 64 20 49 64 20 49 64 20 49 64 20 49 63 20 49 63 20 49 63 20
49 63 20 49 63 20 49 63 20 49 63 20 49 63 20 49 63 20 49 63 20 49 62
20 48 62 20 48 62 20 48 62 20 48 62 20 48 62 20 48 62 20 48 62 20 48
62 20 48 62 20 48 61 20 48 61 20 48 61 20 48 61 20 48 61 20 48 61 20
48 61 20 48 61 20 48 61 20 47 61 20 47 60 20 47 60 20 47 60 20 47 60
20 47 60 20 47 60 20 47 60 20 47 60 20 47 60 20 47 60 20 47 60 20 47
59 20 47 59 20 47 59 20 47 59 20 47 59 20 47 59 20 47 59 20 47 59 20
46 59 20 46 59 20 46 59 20 46 58 20 46 58 20 46 58 20 46 58 20 46 58
20 46 58 20 46 58 20 46 58 20 46 58 20 46 58 20 46 58 20 46 57 20 46
57 20 46 57 20 46 57 20 46 57 20 46 57 20 45 57 20 45 57 20 45 57 20
45 57 20 45 57 20 45 57 20 45 56 20 45 56 20 45 56 20 45 56 20 45 56
20 45 56 20 45 56 20 45 56 20 45 56 20 45 56 20 45 56 20 45 56 42 66
63 42 66 63 42 66 63 42 66 63 42 66 63 42 66 63 42 66 63 42 66 63 42
66 63 42 66 62 42 66 62 42 66 62 42 66 62 42 66 62 42 66 62 42 66 62
42 66 62 42 66 62 42 66 62 42 66 62 42 66 62 42 66 62 42 66 62 42 66
62 42 66 61 42 66 61 43 66 61 43 66 61 43 66 61 43 66 61 43 66 61 43
66 61 43 66 61 43 66 61 43 66 61 43 66 61 43 66 61 43 66 61 43 66 61
43 66 61 43 66 60 43 66 60 43 66 60 43 66 60 43 66 60 43 66 60 43 66
60 43 66 60 43 66 60 43 66 60 43 66 60 43 66 60 43 66 60 43 66 60 43
66 60 43 66 60 43 66 60 43 66 59 43 66 59 43 66 59 43 66 59 43 66 59
43 65 59 43 65 59 43 65 59 44 65 59 44 65 59 44 65 59 44 65 59 44 65
59 44 65 59 44 65 59 44 65 59 44 65 59 44 65 59 44 65 58 44 65 58 44
65 58 44 65 58 44 65 58 44 65 58 44 65 58 44 65 58 44 65 58 44 65 58
44 65 58 44 65 58 44 65 58 44 65 58 44 65 58 44 65 58 44 65 58 44 65
58 44 65 57 44 65 57 44 65 57 44 65 57 44 65 57 44 65 57 44 65 57 44
65 57 44 65 57 44 65 57 44 65 57 44 65 57 44 65 57 44 65 57 44 65 57
44 65 57 44 65 57 44 65 57 44 65 57 45 65 57 45 65 56 45 65 56 45 65
56 45 65 56 45 65 56 45 65 56 45 65 56 45 65 56 45 65 56 45 65 56 45
65 56 45 65 56 45 65 56 45 65 56 45 65 56 45 65 56 45 65 56 45 65 56
45 65 56 45 65 56 45 65 56 45 65 55 45 65 55 45 65 55 45 65 55 45 65
55 45 65 55 45 65 55 45 64 55 45 64 55 45 64 55 45 64 55 45 64 55 45
64 55 45 64 55 45 64 55 45 64 55 45 64 55 45 64 55 45 64 55 45 64 55
45 64 55 45 64 55 45 64 54 45 64 54 45 64 54 45 64 54 45 64 54 45 64
54 45 64 54 45 64 54 45 64 54 45 64 54 45 64 54 45 64 54 45 64 54 45
64 54 45 64 54 45 64 54 45 64 54 45 64 54 45 64 54 45 64 54 45 64 54
45 64 54 45 64 54 45 64 53 45 64 53 45 64 53 45 64 53 45 64 53 45 64
53 45 64 53 45 64 53 45 64 53 45 64 53 45 64 53 45 64 53 45 64 53 45
64 53 45 64 53 45 64 53 45 63 53 45 63 53 45 63 53 45 63 53 45 63 53
45 63 53 45 63 53 45 63 53 45 63 52 45 63 52 45 63 52 45 63 52 45 63
52 45 63 52 45 63 52 45 63 52 45 63 52 45 63 52 45 63 52 45 63 52 45
63 52 45 63 52 45 63 52 45 63 52 45 63 52 45 63 52 45 63 52 45 63 52
45 63 52 45 63 52 45 63 52 45 63 52 45 63 51 45 63 51 45 63 51 45 63
51 45 63 51 45 63 51 45 63 51 45 63 51 45 62 51 45 62 51 45 62 51 45
62 51 45 62 51 45 62 51 45 62 51 45 62 51 45 62 51 45 62 51 45 62 51
45 62 51 45 62 51 45 62 51 45 62 51 45 62 51 45 62 51 45 62 50 45 62
50 45 62 50
20 52 69 20 52 69 20 52 69 20 52 69 20 52 69 20 52 69 20 52 69 20 52
69 20 52 69 20 52 68 20 52 68 20 52 68 20 52 68 20 52 68 20 52 68 20
52 68 20 51 68 20 51 68 20 51 67 20 51 67 20 51 67 20 51 67 20 51 67
20 51 67 20 51 67 20 51 67 20 51 67 20 51 66 20 51 66 20 51 66 20 51
66 20 51 66 20 50 66 20 50 66 20 50 66 20 50 66 20 50 66 20 50 65 20
50 65 20 50 65 20 50 65 20 50 65 20 50 65 20 50 65 20 50 65 20 50 65
20 50 64 20 50 64 20 50 64 20 49 64 20 49 64 20 49 64 20 49 64 20 49
64 20 49 64 20 49 64 20 49 63 20 49 63 20 49 63 20 49 63 20 49 63 20
49 63 20 49 63 20 49 63 20 49 63 20 49 63 20 49 62 20 48 62 20 48 62
20 48 62 20 48 62 20 48 62 20 48 62 20 48 62 20 48 62 20 48 62 20 48
61 20 48 61 20 48 61 20 48 61 20 48 61 20 48 61 20 48 61 20 48 61 20
48 61 20 48 61 20 47 60 20 47 60 20 47 60 20 47 60 20 47 60 20 47 60
20 47 60 20 47 60 20 47 60 20 47 60 20 47 60 20 47 59 20 47 59 20 47
59 20 47 59 20 47 59 20 47 59 20 47 59 20 47 59 20 46 59 20 46 59 20
46 59 20 46 58 20 46 58 20 46 58 20 46 58 20 46 58 20 46 58 20 46 58
20 46 58 20 46 58 20 46 58 20 46 58 20 46 58 20 46 57 20 46 57 20 46
57 20 46 57 20 46 57 20 46 57 20 45 57 20 45 57 20 45 57 20 45 57 20
45 57 20 45 57 20 45 56 20 45 56 20 45 56 20 45 56 20 45 56 20 45 56
20 45 56 20 45 56 20 45 56 20 45 56 20 45 56 20 45 56 42 66 63 42 66
63 42 66 63 42 66 63 42 66 63 42 66 63 42 66 63 42 66 63 42 66 62 42
66 62 42 66 62 42 66 62 42 66 62 42 66 62 42 66 62 42 66 62 42 66 62
42 66 62 42 66 62 42 66 62 42 66 62 42 66 62 42 66 62 42 66 61 42 66
61 42 66 61 42 66 61 42 66 61 42 66 61 43 66 61 43 66 61 43 66 61 43
66 61 43 66 61 43 66 61 43 66 61 43 66 61 43 66 61 43 66 61 43 66 60
43 66 60 43 66 60 43 66 60 43 66 60 43 66 60 43 66 60 43 66 60 43 66
60 43 66 60 43 66 60 43 66 60 43 66 60 43 66 60 43 66 60 43 66 60 43
66 60 43 65 59 43 65 59 43 65 59 43 65 59 43 65 59 43 65 59 43 65 59
43 65 59 43 65 59 43 65 59 43 65 59 43 65 59 43 65 59 44 65 59 44 65
59 44 65 59 44 65 59 44 65 59 44 65 58 44 65 58 44 65 58 44 65 58 44
65 58 44 65 58 44 65 58 44 65 58 44 65 58 44 65 58 44 65 58 44 65 58
44 65 58 44 65 58 44 65 58 44 65 58 44 65 58 44 65 58 44 65 58 44 65
57 44 65 57 44 65 57 44 65 57 44 65 57 44 65 57 44 65 57 44 65 57 44
65 57 44 65 57 44 65 57 44 65 57 44 65 57 44 65 57 44 65 57 44 65 57
44 65 57 44 65 57 44 65 57 44 65 57 44 65 57 44 65 56 44 65 56 44 65
56 44 65 56 45 65 56 45 65 56 45 65 56 45 65 56 45 65 56 45 65 56 45
65 56 45 65 56 45 65 56 45 65 56 45 65 56 45 65 56 45 65 56 45 65 56
45 65 56 45 65 56 45 65 56 45 65 55 45 64 55 45 64 55 45 64 55 45 64
55 45 64 55 45 64 55 45 64 55 45 64 55 45 64 55 45 64 55 45 64 55 45
64 55 45 64 55 45 64 55 45 64 55 45 64 55 45 64 55 45 64 55 45 64 55
45 64 55 45 64 55 45 64 54 45 64 54 45 64 54 45 64 54 45 64 54 45 64
54 45 64 54 45 64 54 45 64 54 45 64 54 45 64 54 45 64 54 45 64 54 45
64 54 45 64 54 45 64 54 45 64 54 45 64 54 45 64 54 45 64 54 45 64 54
45 64 54 45 64 54 45 64 53 45 64 53 45 64 53 45 64 53 45 64 53 45 64
53 45 64 53 45 64 53 45 64 53 45 64 53 45 64 53 45 64 53 45 64 53 45
63 53 45 63 53 45 63 53 45 63 53 45 63 53 45 63 53 45 63 53 45 63 53
45 63 53 45 63 53 45 63 53 45 63 52 45 63 52 45 63 52 45 63 52 45 63
52 45 63 52 45 63 52 45 63 52 45 63 52 45 63 52 45 63 52 45 63 52 45
63 52 45 63 52 45 63 52 45 63 52 45 63 52 45 63 52 45 63 52 45 63 52
45 63 52 45 63 52 45 63 52 45 63 52 45 63 51 45 63 51 45 63 51 45 63
51 45 63 51 45 62 51 45 62 51 45 62 51 45 62 51 45 62 51 45 62 51 45
62 51 45 62 51 45 62 51 45 62 51 45 62 51 45 62 51 45 62 51 45 62 51
45 62 51 45 62 51 45 62 51 45 62 51 45 62 51 45 62 51 45 62 50 45 62
50 45 62 50
20 52 69 20 52 69 20 52 69 20 52 69 20 52 69 20 52 69 20 52 68 20 52
68 20 52 68 20 52 68 20 52 68 20 52 68 20 52 68 20 51 68 20 51 68 20
51 68 20 51 67 20 51 67 20 51 67 20 51 67 20 51 67 20 51 67 20 51 67
20 51 67 20 51 67 20 51 66 20 51 66 20 51 66 20 51 66 20 51 66 20 50
66 20 50 66 20 50 66 20 50 66 20 50 65 20 50 65 20 50 65 20 50 65 20
50 65 20 50 65 20 50 65 20 50 65 20 50 65 20 50 65 20 50 64 20 50 64
20 50 64 20 49 64 20 49 64 20 49 64 20 49 64 20 49 64 20 49 64 20 49
64 20 49 63 20 49 63 20 49 63 20 49 63 20 49 63 20 49 63 20 49 63 20
49 63 20 49 63 20 49 63 20 49 62 20 48 62 20 48 62 20 48 62 20 48 62
20 48 62 20 48 62 20 48 62 20 48 62 20 48 62 20 48 61 20 48 61 20 48
61 20 48 61 20 48 61 20 48 61 20 48 61 20 48 61 20 48 61 20 48 61 20
47 61 20 47 60 20 47 60 20 47 60 20 47 60 20 47 60 20 47 60 20 47 60
20 47 60 20 47 60 20 47 60 20 47 60 20 47 59 20 47 59 20 47 59 20 47
59 20 47 59 20 47 59 20 47 59 20 47 59 20 46 59 20 46 59 20 46 59 20
46 58 20 46 58 20 46 58 20 46 58 20 46 58 20 46 58 20 46 58 20 46 58
20 46 58 20 46 58 20 46 58 20 46 57 20 46 57 20 46 57 20 46 57 20 46
57 20 46 57 20 46 57 20 45 57 20 45 57 20 45 57 20 45 57 20 45 57 20
45 57 20 45 56 20 45 56 20 45 56 20 45 56 20 45 56 20 45 56 20 45 56
20 45 56 20 45 56 20 45 56 20 45 56 20 45 56 42 66 63 42 66 63 42 66
63 42 66 63 42 66 63 42 66 63 42 66 63 42 66 63 42 66 62 42 66 62 42
66 62 42 66 62 42 66 62 42 66 62 42 66 62 42 66 62 42 66 62 42 66 62
42 66 62 42 66 62 42 66 62 42 66 62 42 66 62 42 66 61 42 66 61 42 66
61 42 66 61 42 66 61 42 66 61 42 66 61 42 66 61 42 66 61 43 66 61 43
66 61 43 66 61 43 66 61 43 66 61 43 66 61 43 66 61 43 66 60 43 66 60
43 66 60 43 66 60 43 66 60 43 66 60 43 66 60 43 66 60 43 66 60 43 66
60 43 65 60 43 65 60 43 65 60 43 65 60 43 65 60 43 65 60 43 65 60 43
65 59 43 65 59 43 65 59 43 65 59 43 65 59 43 65 59 43 65 59 43 65 59
43 65 59 43 65 59 43 65 59 43 65 59 43 65 59 43 65 59 43 65 59 43 65
59 43 65 59 44 65 59 44 65 58 44 65 58 44 65 58 44 65 58 44 65 58 44
65 58 44 65 58 44 65 58 44 65 58 44 65 58 44 65 58 44 65 58 44 65 58
44 65 58 44 65 58 44 65 58 44 65 58 44 65 58 44 65 58 44 65 58 44 65
57 44 65 57 44 65 57 44 65 57 44 65 57 44 65 57 44 65 57 44 65 57 44
65 57 44 65 57 44 65 57 44 65 57 44 65 57 44 65 57 44 65 57 44 65 57
44 65 57 44 65 57 44 65 57 44 65 57 44 65 56 44 65 56 44 65 56 44 65
56 44 65 56 44 65 56 44 65 56 44 65 56 44 65 56 44 65 56 45 65 56 45
65 56 45 65 56 45 65 56 45 65 56 45 65 56 45 65 56 45 64 56 45 64 56
45 64 56 45 64 56 45 64 55 45 64 55 45 64 55 45 64 55 45 64 55 45 64
55 45 64 55 45 64 55 45 64 55 45 64 55 45 64 55 45 64 55 45 64 55 45
64 55 45 64 55 45 64 55 45 64 55 45 64 55 45 64 55 45 64 55 45 64 55
45 64 55 45 64 54 45 64 54 45 64 54 45 64 54 45 64 54 45 64 54 45 64
54 45 64 54 45 64 54 45 64 54 45 64 54 45 64 54 45 64 54 45 64 54 45
64 54 45 64 54 45 64 54 45 64 54 45 64 54 45 64 54 45 64 54 45 64 54
45 64 54 45 64 53 45 64 53 45 64 53 45 64 53 45 64 53 45 64 53 45 64
53 45 64 53 45 64 53 45 64 53 45 63 53 45 63 53 45 63 53 45 63 53 45
63 53 45 63 53 45 63 53 45 63 53 45 63 53 45 63 53 45 63 53 45 63 53
45 63 53 45 63 53 45 63 52 45 63 52 45 63 52 45 63 52 45 63 52 45 63
52 45 63 52 45 63 52 45 63 52 45 63 52 45 63 52 45 63 52 45 63 52 45
63 52 45 63 52 45 63 52 45 63 52 45 63 52 45 63 52 45 63 52 45 63 52
45 63 52 45 63 52 45 63 52 45 63 52 45 63 51 45 63 51 45 63 51 45 62
51 45 62 51 45 62 51 45 62 51 45 62 51 45 62 51 45 62 51 45 62 51 45
62 51 45 62 51 45 62 51 45 62 51 45 62 51 45 62 51 45 62 51 45 62 51
45 62 51 45 62 51 45 62 51 45 62 51 45 62 51 45 62 51 45 62 50 45 62
50 45 62 50
20 52 69 20 52 69 20 52 69 20 52 69 20 52 68 20 52 68 20 52 68 20 52
68 20 52 68 20 52 68 20 52 68 20 51 68 20 51 68 20 51 67 20 51 67 20
51 67 20 51 67 20 51 67 20 51 67 20 51 67 20 51 67 20 51 67 20 51 67
20 51 66 20 51 66 20 51 66 20 51 66 20 51 66 20 50 66 20 50 66 20 50
66 20 50 66 20 50 65 20 50 65 20 50 65 20 50 65 20 50 65 20 50 65 20
50 65 20 50 65 20 50 65 20 50 65 20 50 64 20 50 64 20 50 64 20 49 64
20 49 64 20 49 64 20 49 64 20 49 64 20 49 64 20 49 64 20 49 63 20 49
63 20 49 63 20 49 63 20 49 63 20 49 63 20 49 63 20 49 63 20 49 63 20
49 63 20 49 62 20 48 62 20 48 62 20 48 62 20 48 62 20 48 62 20 48 62
20 48 62 20 48 62 20 48 62 20 48 61 20 48 61 20 48 61 20 48 61 20 48
61 20 48 61 20 48 61 20 48 61 20 48 61 20 48 61 20 47 61 20 47 60 20
47 60 20 47 60 20 47 60 20 47 60 20 47 60 20 47 60 20 47 60 20 47 60
20 47 60 20 47 60 20 47 59 20 47 59 20 47 59 20 47 59 20 47 59 20 47
59 20 47 59 20 47 59 20 46 59 20 46 59 20 46 59 20 46 58 20 46 58 20
46 58 20 46 58 20 46 58 20 46 58 20 46 58 20 46 58 20 46 58 20 46 58
20 46 58 20 46 58 20 46 57 20 46 57 20 46 57 20 46 57 20 46 57 20 46
57 20 45 57 20 45 57 20 45 57 20 45 57 20 45 57 20 45 57 20 45 56 20
45 56 20 45 56 20 45 56 20 45 56 20 45 56 20 45 56 20 45 56 20 45 56
20 45 56 20 45 56 20 45 56 20 45 56 42 66 63 42 66 63 42 66 63 42 66
63 42 66 63 42 66 63 42 66 63 42 66 62 42 66 62 42 66 62 42 66 62 42
66 62 42 66 62 42 66 62 42 66 62 42 66 62 42 66 62 42 66 62 42 66 62
42 66 62 42 66 62 42 66 62 42 66 62 42 66 61 42 66 61 42 66 61 42 66
61 42 66 61 42 66 61 42 66 61 42 66 61 42 66 61 42 66 61 42 66 61 42
66 61 42 66 61 43 66 61 43 66 61 43 66 61 43 66 60 43 66 60 43 66 60
43 66 60 43 65 60 43 65 60 43 65 60 43 65 60 43 65 60 43 65 60 43 65
60 43 65 60 43 65 60 43 65 60 43 65 60 43 65 60 43 65 60 43 65 59 43
65 59 43 65 59 43 65 59 43 65 59 43 65 59 43 65 59 43 65 59 43 65 59
43 65 59 43 65 59 43 65 59 43 65 59 43 65 59 43 65 59 43 65 59 43 65
59 43 65 59 43 65 58 43 65 58 43 65 58 44 65 58 44 65 58 44 65 58 44
65 58 44 65 58 44 65 58 44 65 58 44 65 58 44 65 58 44 65 58 44 65 58
44 65 58 44 65 58 44 65 58 44 65 58 44 65 58 44 65 58 44 65 57 44 65
57 44 65 57 44 65 57 44 65 57 44 65 57 44 65 57 44 65 57 44 65 57 44
65 57 44 65 57 44 65 57 44 65 57 44 65 57 44 65 57 44 65 57 44 65 57
44 65 57 44 65 57 44 65 57 44 65 56 44 65 56 44 65 56 44 65 56 44 65
56 44 65 56 44 65 56 44 65 56 44 65 56 44 65 56 44 65 56 44 64 56 44
64 56 44 64 56 44 64 56 44 64 56 44 64 56 45 64 56 45 64 56 45 64 56
45 64 56 45 64 55 45 64 55 45 64 55 45 64 55 45 64 55 45 64 55 45 64
55 45 64 55 45 64 55 45 64 55 45 64 55 45 64 55 45 64 55 45 64 55 45
64 55 45 64 55 45 64 55 45 64 55 45 64 55 45 64 55 45 64 55 45 64 55
45 64 55 45 64 54 45 64 54 45 64 54 45 64 54 45 64 54 45 64 54 45 64
54 45 64 54 45 64 54 45 64 54 45 64 54 45 64 54 45 64 54 45 64 54 45
64 54 45 64 54 45 64 54 45 64 54 45 64 54 45 64 54 45 64 54 45 64 54
45 64 54 45 64 53 45 64 53 45 64 53 45 64 53 45 64 53 45 64 53 45 63
53 45 63 53 45 63 53 45 63 53 45 63 53 45 63 53 45 63 53 45 63 53 45
63 53 45 63 53 45 63 53 45 63 53 45 63 53 45 63 53 45 63 53 45 63 53
45 63 53 45 63 53 45 63 52 45 63 52 45 63 52 45 63 52 45 63 52 45 63
52 45 63 52 45 63 52 45 63 52 45 63 52 45 63 52 45 63 52 45 63 52 45
63 52 45 63 52 45 63 52 45 63 52 45 63 52 45 63 52 45 63 52 45 63 52
45 63 52 45 63 52 45 63 52 45 63 52 45 63 51 45 62 51 45 62 51 45 62
51 45 62 51 45 62 51 45 62 51 45 62 51 45 62 51 45 62 51 45 62 51 45
62 51 45 62 51 45 62 51 45 62 51 45 62 51 45 62 51 45 62 51 45 62 51
45 62 51 45 62 51 45 62 51 45 62 51 45 62 51 45 62 51 45 62 50 45 62
50 45 62 50
20 52 69 20 52 68 20 52 68 20 52 68 20 52 68 20 52 68 20 52 68 20 52
68 20 51 68 20 51 68 20 51 68 20 51 67 20 51 67 20 51 67 20 51 67 20
51 67 20 51 67 20 51 67 20 51 67 20 51 67 20 51 66 20 51 66 20 51 66
20 51 66 20 51 66 20 50 66 20 50 66 20 50 66 20 50 66 20 50 66 20 50
65 20 50 65 20 50 65 20 50 65 20 50 65 20 50 65 20 50 65 20 50 65 20
50 65 20 50 65 20 50 64 20 50 64 20 50 64 20 49 64 20 49 64 20 49 64
20 49 64 20 49 64 20 49 64 20 49 64 20 49 63 20 49 63 20 49 63 20 49
63 20 49 63 20 49 63 20 49 63 20 49 63 20 49 63 20 49 63 20 49 62 20
48 62 20 48 62 20 48 62 20 48 62 20 48 62 20 48 62 20 48 62 20 48 62
20 48 62 20 48 61 20 48 61 20 48 61 20 48 61 20 48 61 20 48 61 20 48
61 20 48 61 20 48 61 20 48 61 20 47 61 20 47 60 20 47 60 20 47 60 20
47 60 20 47 60 20 47 60 20 47 60 20 47 60 20 47 60 20 47 60 20 47 60
20 47 59 20 47 59 20 47 59 20 47 59 20 47 59 20 47 59 20 47 59 20 47
59 20 47 59 20 46 59 20 46 59 20 46 59 20 46 58 20 46 58 20 46 58 20
46 58 20 46 58 20 46 58 20 46 58 20 46 58 20 46 58 20 46 58 20 46 58
20 46 58 20 46 57 20 46 57 20 46 57 20 46 57 20 46 57 20 46 57 20 45
57 20 45 57 20 45 57 20 45 57 20 45 57 20 45 57 20 45 56 20 45 56 20
45 56 20 45 56 20 45 56 20 45 56 20 45 56 20 45 56 20 45 56 20 45 56
20 45 56 20 45 56 20 45 56 42 66 63 42 66 63 42 66 63 42 66 63 42 66
63 42 66 63 42 66 63 42 66 62 42 66 62 42 66 62 42 66 62 42 66 62 42
66 62 42 66 62 42 66 62 42 66 62 42 66 62 42 66 62 42 66 62 42 66 62
42 66 62 42 66 62 42 66 61 42 66 61 42 66 61 42 66 61 42 66 61 42 66
61 42 66 61 42 66 61 42 66 61 42 66 61 42 66 61 42 66 61 42 66 61 42
66 61 42 66 61 42 65 61 42 65 61 43 65 60 43 65 60 43 65 60 43 65 60
43 65 60 43 65 60 43 65 60 43 65 60 43 65 60 43 65 60 43 65 60 43 65
60 43 65 60 43 65 60 43 65 60 43 65 60 43 65 60 43 65 59 43 65 59 43
65 59 43 65 59 43 65 59 43 65 59 43 65 59 43 65 59 43 65 59 43 65 59
43 65 59 43 65 59 43 65 59 43 65 59 43 65 59 43 65 59 43 65 59 43 65
59 43 65 58 43 65 58 43 65 58 43 65 58 43 65 58 43 65 58 43 65 58 43
65 58 44 65 58 44 65 58 44 65 58 44 65 58 44 65 58 44 65 58 44 65 58
44 65 58 44 65 58 44 65 58 44 65 58 44 65 58 44 65 57 44 65 57 44 65
57 44 65 57 44 65 57 44 65 57 44 65 57 44 65 57 44 65 57 44 65 57 44
65 57 44 65 57 44 65 57 44 65 57 44 65 57 44 65 57 44 65 57 44 65 57
44 65 57 44 65 57 44 65 56 44 65 56 44 65 56 44 65 56 44 65 56 44 65
56 44 64 56 44 64 56 44 64 56 44 64 56 44 64 56 44 64 56 44 64 56 44
64 56 44 64 56 44 64 56 44 64 56 44 64 56 44 64 56 44 64 56 44 64 56
44 64 56 44 64 55 44 64 55 44 64 55 45 64 55 45 64 55 45 64 55 45 64
55 45 64 55 45 64 55 45 64 55 45 64 55 45 64 55 45 64 55 45 64 55 45
64 55 45 64 55 45 64 55 45 64 55 45 64 55 45 64 55 45 64 55 45 64 55
45 64 54 45 64 54 45 64 54 45 64 54 45 64 54 45 64 54 45 64 54 45 64
54 45 64 54 45 64 54 45 64 54 45 64 54 45 64 54 45 64 54 45 64 54 45
64 54 45 64 54 45 64 54 45 64 54 45 64 54 45 64 54 45 64 54 45 64 54
45 64 54 45 64 53 45 64 53 45 63 53 45 63 53 45 63 53 45 63 53 45 63
53 45 63 53 45 63 53 45 63 53 45 63 53 45 63 53 45 63 53 45 63 53 45
63 53 45 63 53 45 63 53 45 63 53 45 63 53 45 63 53 45 63 53 45 63 53
45 63 53 45 63 53 45 63 52 45 63 52 45 63 52 45 63 52 45 63 52 45 63
52 45 63 52 45 63 52 45 63 52 45 63 52 45 63 52 45 63 52 45 63 52 45
63 52 45 63 52 45 63 52 45 63 52 45 63 52 45 63 52 45 63 52 45 63 52
45 63 52 45 63 52 45 62 52 45 62 52 45 62 51 45 62 51 45 62 51 45 62
51 45 62 51 45 62 51 45 62 51 45 62 51 45 62 51 45 62 51 45 62 51 45
62 51 45 62 51 45 62 51 45 62 51 45 62 51 45 62 51 45 62 51 45 62 51
45 62 51 45 62 51 45 62 51 45 62 51 45 62 51 45 62 51 45 62 51 45 62
50 45 62 50
20 52 68 20 52 68 20 52 68 20 52 68 20 52 68 20 52 68 20 51 68 20 51
68 20 51 67 20 51 67 20 51 67 20 51 67 20 51 67 20 51 67 20 51 67 20
51 67 20 51 67 20 51 67 20 51 66 20 51 66 20 51 66 20 51 66 20 51 66
20 50 66 20 50 66 20 50 66 20 50 66 20 50 65 20 50 65 20 50 65 20 50
65 20 50 65 20 50 65 20 50 65 20 50 65 20 50 65 20 50 65 20 50 64 20
50 64 20 50 64 20 50 64 20 49 64 20 49 64 20 49 64 20 49 64 20 49 64
20 49 64 20 49 64 20 49 63 20 49 63 20 49 63 20 49 63 20 49 63 20 49
63 20 49 63 20 49 63 20 49 63 20 49 63 20 49 62 20 48 62 20 48 62 20
48 62 20 48 62 20 48 62 20 48 62 20 48 62 20 48 62 20 48 62 20 48 62
20 48 61 20 48 61 20 48 61 20 48 61 20 48 61 20 48 61 20 48 61 20 48
61 20 48 61 20 48 61 20 47 60 20 47 60 20 47 60 20 47 60 20 47 60 20
47 60 20 47 60 20 47 60 20 47 60 20 47 60 20 47 60 20 47 60 20 47 59
20 47 59 20 47 59 20 47 59 20 47 59 20 47 59 20 47 59 20 47 59 20 46
59 20 46 59 20 46 59 20 46 58 20 46 58 20 46 58 20 46 58 20 46 58 20
46 58 20 46 58 20 46 58 20 46 58 20 46 58 20 46 58 20 46 58 20 46 57
20 46 57 20 46 57 20 46 57 20 46 57 20 46 57 20 46 57 20 45 57 20 45
57 20 45 57 20 45 57 20 45 57 20 45 57 20 45 56 20 45 56 20 45 56 20
45 56 20 45 56 20 45 56 20 45 56 20 45 56 20 45 56 20 45 56 20 45 56
20 45 56 20 45 56 20 45 55 41 66 63 41 66 63 42 66 63 42 66 63 42 66
63 42 66 62 42 66 62 42 66 62 42 66 62 42 66 62 42 66 62 42 66 62 42
66 62 42 66 62 42 66 62 42 66 62 42 66 62 42 66 62 42 66 62 42 66 62
42 66 62 42 66 61 42 66 61 42 66 61 42 66 61 42 66 61 42 66 61 42 66
61 42 66 61 42 66 61 42 65 61 42 65 61 42 65 61 42 65 61 42 65 61 42
65 61 42 65 61 42 65 60 42 65 60 42 65 60 42 65 60 43 65 60 43 65 60
43 65 60 43 65 60 43 65 60 43 65 60 43 65 60 43 65 60 43 65 60 43 65
60 43 65 60 43 65 60 43 65 60 43 65 60 43 65 59 43 65 59 43 65 59 43
65 59 43 65 59 43 65 59 43 65 59 43 65 59 43 65 59 43 65 59 43 65 59
43 65 59 43 65 59 43 65 59 43 65 59 43 65 59 43 65 59 43 65 59 43 65
58 43 65 58 43 65 58 43 65 58 43 65 58 43 65 58 43 65 58 43 65 58 43
65 58 43 65 58 43 65 58 43 65 58 44 65 58 44 65 58 44 65 58 44 65 58
44 65 58 44 65 58 44 65 58 44 65 58 44 65 57 44 65 57 44 65 57 44 65
57 44 65 57 44 65 57 44 65 57 44 65 57 44 65 57 44 65 57 44 65 57 44
65 57 44 65 57 44 65 57 44 65 57 44 65 57 44 65 57 44 65 57 44 65 57
44 65 57 44 64 56 44 64 56 44 64 56 44 64 56 44 64 56 44 64 56 44 64
56 44 64 56 44 64 56 44 64 56 44 64 56 44 64 56 44 64 56 44 64 56 44
64 56 44 64 56 44 64 56 44 64 56 44 64 56 44 64 56 44 64 56 44 64 56
44 64 55 44 64 55 44 64 55 44 64 55 44 64 55 44 64 55 44 64 55 44 64
55 44 64 55 44 64 55 44 64 55 45 64 55 45 64 55 45 64 55 45 64 55 45
64 55 45 64 55 45 64 55 45 64 55 45 64 55 45 64 55 45 64 55 45 64 55
45 64 54 45 64 54 45 64 54 45 64 54 45 64 54 45 64 54 45 64 54 45 64
54 45 64 54 45 64 54 45 64 54 45 64 54 45 64 54 45 64 54 45 64 54 45
64 54 45 64 54 45 64 54 45 64 54 45 64 54 45 64 54 45 63 54 45 63 54
45 63 53 45 63 53 45 63 53 45 63 53 45 63 53 45 63 53 45 63 53 45 63
53 45 63 53 45 63 53 45 63 53 45 63 53 45 63 53 45 63 53 45 63 53 45
63 53 45 63 53 45 63 53 45 63 53 45 63 53 45 63 53 45 63 53 45 63 53
45 63 53 45 63 53 45 63 52 45 63 52 45 63 52 45 63 52 45 63 52 45 63
52 45 63 52 45 63 52 45 63 52 45 63 52 45 63 52 45 63 52 45 63 52 45
63 52 45 63 52 45 63 52 45 63 52 45 63 52 45 63 52 45 63 52 45 62 52
45 62 52 45 62 52 45 62 52 45 62 52 45 62 51 45 62 51 45 62 51 45 62
51 45 62 51 45 62 51 45 62 51 45 62 51 45 62 51 45 62 51 45 62 51 45
62 51 45 62 51 45 62 51 45 62 51 45 62 51 45 62 51 45 62 51 45 62 51
45 62 51 45 62 51 45 62 51 45 62 51 45 62 51 45 62 51 45 62 51 45 62
50 45 62 50
20 52 68 20 52 68 20 52 68 20 51 68 20 51 68 20 51 67 20 51 67 20 51
67 20 51 67 20 51 67 20 51 67 20 51 67 20 51 67 20 51 67 20 51 67 20
51 66 20 51 66 20 51 66 20 51 66 20 51 66 20 51 66 20 50 66 20 50 66
20 50 66 20 50 66 20 50 65 20 50 65 20 50 65 20 50 65 20 50 65 20 50
65 20 50 65 20 50 65 20 50 65 20 50 65 20 50 64 20 50 64 20 50 64 20
50 64 20 49 64 20 49 64 20 49 64 20 49 64 20 49 64 20 49 64 20 49 63
20 49 63 20 49 63 20 49 63 20 49 63 20 49 63 20 49 63 20 49 63 20 49
63 20 49 63 20 49 63 20 49 62 20 48 62 20 48 62 20 48 62 20 48 62 20
48 62 20 48 62 20 48 62 20 48 62 20 48 62 20 48 62 20 48 61 20 48 61
20 48 61 20 48 61 20 48 61 20 48 61 20 48 61 20 48 61 20 48 61 20 48
61 20 47 61 20 47 60 20 47 60 20 47 60 20 47 60 20 47 60 20 47 60 20
47 60 20 47 60 20 47 60 20 47 60 20 47 60 20 47 59 20 47 59 20 47 59
20 47 59 20 47 59 20 47 59 20 47 59 20 47 59 20 46 59 20 46 59 20 46
59 20 46 59 20 46 58 20 46 58 20 46 58 20 46 58 20 46 58 20 46 58 20
46 58 20 46 58 20 46 58 20 46 58 20 46 58 20 46 58 20 46 57 20 46 57
20 46 57 20 46 57 20 46 57 20 46 57 20 45 57 20 45 57 20 45 57 20 45
57 20 45 57 20 45 57 20 45 56 20 45 56 20 45 56 20 45 56 20 45 56 20
45 56 20 45 56 20 45 56 20 45 56 20 45 56 20 45 56 20 45 56 20 45 56
20 45 55 20 45 55 41 66 63 41 66 63 41 66 63 41 66 63 41 66 63 42 66
62 42 66 62 42 66 62 42 66 62 42 66 62 42 66 62 42 66 62 42 66 62 42
66 62 42 66 62 42 66 62 42 66 62 42 66 62 42 66 62 42 66 62 42 66 61
42 66 61 42 66 61 42 66 61 42 65 61 42 65 61 42 65 61 42 65 61 42 65
61 42 65 61 42 65 61 42 65 61 42 65 61 42 65 61 42 65 61 42 65 61 42
65 61 42 65 60 42 65 60 42 65 60 42 65 60 42 65 60 42 65 60 42 65 60
42 65 60 43 65 60 43 65 60 43 65 60 43 65 60 43 65 60 43 65 60 43 65
60 43 65 60 43 65 60 43 65 60 43 65 59 43 65 59 43 65 59 43 65 59 43
65 59 43 65 59 43 65 59 43 65 59 43 65 59 43 65 59 43 65 59 43 65 59
43 65 59 43 65 59 43 65 59 43 65 59 43 65 59 43 65 59 43 65 58 43 65
58 43 65 58 43 65 58 43 65 58 43 65 58 43 65 58 43 65 58 43 65 58 43
65 58 43 65 58 43 65 58 43 65 58 43 65 58 43 65 58 43 65 58 43 65 58
44 65 58 44 65 58 44 65 58 44 65 57 44 65 57 44 65 57 44 65 57 44 65
57 44 65 57 44 65 57 44 65 57 44 65 57 44 65 57 44 65 57 44 65 57 44
65 57 44 65 57 44 64 57 44 64 57 44 64 57 44 64 57 44 64 57 44 64 57
44 64 56 44 64 56 44 64 56 44 64 56 44 64 56 44 64 56 44 64 56 44 64
56 44 64 56 44 64 56 44 64 56 44 64 56 44 64 56 44 64 56 44 64 56 44
64 56 44 64 56 44 64 56 44 64 56 44 64 56 44 64 56 44 64 56 44 64 55
44 64 55 44 64 55 44 64 55 44 64 55 44 64 55 44 64 55 44 64 55 44 64
55 44 64 55 44 64 55 44 64 55 44 64 55 44 64 55 44 64 55 44 64 55 44
64 55 44 64 55 44 64 55 45 64 55 45 64 55 45 64 55 45 64 55 45 64 54
45 64 54 45 64 54 45 64 54 45 64 54 45 64 54 45 64 54 45 64 54 45 64
54 45 64 54 45 64 54 45 64 54 45 64 54 45 64 54 45 64 54 45 64 54 45
64 54 45 64 54 45 63 54 45 63 54 45 63 54 45 63 54 45 63 54 45 63 54
45 63 53 45 63 53 45 63 53 45 63 53 45 63 53 45 63 53 45 63 53 45 63
53 45 63 53 45 63 53 45 63 53 45 63 53 45 63 53 45 63 53 45 63 53 45
63 53 45 63 53 45 63 53 45 63 53 45 63 53 45 63 53 45 63 53 45 63 53
45 63 53 45 63 52 45 63 52 45 63 52 45 63 52 45 63 52 45 63 52 45 63
52 45 63 52 45 63 52 45 63 52 45 63 52 45 63 52 45 63 52 45 63 52 45
63 52 45 63 52 45 63 52 45 63 52 45 63 52 45 62 52 45 62 52 45 62 52
45 62 52 45 62 52 45 62 52 45 62 52 45 62 51 45 62 51 45 62 51 45 62
51 45 62 51 45 62 51 45 62 51 45 62 51 45 62 51 45 62 51 45 62 51 45
62 51 45 62 51 45 62 51 45 62 51 45 62 51 45 62 51 45 62 51 45 62 51
45 62 51 45 62 51 45 62 51 45 62 51 45 62 51 45 62 51 45 62 51 45 62
50 45 62 50
20 51 68 20 51 68 20 51 68 20 51 67 20 51 67 20 51 67 20 51 67 20 51
67 20 51 67 20 51 67 20 51 67 20 51 67 20 51 67 20 51 66 20 51 66 20
51 66 20 51 66 20 51 66 20 50 66 20 50 66 20 50 66 20 50 66 20 50 66
20 50 65 20 50 65 20 50 65 20 50 65 20 50 65 20 50 65 20 50 65 20 50
65 20 50 65 20 50 65 20 50 64 20 50 64 20 50 64 20 49 64 20 49 64 20
49 64 20 49 64 20 49 64 20 49 64 20 49 64 20 49 63 20 49 63 20 49 63
20 49 63 20 49 63 20 49 63 20 49 63 20 49 63 20 49 63 20 49 63 20 49
63 20 49 62 20 48 62 20 48 62 20 48 62 20 48 62 20 48 62 20 48 62 20
48 62 20 48 62 20 48 62 20 48 62 20 48 61 20 48 61 20 48 61 20 48 61
20 48 61 20 48 61 20 48 61 20 48 61 20 48 61 20 48 61 20 47 61 20 47
60 20 47 60 20 47 60 20 47 60 20 47 60 20 47 60 20 47 60 20 47 60 20
47 60 20 47 60 20 47 60 20 47 59 20 47 59 20 47 59 20 47 59 20 47 59
20 47 59 20 47 59 20 47 59 20 47 59 20 46 59 20 46 59 20 46 59 20 46
58 20 46 58 20 46 58 20 46 58 20 46 58 20 46 58 20 46 58 20 46 58 20
46 58 20 46 58 20 46 58 20 46 58 20 46 57 20 46 57 20 46 57 20 46 57
20 46 57 20 46 57 20 46 57 20 45 57 20 45 57 20 45 57 20 45 57 20 45
57 20 45 57 20 45 56 20 45 56 20 45 56 20 45 56 20 45 56 20 45 56 20
45 56 20 45 56 20 45 56 20 45 56 20 45 56 20 45 56 20 45 56 20 45 55
20 45 55 41 66 63 41 66 63 41 66 63 41 66 63 41 66 62 41 66 62 41 66
62 41 66 62 42 66 62 42 66 62 42 66 62 42 66 62 42 66 62 42 66 62 42
66 62 42 66 62 42 66 62 42 66 62 42 66 62 42 65 62 42 65 61 42 65 61
42 65 61 42 65 61 42 65 61 42 65 61 42 65 61 42 65 61 42 65 61 42 65
61 42 65 61 42 65 61 42 65 61 42 65 61 42 65 61 42 65 61 42 65 61 42
65 60 42 65 60 42 65 60 42 65 60 42 65 60 42 65 60 42 65 60 42 65 60
42 65 60 42 65 60 42 65 60 43 65 60 43 65 60 43 65 60 43 65 60 43 65
60 43 65 60 43 65 59 43 65 59 43 65 59 43 65 59 43 65 59 43 65 59 43
65 59 43 65 59 43 65 59 43 65 59 43 65 59 43 65 59 43 65 59 43 65 59
43 65 59 43 65 59 43 65 59 43 65 59 43 65 59 43 65 58 43 65 58 43 65
58 43 65 58 43 65 58 43 65 58 43 65 58 43 65 58 43 65 58 43 65 58 43
65 58 43 65 58 43 65 58 43 65 58 43 65 58 43 65 58 43 65 58 43 65 58
43 65 58 43 65 58 43 65 57 43 65 57 44 65 57 44 65 57 44 65 57 44 65
57 44 65 57 44 65 57 44 64 57 44 64 57 44 64 57 44 64 57 44 64 57 44
64 57 44 64 57 44 64 57 44 64 57 44 64 57 44 64 57 44 64 57 44 64 57
44 64 56 44 64 56 44 64 56 44 64 56 44 64 56 44 64 56 44 64 56 44 64
56 44 64 56 44 64 56 44 64 56 44 64 56 44 64 56 44 64 56 44 64 56 44
64 56 44 64 56 44 64 56 44 64 56 44 64 56 44 64 56 44 64 55 44 64 55
44 64 55 44 64 55 44 64 55 44 64 55 44 64 55 44 64 55 44 64 55 44 64
55 44 64 55 44 64 55 44 64 55 44 64 55 44 64 55 44 64 55 44 64 55 44
64 55 44 64 55 44 64 55 44 64 55 44 64 55 44 64 55 44 64 54 44 64 54
44 64 54 44 64 54 44 64 54 44 64 54 45 64 54 45 64 54 45 64 54 45 64
54 45 64 54 45 64 54 45 64 54 45 64 54 45 63 54 45 63 54 45 63 54 45
63 54 45 63 54 45 63 54 45 63 54 45 63 54 45 63 54 45 63 54 45 63 53
45 63 53 45 63 53 45 63 53 45 63 53 45 63 53 45 63 53 45 63 53 45 63
53 45 63 53 45 63 53 45 63 53 45 63 53 45 63 53 45 63 53 45 63 53 45
63 53 45 63 53 45 63 53 45 63 53 45 63 53 45 63 53 45 63 53 45 63 53
45 63 53 45 63 52 45 63 52 45 63 52 45 63 52 45 63 52 45 63 52 45 63
52 45 63 52 45 63 52 45 63 52 45 63 52 45 63 52 45 63 52 45 63 52 45
63 52 45 63 52 45 62 52 45 62 52 45 62 52 45 62 52 45 62 52 45 62 52
45 62 52 45 62 52 45 62 52 45 62 52 45 62 51 45 62 51 45 62 51 45 62
51 45 62 51 45 62 51 45 62 51 45 62 51 45 62 51 45 62 51 45 62 51 45
62 51 45 62 51 45 62 51 45 62 51 45 62 51 45 62 51 45 62 51 45 62 51
45 62 51 45 62 51 45 62 51 45 62 51 45 62 51 45 62 51 45 62 51 45 62
50 45 62 50
20 51 67 20 51 67 20 51 67 20 51 67 20 51 67 20 51 67 20 51 67 20 51
67 20 51 67 20 51 67 20 51 66 20 51 66 20 51 66 20 51 66 20 51 66 20
51 66 20 50 66 20 50 66 20 50 66 20 50 66 20 50 65 20 50 65 20 50 65
20 50 65 20 50 65 20 50 65 20 50 65 20 50 65 20 50 65 20 50 65 20 50
65 20 50 64 20 50 64 20 50 64 20 49 64 20 49 64 20 49 64 20 49 64 20
49 64 20 49 64 20 49 64 20 49 63 20 49 63 20 49 63 20 49 63 20 49 63
20 49 63 20 49 63 20 49 63 20 49 63 20 49 63 20 49 63 20 49 62 20 48
62 20 48 62 20 48 62 20 48 62 20 48 62 20 48 62 20 48 62 20 48 62 20
48 62 20 48 62 20 48 61 20 48 61 20 48 61 20 48 61 20 48 61 20 48 61
20 48 61 20 48 61 20 48 61 20 48 61 20 47 61 20 47 60 20 47 60 20 47
60 20 47 60 20 47 60 20 47 60 20 47 60 20 47 60 20 47 60 20 47 60 20
47 60 20 47 60 20 47 59 20 47 59 20 47 59 20 47 59 20 47 59 20 47 59
20 47 59 20 47 59 20 46 59 20 46 59 20 46 59 20 46 59 20 46 58 20 46
58 20 46 58 20 46 58 20 46 58 20 46 58 20 46 58 20 46 58 20 46 58 20
46 58 20 46 58 20 46 58 20 46 57 20 46 57 20 46 57 20 46 57 20 46 57
20 46 57 20 46 57 20 45 57 20 45 57 20 45 57 20 45 57 20 45 57 20 45
57 20 45 56 20 45 56 20 45 56 20 45 56 20 45 56 20 45 56 20 45 56 20
45 56 20 45 56 20 45 56 20 45 56 20 45 56 20 45 56 20 45 55 20 45 55
41 66 63 41 66 63 41 66 63 41 66 62 41 66 62 41 66 62 41 66 62 41 66
62 41 66 62 41 66 62 42 66 62 42 66 62 42 66 62 42 66 62 42 65 62 42
65 62 42 65 62 42 65 62 42 65 62 42 65 61 42 65 61 42 65 61 42 65 61
42 65 61 42 65 61 42 65 61 42 65 61 42 65 61 42 65 61 42 65 61 42 65
61 42 65 61 42 65 61 42 65 61 42 65 61 42 65 61 42 65 60 42 65 60 42
65 60 42 65 60 42 65 60 42 65 60 42 65 60 42 65 60 42 65 60 42 65 60
42 65 60 42 65 60 42 65 60 42 65 60 42 65 60 42 65 60 43 65 60 43 65
60 43 65 59 43 65 59 43 65 59 43 65 59 43 65 59 43 65 59 43 65 59 43
65 59 43 65 59 43 65 59 43 65 59 43 65 59 43 65 59 43 65 59 43 65 59
43 65 59 43 65 59 43 65 59 43 65 59 43 65 58 43 65 58 43 65 58 43 65
58 43 65 58 43 65 58 43 65 58 43 65 58 43 65 58 43 65 58 43 65 58 43
65 58 43 65 58 43 65 58 43 65 58 43 65 58 43 65 58 43 65 58 43 65 58
43 65 58 43 65 57 43 64 57 43 64 57 43 64 57 43 64 57 43 64 57 43 64
57 44 64 57 44 64 57 44 64 57 44 64 57 44 64 57 44 64 57 44 64 57 44
64 57 44 64 57 44 64 57 44 64 57 44 64 57 44 64 57 44 64 57 44 64 56
44 64 56 44 64 56 44 64 56 44 64 56 44 64 56 44 64 56 44 64 56 44 64
56 44 64 56 44 64 56 44 64 56 44 64 56 44 64 56 44 64 56 44 64 56 44
64 56 44 64 56 44 64 56 44 64 56 44 64 56 44 64 56 44 64 55 44 64 55
44 64 55 44 64 55 44 64 55 44 64 55 44 64 55 44 64 55 44 64 55 44 64
55 44 64 55 44 64 55 44 64 55 44 64 55 44 64 55 44 64 55 44 64 55 44
64 55 44 64 55 44 64 55 44 64 55 44 64 55 44 64 55 44 64 54 44 64 54
44 64 54 44 64 54 44 64 54 44 64 54 44 64 54 44 64 54 44 64 54 44 64
54 44 63 54 44 63 54 44 63 54 44 63 54 44 63 54 44 63 54 44 63 54 45
63 54 45 63 54 45 63 54 45 63 54 45 63 54 45 63 54 45 63 54 45 63 53
45 63 53 45 63 53 45 63 53 45 63 53 45 63 53 45 63 53 45 63 53 45 63
53 45 63 53 45 63 53 45 63 53 45 63 53 45 63 53 45 63 53 45 63 53 45
63 53 45 63 53 45 63 53 45 63 53 45 63 53 45 63 53 45 63 53 45 63 53
45 63 53 45 63 52 45 63 52 45 63 52 45 63 52 45 63 52 45 63 52 45 63
52 45 63 52 45 63 52 45 63 52 45 63 52 45 63 52 45 63 52 45 62 52 45
62 52 45 62 52 45 62 52 45 62 52 45 62 52 45 62 52 45 62 52 45 62 52
45 62 52 45 62 52 45 62 52 45 62 52 45 62 51 45 62 51 45 62 51 45 62
51 45 62 51 45 62 51 45 62 51 45 62 51 45 62 51 45 62 51 45 62 51 45
62 51 45 62 51 45 62 51 45 62 51 45 62 51 45 62 51 45 62 51 45 62 51
45 62 51 44 62 51 44 62 51 44 62 51 44 62 51 44 62 51 44 62 51 44 62
50 19 37 42
20 51 67 20 51 67 20 51 67 20 51 67 20 51 67 20 51 67 20 51 67 20 51
67 20 51 66 20 51 66 20 51 66 20 51 66 20 51 66 20 50 66 20 50 66 20
50 66 20 50 66 20 50 66 20 50 65 20 50 65 20 50 65 20 50 65 20 50 65
20 50 65 20 50 65 20 50 65 20 50 65 20 50 65 20 50 64 20 50 64 20 50
64 20 50 64 20 49 64 20 49 64 20 49 64 20 49 64 20 49 64 20 49 64 20
49 64 20 49 63 20 49 63 20 49 63 20 49 63 20 49 63 20 49 63 20 49 63
20 49 63 20 49 63 20 49 63 20 49 63 20 49 62 20 48 62 20 48 62 20 48
62 20 48 62 20 48 62 20 48 62 20 48 62 20 48 62 20 48 62 20 48 62 20
48 61 20 48 61 20 48 61 20 48 61 20 48 61 20 48 61 20 48 61 20 48 61
20 48 61 20 48 61 20 47 61 20 47 60 20 47 60 20 47 60 20 47 60 20 47
60 20 47 60 20 47 60 20 47 60 20 47 60 20 47 60 20 47 60 20 47 60 20
47 59 20 47 59 20 47 59 20 47 59 20 47 59 20 47 59 20 47 59 20 47 59
20 47 59 20 46 59 20 46 59 20 46 59 20 46 58 20 46 58 20 46 58 20 46
58 20 46 58 20 46 58 20 46 58 20 46 58 20 46 58 20 46 58 20 46 58 20
46 58 20 46 58 20 46 57 20 46 57 20 46 57 20 46 57 20 46 57 20 46 57
20 45 57 20 45 57 20 45 57 20 45 57 20 45 57 20 45 57 20 45 56 20 45
56 20 45 56 20 45 56 20 45 56 20 45 56 20 45 56 20 45 56 20 45 56 20
45 56 20 45 56 20 45 56 20 45 56 20 45 56 20 45 55 20 45 55 20 45 55
41 66 63 41 66 63 41 66 62 41 66 62 41 66 62 41 66 62 41 66 62 41 66
62 41 65 62 41 65 62 41 65 62 41 65 62 42 65 62 42 65 62 42 65 62 42
65 62 42 65 62 42 65 62 42 65 61 42 65 61 42 65 61 42 65 61 42 65 61
42 65 61 42 65 61 42 65 61 42 65 61 42 65 61 42 65 61 42 65 61 42 65
61 42 65 61 42 65 61 42 65 61 42 65 61 42 65 60 42 65 60 42 65 60 42
65 60 42 65 60 42 65 60 42 65 60 42 65 60 42 65 60 42 65 60 42 65 60
42 65 60 42 65 60 42 65 60 42 65 60 42 65 60 42 65 60 42 65 60 42 65
59 42 65 59 43 65 59 43 65 59 43 65 59 43 65 59 43 65 59 43 65 59 43
65 59 43 65 59 43 65 59 43 65 59 43 65 59 43 65 59 43 65 59 43 65 59
43 65 59 43 65 59 43 65 59 43 65 58 43 65 58 43 65 58 43 65 58 43 65
58 43 65 58 43 65 58 43 65 58 43 65 58 43 65 58 43 65 58 43 65 58 43
65 58 43 65 58 43 65 58 43 64 58 43 64 58 43 64 58 43 64 58 43 64 58
43 64 57 43 64 57 43 64 57 43 64 57 43 64 57 43 64 57 43 64 57 43 64
57 43 64 57 43 64 57 43 64 57 43 64 57 44 64 57 44 64 57 44 64 57 44
64 57 44 64 57 44 64 57 44 64 57 44 64 57 44 64 57 44 64 56 44 64 56
44 64 56 44 64 56 44 64 56 44 64 56 44 64 56 44 64 56 44 64 56 44 64
56 44 64 56 44 64 56 44 64 56 44 64 56 44 64 56 44 64 56 44 64 56 44
64 56 44 64 56 44 64 56 44 64 56 44 64 56 44 64 55 44 64 55 44 64 55
44 64 55 44 64 55 44 64 55 44 64 55 44 64 55 44 64 55 44 64 55 44 64
55 44 64 55 44 64 55 44 64 55 44 64 55 44 64 55 44 64 55 44 64 55 44
64 55 44 64 55 44 64 55 44 64 55 44 64 55 44 64 54 44 64 54 44 64 54
44 64 54 44 64 54 44 64 54 44 63 54 44 63 54 44 63 54 44 63 54 44 63
54 44 63 54 44 63 54 44 63 54 44 63 54 44 63 54 44 63 54 44 63 54 44
63 54 44 63 54 44 63 54 44 63 54 44 63 54 44 63 54 44 63 54 44 63 53
44 63 53 44 63 53 44 63 53 44 63 53 44 63 53 44 63 53 45 63 53 45 63
53 45 63 53 45 63 53 45 63 53 45 63 53 45 63 53 45 63 53 45 63 53 45
63 53 45 63 53 45 63 53 45 63 53 45 63 53 45 63 53 45 63 53 45 63 53
45 63 53 45 63 52 45 63 52 45 63 52 45 63 52 45 63 52 45 63 52 45 63
52 45 63 52 45 63 52 45 63 52 45 62 52 45 62 52 45 62 52 45 62 52 45
62 52 45 62 52 45 62 52 45 62 52 45 62 52 45 62 52 45 62 52 45 62 52
45 62 52 45 62 52 45 62 52 45 62 52 45 62 51 45 62 51 45 62 51 45 62
51 45 62 51 45 62 51 45 62 51 45 62 51 44 62 51 44 62 51 44 62 51 44
62 51 44 62 51 44 62 51 44 62 51 44 62 51 44 62 51 44 62 51 44 62 51
44 62 51 44 62 51 44 62 51 44 62 51 44 62 51 44 62 51 44 61 51 44 61
50 19 37 42
20 51 67 20 51 67 20 51 67 20 51 67 20 51 67 20 51 66 20 51 66 20 51
66 20 51 66 20 51 66 20 51 66 20 50 66 20 50 66 20 50 66 20 50 66 20
50 66 20 50 65 20 50 65 20 50 65 20 50 65 20 50 65 20 50 65 20 50 65
20 50 65 20 50 65 20 50 65 20 50 64 20 50 64 20 50 64 20 50 64 20 49
64 20 49 64 20 49 64 20 49 64 20 49 64 20 49 64 20 49 64 20 49 63 20
49 63 20 49 63 20 49 63 20 49 63 20 49 63 20 49 63 20 49 63 20 49 63
20 49 63 20 49 63 20 49 62 20 48 62 20 48 62 20 48 62 20 48 62 20 48
62 20 48 62 20 48 62 20 48 62 20 48 62 20 48 62 20 48 61 20 48 61 20
48 61 20 48 61 20 48 61 20 48 61 20 48 61 20 48 61 20 48 61 20 48 61
20 48 61 20 47 61 20 47 60 20 47 60 20 47 60 20 47 60 20 47 60 20 47
60 20 47 60 20 47 60 20 47 60 20 47 60 20 47 60 20 47 59 20 47 59 20
47 59 20 47 59 20 47 59 20 47 59 20 47 59 20 47 59 20 47 59 20 46 59
20 46 59 20 46 59 20 46 59 20 46 58 20 46 58 20 46 58 20 46 58 20 46
58 20 46 58 20 46 58 20 46 58 20 46 58 20 46 58 20 46 58 20 46 58 20
46 57 20 46 57 20 46 57 20 46 57 20 46 57 20 46 57 20 46 57 20 45 57
20 45 57 20 45 57 20 45 57 20 45 57 20 45 57 20 45 56 20 45 56 20 45
56 20 45 56 20 45 56 20 45 56 20 45 56 20 45 56 20 45 56 20 45 56 20
45 56 20 45 56 20 45 56 20 45 56 20 45 55 20 45 55 20 45 55 41 66 63
41 66 62 41 66 62 41 65 62 41 65 62 41 65 62 41 65 62 41 65 62 41 65
62 41 65 62 41 65 62 41 65 62 41 65 62 41 65 62 41 65 62 42 65 62 42
65 62 42 65 62 42 65 61 42 65 61 42 65 61 42 65 61 42 65 61 42 65 61
42 65 61 42 65 61 42 65 61 42 65 61 42 65 61 42 65 61 42 65 61 42 65
61 42 65 61 42 65 61 42 65 61 42 65 60 42 65 60 42 65 60 42 65 60 42
65 60 42 65 60 42 65 60 42 65 60 42 65 60 42 65 60 42 65 60 42 65 60
42 65 60 42 65 60 42 65 60 42 65 60 42 65 60 42 65 60 42 65 59 42 65
59 42 65 59 42 65 59 42 65 59 43 65 59 43 65 59 43 65 59 43 65 59 43
65 59 43 65 59 43 65 59 43 65 59 43 65 59 43 65 59 43 65 59 43 65 59
43 65 59 43 65 59 43 65 58 43 65 58 43 65 58 43 65 58 43 65 58 43 65
58 43 65 58 43 65 58 43 65 58 43 64 58 43 64 58 43 64 58 43 64 58 43
64 58 43 64 58 43 64 58 43 64 58 43 64 58 43 64 58 43 64 58 43 64 57
43 64 57 43 64 57 43 64 57 43 64 57 43 64 57 43 64 57 43 64 57 43 64
57 43 64 57 43 64 57 43 64 57 43 64 57 43 64 57 43 64 57 43 64 57 43
64 57 44 64 57 44 64 57 44 64 57 44 64 57 44 64 56 44 64 56 44 64 56
44 64 56 44 64 56 44 64 56 44 64 56 44 64 56 44 64 56 44 64 56 44 64
56 44 64 56 44 64 56 44 64 56 44 64 56 44 64 56 44 64 56 44 64 56 44
64 56 44 64 56 44 64 56 44 64 56 44 64 55 44 64 55 44 64 55 44 64 55
44 64 55 44 64 55 44 64 55 44 64 55 44 64 55 44 64 55 44 64 55 44 64
55 44 64 55 44 64 55 44 64 55 44 64 55 44 64 55 44 64 55 44 64 55 44
64 55 44 64 55 44 64 55 44 64 55 44 64 55 44 64 54 44 63 54 44 63 54
44 63 54 44 63 54 44 63 54 44 63 54 44 63 54 44 63 54 44 63 54 44 63
54 44 63 54 44 63 54 44 63 54 44 63 54 44 63 54 44 63 54 44 63 54 44
63 54 44 63 54 44 63 54 44 63 54 44 63 54 44 63 54 44 63 53 44 63 53
44 63 53 44 63 53 44 63 53 44 63 53 44 63 53 44 63 53 44 63 53 44 63
53 44 63 53 44 63 53 44 63 53 44 63 53 44 63 53 44 63 53 44 63 53 44
63 53 44 63 53 44 63 53 44 63 53 44 63 53 44 63 53 44 63 53 44 63 53
44 63 52 44 63 52 44 63 52 44 63 52 44 63 52 44 63 52 44 63 52 44 63
52 44 62 52 44 62 52 44 62 52 44 62 52 44 62 52 44 62 52 44 62 52 44
62 52 44 62 52 44 62 52 44 62 52 44 62 52 44 62 52 44 62 52 44 62 52
44 62 52 44 62 52 44 62 52 44 62 52 44 62 51 44 62 51 44 62 51 44 62
51 44 62 51 44 62 51 44 62 51 44 62 51 44 62 51 44 62 51 44 62 51 44
62 51 44 62 51 44 62 51 44 62 51 44 62 51 44 62 51 44 62 51 44 62 51
44 62 51 44 62 51 44 62 51 44 62 51 44 62 51 44 61 51 44 61 51 44 61
50 19 37 42
20 51 67 20 51 67 20 51 67 20 51 66 20 51 66 20 51 66 20 51 66 20 51
66 20 50 66 20 50 66 20 50 66 20 50 66 20 50 66 20 50 65 20 50 65 20
50 65 20 50 65 20 50 65 20 50 65 20 50 65 20 50 65 20 50 65 20 50 65
20 50 65 20 50 64 20 50 64 20 50 64 20 49 64 20 49 64 20 49 64 20 49
64 20 49 64 20 49 64 20 49 64 20 49 64 20 49 63 20 49 63 20 49 63 20
49 63 20 49 63 20 49 63 20 49 63 20 49 63 20 49 63 20 49 63 20 49 63
20 49 62 20 48 62 20 48 62 20 48 62 20 48 62 20 48 62 20 48 62 20 48
62 20 48 62 20 48 62 20 48 62 20 48 61 20 48 61 20 48 61 20 48 61 20
48 61 20 48 61 20 48 61 20 48 61 20 48 61 20 48 61 20 48 61 20 47 61
20 47 60 20 47 60 20 47 60 20 47 60 20 47 60 20 47 60 20 47 60 20 47
60 20 47 60 20 47 60 20 47 60 20 47 60 20 47 59 20 47 59 20 47 59 20
47 59 20 47 59 20 47 59 20 47 59 20 47 59 20 46 59 20 46 59 20 46 59
20 46 59 20 46 58 20 46 58 20 46 58 20 46 58 20 46 58 20 46 58 20 46
58 20 46 58 20 46 58 20 46 58 20 46 58 20 46 58 20 46 58 20 46 57 20
46 57 20 46 57 20 46 57 20 46 57 20 46 57 20 45 57 20 45 57 20 45 57
20 45 57 20 45 57 20 45 57 20 45 57 20 45 56 20 45 56 20 45 56 20 45
56 20 45 56 20 45 56 20 45 56 20 45 56 20 45 56 20 45 56 20 45 56 20
45 56 20 45 56 20 45 55 20 45 55 20 45 55 20 45 55 41 65 63 41 65 62
41 65 62 41 65 62 41 65 62 41 65 62 41 65 62 41 65 62 41 65 62 41 65
62 41 65 62 41 65 62 41 65 62 41 65 62 41 65 62 41 65 62 41 65 62 41
65 61 42 65 61 42 65 61 42 65 61 42 65 61 42 65 61 42 65 61 42 65 61
42 65 61 42 65 61 42 65 61 42 65 61 42 65 61 42 65 61 42 65 61 42 65
61 42 65 61 42 65 60 42 65 60 42 65 60 42 65 60 42 65 60 42 65 60 42
65 60 42 65 60 42 65 60 42 65 60 42 65 60 42 65 60 42 65 60 42 65 60
42 65 60 42 65 60 42 65 60 42 65 60 42 65 59 42 65 59 42 65 59 42 65
59 42 65 59 42 65 59 42 65 59 42 65 59 42 65 59 42 65 59 43 65 59 43
65 59 43 65 59 43 65 59 43 65 59 43 65 59 43 65 59 43 65 59 43 65 59
43 65 59 43 65 58 43 65 58 43 65 58 43 64 58 43 64 58 43 64 58 43 64
58 43 64 58 43 64 58 43 64 58 43 64 58 43 64 58 43 64 58 43 64 58 43
64 58 43 64 58 43 64 58 43 64 58 43 64 58 43 64 58 43 64 57 43 64 57
43 64 57 43 64 57 43 64 57 43 64 57 43 64 57 43 64 57 43 64 57 43 64
57 43 64 57 43 64 57 43 64 57 43 64 57 43 64 57 43 64 57 43 64 57 43
64 57 43 64 57 43 64 57 43 64 57 43 64 56 43 64 56 44 64 56 44 64 56
44 64 56 44 64 56 44 64 56 44 64 56 44 64 56 44 64 56 44 64 56 44 64
56 44 64 56 44 64 56 44 64 56 44 64 56 44 64 56 44 64 56 44 64 56 44
64 56 44 64 56 44 64 56 44 64 56 44 64 55 44 64 55 44 64 55 44 64 55
44 64 55 44 64 55 44 64 55 44 64 55 44 64 55 44 64 55 44 64 55 44 64
55 44 64 55 44 64 55 44 64 55 44 64 55 44 64 55 44 64 55 44 64 55 44
63 55 44 63 55 44 63 55 44 63 55 44 63 54 44 63 54 44 63 54 44 63 54
44 63 54 44 63 54 44 63 54 44 63 54 44 63 54 44 63 54 44 63 54 44 63
54 44 63 54 44 63 54 44 63 54 44 63 54 44 63 54 44 63 54 44 63 54 44
63 54 44 63 54 44 63 54 44 63 54 44 63 54 44 63 54 44 63 53 44 63 53
44 63 53 44 63 53 44 63 53 44 63 53 44 63 53 44 63 53 44 63 53 44 63
53 44 63 53 44 63 53 44 63 53 44 63 53 44 63 53 44 63 53 44 63 53 44
63 53 44 63 53 44 63 53 44 63 53 44 63 53 44 63 53 44 63 53 44 63 53
44 63 52 44 63 52 44 63 52 44 63 52 44 63 52 44 62 52 44 62 52 44 62
52 44 62 52 44 62 52 44 62 52 44 62 52 44 62 52 44 62 52 44 62 52 44
62 52 44 62 52 44 62 52 44 62 52 44 62 52 44 62 52 44 62 52 44 62 52
44 62 52 44 62 52 44 62 52 44 62 52 44 62 51 44 62 51 44 62 51 44 62
51 44 62 51 44 62 51 44 62 51 44 62 51 44 62 51 44 62 51 44 62 51 44
62 51 44 62 51 44 62 51 44 62 51 44 62 51 44 62 51 44 62 51 44 62 51
44 62 51 44 62 51 44 62 51 44 61 51 44 61 51 44 61 51 44 61 51 19 37
42 19 37 42
20 51 66 20 51 66 20 51 66 20 51 66 20 51 66 20 51 66 20 50 66 20 50
66 20 50 66 20 50 66 20 50 66 20 50 65 20 50 65 20 50 65 20 50 65 20
50 65 20 50 65 20 50 65 20 50 65 20 50 65 20 50 65 20 50 64 20 50 64
20 50 64 20 50 64 20 49 64 20 49 64 20 49 64 20 49 64 20 49 64 20 49
64 20 49 64 20 49 63 20 49 63 20 49 63 20 49 63 20 49 63 20 49 63 20
49 63 20 49 63 20 49 63 20 49 63 20 49 63 20 49 63 20 49 62 20 48 62
20 48 62 20 48 62 20 48 62 20 48 62 20 48 62 20 48 62 20 48 62 20 48
62 20 48 62 20 48 61 20 48 61 20 48 61 20 48 61 20 48 61 20 48 61 20
48 61 20 48 61 20 48 61 20 48 61 20 48 61 20 47 61 20 47 60 20 47 60
20 47 60 20 47 60 20 47 60 20 47 60 20 47 60 20 47 60 20 47 60 20 47
60 20 47 60 20 47 60 20 47 59 20 47 59 20 47 59 20 47 59 20 47 59 20
47 59 20 47 59 20 47 59 20 47 59 20 46 59 20 46 59 20 46 59 20 46 58
20 46 58 20 46 58 20 46 58 20 46 58 20 46 58 20 46 58 20 46 58 20 46
58 20 46 58 20 46 58 20 46 58 20 46 58 20 46 57 20 46 57 20 46 57 20
46 57 20 46 57 20 46 57 20 46 57 20 45 57 20 45 57 20 45 57 20 45 57
20 45 57 20 45 57 20 45 56 20 45 56 20 45 56 20 45 56 20 45 56 20 45
56 20 45 56 20 45 56 20 45 56 20 45 56 20 45 56 20 45 56 20 45 56 20
45 56 20 45 55 20 45 55 20 45 55 20 45 55 41 65 62 41 65 62 41 65 62
41 65 62 41 65 62 41 65 62 41 65 62 41 65 62 41 65 62 41 65 62 41 65
62 41 65 62 41 65 62 41 65 62 41 65 62 41 65 62 41 65 62 41 65 61 41
65 61 41 65 61 41 65 61 42 65 61 42 65 61 42 65 61 42 65 61 42 65 61
42 65 61 42 65 61 42 65 61 42 65 61 42 65 61 42 65 61 42 65 61 42 65
61 42 65 60 42 65 60 42 65 60 42 65 60 42 65 60 42 65 60 42 65 60 42
65 60 42 65 60 42 65 60 42 65 60 42 65 60 42 65 60 42 65 60 42 65 60
42 65 60 42 65 60 42 65 60 42 65 59 42 65 59 42 65 59 42 65 59 42 65
59 42 65 59 42 65 59 42 65 59 42 65 59 42 65 59 42 65 59 42 65 59 42
65 59 42 65 59 43 65 59 43 65 59 43 65 59 43 64 59 43 64 59 43 64 58
43 64 58 43 64 58 43 64 58 43 64 58 43 64 58 43 64 58 43 64 58 43 64
58 43 64 58 43 64 58 43 64 58 43 64 58 43 64 58 43 64 58 43 64 58 43
64 58 43 64 58 43 64 58 43 64 58 43 64 58 43 64 57 43 64 57 43 64 57
43 64 57 43 64 57 43 64 57 43 64 57 43 64 57 43 64 57 43 64 57 43 64
57 43 64 57 43 64 57 43 64 57 43 64 57 43 64 57 43 64 57 43 64 57 43
64 57 43 64 57 43 64 57 43 64 56 43 64 56 43 64 56 43 64 56 43 64 56
43 64 56 43 64 56 44 64 56 44 64 56 44 64 56 44 64 56 44 64 56 44 64
56 44 64 56 44 64 56 44 64 56 44 64 56 44 64 56 44 64 56 44 64 56 44
64 56 44 64 56 44 64 56 44 64 55 44 64 55 44 64 55 44 64 55 44 64 55
44 64 55 44 64 55 44 64 55 44 64 55 44 64 55 44 64 55 44 64 55 44 64
55 44 64 55 44 64 55 44 63 55 44 63 55 44 63 55 44 63 55 44 63 55 44
63 55 44 63 55 44 63 55 44 63 54 44 63 54 44 63 54 44 63 54 44 63 54
44 63 54 44 63 54 44 63 54 44 63 54 44 63 54 44 63 54 44 63 54 44 63
54 44 63 54 44 63 54 44 63 54 44 63 54 44 63 54 44 63 54 44 63 54 44
63 54 44 63 54 44 63 54 44 63 54 44 63 54 44 63 53 44 63 53 44 63 53
44 63 53 44 63 53 44 63 53 44 63 53 44 63 53 44 63 53 44 63 53 44 63
53 44 63 53 44 63 53 44 63 53 44 63 53 44 63 53 44 63 53 44 63 53 44
63 53 44 63 53 44 63 53 44 63 53 44 63 53 44 63 53 44 63 53 44 63 53
44 63 52 44 62 52 44 62 52 44 62 52 44 62 52 44 62 52 44 62 52 44 62
52 44 62 52 44 62 52 44 62 52 44 62 52 44 62 52 44 62 52 44 62 52 44
62 52 44 62 52 44 62 52 44 62 52 44 62 52 44 62 52 44 62 52 44 62 52
44 62 52 44 62 52 44 62 52 44 62 51 44 62 51 44 62 51 44 62 51 44 62
51 44 62 51 44 62 51 44 62 51 44 62 51 44 62 51 44 62 51 44 62 51 44
62 51 44 62 51 44 62 51 44 62 51 44 62 51 44 62 51 44 62 51 44 62 51
44 61 51 44 61 51 44 61 51 44 61 51 44 61 51 44 61 51 44 61 51 19 37
42 19 37 42
20 51 66 20 51 66 20 51 66 20 50 66 20 50 66 20 50 66 20 50 66 20 50
66 20 50 65 20 50 65 20 50 65 20 50 65 20 50 65 20 50 65 20 50 65 20
50 65 20 50 65 20 50 65 20 50 65 20 50 64 20 50 64 20 50 64 20 50 64
20 49 64 20 49 64 20 49 64 20 49 64 20 49 64 20 49 64 20 49 64 20 49
63 20 49 63 20 49 63 20 49 63 20 49 63 20 49 63 20 49 63 20 49 63 20
49 63 20 49 63 20 49 63 20 49 63 20 49 62 20 48 62 20 48 62 20 48 62
20 48 62 20 48 62 20 48 62 20 48 62 20 48 62 20 48 62 20 48 62 20 48
61 20 48 61 20 48 61 20 48 61 20 48 61 20 48 61 20 48 61 20 48 61 20
48 61 20 48 61 20 48 61 20 47 61 20 47 60 20 47 60 20 47 60 20 47 60
20 47 60 20 47 60 20 47 60 20 47 60 20 47 60 20 47 60 20 47 60 20 47
60 20 47 59 20 47 59 20 47 59 20 47 59 20 47 59 20 47 59 20 47 59 20
47 59 20 47 59 20 46 59 20 46 59 20 46 59 20 46 59 20 46 58 20 46 58
20 46 58 20 46 58 20 46 58 20 46 58 20 46 58 20 46 58 20 46 58 20 46
58 20 46 58 20 46 58 20 46 58 20 46 57 20 46 57 20 46 57 20 46 57 20
46 57 20 46 57 20 45 57 20 45 57 20 45 57 20 45 57 20 45 57 20 45 57
20 45 57 20 45 56 20 45 56 20 45 56 20 45 56 20 45 56 20 45 56 20 45
56 20 45 56 20 45 56 20 45 56 20 45 56 20 45 56 20 45 56 20 45 56 20
45 55 20 45 55 20 45 55 20 45 55 41 65 62 41 65 62 41 65 62 41 65 62
41 65 62 41 65 62 41 65 62 41 65 62 41 65 62 41 65 62 41 65 62 41 65
62 41 65 62 41 65 62 41 65 62 41 65 62 41 65 61 41 65 61 41 65 61 41
65 61 41 65 61 41 65 61 41 65 61 41 65 61 42 65 61 42 65 61 42 65 61
42 65 61 42 65 61 42 65 61 42 65 61 42 65 61 42 65 61 42 65 61 42 65
60 42 65 60 42 65 60 42 65 60 42 65 60 42 65 60 42 65 60 42 65 60 42
65 60 42 65 60 42 65 60 42 65 60 42 65 60 42 65 60 42 65 60 42 65 60
42 65 60 42 65 60 42 65 59 42 65 59 42 65 59 42 65 59 42 65 59 42 65
59 42 65 59 42 65 59 42 65 59 42 65 59 42 65 59 42 64 59 42 64 59 42
64 59 42 64 59 42 64 59 42 64 59 42 64 59 43 64 59 43 64 58 43 64 58
43 64 58 43 64 58 43 64 58 43 64 58 43 64 58 43 64 58 43 64 58 43 64
58 43 64 58 43 64 58 43 64 58 43 64 58 43 64 58 43 64 58 43 64 58 43
64 58 43 64 58 43 64 58 43 64 58 43 64 57 43 64 57 43 64 57 43 64 57
43 64 57 43 64 57 43 64 57 43 64 57 43 64 57 43 64 57 43 64 57 43 64
57 43 64 57 43 64 57 43 64 57 43 64 57 43 64 57 43 64 57 43 64 57 43
64 57 43 64 57 43 64 56 43 64 56 43 64 56 43 64 56 43 64 56 43 64 56
43 64 56 43 64 56 43 64 56 43 64 56 43 64 56 43 64 56 43 64 56 44 64
56 44 64 56 44 64 56 44 64 56 44 64 56 44 64 56 44 64 56 44 64 56 44
64 56 44 64 56 44 64 55 44 64 55 44 64 55 44 64 55 44 64 55 44 64 55
44 64 55 44 64 55 44 64 55 44 64 55 44 63 55 44 63 55 44 63 55 44 63
55 44 63 55 44 63 55 44 63 55 44 63 55 44 63 55 44 63 55 44 63 55 44
63 55 44 63 55 44 63 55 44 63 54 44 63 54 44 63 54 44 63 54 44 63 54
44 63 54 44 63 54 44 63 54 44 63 54 44 63 54 44 63 54 44 63 54 44 63
54 44 63 54 44 63 54 44 63 54 44 63 54 44 63 54 44 63 54 44 63 54 44
63 54 44 63 54 44 63 54 44 63 54 44 63 54 44 63 53 44 63 53 44 63 53
44 63 53 44 63 53 44 63 53 44 63 53 44 63 53 44 63 53 44 63 53 44 63
53 44 63 53 44 63 53 44 63 53 44 63 53 44 63 53 44 63 53 44 63 53 44
63 53 44 63 53 44 63 53 44 63 53 44 63 53 44 63 53 44 62 53 44 62 53
44 62 52 44 62 52 44 62 52 44 62 52 44 62 52 44 62 52 44 62 52 44 62
52 44 62 52 44 62 52 44 62 52 44 62 52 44 62 52 44 62 52 44 62 52 44
62 52 44 62 52 44 62 52 44 62 52 44 62 52 44 62 52 44 62 52 44 62 52
44 62 52 44 62 52 44 62 52 44 62 51 44 62 51 44 62 51 44 62 51 44 62
51 44 62 51 44 62 51 44 62 51 44 62 51 44 62 51 44 62 51 44 62 51 44
62 51 44 62 51 44 62 51 44 62 51 44 62 51 44 62 51 44 61 51 44 61 51
44 61 51 44 61 51 44 61 51 44 61 51 44 61 51 44 61 51 44 61 51 19 37
42 19 37 42
20 51 66 20 50 66 20 50 66 20 50 66 20 50 66 20 50 66 20 50 65 20 50
65 20 50 65 20 50 65 20 50 65 20 50 65 20 50 65 20 50 65 20 50 65 20
50 65 20 50 65 20 50 64 20 50 64 20 50 64 20 50 64 20 49 64 20 49 64
20 49 64 20 49 64 20 49 64 20 49 64 20 49 64 20 49 63 20 49 63 20 49
63 20 49 63 20 49 63 20 49 63 20 49 63 20 49 63 20 49 63 20 49 63 20
49 63 20 49 62 20 49 62 20 48 62 20 48 62 20 48 62 20 48 62 20 48 62
20 48 62 20 48 62 20 48 62 20 48 62 20 48 62 20 48 61 20 48 61 20 48
61 20 48 61 20 48 61 20 48 61 20 48 61 20 48 61 20 48 61 20 48 61 20
48 61 20 47 61 20 47 60 20 47 60 20 47 60 20 47 60 20 47 60 20 47 60
20 47 60 20 47 60 20 47 60 20 47 60 20 47 60 20 47 60 20 47 59 20 47
59 20 47 59 20 47 59 20 47 59 20 47 59 20 47 59 20 47 59 20 47 59 20
47 59 20 46 59 20 46 59 20 46 59 20 46 58 20 46 58 20 46 58 20 46 58
20 46 58 20 46 58 20 46 58 20 46 58 20 46 58 20 46 58 20 46 58 20 46
58 20 46 58 20 46 57 20 46 57 20 46 57 20 46 57 20 46 57 20 46 57 20
46 57 20 45 57 20 45 57 20 45 57 20 45 57 20 45 57 20 45 57 20 45 57
20 45 56 20 45 56 20 45 56 20 45 56 20 45 56 20 45 56 20 45 56 20 45
56 20 45 56 20 45 56 20 45 56 20 45 56 20 45 56 20 45 56 20 45 55 20
45 55 20 45 55 20 45 55 20 44 55 41 65 62 41 65 62 41 65 62 41 65 62
41 65 62 41 65 62 41 65 62 41 65 62 41 65 62 41 65 62 41 65 62 41 65
62 41 65 62 41 65 62 41 65 62 41 65 61 41 65 61 41 65 61 41 65 61 41
65 61 41 65 61 41 65 61 41 65 61 41 65 61 41 65 61 41 65 61 42 65 61
42 65 61 42 65 61 42 65 61 42 65 61 42 65 61 42 65 60 42 65 60 42 65
60 42 65 60 42 65 60 42 65 60 42 65 60 42 65 60 42 65 60 42 65 60 42
65 60 42 65 60 42 65 60 42 65 60 42 65 60 42 65 60 42 65 60 42 65 60
42 65 60 42 65 59 42 65 59 42 65 59 42 65 59 42 65 59 42 65 59 42 64
59 42 64 59 42 64 59 42 64 59 42 64 59 42 64 59 42 64 59 42 64 59 42
64 59 42 64 59 42 64 59 42 64 59 42 64 59 42 64 58 42 64 58 42 64 58
43 64 58 43 64 58 43 64 58 43 64 58 43 64 58 43 64 58 43 64 58 43 64
58 43 64 58 43 64 58 43 64 58 43 64 58 43 64 58 43 64 58 43 64 58 43
64 58 43 64 58 43 64 58 43 64 57 43 64 57 43 64 57 43 64 57 43 64 57
43 64 57 43 64 57 43 64 57 43 64 57 43 64 57 43 64 57 43 64 57 43 64
57 43 64 57 43 64 57 43 64 57 43 64 57 43 64 57 43 64 57 43 64 57 43
64 57 43 64 56 43 64 56 43 64 56 43 64 56 43 64 56 43 64 56 43 64 56
43 64 56 43 64 56 43 64 56 43 64 56 43 64 56 43 64 56 43 64 56 43 64
56 43 64 56 43 64 56 43 64 56 43 64 56 44 64 56 44 64 56 44 64 56 44
64 56 44 64 55 44 64 55 44 64 55 44 64 55 44 64 55 44 64 55 44 63 55
44 63 55 44 63 55 44 63 55 44 63 55 44 63 55 44 63 55 44 63 55 44 63
55 44 63 55 44 63 55 44 63 55 44 63 55 44 63 55 44 63 55 44 63 55 44
63 55 44 63 55 44 63 54 44 63 54 44 63 54 44 63 54 44 63 54 44 63 54
44 63 54 44 63 54 44 63 54 44 63 54 44 63 54 44 63 54 44 63 54 44 63
54 44 63 54 44 63 54 44 63 54 44 63 54 44 63 54 44 63 54 44 63 54 44
63 54 44 63 54 44 63 54 44 63 54 44 63 53 44 63 53 44 63 53 44 63 53
44 63 53 44 63 53 44 63 53 44 63 53 44 63 53 44 63 53 44 63 53 44 63
53 44 63 53 44 63 53 44 63 53 44 63 53 44 63 53 44 63 53 44 63 53 44
63 53 44 63 53 44 62 53 44 62 53 44 62 53 44 62 53 44 62 53 44 62 52
44 62 52 44 62 52 44 62 52 44 62 52 44 62 52 44 62 52 44 62 52 44 62
52 44 62 52 44 62 52 44 62 52 44 62 52 44 62 52 44 62 52 44 62 52 44
62 52 44 62 52 44 62 52 44 62 52 44 62 52 44 62 52 44 62 52 44 62 52
44 62 52 44 62 52 44 62 52 44 62 51 44 62 51 44 62 51 44 62 51 44 62
51 44 62 51 44 62 51 44 62 51 44 62 51 44 62 51 44 62 51 44 62 51 44
62 51 44 62 51 44 62 51 44 62 51 44 61 51 44 61 51 44 61 51 44 61 51
44 61 51 44 61 51 44 61 51 44 61 51 44 61 51 44 61 51 44 61 51 19 37
42 19 37 42
20 50 66 20 50 66 20 50 66 20 50 65 20 50 65 20 50 65 20 50 65 20 50
65 20 50 65 20 50 65 20 50 65 20 50 65 20 50 65 20 50 65 20 50 64 20
50 64 20 50 64 20 50 64 20 49 64 20 49 64 20 49 64 20 49 64 20 49 64
20 49 64 20 49 64 20 49 64 20 49 63 20 49 63 20 49 63 20 49 63 20 49
63 20 49 63 20 49 63 20 49 63 20 49 63 20 49 63 20 49 63 20 49 62 20
49 62 20 48 62 20 48 62 20 48 62 20 48 62 20 48 62 20 48 62 20 48 62
20 48 62 20 48 62 20 48 62 20 48 61 20 48 61 20 48 61 20 48 61 20 48
61 20 48 61 20 48 61 20 48 61 20 48 61 20 48 61 20 48 61 20 47 61 20
47 60 20 47 60 20 47 60 20 47 60 20 47 60 20 47 60 20 47 60 20 47 60
20 47 60 20 47 60 20 47 60 20 47 60 20 47 60 20 47 59 20 47 59 20 47
59 20 47 59 20 47 59 20 47 59 20 47 59 20 47 59 20 47 59 20 46 59 20
46 59 20 46 59 20 46 58 20 46 58 20 46 58 20 46 58 20 46 58 20 46 58
20 46 58 20 46 58 20 46 58 20 46 58 20 46 58 20 46 58 20 46 58 20 46
58 20 46 57 20 46 57 20 46 57 20 46 57 20 46 57 20 46 57 20 46 57 20
45 57 20 45 57 20 45 57 20 45 57 20 45 57 20 45 57 20 45 56 20 45 56
20 45 56 20 45 56 20 45 56 20 45 56 20 45 56 20 45 56 20 45 56 20 45
56 20 45 56 20 45 56 20 45 56 20 45 56 20 45 55 20 45 55 20 45 55 20
45 55 20 45 55 20 44 55 41 65 62 41 65 62 41 65 62 41 65 62 41 65 62
41 65 62 41 65 62 41 65 62 41 65 62 41 65 62 41 65 62 41 65 62 41 65
62 41 65 62 41 65 61 41 65 61 41 65 61 41 65 61 41 65 61 41 65 61 41
65 61 41 65 61 41 65 61 41 65 61 41 65 61 41 65 61 41 65 61 41 65 61
41 65 61 42 65 61 42 65 61 42 65 61 42 65 60 42 65 60 42 65 60 42 65
60 42 65 60 42 65 60 42 65 60 42 65 60 42 65 60 42 65 60 42 65 60 42
65 60 42 65 60 42 65 60 42 65 60 42 65 60 42 65 60 42 65 60 42 65 59
42 64 59 42 64 59 42 64 59 42 64 59 42 64 59 42 64 59 42 64 59 42 64
59 42 64 59 42 64 59 42 64 59 42 64 59 42 64 59 42 64 59 42 64 59 42
64 59 42 64 59 42 64 59 42 64 59 42 64 58 42 64 58 42 64 58 42 64 58
42 64 58 42 64 58 42 64 58 43 64 58 43 64 58 43 64 58 43 64 58 43 64
58 43 64 58 43 64 58 43 64 58 43 64 58 43 64 58 43 64 58 43 64 58 43
64 58 43 64 58 43 64 57 43 64 57 43 64 57 43 64 57 43 64 57 43 64 57
43 64 57 43 64 57 43 64 57 43 64 57 43 64 57 43 64 57 43 64 57 43 64
57 43 64 57 43 64 57 43 64 57 43 64 57 43 64 57 43 64 57 43 64 57 43
64 57 43 64 56 43 64 56 43 64 56 43 64 56 43 64 56 43 64 56 43 64 56
43 64 56 43 64 56 43 64 56 43 64 56 43 64 56 43 64 56 43 64 56 43 64
56 43 64 56 43 64 56 43 64 56 43 64 56 43 64 56 43 64 56 43 64 56 43
64 56 43 63 55 43 63 55 44 63 55 44 63 55 44 63 55 44 63 55 44 63 55
44 63 55 44 63 55 44 63 55 44 63 55 44 63 55 44 63 55 44 63 55 44 63
55 44 63 55 44 63 55 44 63 55 44 63 55 44 63 55 44 63 55 44 63 55 44
63 55 44 63 55 44 63 54 44 63 54 44 63 54 44 63 54 44 63 54 44 63 54
44 63 54 44 63 54 44 63 54 44 63 54 44 63 54 44 63 54 44 63 54 44 63
54 44 63 54 44 63 54 44 63 54 44 63 54 44 63 54 44 63 54 44 63 54 44
63 54 44 63 54 44 63 54 44 63 54 44 63 53 44 63 53 44 63 53 44 63 53
44 63 53 44 63 53 44 63 53 44 63 53 44 63 53 44 63 53 44 63 53 44 63
53 44 63 53 44 63 53 44 63 53 44 63 53 44 63 53 44 63 53 44 62 53 44
62 53 44 62 53 44 62 53 44 62 53 44 62 53 44 62 53 44 62 53 44 62 52
44 62 52 44 62 52 44 62 52 44 62 52 44 62 52 44 62 52 44 62 52 44 62
52 44 62 52 44 62 52 44 62 52 44 62 52 44 62 52 44 62 52 44 62 52 44
62 52 44 62 52 44 62 52 44 62 52 44 62 52 44 62 52 44 62 52 44 62 52
44 62 52 44 62 52 44 62 52 44 62 51 44 62 51 44 62 51 44 62 51 44 62
51 44 62 51 44 62 51 44 62 51 44 62 51 44 62 51 44 62 51 44 62 51 44
62 51 44 62 51 44 61 51 44 61 51 44 61 51 44 61 51 44 61 51 44 61 51
44 61 51 44 61 51 44 61 51 44 61 51 44 61 51 44 61 51 19 37 42 19 37
42 19 37 42
20 50 66 20 50 65 20 50 65 20 50 65 20 50 65 20 50 65 20 50 65 20 50
65 20 50 65 20 50 65 20 50 65 20 50 65 20 50 64 20 50 64 20 50 64 20
50 64 20 49 64 20 49 64 20 49 64 20 49 64 20 49 64 20 49 64 20 49 64
20 49 64 20 49 63 20 49 63 20 49 63 20 49 63 20 49 63 20 49 63 20 49
63 20 49 63 20 49 63 20 49 63 20 49 63 20 49 62 20 49 62 20 48 62 20
48 62 20 48 62 20 48 62 20 48 62 20 48 62 20 48 62 20 48 62 20 48 62
20 48 62 20 48 61 20 48 61 20 48 61 20 48 61 20 48 61 20 48 61 20 48
61 20 48 61 20 48 61 20 48 61 20 48 61 20 47 61 20 47 60 20 47 60 20
47 60 20 47 60 20 47 60 20 47 60 20 47 60 20 47 60 20 47 60 20 47 60
20 47 60 20 47 60 20 47 60 20 47 59 20 47 59 20 47 59 20 47 59 20 47
59 20 47 59 20 47 59 20 47 59 20 47 59 20 46 59 20 46 59 20 46 59 20
46 59 20 46 58 20 46 58 20 46 58 20 46 58 20 46 58 20 46 58 20 46 58
20 46 58 20 46 58 20 46 58 20 46 58 20 46 58 20 46 58 20 46 57 20 46
57 20 46 57 20 46 57 20 46 57 20 46 57 20 46 57 20 45 57 20 45 57 20
45 57 20 45 57 20 45 57 20 45 57 20 45 57 20 45 56 20 45 56 20 45 56
20 45 56 20 45 56 20 45 56 20 45 56 20 45 56 20 45 56 20 45 56 20 45
56 20 45 56 20 45 56 20 45 56 20 45 55 20 45 55 20 45 55 20 45 55 20
45 55 20 44 55 41 65 62 41 65 62 41 65 62 41 65 62 41 65 62 41 65 62
41 65 62 41 65 62 41 65 62 41 65 62 41 65 62 41 65 62 41 65 62 41 65
62 41 65 61 41 65 61 41 65 61 41 65 61 41 65 61 41 65 61 41 65 61 41
65 61 41 65 61 41 65 61 41 65 61 41 65 61 41 65 61 41 65 61 41 65 61
41 65 61 41 65 61 41 65 60 42 65 60 42 65 60 42 65 60 42 65 60 42 65
60 42 65 60 42 65 60 42 65 60 42 65 60 42 65 60 42 65 60 42 65 60 42
65 60 42 65 60 42 64 60 42 64 60 42 64 60 42 64 60 42 64 59 42 64 59
42 64 59 42 64 59 42 64 59 42 64 59 42 64 59 42 64 59 42 64 59 42 64
59 42 64 59 42 64 59 42 64 59 42 64 59 42 64 59 42 64 59 42 64 59 42
64 59 42 64 59 42 64 59 42 64 58 42 64 58 42 64 58 42 64 58 42 64 58
42 64 58 42 64 58 42 64 58 42 64 58 42 64 58 42 64 58 43 64 58 43 64
58 43 64 58 43 64 58 43 64 58 43 64 58 43 64 58 43 64 58 43 64 58 43
64 58 43 64 57 43 64 57 43 64 57 43 64 57 43 64 57 43 64 57 43 64 57
43 64 57 43 64 57 43 64 57 43 64 57 43 64 57 43 64 57 43 64 57 43 64
57 43 64 57 43 64 57 43 64 57 43 64 57 43 64 57 43 64 57 43 64 57 43
64 56 43 64 56 43 64 56 43 64 56 43 64 56 43 64 56 43 64 56 43 64 56
43 64 56 43 64 56 43 64 56 43 64 56 43 64 56 43 64 56 43 64 56 43 64
56 43 64 56 43 64 56 43 63 56 43 63 56 43 63 56 43 63 56 43 63 56 43
63 55 43 63 55 43 63 55 43 63 55 43 63 55 43 63 55 43 63 55 43 63 55
44 63 55 44 63 55 44 63 55 44 63 55 44 63 55 44 63 55 44 63 55 44 63
55 44 63 55 44 63 55 44 63 55 44 63 55 44 63 55 44 63 55 44 63 55 44
63 55 44 63 54 44 63 54 44 63 54 44 63 54 44 63 54 44 63 54 44 63 54
44 63 54 44 63 54 44 63 54 44 63 54 44 63 54 44 63 54 44 63 54 44 63
54 44 63 54 44 63 54 44 63 54 44 63 54 44 63 54 44 63 54 44 63 54 44
63 54 44 63 54 44 63 54 44 63 53 44 63 53 44 63 53 44 63 53 44 63 53
44 63 53 44 63 53 44 63 53 44 63 53 44 63 53 44 63 53 44 63 53 44 63
53 44 63 53 44 63 53 44 62 53 44 62 53 44 62 53 44 62 53 44 62 53 44
62 53 44 62 53 44 62 53 44 62 53 44 62 53 44 62 53 44 62 53 44 62 52
44 62 52 44 62 52 44 62 52 44 62 52 44 62 52 44 62 52 44 62 52 44 62
52 44 62 52 44 62 52 44 62 52 44 62 52 44 62 52 44 62 52 44 62 52 44
62 52 44 62 52 44 62 52 44 62 52 44 62 52 44 62 52 44 62 52 44 62 52
44 62 52 44 62 52 44 62 52 44 62 51 44 62 51 44 62 51 44 62 51 44 62
51 44 62 51 44 62 51 44 62 51 44 62 51 44 62 51 44 62 51 44 61 51 44
61 51 44 61 51 44 61 51 44 61 51 44 61 51 44 61 51 44 61 51 44 61 51
44 61 51 44 61 51 44 61 51 44 61 51 44 61 51 44 61 51 19 37 42 19 37
42 19 37 42
20 50 65 20 50 65 20 50 65 20 50 65 20 50 65 20 50 65 20 50 65 20 50
65 20 50 65 20 50 65 20 50 64 20 50 64 20 50 64 20 49 64 20 49 64 20
49 64 20 49 64 20 49 64 20 49 64 20 49 64 20 49 64 20 49 63 20 49 63
20 49 63 20 49 63 20 49 63 20 49 63 20 49 63 20 49 63 20 49 63 20 49
63 20 49 63 20 49 63 20 49 62 20 49 62 20 48 62 20 48 62 20 48 62 20
48 62 20 48 62 20 48 62 20 48 62 20 48 62 20 48 62 20 48 62 20 48 61
20 48 61 20 48 61 20 48 61 20 48 61 20 48 61 20 48 61 20 48 61 20 48
61 20 48 61 20 48 61 20 48 61 20 47 61 20 47 60 20 47 60 20 47 60 20
47 60 20 47 60 20 47 60 20 47 60 20 47 60 20 47 60 20 47 60 20 47 60
20 47 60 20 47 59 20 47 59 20 47 59 20 47 59 20 47 59 20 47 59 20 47
59 20 47 59 20 47 59 20 46 59 20 46 59 20 46 59 20 46 59 20 46 58 20
46 58 20 46 58 20 46 58 20 46 58 20 46 58 20 46 58 20 46 58 20 46 58
20 46 58 20 46 58 20 46 58 20 46 58 20 46 58 20 46 57 20 46 57 20 46
57 20 46 57 20 46 57 20 46 57 20 46 57 20 45 57 20 45 57 20 45 57 20
45 57 20 45 57 20 45 57 20 45 56 20 45 56 20 45 56 20 45 56 20 45 56
20 45 56 20 45 56 20 45 56 20 45 56 20 45 56 20 45 56 20 45 56 20 45
56 20 45 56 20 45 56 20 45 55 20 45 55 20 45 55 20 45 55 20 44 55 20
44 55 41 65 62 41 65 62 41 65 62 41 65 62 41 65 62 41 65 62 41 65 62
41 65 62 41 65 62 41 65 62 41 65 62 41 65 62 41 65 62 41 65 61 41 65
61 41 65 61 41 65 61 41 65 61 41 65 61 41 65 61 41 65 61 41 65 61 41
65 61 41 65 61 41 65 61 41 65 61 41 65 61 41 65 61 41 65 61 41 65 61
41 65 61 41 65 60 41 65 60 41 65 60 41 65 60 42 65 60 42 65 60 42 65
60 42 65 60 42 65 60 42 65 60 42 64 60 42 64 60 42 64 60 42 64 60 42
64 60 42 64 60 42 64 60 42 64 60 42 64 60 42 64 59 42 64 59 42 64 59
42 64 59 42 64 59 42 64 59 42 64 59 42 64 59 42 64 59 42 64 59 42 64
59 42 64 59 42 64 59 42 64 59 42 64 59 42 64 59 42 64 59 42 64 59 42
64 59 42 64 59 42 64 58 42 64 58 42 64 58 42 64 58 42 64 58 42 64 58
42 64 58 42 64 58 42 64 58 42 64 58 42 64 58 42 64 58 42 64 58 42 64
58 42 64 58 43 64 58 43 64 58 43 64 58 43 64 58 43 64 58 43 64 58 43
64 57 43 64 57 43 64 57 43 64 57 43 64 57 43 64 57 43 64 57 43 64 57
43 64 57 43 64 57 43 64 57 43 64 57 43 64 57 43 64 57 43 64 57 43 64
57 43 64 57 43 64 57 43 64 57 43 64 57 43 64 57 43 64 57 43 64 56 43
64 56 43 64 56 43 64 56 43 64 56 43 64 56 43 64 56 43 64 56 43 64 56
43 64 56 43 64 56 43 64 56 43 64 56 43 63 56 43 63 56 43 63 56 43 63
56 43 63 56 43 63 56 43 63 56 43 63 56 43 63 56 43 63 56 43 63 55 43
63 55 43 63 55 43 63 55 43 63 55 43 63 55 43 63 55 43 63 55 43 63 55
43 63 55 43 63 55 43 63 55 43 63 55 43 63 55 43 63 55 43 63 55 44 63
55 44 63 55 44 63 55 44 63 55 44 63 55 44 63 55 44 63 55 44 63 55 44
63 54 44 63 54 44 63 54 44 63 54 44 63 54 44 63 54 44 63 54 44 63 54
44 63 54 44 63 54 44 63 54 44 63 54 44 63 54 44 63 54 44 63 54 44 63
54 44 63 54 44 63 54 44 63 54 44 63 54 44 63 54 44 63 54 44 63 54 44
63 54 44 63 54 44 63 54 44 63 53 44 63 53 44 63 53 44 63 53 44 63 53
44 63 53 44 63 53 44 63 53 44 63 53 44 63 53 44 63 53 44 62 53 44 62
53 44 62 53 44 62 53 44 62 53 44 62 53 44 62 53 44 62 53 44 62 53 44
62 53 44 62 53 44 62 53 44 62 53 44 62 53 44 62 53 44 62 52 44 62 52
44 62 52 44 62 52 44 62 52 44 62 52 44 62 52 44 62 52 44 62 52 44 62
52 44 62 52 44 62 52 44 62 52 44 62 52 44 62 52 44 62 52 44 62 52 44
62 52 44 62 52 44 62 52 44 62 52 44 62 52 44 62 52 44 62 52 44 62 52
44 62 52 44 62 52 44 62 52 44 62 51 44 62 51 44 62 51 44 62 51 44 62
51 44 62 51 44 62 51 44 62 51 44 62 51 44 61 51 44 61 51 44 61 51 44
61 51 44 61 51 44 61 51 44 61 51 44 61 51 44 61 51 44 61 51 44 61 51
44 61 51 44 61 51 44 61 51 44 61 51 44 61 51 44 61 51 19 37 42 19 37
42 19 37 42
20 50 65 20 50 65 20 50 65 20 50 65 20 50 65 20 50 65 20 50 65 20 50
64 20 50 64 20 50 64 20 50 64 20 49 64 20 49 64 20 49 64 20 49 64 20
49 64 20 49 64 20 49 64 20 49 64 20 49 63 20 49 63 20 49 63 20 49 63
20 49 63 20 49 63 20 49 63 20 49 63 20 49 63 20 49 63 20 49 63 20 49
63 20 49 62 20 48 62 20 48 62 20 48 62 20 48 62 20 48 62 20 48 62 20
48 62 20 48 62 20 48 62 20 48 62 20 48 62 20 48 61 20 48 61 20 48 61
20 48 61 20 48 61 20 48 61 20 48 61 20 48 61 20 48 61 20 48 61 20 48
61 20 48 61 20 47 61 20 47 60 20 47 60 20 47 60 20 47 60 20 47 60 20
47 60 20 47 60 20 47 60 20 47 60 20 47 60 20 47 60 20 47 60 20 47 59
20 47 59 20 47 59 20 47 59 20 47 59 20 47 59 20 47 59 20 47 59 20 47
59 20 47 59 20 46 59 20 46 59 20 46 59 20 46 58 20 46 58 20 46 58 20
46 58 20 46 58 20 46 58 20 46 58 20 46 58 20 46 58 20 46 58 20 46 58
20 46 58 20 46 58 20 46 58 20 46 57 20 46 57 20 46 57 20 46 57 20 46
57 20 46 57 20 46 57 20 45 57 20 45 57 20 45 57 20 45 57 20 45 57 20
45 57 20 45 57 20 45 56 20 45 56 20 45 56 20 45 56 20 45 56 20 45 56
20 45 56 20 45 56 20 45 56 20 45 56 20 45 56 20 45 56 20 45 56 20 45
56 20 45 55 20 45 55 20 45 55 20 45 55 20 45 55 20 44 55 20 44 55 41
65 62 41 65 62 41 65 62 41 65 62 41 65 62 41 65 62 41 65 62 41 65 62
41 65 62 41 65 62 41 65 62 41 65 62 41 65 62 41 65 61 41 65 61 41 65
61 41 65 61 41 65 61 41 65 61 41 65 61 41 65 61 41 65 61 41 65 61 41
65 61 41 65 61 41 65 61 41 65 61 41 65 61 41 65 61 41 65 61 41 65 61
41 65 60 41 65 60 41 65 60 41 65 60 41 65 60 41 64 60 41 64 60 41 64
60 42 64 60 42 64 60 42 64 60 42 64 60 42 64 60 42 64 60 42 64 60 42
64 60 42 64 60 42 64 60 42 64 60 42 64 59 42 64 59 42 64 59 42 64 59
42 64 59 42 64 59 42 64 59 42 64 59 42 64 59 42 64 59 42 64 59 42 64
59 42 64 59 42 64 59 42 64 59 42 64 59 42 64 59 42 64 59 42 64 59 42
64 59 42 64 58 42 64 58 42 64 58 42 64 58 42 64 58 42 64 58 42 64 58
42 64 58 42 64 58 42 64 58 42 64 58 42 64 58 42 64 58 42 64 58 42 64
58 42 64 58 42 64 58 42 64 58 42 64 58 42 64 58 43 64 58 43 64 57 43
64 57 43 64 57 43 64 57 43 64 57 43 64 57 43 64 57 43 64 57 43 64 57
43 64 57 43 64 57 43 64 57 43 64 57 43 64 57 43 64 57 43 64 57 43 64
57 43 64 57 43 64 57 43 64 57 43 64 57 43 64 57 43 64 56 43 64 56 43
64 56 43 64 56 43 64 56 43 64 56 43 64 56 43 64 56 43 63 56 43 63 56
43 63 56 43 63 56 43 63 56 43 63 56 43 63 56 43 63 56 43 63 56 43 63
56 43 63 56 43 63 56 43 63 56 43 63 56 43 63 56 43 63 55 43 63 55 43
63 55 43 63 55 43 63 55 43 63 55 43 63 55 43 63 55 43 63 55 43 63 55
43 63 55 43 63 55 43 63 55 43 63 55 43 63 55 43 63 55 43 63 55 43 63
55 43 63 55 43 63 55 43 63 55 43 63 55 43 63 55 44 63 55 44 63 55 44
63 54 44 63 54 44 63 54 44 63 54 44 63 54 44 63 54 44 63 54 44 63 54
44 63 54 44 63 54 44 63 54 44 63 54 44 63 54 44 63 54 44 63 54 44 63
54 44 63 54 44 63 54 44 63 54 44 63 54 44 63 54 44 63 54 44 63 54 44
63 54 44 63 54 44 63 53 44 63 53 44 63 53 44 63 53 44 63 53 44 63 53
44 63 53 44 63 53 44 62 53 44 62 53 44 62 53 44 62 53 44 62 53 44 62
53 44 62 53 44 62 53 44 62 53 44 62 53 44 62 53 44 62 53 44 62 53 44
62 53 44 62 53 44 62 53 44 62 53 44 62 53 44 62 53 44 62 52 44 62 52
44 62 52 44 62 52 44 62 52 44 62 52 44 62 52 44 62 52 44 62 52 44 62
52 44 62 52 44 62 52 44 62 52 44 62 52 44 62 52 44 62 52 44 62 52 44
62 52 44 62 52 44 62 52 44 62 52 44 62 52 44 62 52 44 62 52 44 62 52
44 62 52 44 62 52 44 62 52 44 62 51 44 62 51 44 62 51 44 62 51 44 62
51 44 62 51 44 62 51 44 61 51 44 61 51 44 61 51 44 61 51 44 61 51 44
61 51 44 61 51 44 61 51 44 61 51 44 61 51 44 61 51 44 61 51 44 61 51
44 61 51 44 61 51 44 61 51 44 61 51 44 61 51 44 61 51 19 37 42 19 37
42 19 37 42
20 50 65 20 50 65 20 50 65 20 50 65 20 50 65 20 50 64 20 50 64 20 50
64 20 50 64 20 49 64 20 49 64 20 49 64 20 49 64 20 49 64 20 49 64 20
49 64 20 49 64 20 49 63 20 49 63 20 49 63 20 49 63 20 49 63 20 49 63
20 49 63 20 49 63 20 49 63 20 49 63 20 49 63 20 49 63 20 49 62 20 48
62 20 48 62 20 48 62 20 48 62 20 48 62 20 48 62 20 48 62 20 48 62 20
48 62 20 48 62 20 48 62 20 48 61 20 48 61 20 48 61 20 48 61 20 48 61
20 48 61 20 48 61 20 48 61 20 48 61 20 48 61 20 48 61 20 48 61 20 47
61 20 47 60 20 47 60 20 47 60 20 47 60 20 47 60 20 47 60 20 47 60 20
47 60 20 47 60 20 47 60 20 47 60 20 47 60 20 47 60 20 47 59 20 47 59
20 47 59 20 47 59 20 47 59 20 47 59 20 47 59 20 47 59 20 47 59 20 46
59 20 46 59 20 46 59 20 46 59 20 46 58 20 46 58 20 46 58 20 46 58 20
46 58 20 46 58 20 46 58 20 46 58 20 46 58 20 46 58 20 46 58 20 46 58
20 46 58 20 46 57 20 46 57 20 46 57 20 46 57 20 46 57 20 46 57 20 46
57 20 46 57 20 45 57 20 45 57 20 45 57 20 45 57 20 45 57 20 45 57 20
45 57 20 45 56 20 45 56 20 45 56 20 45 56 20 45 56 20 45 56 20 45 56
20 45 56 20 45 56 20 45 56 20 45 56 20 45 56 20 45 56 20 45 56 20 45
55 20 45 55 20 45 55 20 45 55 20 45 55 20 44 55 20 44 55 20 44 55 41
65 62 41 65 62 41 65 62 41 65 62 41 65 62 41 65 62 41 65 62 41 65 62
41 65 62 41 65 62 41 65 62 41 65 61 41 65 61 41 65 61 41 65 61 41 65
61 41 65 61 41 65 61 41 65 61 41 65 61 41 65 61 41 65 61 41 65 61 41
65 61 41 65 61 41 65 61 41 65 61 41 65 61 41 65 61 41 65 60 41 64 60
41 64 60 41 64 60 41 64 60 41 64 60 41 64 60 41 64 60 41 64 60 41 64
60 41 64 60 41 64 60 42 64 60 42 64 60 42 64 60 42 64 60 42 64 60 42
64 60 42 64 60 42 64 59 42 64 59 42 64 59 42 64 59 42 64 59 42 64 59
42 64 59 42 64 59 42 64 59 42 64 59 42 64 59 42 64 59 42 64 59 42 64
59 42 64 59 42 64 59 42 64 59 42 64 59 42 64 59 42 64 59 42 64 58 42
64 58 42 64 58 42 64 58 42 64 58 42 64 58 42 64 58 42 64 58 42 64 58
42 64 58 42 64 58 42 64 58 42 64 58 42 64 58 42 64 58 42 64 58 42 64
58 42 64 58 42 64 58 42 64 58 42 64 58 42 64 58 42 64 57 42 64 57 42
64 57 43 64 57 43 64 57 43 64 57 43 64 57 43 64 57 43 64 57 43 64 57
43 64 57 43 64 57 43 64 57 43 64 57 43 64 57 43 64 57 43 64 57 43 64
57 43 64 57 43 64 57 43 64 57 43 64 57 43 64 56 43 64 56 43 64 56 43
63 56 43 63 56 43 63 56 43 63 56 43 63 56 43 63 56 43 63 56 43 63 56
43 63 56 43 63 56 43 63 56 43 63 56 43 63 56 43 63 56 43 63 56 43 63
56 43 63 56 43 63 56 43 63 56 43 63 56 43 63 55 43 63 55 43 63 55 43
63 55 43 63 55 43 63 55 43 63 55 43 63 55 43 63 55 43 63 55 43 63 55
43 63 55 43 63 55 43 63 55 43 63 55 43 63 55 43 63 55 43 63 55 43 63
55 43 63 55 43 63 55 43 63 55 43 63 55 43 63 55 43 63 55 43 63 54 43
63 54 43 63 54 43 63 54 43 63 54 43 63 54 44 63 54 44 63 54 44 63 54
44 63 54 44 63 54 44 63 54 44 63 54 44 63 54 44 63 54 44 63 54 44 63
54 44 63 54 44 63 54 44 63 54 44 63 54 44 63 54 44 63 54 44 63 54 44
63 54 44 63 54 44 63 53 44 63 53 44 63 53 44 63 53 44 62 53 44 62 53
44 62 53 44 62 53 44 62 53 44 62 53 44 62 53 44 62 53 44 62 53 44 62
53 44 62 53 44 62 53 44 62 53 44 62 53 44 62 53 44 62 53 44 62 53 44
62 53 44 62 53 44 62 53 44 62 53 44 62 53 44 62 53 44 62 52 44 62 52
44 62 52 44 62 52 44 62 52 44 62 52 44 62 52 44 62 52 44 62 52 44 62
52 44 62 52 44 62 52 44 62 52 44 62 52 44 62 52 44 62 52 44 62 52 44
62 52 44 62 52 44 62 52 44 62 52 44 62 52 44 62 52 44 62 52 44 62 52
44 62 52 44 62 52 44 62 52 44 62 51 44 62 51 44 62 51 44 62 51 44 61
51 44 61 51 44 61 51 44 61 51 44 61 51 44 61 51 44 61 51 44 61 51 44
61 51 44 61 51 44 61 51 44 61 51 44 61 51 44 61 51 44 61 51 44 61 51
44 61 51 44 61 51 44 61 51 44 61 51 44 61 51 44 61 51 19 37 42 19 37
42 19 37 42
20 50 65 20 50 65 20 50 64 20 50 64 20 50 64 20 50 64 20 49 64 20 49
64 20 49 64 20 49 64 20 49 64 20 49 64 20 49 64 20 49 64 20 49 63 20
49 63 20 49 63 20 49 63 20 49 63 20 49 63 20 49 63 20 49 63 20 49 63
20 49 63 20 49 63 20 49 63 20 49 63 20 49 62 20 48 62 20 48 62 20 48
62 20 48 62 20 48 62 20 48 62 20 48 62 20 48 62 20 48 62 20 48 62 20
48 62 20 48 61 20 48 61 20 48 61 20 48 61 20 48 61 20 48 61 20 48 61
20 48 61 20 48 61 20 48 61 20 48 61 20 48 61 20 47 61 20 47 60 20 47
60 20 47 60 20 47 60 20 47 60 20 47 60 20 47 60 20 47 60 20 47 60 20
47 60 20 47 60 20 47 60 20 47 60 20 47 59 20 47 59 20 47 59 20 47 59
20 47 59 20 47 59 20 47 59 20 47 59 20 47 59 20 46 59 20 46 59 20 46
59 20 46 59 20 46 58 20 46 58 20 46 58 20 46 58 20 46 58 20 46 58 20
46 58 20 46 58 20 46 58 20 46 58 20 46 58 20 46 58 20 46 58 20 46 58
20 46 57 20 46 57 20 46 57 20 46 57 20 46 57 20 46 57 20 46 57 20 45
57 20 45 57 20 45 57 20 45 57 20 45 57 20 45 57 20 45 57 20 45 56 20
45 56 20 45 56 20 45 56 20 45 56 20 45 56 20 45 56 20 45 56 20 45 56
20 45 56 20 45 56 20 45 56 20 45 56 20 45 56 20 45 56 20 45 55 20 45
55 20 45 55 20 45 55 20 44 55 20 44 55 20 44 55 20 44 55 41 65 62 41
65 62 41 65 62 41 65 62 41 65 62 41 65 62 41 65 62 41 65 62 41 65 62
41 65 62 41 65 62 41 65 61 41 65 61 41 65 61 41 65 61 41 65 61 41 65
61 41 65 61 41 65 61 41 65 61 41 65 61 41 65 61 41 65 61 41 65 61 41
65 61 41 64 61 41 64 61 41 64 61 41 64 61 41 64 60 41 64 60 41 64 60
41 64 60 41 64 60 41 64 60 41 64 60 41 64 60 41 64 60 41 64 60 41 64
60 41 64 60 41 64 60 41 64 60 41 64 60 42 64 60 42 64 60 42 64 60 42
64 60 42 64 59 42 64 59 42 64 59 42 64 59 42 64 59 42 64 59 42 64 59
42 64 59 42 64 59 42 64 59 42 64 59 42 64 59 42 64 59 42 64 59 42 64
59 42 64 59 42 64 59 42 64 59 42 64 59 42 64 59 42 64 58 42 64 58 42
64 58 42 64 58 42 64 58 42 64 58 42 64 58 42 64 58 42 64 58 42 64 58
42 64 58 42 64 58 42 64 58 42 64 58 42 64 58 42 64 58 42 64 58 42 64
58 42 64 58 42 64 58 42 64 58 42 64 58 42 64 57 42 64 57 42 64 57 42
64 57 42 64 57 42 64 57 42 64 57 42 64 57 43 64 57 43 64 57 43 64 57
43 64 57 43 64 57 43 64 57 43 64 57 43 64 57 43 64 57 43 64 57 43 64
57 43 64 57 43 63 57 43 63 57 43 63 56 43 63 56 43 63 56 43 63 56 43
63 56 43 63 56 43 63 56 43 63 56 43 63 56 43 63 56 43 63 56 43 63 56
43 63 56 43 63 56 43 63 56 43 63 56 43 63 56 43 63 56 43 63 56 43 63
56 43 63 56 43 63 56 43 63 56 43 63 56 43 63 55 43 63 55 43 63 55 43
63 55 43 63 55 43 63 55 43 63 55 43 63 55 43 63 55 43 63 55 43 63 55
43 63 55 43 63 55 43 63 55 43 63 55 43 63 55 43 63 55 43 63 55 43 63
55 43 63 55 43 63 55 43 63 55 43 63 55 43 63 55 43 63 55 43 63 54 43
63 54 43 63 54 43 63 54 43 63 54 43 63 54 43 63 54 43 63 54 43 63 54
43 63 54 43 63 54 43 63 54 43 63 54 43 63 54 44 63 54 44 63 54 44 63
54 44 63 54 44 63 54 44 63 54 44 63 54 44 63 54 44 63 54 44 63 54 44
63 54 44 63 54 44 62 53 44 62 53 44 62 53 44 62 53 44 62 53 44 62 53
44 62 53 44 62 53 44 62 53 44 62 53 44 62 53 44 62 53 44 62 53 44 62
53 44 62 53 44 62 53 44 62 53 44 62 53 44 62 53 44 62 53 44 62 53 44
62 53 44 62 53 44 62 53 44 62 53 44 62 53 44 62 53 44 62 52 44 62 52
44 62 52 44 62 52 44 62 52 44 62 52 44 62 52 44 62 52 44 62 52 44 62
52 44 62 52 44 62 52 44 62 52 44 62 52 44 62 52 44 62 52 44 62 52 44
62 52 44 62 52 44 62 52 44 62 52 44 62 52 44 62 52 44 62 52 44 62 52
44 62 52 44 62 52 44 62 52 44 62 51 44 61 51 44 61 51 44 61 51 44 61
51 44 61 51 44 61 51 44 61 51 44 61 51 44 61 51 44 61 51 44 61 51 44
61 51 44 61 51 44 61 51 44 61 51 44 61 51 44 61 51 44 61 51 44 61 51
44 61 51 44 61 51 44 61 51 44 61 51 44 61 51 19 37 42 19 37 42 19 37
42 19 37 42
20 50 64 20 50 64 20 50 64 20 50 64 20 49 64 20 49 64 20 49 64 20 49
64 20 49 64 20 49 64 20 49 64 20 49 64 20 49 63 20 49 63 20 49 63 20
49 63 20 49 63 20 49 63 20 49 63 20 49 63 20 49 63 20 49 63 20 49 63
20 49 63 20 49 62 20 49 62 20 48 62 20 48 62 20 48 62 20 48 62 20 48
62 20 48 62 20 48 62 20 48 62 20 48 62 20 48 62 20 48 62 20 48 61 20
48 61 20 48 61 20 48 61 20 48 61 20 48 61 20 48 61 20 48 61 20 48 61
20 48 61 20 48 61 20 48 61 20 47 61 20 47 60 20 47 60 20 47 60 20 47
60 20 47 60 20 47 60 20 47 60 20 47 60 20 47 60 20 47 60 20 47 60 20
47 60 20 47 60 20 47 59 20 47 59 20 47 59 20 47 59 20 47 59 20 47 59
20 47 59 20 47 59 20 47 59 20 47 59 20 46 59 20 46 59 20 46 59 20 46
58 20 46 58 20 46 58 20 46 58 20 46 58 20 46 58 20 46 58 20 46 58 20
46 58 20 46 58 20 46 58 20 46 58 20 46 58 20 46 58 20 46 57 20 46 57
20 46 57 20 46 57 20 46 57 20 46 57 20 46 57 20 46 57 20 45 57 20 45
57 20 45 57 20 45 57 20 45 57 20 45 57 20 45 57 20 45 56 20 45 56 20
45 56 20 45 56 20 45 56 20 45 56 20 45 56 20 45 56 20 45 56 20 45 56
20 45 56 20 45 56 20 45 56 20 45 56 20 45 56 20 45 55 20 45 55 20 45
55 20 45 55 20 44 55 20 44 55 20 44 55 20 44 55 41 65 62 41 65 62 41
65 62 41 65 62 41 65 62 41 65 62 41 65 62 41 65 62 41 65 62 41 65 62
41 65 61 41 65 61 41 65 61 41 65 61 41 65 61 41 65 61 41 65 61 41 65
61 41 65 61 41 65 61 41 64 61 41 64 61 41 64 61 41 64 61 41 64 61 41
64 61 41 64 61 41 64 61 41 64 60 41 64 60 41 64 60 41 64 60 41 64 60
41 64 60 41 64 60 41 64 60 41 64 60 41 64 60 41 64 60 41 64 60 41 64
60 41 64 60 41 64 60 41 64 60 41 64 60 41 64 60 41 64 60 42 64 60 42
64 59 42 64 59 42 64 59 42 64 59 42 64 59 42 64 59 42 64 59 42 64 59
42 64 59 42 64 59 42 64 59 42 64 59 42 64 59 42 64 59 42 64 59 42 64
59 42 64 59 42 64 59 42 64 59 42 64 59 42 64 58 42 64 58 42 64 58 42
64 58 42 64 58 42 64 58 42 64 58 42 64 58 42 64 58 42 64 58 42 64 58
42 64 58 42 64 58 42 64 58 42 64 58 42 64 58 42 64 58 42 64 58 42 64
58 42 64 58 42 64 58 42 64 57 42 64 57 42 64 57 42 64 57 42 64 57 42
64 57 42 64 57 42 64 57 42 64 57 42 64 57 42 64 57 42 64 57 42 64 57
43 64 57 43 64 57 43 63 57 43 63 57 43 63 57 43 63 57 43 63 57 43 63
57 43 63 57 43 63 57 43 63 56 43 63 56 43 63 56 43 63 56 43 63 56 43
63 56 43 63 56 43 63 56 43 63 56 43 63 56 43 63 56 43 63 56 43 63 56
43 63 56 43 63 56 43 63 56 43 63 56 43 63 56 43 63 56 43 63 56 43 63
56 43 63 56 43 63 56 43 63 56 43 63 55 43 63 55 43 63 55 43 63 55 43
63 55 43 63 55 43 63 55 43 63 55 43 63 55 43 63 55 43 63 55 43 63 55
43 63 55 43 63 55 43 63 55 43 63 55 43 63 55 43 63 55 43 63 55 43 63
55 43 63 55 43 63 55 43 63 55 43 63 55 43 63 55 43 63 54 43 63 54 43
63 54 43 63 54 43 63 54 43 63 54 43 63 54 43 63 54 43 63 54 43 63 54
43 63 54 43 63 54 43 63 54 43 63 54 43 63 54 43 63 54 43 63 54 43 63
54 43 63 54 43 63 54 43 63 54 43 63 54 43 62 54 43 62 54 44 62 54 44
62 54 44 62 53 44 62 53 44 62 53 44 62 53 44 62 53 44 62 53 44 62 53
44 62 53 44 62 53 44 62 53 44 62 53 44 62 53 44 62 53 44 62 53 44 62
53 44 62 53 44 62 53 44 62 53 44 62 53 44 62 53 44 62 53 44 62 53 44
62 53 44 62 53 44 62 53 44 62 53 44 62 53 44 62 52 44 62 52 44 62 52
44 62 52 44 62 52 44 62 52 44 62 52 44 62 52 44 62 52 44 62 52 44 62
52 44 62 52 44 62 52 44 62 52 44 62 52 44 62 52 44 62 52 44 62 52 44
62 52 44 62 52 44 62 52 44 62 52 44 62 52 44 62 52 44 62 52 44 62 52
44 62 52 44 62 52 44 61 51 44 61 51 44 61 51 44 61 51 44 61 51 44 61
51 44 61 51 44 61 51 44 61 51 44 61 51 44 61 51 44 61 51 44 61 51 44
61 51 44 61 51 44 61 51 44 61 51 44 61 51 44 61 51 44 61 51 44 61 51
44 61 51 44 61 51 44 61 51 44 61 51 44 61 51 19 37 42 19 37 42 19 37
42 19 37 42
20 50 64 20 49 64 20 49 64 20 49 64 20 49 64 20 49 64 20 49 64 20 49
64 20 49 64 20 49 64 20 49 63 20 49 63 20 49 63 20 49 63 20 49 63 20
49 63 20 49 63 20 49 63 20 49 63 20 49 63 20 49 63 20 49 63 20 49 62
20 49 62 20 48 62 20 48 62 20 48 62 20 48 62 20 48 62 20 48 62 20 48
62 20 48 62 20 48 62 20 48 62 20 48 62 20 48 61 20 48 61 20 48 61 20
48 61 20 48 61 20 48 61 20 48 61 20 48 61 20 48 61 20 48 61 20 48 61
20 48 61 20 47 61 20 47 60 20 47 60 20 47 60 20 47 60 20 47 60 20 47
60 20 47 60 20 47 60 20 47 60 20 47 60 20 47 60 20 47 60 20 47 60 20
47 59 20 47 59 20 47 59 20 47 59 20 47 59 20 47 59 20 47 59 20 47 59
20 47 59 20 47 59 20 46 59 20 46 59 20 46 59 20 46 59 20 46 58 20 46
58 20 46 58 20 46 58 20 46 58 20 46 58 20 46 58 20 46 58 20 46 58 20
46 58 20 46 58 20 46 58 20 46 58 20 46 58 20 46 57 20 46 57 20 46 57
20 46 57 20 46 57 20 46 57 20 46 57 20 45 57 20 45 57 20 45 57 20 45
57 20 45 57 20 45 57 20 45 57 20 45 56 20 45 56 20 45 56 20 45 56 20
45 56 20 45 56 20 45 56 20 45 56 20 45 56 20 45 56 20 45 56 20 45 56
20 45 56 20 45 56 20 45 56 20 45 55 20 45 55 20 45 55 20 45 55 20 45
55 20 44 55 20 44 55 20 44 55 20 44 55 40 65 62 40 65 62 41 65 62 41
65 62 41 65 62 41 65 62 41 65 62 41 65 62 41 65 62 41 65 61 41 65 61
41 65 61 41 65 61 41 65 61 41 65 61 41 65 61 41 64 61 41 64 61 41 64
61 41 64 61 41 64 61 41 64 61 41 64 61 41 64 61 41 64 61 41 64 61 41
64 61 41 64 61 41 64 60 41 64 60 41 64 60 41 64 60 41 64 60 41 64 60
41 64 60 41 64 60 41 64 60 41 64 60 41 64 60 41 64 60 41 64 60 41 64
60 41 64 60 41 64 60 41 64 60 41 64 60 41 64 60 41 64 59 41 64 59 41
64 59 41 64 59 42 64 59 42 64 59 42 64 59 42 64 59 42 64 59 42 64 59
42 64 59 42 64 59 42 64 59 42 64 59 42 64 59 42 64 59 42 64 59 42 64
59 42 64 59 42 64 59 42 64 59 42 64 58 42 64 58 42 64 58 42 64 58 42
64 58 42 64 58 42 64 58 42 64 58 42 64 58 42 64 58 42 64 58 42 64 58
42 64 58 42 64 58 42 64 58 42 64 58 42 64 58 42 64 58 42 64 58 42 64
58 42 64 58 42 64 57 42 64 57 42 64 57 42 64 57 42 64 57 42 64 57 42
64 57 42 64 57 42 64 57 42 64 57 42 63 57 42 63 57 42 63 57 42 63 57
42 63 57 42 63 57 42 63 57 42 63 57 43 63 57 43 63 57 43 63 57 43 63
57 43 63 57 43 63 56 43 63 56 43 63 56 43 63 56 43 63 56 43 63 56 43
63 56 43 63 56 43 63 56 43 63 56 43 63 56 43 63 56 43 63 56 43 63 56
43 63 56 43 63 56 43 63 56 43 63 56 43 63 56 43 63 56 43 63 56 43 63
56 43 63 56 43 63 56 43 63 55 43 63 55 43 63 55 43 63 55 43 63 55 43
63 55 43 63 55 43 63 55 43 63 55 43 63 55 43 63 55 43 63 55 43 63 55
43 63 55 43 63 55 43 63 55 43 63 55 43 63 55 43 63 55 43 63 55 43 63
55 43 63 55 43 63 55 43 63 55 43 63 55 43 63 54 43 63 54 43 63 54 43
63 54 43 63 54 43 63 54 43 63 54 43 63 54 43 63 54 43 63 54 43 63 54
43 63 54 43 63 54 43 63 54 43 63 54 43 63 54 43 63 54 43 63 54 43 63
54 43 62 54 43 62 54 43 62 54 43 62 54 43 62 54 43 62 54 43 62 54 43
62 54 43 62 53 43 62 53 43 62 53 43 62 53 43 62 53 43 62 53 43 62 53
43 62 53 44 62 53 44 62 53 44 62 53 44 62 53 44 62 53 44 62 53 44 62
53 44 62 53 44 62 53 44 62 53 44 62 53 44 62 53 44 62 53 44 62 53 44
62 53 44 62 53 44 62 53 44 62 53 44 62 53 44 62 52 44 62 52 44 62 52
44 62 52 44 62 52 44 62 52 44 62 52 44 62 52 44 62 52 44 62 52 44 62
52 44 62 52 44 62 52 44 62 52 44 62 52 44 62 52 44 62 52 44 62 52 44
62 52 44 62 52 44 62 52 44 62 52 44 62 52 44 62 52 44 62 52 44 61 52
44 61 52 44 61 52 44 61 51 44 61 51 44 61 51 44 61 51 44 61 51 44 61
51 44 61 51 44 61 51 44 61 51 44 61 51 44 61 51 44 61 51 44 61 51 44
61 51 44 61 51 44 61 51 44 61 51 44 61 51 44 61 51 44 61 51 44 61 51
44 61 51 44 61 51 44 61 51 44 61 51 44 61 51 19 37 42 19 37 42 19 37
42 19 37 42
20 49 64 20 49 64 20 49 64 20 49 64 20 49 64 20 49 64 20 49 64 20 49
63 20 49 63 20 49 63 20 49 63 20 49 63 20 49 63 20 49 63 20 49 63 20
49 63 20 49 63 20 49 63 20 49 63 20 49 63 20 49 62 20 48 62 20 48 62
20 48 62 20 48 62 20 48 62 20 48 62 20 48 62 20 48 62 20 48 62 20 48
62 20 48 62 20 48 62 20 48 61 20 48 61 20 48 61 20 48 61 20 48 61 20
48 61 20 48 61 20 48 61 20 48 61 20 48 61 20 48 61 20 48 61 20 47 61
20 47 60 20 47 60 20 47 60 20 47 60 20 47 60 20 47 60 20 47 60 20 47
60 20 47 60 20 47 60 20 47 60 20 47 60 20 47 60 20 47 59 20 47 59 20
47 59 20 47 59 20 47 59 20 47 59 20 47 59 20 47 59 20 47 59 20 47 59
20 46 59 20 46 59 20 46 59 20 46 59 20 46 58 20 46 58 20 46 58 20 46
58 20 46 58 20 46 58 20 46 58 20 46 58 20 46 58 20 46 58 20 46 58 20
46 58 20 46 58 20 46 58 20 46 57 20 46 57 20 46 57 20 46 57 20 46 57
20 46 57 20 46 57 20 46 57 20 45 57 20 45 57 20 45 57 20 45 57 20 45
57 20 45 57 20 45 57 20 45 56 20 45 56 20 45 56 20 45 56 20 45 56 20
45 56 20 45 56 20 45 56 20 45 56 20 45 56 20 45 56 20 45 56 20 45 56
20 45 56 20 45 56 20 45 55 20 45 55 20 45 55 20 45 55 20 45 55 20 44
55 20 44 55 20 44 55 20 44 55 20 44 55 40 65 62 40 65 62 40 65 62 41
65 62 41 65 62 41 65 62 41 65 62 41 65 62 41 65 61 41 65 61 41 64 61
41 64 61 41 64 61 41 64 61 41 64 61 41 64 61 41 64 61 41 64 61 41 64
61 41 64 61 41 64 61 41 64 61 41 64 61 41 64 61 41 64 61 41 64 61 41
64 61 41 64 60 41 64 60 41 64 60 41 64 60 41 64 60 41 64 60 41 64 60
41 64 60 41 64 60 41 64 60 41 64 60 41 64 60 41 64 60 41 64 60 41 64
60 41 64 60 41 64 60 41 64 60 41 64 60 41 64 59 41 64 59 41 64 59 41
64 59 41 64 59 41 64 59 41 64 59 42 64 59 42 64 59 42 64 59 42 64 59
42 64 59 42 64 59 42 64 59 42 64 59 42 64 59 42 64 59 42 64 59 42 64
59 42 64 59 42 64 59 42 64 58 42 64 58 42 64 58 42 64 58 42 64 58 42
64 58 42 64 58 42 64 58 42 64 58 42 64 58 42 64 58 42 64 58 42 64 58
42 64 58 42 64 58 42 64 58 42 64 58 42 64 58 42 64 58 42 64 58 42 64
58 42 64 57 42 64 57 42 64 57 42 64 57 42 64 57 42 63 57 42 63 57 42
63 57 42 63 57 42 63 57 42 63 57 42 63 57 42 63 57 42 63 57 42 63 57
42 63 57 42 63 57 42 63 57 42 63 57 42 63 57 42 63 57 42 63 57 42 63
57 43 63 56 43 63 56 43 63 56 43 63 56 43 63 56 43 63 56 43 63 56 43
63 56 43 63 56 43 63 56 43 63 56 43 63 56 43 63 56 43 63 56 43 63 56
43 63 56 43 63 56 43 63 56 43 63 56 43 63 56 43 63 56 43 63 56 43 63
56 43 63 56 43 63 55 43 63 55 43 63 55 43 63 55 43 63 55 43 63 55 43
63 55 43 63 55 43 63 55 43 63 55 43 63 55 43 63 55 43 63 55 43 63 55
43 63 55 43 63 55 43 63 55 43 63 55 43 63 55 43 63 55 43 63 55 43 63
55 43 63 55 43 63 55 43 63 55 43 63 55 43 63 54 43 63 54 43 63 54 43
63 54 43 63 54 43 63 54 43 63 54 43 63 54 43 63 54 43 63 54 43 63 54
43 63 54 43 63 54 43 63 54 43 62 54 43 62 54 43 62 54 43 62 54 43 62
54 43 62 54 43 62 54 43 62 54 43 62 54 43 62 54 43 62 54 43 62 54 43
62 53 43 62 53 43 62 53 43 62 53 43 62 53 43 62 53 43 62 53 43 62 53
43 62 53 43 62 53 43 62 53 43 62 53 43 62 53 43 62 53 43 62 53 43 62
53 43 62 53 43 62 53 43 62 53 43 62 53 43 62 53 43 62 53 43 62 53 44
62 53 44 62 53 44 62 53 44 62 53 44 62 53 44 62 52 44 62 52 44 62 52
44 62 52 44 62 52 44 62 52 44 62 52 44 62 52 44 62 52 44 62 52 44 62
52 44 62 52 44 62 52 44 62 52 44 62 52 44 62 52 44 62 52 44 62 52 44
62 52 44 62 52 44 62 52 44 62 52 44 61 52 44 61 52 44 61 52 44 61 52
44 61 52 44 61 52 44 61 51 44 61 51 44 61 51 44 61 51 44 61 51 44 61
51 44 61 51 44 61 51 44 61 51 44 61 51 44 61 51 44 61 51 44 61 51 44
61 51 44 61 51 44 61 51 44 61 51 44 61 51 44 61 51 44 61 51 44 61 51
44 61 51 44 61 51 44 61 51 44 61 51 44 61 51 19 37 42 19 37 42 19 37
42 19 37 42
20 49 64 20 49 64 20 49 64 20 49 64 20 49 64 20 49 63 20 49 63 20 49
63 20 49 63 20 49 63 20 49 63 20 49 63 20 49 63 20 49 63 20 49 63 20
49 63 20 49 63 20 49 63 20 49 62 20 48 62 20 48 62 20 48 62 20 48 62
20 48 62 20 48 62 20 48 62 20 48 62 20 48 62 20 48 62 20 48 62 20 48
62 20 48 61 20 48 61 20 48 61 20 48 61 20 48 61 20 48 61 20 48 61 20
48 61 20 48 61 20 48 61 20 48 61 20 48 61 20 47 61 20 47 60 20 47 60
20 47 60 20 47 60 20 47 60 20 47 60 20 47 60 20 47 60 20 47 60 20 47
60 20 47 60 20 47 60 20 47 60 20 47 59 20 47 59 20 47 59 20 47 59 20
47 59 20 47 59 20 47 59 20 47 59 20 47 59 20 47 59 20 46 59 20 46 59
20 46 59 20 46 59 20 46 58 20 46 58 20 46 58 20 46 58 20 46 58 20 46
58 20 46 58 20 46 58 20 46 58 20 46 58 20 46 58 20 46 58 20 46 58 20
46 58 20 46 58 20 46 57 20 46 57 20 46 57 20 46 57 20 46 57 20 46 57
20 46 57 20 45 57 20 45 57 20 45 57 20 45 57 20 45 57 20 45 57 20 45
57 20 45 56 20 45 56 20 45 56 20 45 56 20 45 56 20 45 56 20 45 56 20
45 56 20 45 56 20 45 56 20 45 56 20 45 56 20 45 56 20 45 56 20 45 56
20 45 55 20 45 55 20 45 55 20 45 55 20 45 55 20 44 55 20 44 55 20 44
55 20 44 55 20 44 55 20 44 55 40 65 62 40 65 62 40 65 62 40 65 62 40
65 62 40 65 62 41 64 62 41 64 61 41 64 61 41 64 61 41 64 61 41 64 61
41 64 61 41 64 61 41 64 61 41 64 61 41 64 61 41 64 61 41 64 61 41 64
61 41 64 61 41 64 61 41 64 61 41 64 61 41 64 61 41 64 61 41 64 60 41
64 60 41 64 60 41 64 60 41 64 60 41 64 60 41 64 60 41 64 60 41 64 60
41 64 60 41 64 60 41 64 60 41 64 60 41 64 60 41 64 60 41 64 60 41 64
60 41 64 60 41 64 60 41 64 60 41 64 59 41 64 59 41 64 59 41 64 59 41
64 59 41 64 59 41 64 59 41 64 59 41 64 59 41 64 59 41 64 59 42 64 59
42 64 59 42 64 59 42 64 59 42 64 59 42 64 59 42 64 59 42 64 59 42 64
59 42 64 58 42 64 58 42 64 58 42 64 58 42 64 58 42 64 58 42 64 58 42
64 58 42 64 58 42 64 58 42 64 58 42 64 58 42 64 58 42 64 58 42 64 58
42 64 58 42 64 58 42 64 58 42 64 58 42 64 58 42 64 58 42 64 58 42 63
57 42 63 57 42 63 57 42 63 57 42 63 57 42 63 57 42 63 57 42 63 57 42
63 57 42 63 57 42 63 57 42 63 57 42 63 57 42 63 57 42 63 57 42 63 57
42 63 57 42 63 57 42 63 57 42 63 57 42 63 57 42 63 57 42 63 57 42 63
56 42 63 56 42 63 56 42 63 56 42 63 56 43 63 56 43 63 56 43 63 56 43
63 56 43 63 56 43 63 56 43 63 56 43 63 56 43 63 56 43 63 56 43 63 56
43 63 56 43 63 56 43 63 56 43 63 56 43 63 56 43 63 56 43 63 56 43 63
56 43 63 56 43 63 55 43 63 55 43 63 55 43 63 55 43 63 55 43 63 55 43
63 55 43 63 55 43 63 55 43 63 55 43 63 55 43 63 55 43 63 55 43 63 55
43 63 55 43 63 55 43 63 55 43 63 55 43 63 55 43 63 55 43 63 55 43 63
55 43 63 55 43 63 55 43 63 55 43 63 54 43 63 54 43 63 54 43 63 54 43
63 54 43 63 54 43 63 54 43 63 54 43 63 54 43 63 54 43 63 54 43 62 54
43 62 54 43 62 54 43 62 54 43 62 54 43 62 54 43 62 54 43 62 54 43 62
54 43 62 54 43 62 54 43 62 54 43 62 54 43 62 54 43 62 54 43 62 54 43
62 53 43 62 53 43 62 53 43 62 53 43 62 53 43 62 53 43 62 53 43 62 53
43 62 53 43 62 53 43 62 53 43 62 53 43 62 53 43 62 53 43 62 53 43 62
53 43 62 53 43 62 53 43 62 53 43 62 53 43 62 53 43 62 53 43 62 53 43
62 53 43 62 53 43 62 53 43 62 53 43 62 52 43 62 52 43 62 52 43 62 52
43 62 52 43 62 52 43 62 52 43 62 52 43 62 52 43 62 52 43 62 52 43 62
52 43 62 52 43 62 52 43 62 52 43 62 52 43 62 52 43 62 52 43 62 52 43
62 52 43 61 52 43 61 52 43 61 52 43 61 52 43 61 52 43 61 52 43 61 52
43 61 52 43 61 52 43 61 51 43 61 51 43 61 51 43 61 51 43 61 51 43 61
51 43 61 51 43 61 51 43 61 51 43 61 51 43 61 51 43 61 51 43 61 51 43
61 51 43 61 51 43 61 51 43 61 51 43 61 51 43 61 51 43 61 51 43 61 51
43 61 51 43 61 51 43 61 51 43 61 51 43 61 51 19 37 42 19 37 42 19 37
42 19 37 42
20 49 64 20 49 64 20 49 63 20 49 63 20 49 63 20 49 63 20 49 63 20 49
63 20 49 63 20 49 63 20 49 63 20 49 63 20 49 63 20 49 63 20 49 63 20
49 62 20 49 62 20 48 62 20 48 62 20 48 62 20 48 62 20 48 62 20 48 62
20 48 62 20 48 62 20 48 62 20 48 62 20 48 62 20 48 61 20 48 61 20 48
61 20 48 61 20 48 61 20 48 61 20 48 61 20 48 61 20 48 61 20 48 61 20
48 61 20 48 61 20 48 61 20 47 61 20 47 60 20 47 60 20 47 60 20 47 60
20 47 60 20 47 60 20 47 60 20 47 60 20 47 60 20 47 60 20 47 60 20 47
60 20 47 60 20 47 59 20 47 59 20 47 59 20 47 59 20 47 59 20 47 59 20
47 59 20 47 59 20 47 59 20 47 59 20 47 59 20 46 59 20 46 59 20 46 59
20 46 59 20 46 58 20 46 58 20 46 58 20 46 58 20 46 58 20 46 58 20 46
58 20 46 58 20 46 58 20 46 58 20 46 58 20 46 58 20 46 58 20 46 58 20
46 57 20 46 57 20 46 57 20 46 57 20 46 57 20 46 57 20 46 57 20 45 57
20 45 57 20 45 57 20 45 57 20 45 57 20 45 57 20 45 57 20 45 57 20 45
56 20 45 56 20 45 56 20 45 56 20 45 56 20 45 56 20 45 56 20 45 56 20
45 56 20 45 56 20 45 56 20 45 56 20 45 56 20 45 56 20 45 56 20 45 55
20 45 55 20 45 55 20 45 55 20 45 55 20 44 55 20 44 55 20 44 55 20 44
55 20 44 55 20 44 55 40 65 62 40 64 62 40 64 62 40 64 62 40 64 62 40
64 62 40 64 62 40 64 61 40 64 61 41 64 61 41 64 61 41 64 61 41 64 61
41 64 61 41 64 61 41 64 61 41 64 61 41 64 61 41 64 61 41 64 61 41 64
61 41 64 61 41 64 61 41 64 61 41 64 61 41 64 61 41 64 60 41 64 60 41
64 60 41 64 60 41 64 60 41 64 60 41 64 60 41 64 60 41 64 60 41 64 60
41 64 60 41 64 60 41 64 60 41 64 60 41 64 60 41 64 60 41 64 60 41 64
60 41 64 60 41 64 59 41 64 59 41 64 59 41 64 59 41 64 59 41 64 59 41
64 59 41 64 59 41 64 59 41 64 59 41 64 59 41 64 59 41 64 59 41 64 59
41 64 59 42 64 59 42 64 59 42 64 59 42 64 59 42 64 59 42 64 59 42 64
58 42 64 58 42 64 58 42 64 58 42 64 58 42 64 58 42 64 58 42 64 58 42
64 58 42 64 58 42 64 58 42 64 58 42 64 58 42 64 58 42 64 58 42 64 58
42 64 58 42 63 58 42 63 58 42 63 58 42 63 58 42 63 58 42 63 57 42 63
57 42 63 57 42 63 57 42 63 57 42 63 57 42 63 57 42 63 57 42 63 57 42
63 57 42 63 57 42 63 57 42 63 57 42 63 57 42 63 57 42 63 57 42 63 57
42 63 57 42 63 57 42 63 57 42 63 57 42 63 57 42 63 57 42 63 56 42 63
56 42 63 56 42 63 56 42 63 56 42 63 56 42 63 56 42 63 56 42 63 56 42
63 56 43 63 56 43 63 56 43 63 56 43 63 56 43 63 56 43 63 56 43 63 56
43 63 56 43 63 56 43 63 56 43 63 56 43 63 56 43 63 56 43 63 56 43 63
56 43 63 55 43 63 55 43 63 55 43 63 55 43 63 55 43 63 55 43 63 55 43
63 55 43 63 55 43 63 55 43 63 55 43 63 55 43 63 55 43 63 55 43 63 55
43 63 55 43 63 55 43 63 55 43 63 55 43 63 55 43 63 55 43 63 55 43 63
55 43 63 55 43 63 55 43 63 54 43 63 54 43 63 54 43 63 54 43 63 54 43
63 54 43 63 54 43 62 54 43 62 54 43 62 54 43 62 54 43 62 54 43 62 54
43 62 54 43 62 54 43 62 54 43 62 54 43 62 54 43 62 54 43 62 54 43 62
54 43 62 54 43 62 54 43 62 54 43 62 54 43 62 54 43 62 54 43 62 53 43
62 53 43 62 53 43 62 53 43 62 53 43 62 53 43 62 53 43 62 53 43 62 53
43 62 53 43 62 53 43 62 53 43 62 53 43 62 53 43 62 53 43 62 53 43 62
53 43 62 53 43 62 53 43 62 53 43 62 53 43 62 53 43 62 53 43 62 53 43
62 53 43 62 53 43 62 53 43 62 53 43 62 52 43 62 52 43 62 52 43 62 52
43 62 52 43 62 52 43 62 52 43 62 52 43 62 52 43 62 52 43 62 52 43 62
52 43 62 52 43 62 52 43 62 52 43 62 52 43 62 52 43 61 52 43 61 52 43
61 52 43 61 52 43 61 52 43 61 52 43 61 52 43 61 52 43 61 52 43 61 52
43 61 52 43 61 52 43 61 51 43 61 51 43 61 51 43 61 51 43 61 51 43 61
51 43 61 51 43 61 51 43 61 51 43 61 51 43 61 51 43 61 51 43 61 51 43
61 51 43 61 51 43 61 51 43 61 51 43 61 51 43 61 51 43 61 51 43 61 51
43 61 51 43 61 51 43 61 51 43 61 51 43 61 51 19 37 42 19 37 42 19 37
42 19 37 42
20 49 63 20 49 63 20 49 63 20 49 63 20 49 63 20 49 63 20 49 63 20 49
63 20 49 63 20 49 63 20 49 63 20 49 63 20 49 63 20 49 62 20 49 62 20
48 62 20 48 62 20 48 62 20 48 62 20 48 62 20 48 62 20 48 62 20 48 62
20 48 62 20 48 62 20 48 62 20 48 61 20 48 61 20 48 61 20 48 61 20 48
61 20 48 61 20 48 61 20 48 61 20 48 61 20 48 61 20 48 61 20 48 61 20
48 61 20 47 61 20 47 60 20 47 60 20 47 60 20 47 60 20 47 60 20 47 60
20 47 60 20 47 60 20 47 60 20 47 60 20 47 60 20 47 60 20 47 60 20 47
60 20 47 59 20 47 59 20 47 59 20 47 59 20 47 59 20 47 59 20 47 59 20
47 59 20 47 59 20 47 59 20 46 59 20 46 59 20 46 59 20 46 59 20 46 58
20 46 58 20 46 58 20 46 58 20 46 58 20 46 58 20 46 58 20 46 58 20 46
58 20 46 58 20 46 58 20 46 58 20 46 58 20 46 58 20 46 57 20 46 57 20
46 57 20 46 57 20 46 57 20 46 57 20 46 57 20 46 57 20 45 57 20 45 57
20 45 57 20 45 57 20 45 57 20 45 57 20 45 57 20 45 56 20 45 56 20 45
56 20 45 56 20 45 56 20 45 56 20 45 56 20 45 56 20 45 56 20 45 56 20
45 56 20 45 56 20 45 56 20 45 56 20 45 56 20 45 56 20 45 55 20 45 55
20 45 55 20 45 55 20 45 55 20 44 55 20 44 55 20 44 55 20 44 55 20 44
55 20 44 55 40 64 62 40 64 62 40 64 62 40 64 62 40 64 62 40 64 62 40
64 61 40 64 61 40 64 61 40 64 61 40 64 61 41 64 61 41 64 61 41 64 61
41 64 61 41 64 61 41 64 61 41 64 61 41 64 61 41 64 61 41 64 61 41 64
61 41 64 61 41 64 61 41 64 61 41 64 60 41 64 60 41 64 60 41 64 60 41
64 60 41 64 60 41 64 60 41 64 60 41 64 60 41 64 60 41 64 60 41 64 60
41 64 60 41 64 60 41 64 60 41 64 60 41 64 60 41 64 60 41 64 60 41 64
60 41 64 59 41 64 59 41 64 59 41 64 59 41 64 59 41 64 59 41 64 59 41
64 59 41 64 59 41 64 59 41 64 59 41 64 59 41 64 59 41 64 59 41 64 59
41 64 59 41 64 59 41 64 59 41 64 59 42 64 59 42 64 59 42 64 58 42 64
58 42 64 58 42 64 58 42 64 58 42 64 58 42 64 58 42 64 58 42 64 58 42
64 58 42 64 58 42 64 58 42 63 58 42 63 58 42 63 58 42 63 58 42 63 58
42 63 58 42 63 58 42 63 58 42 63 58 42 63 58 42 63 57 42 63 57 42 63
57 42 63 57 42 63 57 42 63 57 42 63 57 42 63 57 42 63 57 42 63 57 42
63 57 42 63 57 42 63 57 42 63 57 42 63 57 42 63 57 42 63 57 42 63 57
42 63 57 42 63 57 42 63 57 42 63 57 42 63 57 42 63 56 42 63 56 42 63
56 42 63 56 42 63 56 42 63 56 42 63 56 42 63 56 42 63 56 42 63 56 42
63 56 42 63 56 42 63 56 42 63 56 42 63 56 43 63 56 43 63 56 43 63 56
43 63 56 43 63 56 43 63 56 43 63 56 43 63 56 43 63 56 43 63 56 43 63
55 43 63 55 43 63 55 43 63 55 43 63 55 43 63 55 43 63 55 43 63 55 43
63 55 43 63 55 43 63 55 43 63 55 43 63 55 43 63 55 43 63 55 43 63 55
43 63 55 43 63 55 43 63 55 43 63 55 43 63 55 43 63 55 43 63 55 43 63
55 43 63 55 43 63 55 43 63 54 43 63 54 43 62 54 43 62 54 43 62 54 43
62 54 43 62 54 43 62 54 43 62 54 43 62 54 43 62 54 43 62 54 43 62 54
43 62 54 43 62 54 43 62 54 43 62 54 43 62 54 43 62 54 43 62 54 43 62
54 43 62 54 43 62 54 43 62 54 43 62 54 43 62 54 43 62 54 43 62 53 43
62 53 43 62 53 43 62 53 43 62 53 43 62 53 43 62 53 43 62 53 43 62 53
43 62 53 43 62 53 43 62 53 43 62 53 43 62 53 43 62 53 43 62 53 43 62
53 43 62 53 43 62 53 43 62 53 43 62 53 43 62 53 43 62 53 43 62 53 43
62 53 43 62 53 43 62 53 43 62 53 43 62 52 43 62 52 43 62 52 43 62 52
43 62 52 43 62 52 43 62 52 43 62 52 43 62 52 43 62 52 43 62 52 43 62
52 43 62 52 43 62 52 43 61 52 43 61 52 43 61 52 43 61 52 43 61 52 43
61 52 43 61 52 43 61 52 43 61 52 43 61 52 43 61 52 43 61 52 43 61 52
43 61 52 43 61 52 43 61 51 43 61 51 43 61 51 43 61 51 43 61 51 43 61
51 43 61 51 43 61 51 43 61 51 43 61 51 43 61 51 43 61 51 43 61 51 43
61 51 43 61 51 43 61 51 43 61 51 43 61 51 43 61 51 43 61 51 43 61 51
43 61 51 43 61 51 43 61 51 43 61 51 43 61 51 19 37 42 19 37 42 19 37
42 19 37 42
20 49 63 20 49 63 20 49 63 20 49 63 20 49 63 20 49 63 20 49 63 20 49
63 20 49 63 20 49 63 20 49 63 20 49 62 20 48 62 20 48 62 20 48 62 20
48 62 20 48 62 20 48 62 20 48 62 20 48 62 20 48 62 20 48 62 20 48 62
20 48 62 20 48 61 20 48 61 20 48 61 20 48 61 20 48 61 20 48 61 20 48
61 20 48 61 20 48 61 20 48 61 20 48 61 20 48 61 20 48 61 20 47 61 20
47 60 20 47 60 20 47 60 20 47 60 20 47 60 20 47 60 20 47 60 20 47 60
20 47 60 20 47 60 20 47 60 20 47 60 20 47 60 20 47 60 20 47 59 20 47
59 20 47 59 20 47 59 20 47 59 20 47 59 20 47 59 20 47 59 20 47 59 20
47 59 20 46 59 20 46 59 20 46 59 20 46 59 20 46 58 20 46 58 20 46 58
20 46 58 20 46 58 20 46 58 20 46 58 20 46 58 20 46 58 20 46 58 20 46
58 20 46 58 20 46 58 20 46 58 20 46 58 20 46 57 20 46 57 20 46 57 20
46 57 20 46 57 20 46 57 20 46 57 20 45 57 20 45 57 20 45 57 20 45 57
20 45 57 20 45 57 20 45 57 20 45 57 20 45 56 20 45 56 20 45 56 20 45
56 20 45 56 20 45 56 20 45 56 20 45 56 20 45 56 20 45 56 20 45 56 20
45 56 20 45 56 20 45 56 20 45 56 20 45 55 20 45 55 20 45 55 20 45 55
20 45 55 20 44 55 20 44 55 20 44 55 20 44 55 20 44 55 20 44 55 20 44
55 40 64 62 40 64 62 40 64 62 40 64 62 40 64 62 40 64 62 40 64 61 40
64 61 40 64 61 40 64 61 40 64 61 40 64 61 40 64 61 40 64 61 41 64 61
41 64 61 41 64 61 41 64 61 41 64 61 41 64 61 41 64 61 41 64 61 41 64
61 41 64 61 41 64 61 41 64 60 41 64 60 41 64 60 41 64 60 41 64 60 41
64 60 41 64 60 41 64 60 41 64 60 41 64 60 41 64 60 41 64 60 41 64 60
41 64 60 41 64 60 41 64 60 41 64 60 41 64 60 41 64 60 41 64 60 41 64
59 41 64 59 41 64 59 41 64 59 41 64 59 41 64 59 41 64 59 41 64 59 41
64 59 41 64 59 41 64 59 41 64 59 41 64 59 41 64 59 41 64 59 41 64 59
41 64 59 41 64 59 41 64 59 41 64 59 41 64 59 41 64 58 42 64 58 42 64
58 42 64 58 42 64 58 42 64 58 42 64 58 42 63 58 42 63 58 42 63 58 42
63 58 42 63 58 42 63 58 42 63 58 42 63 58 42 63 58 42 63 58 42 63 58
42 63 58 42 63 58 42 63 58 42 63 58 42 63 57 42 63 57 42 63 57 42 63
57 42 63 57 42 63 57 42 63 57 42 63 57 42 63 57 42 63 57 42 63 57 42
63 57 42 63 57 42 63 57 42 63 57 42 63 57 42 63 57 42 63 57 42 63 57
42 63 57 42 63 57 42 63 57 42 63 57 42 63 56 42 63 56 42 63 56 42 63
56 42 63 56 42 63 56 42 63 56 42 63 56 42 63 56 42 63 56 42 63 56 42
63 56 42 63 56 42 63 56 42 63 56 42 63 56 42 63 56 42 63 56 42 63 56
42 63 56 43 63 56 43 63 56 43 63 56 43 63 56 43 63 56 43 63 55 43 63
55 43 63 55 43 63 55 43 63 55 43 63 55 43 63 55 43 63 55 43 63 55 43
63 55 43 63 55 43 63 55 43 63 55 43 63 55 43 63 55 43 63 55 43 63 55
43 63 55 43 63 55 43 63 55 43 63 55 43 63 55 43 63 55 43 63 55 43 62
55 43 62 55 43 62 54 43 62 54 43 62 54 43 62 54 43 62 54 43 62 54 43
62 54 43 62 54 43 62 54 43 62 54 43 62 54 43 62 54 43 62 54 43 62 54
43 62 54 43 62 54 43 62 54 43 62 54 43 62 54 43 62 54 43 62 54 43 62
54 43 62 54 43 62 54 43 62 54 43 62 54 43 62 54 43 62 53 43 62 53 43
62 53 43 62 53 43 62 53 43 62 53 43 62 53 43 62 53 43 62 53 43 62 53
43 62 53 43 62 53 43 62 53 43 62 53 43 62 53 43 62 53 43 62 53 43 62
53 43 62 53 43 62 53 43 62 53 43 62 53 43 62 53 43 62 53 43 62 53 43
62 53 43 62 53 43 62 53 43 62 52 43 62 52 43 62 52 43 62 52 43 62 52
43 62 52 43 62 52 43 62 52 43 62 52 43 62 52 43 62 52 43 62 52 43 61
52 43 61 52 43 61 52 43 61 52 43 61 52 43 61 52 43 61 52 43 61 52 43
61 52 43 61 52 43 61 52 43 61 52 43 61 52 43 61 52 43 61 52 43 61 52
43 61 52 43 61 52 43 61 51 43 61 51 43 61 51 43 61 51 43 61 51 43 61
51 43 61 51 43 61 51 43 61 51 43 61 51 43 61 51 43 61 51 43 61 51 43
61 51 43 61 51 43 61 51 43 61 51 43 61 51 43 61 51 43 61 51 43 61 51
43 61 51 43 61 51 43 61 51 43 61 51 43 61 51 19 37 43 19 37 42 19 37
42 19 37 42
20 49 63 20 49 63 20 49 63 20 49 63 20 49 63 20 49 63 20 49 63 20 49
63 20 49 62 20 49 62 20 48 62 20 48 62 20 48 62 20 48 62 20 48 62 20
48 62 20 48 62 20 48 62 20 48 62 20 48 62 20 48 62 20 48 62 20 48 61
20 48 61 20 48 61 20 48 61 20 48 61 20 48 61 20 48 61 20 48 61 20 48
61 20 48 61 20 48 61 20 48 61 20 48 61 20 47 61 20 47 60 20 47 60 20
47 60 20 47 60 20 47 60 20 47 60 20 47 60 20 47 60 20 47 60 20 47 60
20 47 60 20 47 60 20 47 60 20 47 60 20 47 59 20 47 59 20 47 59 20 47
59 20 47 59 20 47 59 20 47 59 20 47 59 20 47 59 20 47 59 20 46 59 20
46 59 20 46 59 20 46 59 20 46 58 20 46 58 20 46 58 20 46 58 20 46 58
20 46 58 20 46 58 20 46 58 20 46 58 20 46 58 20 46 58 20 46 58 20 46
58 20 46 58 20 46 58 20 46 57 20 46 57 20 46 57 20 46 57 20 46 57 20
46 57 20 46 57 20 46 57 20 45 57 20 45 57 20 45 57 20 45 57 20 45 57
20 45 57 20 45 57 20 45 56 20 45 56 20 45 56 20 45 56 20 45 56 20 45
56 20 45 56 20 45 56 20 45 56 20 45 56 20 45 56 20 45 56 20 45 56 20
45 56 20 45 56 20 45 56 20 45 55 20 45 55 20 45 55 20 45 55 20 45 55
20 44 55 20 44 55 20 44 55 20 44 55 20 44 55 20 44 55 20 44 55 40 64
62 40 64 62 40 64 62 40 64 62 40 64 62 40 64 61 40 64 61 40 64 61 40
64 61 40 64 61 40 64 61 40 64 61 40 64 61 40 64 61 40 64 61 40 64 61
40 64 61 41 64 61 41 64 61 41 64 61 41 64 61 41 64 61 41 64 61 41 64
61 41 64 60 41 64 60 41 64 60 41 64 60 41 64 60 41 64 60 41 64 60 41
64 60 41 64 60 41 64 60 41 64 60 41 64 60 41 64 60 41 64 60 41 64 60
41 64 60 41 64 60 41 64 60 41 64 60 41 64 60 41 64 59 41 64 59 41 64
59 41 64 59 41 64 59 41 64 59 41 64 59 41 64 59 41 64 59 41 64 59 41
64 59 41 64 59 41 64 59 41 64 59 41 64 59 41 64 59 41 64 59 41 64 59
41 64 59 41 64 59 41 64 59 41 64 59 41 64 58 41 64 58 41 63 58 41 63
58 41 63 58 42 63 58 42 63 58 42 63 58 42 63 58 42 63 58 42 63 58 42
63 58 42 63 58 42 63 58 42 63 58 42 63 58 42 63 58 42 63 58 42 63 58
42 63 58 42 63 58 42 63 58 42 63 57 42 63 57 42 63 57 42 63 57 42 63
57 42 63 57 42 63 57 42 63 57 42 63 57 42 63 57 42 63 57 42 63 57 42
63 57 42 63 57 42 63 57 42 63 57 42 63 57 42 63 57 42 63 57 42 63 57
42 63 57 42 63 57 42 63 57 42 63 56 42 63 56 42 63 56 42 63 56 42 63
56 42 63 56 42 63 56 42 63 56 42 63 56 42 63 56 42 63 56 42 63 56 42
63 56 42 63 56 42 63 56 42 63 56 42 63 56 42 63 56 42 63 56 42 63 56
42 63 56 42 63 56 42 63 56 42 63 56 42 63 56 42 63 55 43 63 55 43 63
55 43 63 55 43 63 55 43 63 55 43 63 55 43 63 55 43 63 55 43 63 55 43
63 55 43 63 55 43 63 55 43 63 55 43 63 55 43 63 55 43 63 55 43 63 55
43 63 55 43 63 55 43 62 55 43 62 55 43 62 55 43 62 55 43 62 55 43 62
55 43 62 54 43 62 54 43 62 54 43 62 54 43 62 54 43 62 54 43 62 54 43
62 54 43 62 54 43 62 54 43 62 54 43 62 54 43 62 54 43 62 54 43 62 54
43 62 54 43 62 54 43 62 54 43 62 54 43 62 54 43 62 54 43 62 54 43 62
54 43 62 54 43 62 54 43 62 54 43 62 54 43 62 54 43 62 53 43 62 53 43
62 53 43 62 53 43 62 53 43 62 53 43 62 53 43 62 53 43 62 53 43 62 53
43 62 53 43 62 53 43 62 53 43 62 53 43 62 53 43 62 53 43 62 53 43 62
53 43 62 53 43 62 53 43 62 53 43 62 53 43 62 53 43 62 53 43 62 53 43
62 53 43 62 53 43 62 53 43 62 52 43 62 52 43 62 52 43 62 52 43 62 52
43 62 52 43 62 52 43 62 52 43 62 52 43 61 52 43 61 52 43 61 52 43 61
52 43 61 52 43 61 52 43 61 52 43 61 52 43 61 52 43 61 52 43 61 52 43
61 52 43 61 52 43 61 52 43 61 52 43 61 52 43 61 52 43 61 52 43 61 52
43 61 52 43 61 52 43 61 51 43 61 51 43 61 51 43 61 51 43 61 51 43 61
51 43 61 51 43 61 51 43 61 51 43 61 51 43 61 51 43 61 51 43 61 51 43
61 51 43 61 51 43 61 51 43 61 51 43 61 51 43 61 51 43 61 51 43 61 51
43 61 51 43 61 51 43 61 51 43 61 51 43 61 51 19 37 43 19 37 42 19 37
42 19 37 42
20 49 63 20 49 63 20 49 63 20 49 63 20 49 63 20 49 63 20 49 62 20 49
62 20 48 62 20 48 62 20 48 62 20 48 62 20 48 62 20 48 62 20 48 62 20
48 62 20 48 62 20 48 62 20 48 62 20 48 62 20 48 61 20 48 61 20 48 61
20 48 61 20 48 61 20 48 61 20 48 61 20 48 61 20 48 61 20 48 61 20 48
61 20 48 61 20 48 61 20 47 61 20 47 60 20 47 60 20 47 60 20 47 60 20
47 60 20 47 60 20 47 60 20 47 60 20 47 60 20 47 60 20 47 60 20 47 60
20 47 60 20 47 60 20 47 59 20 47 59 20 47 59 20 47 59 20 47 59 20 47
59 20 47 59 20 47 59 20 47 59 20 47 59 20 46 59 20 46 59 20 46 59 20
46 59 20 46 58 20 46 58 20 46 58 20 46 58 20 46 58 20 46 58 20 46 58
20 46 58 20 46 58 20 46 58 20 46 58 20 46 58 20 46 58 20 46 58 20 46
58 20 46 57 20 46 57 20 46 57 20 46 57 20 46 57 20 46 57 20 46 57 20
46 57 20 45 57 20 45 57 20 45 57 20 45 57 20 45 57 20 45 57 20 45 57
20 45 57 20 45 56 20 45 56 20 45 56 20 45 56 20 45 56 20 45 56 20 45
56 20 45 56 20 45 56 20 45 56 20 45 56 20 45 56 20 45 56 20 45 56 20
45 56 20 45 56 20 45 55 20 45 55 20 45 55 20 45 55 20 45 55 20 44 55
20 44 55 20 44 55 20 44 55 20 44 55 20 44 55 20 44 55 20 44 55 40 64
62 40 64 62 40 64 62 40 64 61 40 64 61 40 64 61 40 64 61 40 64 61 40
64 61 40 64 61 40 64 61 40 64 61 40 64 61 40 64 61 40 64 61 40 64 61
40 64 61 40 64 61 40 64 61 41 64 61 41 64 61 41 64 61 41 64 61 41 64
60 41 64 60 41 64 60 41 64 60 41 64 60 41 64 60 41 64 60 41 64 60 41
64 60 41 64 60 41 64 60 41 64 60 41 64 60 41 64 60 41 64 60 41 64 60
41 64 60 41 64 60 41 64 60 41 64 60 41 64 59 41 64 59 41 64 59 41 64
59 41 64 59 41 64 59 41 64 59 41 64 59 41 64 59 41 64 59 41 64 59 41
64 59 41 64 59 41 64 59 41 64 59 41 64 59 41 64 59 41 64 59 41 64 59
41 63 59 41 63 59 41 63 58 41 63 58 41 63 58 41 63 58 41 63 58 41 63
58 41 63 58 41 63 58 41 63 58 41 63 58 42 63 58 42 63 58 42 63 58 42
63 58 42 63 58 42 63 58 42 63 58 42 63 58 42 63 58 42 63 58 42 63 58
42 63 58 42 63 58 42 63 57 42 63 57 42 63 57 42 63 57 42 63 57 42 63
57 42 63 57 42 63 57 42 63 57 42 63 57 42 63 57 42 63 57 42 63 57 42
63 57 42 63 57 42 63 57 42 63 57 42 63 57 42 63 57 42 63 57 42 63 57
42 63 57 42 63 57 42 63 57 42 63 56 42 63 56 42 63 56 42 63 56 42 63
56 42 63 56 42 63 56 42 63 56 42 63 56 42 63 56 42 63 56 42 63 56 42
63 56 42 63 56 42 63 56 42 63 56 42 63 56 42 63 56 42 63 56 42 63 56
42 63 56 42 63 56 42 63 56 42 63 56 42 63 55 42 63 55 42 63 55 42 63
55 42 63 55 42 63 55 43 63 55 43 63 55 43 63 55 43 63 55 43 63 55 43
63 55 43 63 55 43 63 55 43 63 55 43 63 55 43 62 55 43 62 55 43 62 55
43 62 55 43 62 55 43 62 55 43 62 55 43 62 55 43 62 55 43 62 55 43 62
55 43 62 54 43 62 54 43 62 54 43 62 54 43 62 54 43 62 54 43 62 54 43
62 54 43 62 54 43 62 54 43 62 54 43 62 54 43 62 54 43 62 54 43 62 54
43 62 54 43 62 54 43 62 54 43 62 54 43 62 54 43 62 54 43 62 54 43 62
54 43 62 54 43 62 54 43 62 54 43 62 54 43 62 53 43 62 53 43 62 53 43
62 53 43 62 53 43 62 53 43 62 53 43 62 53 43 62 53 43 62 53 43 62 53
43 62 53 43 62 53 43 62 53 43 62 53 43 62 53 43 62 53 43 62 53 43 62
53 43 62 53 43 62 53 43 62 53 43 62 53 43 62 53 43 62 53 43 62 53 43
62 53 43 62 53 43 62 53 43 62 52 43 62 52 43 62 52 43 62 52 43 62 52
43 61 52 43 61 52 43 61 52 43 61 52 43 61 52 43 61 52 43 61 52 43 61
52 43 61 52 43 61 52 43 61 52 43 61 52 43 61 52 43 61 52 43 61 52 43
61 52 43 61 52 43 61 52 43 61 52 43 61 52 43 61 52 43 61 52 43 61 52
43 61 52 43 61 51 43 61 51 43 61 51 43 61 51 43 61 51 43 61 51 43 61
51 43 61 51 43 61 51 43 61 51 43 61 51 43 61 51 43 61 51 43 61 51 43
61 51 43 61 51 43 61 51 43 61 51 43 61 51 43 61 51 43 61 51 43 61 51
43 61 51 43 61 51 43 61 51 43 61 51 43 61 51 19 37 43 19 37 43 19 37
42 19 37 42
20 49 63 20 49 63 20 49 63 20 49 63 20 49 62 20 49 62 20 48 62 20 48
62 20 48 62 20 48 62 20 48 62 20 48 62 20 48 62 20 48 62 20 48 62 20
48 62 20 48 62 20 48 62 20 48 61 20 48 61 20 48 61 20 48 61 20 48 61
20 48 61 20 48 61 20 48 61 20 48 61 20 48 61 20 48 61 20 48 61 20 48
61 20 47 61 20 47 60 20 47 60 20 47 60 20 47 60 20 47 60 20 47 60 20
47 60 20 47 60 20 47 60 20 47 60 20 47 60 20 47 60 20 47 60 20 47 60
20 47 59 20 47 59 20 47 59 20 47 59 20 47 59 20 47 59 20 47 59 20 47
59 20 47 59 20 47 59 20 46 59 20 46 59 20 46 59 20 46 59 20 46 59 20
46 58 20 46 58 20 46 58 20 46 58 20 46 58 20 46 58 20 46 58 20 46 58
20 46 58 20 46 58 20 46 58 20 46 58 20 46 58 20 46 58 20 46 58 20 46
57 20 46 57 20 46 57 20 46 57 20 46 57 20 46 57 20 46 57 20 46 57 20
45 57 20 45 57 20 45 57 20 45 57 20 45 57 20 45 57 20 45 57 20 45 56
20 45 56 20 45 56 20 45 56 20 45 56 20 45 56 20 45 56 20 45 56 20 45
56 20 45 56 20 45 56 20 45 56 20 45 56 20 45 56 20 45 56 20 45 56 20
45 55 20 45 55 20 45 55 20 45 55 20 45 55 20 44 55 20 44 55 20 44 55
20 44 55 20 44 55 20 44 55 20 44 55 20 44 55 20 44 55 40 64 62 40 64
62 40 64 62 40 64 61 40 64 61 40 64 61 40 64 61 40 64 61 40 64 61 40
64 61 40 64 61 40 64 61 40 64 61 40 64 61 40 64 61 40 64 61 40 64 61
40 64 61 40 64 61 40 64 61 40 64 61 41 64 61 41 64 60 41 64 60 41 64
60 41 64 60 41 64 60 41 64 60 41 64 60 41 64 60 41 64 60 41 64 60 41
64 60 41 64 60 41 64 60 41 64 60 41 64 60 41 64 60 41 64 60 41 64 60
41 64 60 41 64 60 41 64 60 41 64 59 41 64 59 41 64 59 41 64 59 41 64
59 41 64 59 41 64 59 41 64 59 41 64 59 41 64 59 41 64 59 41 64 59 41
64 59 41 64 59 41 63 59 41 63 59 41 63 59 41 63 59 41 63 59 41 63 59
41 63 59 41 63 58 41 63 58 41 63 58 41 63 58 41 63 58 41 63 58 41 63
58 41 63 58 41 63 58 41 63 58 41 63 58 41 63 58 41 63 58 42 63 58 42
63 58 42 63 58 42 63 58 42 63 58 42 63 58 42 63 58 42 63 58 42 63 58
42 63 58 42 63 57 42 63 57 42 63 57 42 63 57 42 63 57 42 63 57 42 63
57 42 63 57 42 63 57 42 63 57 42 63 57 42 63 57 42 63 57 42 63 57 42
63 57 42 63 57 42 63 57 42 63 57 42 63 57 42 63 57 42 63 57 42 63 57
42 63 57 42 63 57 42 63 56 42 63 56 42 63 56 42 63 56 42 63 56 42 63
56 42 63 56 42 63 56 42 63 56 42 63 56 42 63 56 42 63 56 42 63 56 42
63 56 42 63 56 42 63 56 42 63 56 42 63 56 42 63 56 42 63 56 42 63 56
42 63 56 42 63 56 42 63 56 42 63 56 42 63 55 42 63 55 42 63 55 42 63
55 42 63 55 42 63 55 42 63 55 42 63 55 42 63 55 42 63 55 42 63 55 43
62 55 43 62 55 43 62 55 43 62 55 43 62 55 43 62 55 43 62 55 43 62 55
43 62 55 43 62 55 43 62 55 43 62 55 43 62 55 43 62 55 43 62 55 43 62
54 43 62 54 43 62 54 43 62 54 43 62 54 43 62 54 43 62 54 43 62 54 43
62 54 43 62 54 43 62 54 43 62 54 43 62 54 43 62 54 43 62 54 43 62 54
43 62 54 43 62 54 43 62 54 43 62 54 43 62 54 43 62 54 43 62 54 43 62
54 43 62 54 43 62 54 43 62 54 43 62 54 43 62 53 43 62 53 43 62 53 43
62 53 43 62 53 43 62 53 43 62 53 43 62 53 43 62 53 43 62 53 43 62 53
43 62 53 43 62 53 43 62 53 43 62 53 43 62 53 43 62 53 43 62 53 43 62
53 43 62 53 43 62 53 43 62 53 43 62 53 43 62 53 43 62 53 43 62 53 43
62 53 43 62 53 43 62 52 43 62 52 43 62 52 43 61 52 43 61 52 43 61 52
43 61 52 43 61 52 43 61 52 43 61 52 43 61 52 43 61 52 43 61 52 43 61
52 43 61 52 43 61 52 43 61 52 43 61 52 43 61 52 43 61 52 43 61 52 43
61 52 43 61 52 43 61 52 43 61 52 43 61 52 43 61 52 43 61 52 43 61 52
43 61 52 43 61 51 43 61 51 43 61 51 43 61 51 43 61 51 43 61 51 43 61
51 43 61 51 43 61 51 43 61 51 43 61 51 43 61 51 43 61 51 43 61 51 43
61 51 43 61 51 43 61 51 43 61 51 43 61 51 43 61 51 43 61 51 43 61 51
43 61 51 43 61 51 43 61 51 43 61 51 43 61 51 19 37 43 19 37 43 19 37
43 19 37 42
20 49 63 20 49 62 20 49 62 20 48 62 20 48 62 20 48 62 20 48 62 20 48
62 20 48 62 20 48 62 20 48 62 20 48 62 20 48 62 20 48 62 20 48 62 20
48 61 20 48 61 20 48 61 20 48 61 20 48 61 20 48 61 20 48 61 20 48 61
20 48 61 20 48 61 20 48 61 20 48 61 20 48 61 20 47 61 20 47 61 20 47
60 20 47 60 20 47 60 20 47 60 20 47 60 20 47 60 20 47 60 20 47 60 20
47 60 20 47 60 20 47 60 20 47 60 20 47 60 20 47 60 20 47 59 20 47 59
20 47 59 20 47 59 20 47 59 20 47 59 20 47 59 20 47 59 20 47 59 20 47
59 20 47 59 20 46 59 20 46 59 20 46 59 20 46 59 20 46 58 20 46 58 20
46 58 20 46 58 20 46 58 20 46 58 20 46 58 20 46 58 20 46 58 20 46 58
20 46 58 20 46 58 20 46 58 20 46 58 20 46 58 20 46 57 20 46 57 20 46
57 20 46 57 20 46 57 20 46 57 20 46 57 20 46 57 20 45 57 20 45 57 20
45 57 20 45 57 20 45 57 20 45 57 20 45 57 20 45 57 20 45 56 20 45 56
20 45 56 20 45 56 20 45 56 20 45 56 20 45 56 20 45 56 20 45 56 20 45
56 20 45 56 20 45 56 20 45 56 20 45 56 20 45 56 20 45 56 20 45 55 20
45 55 20 45 55 20 45 55 20 45 55 20 44 55 20 44 55 20 44 55 20 44 55
20 44 55 20 44 55 20 44 55 20 44 55 20 44 55 40 64 62 40 64 62 40 64
61 40 64 61 40 64 61 40 64 61 40 64 61 40 64 61 40 64 61 40 64 61 40
64 61 40 64 61 40 64 61 40 64 61 40 64 61 40 64 61 40 64 61 40 64 61
40 64 61 40 64 61 40 64 61 40 64 61 40 64 60 40 64 60 41 64 60 41 64
60 41 64 60 41 64 60 41 64 60 41 64 60 41 64 60 41 64 60 41 64 60 41
64 60 41 64 60 41 64 60 41 64 60 41 64 60 41 64 60 41 64 60 41 64 60
41 64 60 41 64 59 41 64 59 41 64 59 41 64 59 41 64 59 41 64 59 41 64
59 41 64 59 41 64 59 41 64 59 41 64 59 41 63 59 41 63 59 41 63 59 41
63 59 41 63 59 41 63 59 41 63 59 41 63 59 41 63 59 41 63 59 41 63 59
41 63 58 41 63 58 41 63 58 41 63 58 41 63 58 41 63 58 41 63 58 41 63
58 41 63 58 41 63 58 41 63 58 41 63 58 41 63 58 41 63 58 41 63 58 41
63 58 41 63 58 42 63 58 42 63 58 42 63 58 42 63 58 42 63 58 42 63 58
42 63 57 42 63 57 42 63 57 42 63 57 42 63 57 42 63 57 42 63 57 42 63
57 42 63 57 42 63 57 42 63 57 42 63 57 42 63 57 42 63 57 42 63 57 42
63 57 42 63 57 42 63 57 42 63 57 42 63 57 42 63 57 42 63 57 42 63 57
42 63 57 42 63 56 42 63 56 42 63 56 42 63 56 42 63 56 42 63 56 42 63
56 42 63 56 42 63 56 42 63 56 42 63 56 42 63 56 42 63 56 42 63 56 42
63 56 42 63 56 42 63 56 42 63 56 42 63 56 42 63 56 42 63 56 42 63 56
42 63 56 42 63 56 42 63 56 42 63 55 42 63 55 42 63 55 42 63 55 42 63
55 42 63 55 42 62 55 42 62 55 42 62 55 42 62 55 42 62 55 42 62 55 42
62 55 42 62 55 42 62 55 42 62 55 42 62 55 43 62 55 43 62 55 43 62 55
43 62 55 43 62 55 43 62 55 43 62 55 43 62 55 43 62 55 43 62 54 43 62
54 43 62 54 43 62 54 43 62 54 43 62 54 43 62 54 43 62 54 43 62 54 43
62 54 43 62 54 43 62 54 43 62 54 43 62 54 43 62 54 43 62 54 43 62 54
43 62 54 43 62 54 43 62 54 43 62 54 43 62 54 43 62 54 43 62 54 43 62
54 43 62 54 43 62 54 43 62 54 43 62 53 43 62 53 43 62 53 43 62 53 43
62 53 43 62 53 43 62 53 43 62 53 43 62 53 43 62 53 43 62 53 43 62 53
43 62 53 43 62 53 43 62 53 43 62 53 43 62 53 43 62 53 43 62 53 43 62
53 43 62 53 43 62 53 43 62 53 43 62 53 43 62 53 43 62 53 43 62 53 43
62 53 43 61 53 43 61 52 43 61 52 43 61 52 43 61 52 43 61 52 43 61 52
43 61 52 43 61 52 43 61 52 43 61 52 43 61 52 43 61 52 43 61 52 43 61
52 43 61 52 43 61 52 43 61 52 43 61 52 43 61 52 43 61 52 43 61 52 43
61 52 43 61 52 43 61 52 43 61 52 43 61 52 43 61 52 43 61 52 43 61 52
43 61 52 43 61 51 43 61 51 43 61 51 43 61 51 43 61 51 43 61 51 43 61
51 43 61 51 43 61 51 43 61 51 43 61 51 43 61 51 43 61 51 43 61 51 43
61 51 43 61 51 43 61 51 43 61 51 43 61 51 43 61 51 43 61 51 43 61 51
43 61 51 43 61 51 43 61 51 43 61 51 43 61 51 19 37 43 19 37 43 19 37
43 19 37 42
20 49 62 20 48 62 20 48 62 20 48 62 20 48 62 20 48 62 20 48 62 20 48
62 20 48 62 20 48 62 20 48 62 20 48 62 20 48 62 20 48 61 20 48 61 20
48 61 20 48 61 20 48 61 20 48 61 20 48 61 20 48 61 20 48 61 20 48 61
20 48 61 20 48 61 20 48 61 20 47 61 20 47 60 20 47 60 20 47 60 20 47
60 20 47 60 20 47 60 20 47 60 20 47 60 20 47 60 20 47 60 20 47 60 20
47 60 20 47 60 20 47 60 20 47 60 20 47 59 20 47 59 20 47 59 20 47 59
20 47 59 20 47 59 20 47 59 20 47 59 20 47 59 20 47 59 20 47 59 20 46
59 20 46 59 20 46 59 20 46 59 20 46 58 20 46 58 20 46 58 20 46 58 20
46 58 20 46 58 20 46 58 20 46 58 20 46 58 20 46 58 20 46 58 20 46 58
20 46 58 20 46 58 20 46 58 20 46 57 20 46 57 20 46 57 20 46 57 20 46
57 20 46 57 20 46 57 20 46 57 20 45 57 20 45 57 20 45 57 20 45 57 20
45 57 20 45 57 20 45 57 20 45 57 20 45 56 20 45 56 20 45 56 20 45 56
20 45 56 20 45 56 20 45 56 20 45 56 20 45 56 20 45 56 20 45 56 20 45
56 20 45 56 20 45 56 20 45 56 20 45 56 20 45 55 20 45 55 20 45 55 20
45 55 20 45 55 20 45 55 20 44 55 20 44 55 20 44 55 20 44 55 20 44 55
20 44 55 20 44 55 20 44 55 20 44 55 40 64 62 40 64 61 40 64 61 40 64
61 40 64 61 40 64 61 40 64 61 40 64 61 40 64 61 40 64 61 40 64 61 40
64 61 40 64 61 40 64 61 40 64 61 40 64 61 40 64 61 40 64 61 40 64 61
40 64 61 40 64 61 40 64 60 40 64 60 40 64 60 40 64 60 40 64 60 40 64
60 41 64 60 41 64 60 41 64 60 41 64 60 41 64 60 41 64 60 41 64 60 41
64 60 41 64 60 41 64 60 41 64 60 41 64 60 41 64 60 41 64 60 41 64 60
41 64 59 41 64 59 41 64 59 41 64 59 41 64 59 41 64 59 41 63 59 41 63
59 41 63 59 41 63 59 41 63 59 41 63 59 41 63 59 41 63 59 41 63 59 41
63 59 41 63 59 41 63 59 41 63 59 41 63 59 41 63 59 41 63 59 41 63 58
41 63 58 41 63 58 41 63 58 41 63 58 41 63 58 41 63 58 41 63 58 41 63
58 41 63 58 41 63 58 41 63 58 41 63 58 41 63 58 41 63 58 41 63 58 41
63 58 41 63 58 41 63 58 41 63 58 41 63 58 42 63 58 42 63 58 42 63 57
42 63 57 42 63 57 42 63 57 42 63 57 42 63 57 42 63 57 42 63 57 42 63
57 42 63 57 42 63 57 42 63 57 42 63 57 42 63 57 42 63 57 42 63 57 42
63 57 42 63 57 42 63 57 42 63 57 42 63 57 42 63 57 42 63 57 42 63 57
42 63 56 42 63 56 42 63 56 42 63 56 42 63 56 42 63 56 42 63 56 42 63
56 42 63 56 42 63 56 42 63 56 42 63 56 42 63 56 42 63 56 42 63 56 42
63 56 42 63 56 42 63 56 42 63 56 42 63 56 42 63 56 42 63 56 42 63 56
42 63 56 42 63 56 42 63 55 42 63 55 42 62 55 42 62 55 42 62 55 42 62
55 42 62 55 42 62 55 42 62 55 42 62 55 42 62 55 42 62 55 42 62 55 42
62 55 42 62 55 42 62 55 42 62 55 42 62 55 42 62 55 42 62 55 42 62 55
42 62 55 42 62 55 42 62 55 43 62 55 43 62 55 43 62 55 43 62 54 43 62
54 43 62 54 43 62 54 43 62 54 43 62 54 43 62 54 43 62 54 43 62 54 43
62 54 43 62 54 43 62 54 43 62 54 43 62 54 43 62 54 43 62 54 43 62 54
43 62 54 43 62 54 43 62 54 43 62 54 43 62 54 43 62 54 43 62 54 43 62
54 43 62 54 43 62 54 43 62 54 43 62 53 43 62 53 43 62 53 43 62 53 43
62 53 43 62 53 43 62 53 43 62 53 43 62 53 43 62 53 43 62 53 43 62 53
43 62 53 43 62 53 43 62 53 43 62 53 43 62 53 43 62 53 43 62 53 43 62
53 43 62 53 43 62 53 43 62 53 43 62 53 43 62 53 43 61 53 43 61 53 43
61 53 43 61 53 43 61 52 43 61 52 43 61 52 43 61 52 43 61 52 43 61 52
43 61 52 43 61 52 43 61 52 43 61 52 43 61 52 43 61 52 43 61 52 43 61
52 43 61 52 43 61 52 43 61 52 43 61 52 43 61 52 43 61 52 43 61 52 43
61 52 43 61 52 43 61 52 43 61 52 43 61 52 43 61 52 43 61 52 43 61 52
43 61 52 43 61 51 43 61 51 43 61 51 43 61 51 43 61 51 43 61 51 43 61
51 43 61 51 43 61 51 43 61 51 43 61 51 43 61 51 43 61 51 43 61 51 43
61 51 43 61 51 43 61 51 43 61 51 43 61 51 43 61 51 43 61 51 43 61 51
43 61 51 43 61 51 43 61 51 43 60 51 19 38 43 19 37 43 19 37 43 19 37
43 19 37 43
20 48 62 20 48 62 20 48 62 20 48 62 20 48 62 20 48 62 20 48 62 20 48
62 20 48 62 20 48 62 20 48 62 20 48 61 20 48 61 20 48 61 20 48 61 20
48 61 20 48 61 20 48 61 20 48 61 20 48 61 20 48 61 20 48 61 20 48 61
20 48 61 20 47 61 20 47 60 20 47 60 20 47 60 20 47 60 20 47 60 20 47
60 20 47 60 20 47 60 20 47 60 20 47 60 20 47 60 20 47 60 20 47 60 20
47 60 20 47 60 20 47 59 20 47 59 20 47 59 20 47 59 20 47 59 20 47 59
20 47 59 20 47 59 20 47 59 20 47 59 20 47 59 20 46 59 20 46 59 20 46
59 20 46 59 20 46 58 20 46 58 20 46 58 20 46 58 20 46 58 20 46 58 20
46 58 20 46 58 20 46 58 20 46 58 20 46 58 20 46 58 20 46 58 20 46 58
20 46 58 20 46 58 20 46 57 20 46 57 20 46 57 20 46 57 20 46 57 20 46
57 20 46 57 20 46 57 20 45 57 20 45 57 20 45 57 20 45 57 20 45 57 20
45 57 20 45 57 20 45 57 20 45 56 20 45 56 20 45 56 20 45 56 20 45 56
20 45 56 20 45 56 20 45 56 20 45 56 20 45 56 20 45 56 20 45 56 20 45
56 20 45 56 20 45 56 20 45 56 20 45 55 20 45 55 20 45 55 20 45 55 20
45 55 20 44 55 20 44 55 20 44 55 20 44 55 20 44 55 20 44 55 20 44 55
20 44 55 20 44 55 20 44 55 40 64 62 40 64 61 40 64 61 40 64 61 40 64
61 40 64 61 40 64 61 40 64 61 40 64 61 40 64 61 40 64 61 40 64 61 40
64 61 40 64 61 40 64 61 40 64 61 40 64 61 40 64 61 40 64 61 40 64 61
40 64 61 40 64 60 40 64 60 40 64 60 40 64 60 40 64 60 40 64 60 40 64
60 40 64 60 40 64 60 41 64 60 41 64 60 41 64 60 41 64 60 41 64 60 41
64 60 41 64 60 41 64 60 41 64 60 41 64 60 41 64 60 41 64 60 41 64 59
41 63 59 41 63 59 41 63 59 41 63 59 41 63 59 41 63 59 41 63 59 41 63
59 41 63 59 41 63 59 41 63 59 41 63 59 41 63 59 41 63 59 41 63 59 41
63 59 41 63 59 41 63 59 41 63 59 41 63 59 41 63 58 41 63 58 41 63 58
41 63 58 41 63 58 41 63 58 41 63 58 41 63 58 41 63 58 41 63 58 41 63
58 41 63 58 41 63 58 41 63 58 41 63 58 41 63 58 41 63 58 41 63 58 41
63 58 41 63 58 41 63 58 41 63 58 41 63 58 41 63 57 41 63 57 41 63 57
42 63 57 42 63 57 42 63 57 42 63 57 42 63 57 42 63 57 42 63 57 42 63
57 42 63 57 42 63 57 42 63 57 42 63 57 42 63 57 42 63 57 42 63 57 42
63 57 42 63 57 42 63 57 42 63 57 42 63 57 42 63 57 42 63 57 42 63 56
42 63 56 42 63 56 42 63 56 42 63 56 42 63 56 42 63 56 42 63 56 42 63
56 42 63 56 42 63 56 42 63 56 42 63 56 42 63 56 42 63 56 42 63 56 42
63 56 42 63 56 42 63 56 42 63 56 42 63 56 42 63 56 42 63 56 42 62 56
42 62 56 42 62 55 42 62 55 42 62 55 42 62 55 42 62 55 42 62 55 42 62
55 42 62 55 42 62 55 42 62 55 42 62 55 42 62 55 42 62 55 42 62 55 42
62 55 42 62 55 42 62 55 42 62 55 42 62 55 42 62 55 42 62 55 42 62 55
42 62 55 42 62 55 42 62 55 42 62 55 42 62 55 42 62 54 42 62 54 42 62
54 43 62 54 43 62 54 43 62 54 43 62 54 43 62 54 43 62 54 43 62 54 43
62 54 43 62 54 43 62 54 43 62 54 43 62 54 43 62 54 43 62 54 43 62 54
43 62 54 43 62 54 43 62 54 43 62 54 43 62 54 43 62 54 43 62 54 43 62
54 43 62 54 43 62 54 43 62 53 43 62 53 43 62 53 43 62 53 43 62 53 43
62 53 43 62 53 43 62 53 43 62 53 43 62 53 43 62 53 43 62 53 43 62 53
43 62 53 43 62 53 43 62 53 43 62 53 43 62 53 43 62 53 43 62 53 43 62
53 43 62 53 43 61 53 43 61 53 43 61 53 43 61 53 43 61 53 43 61 53 43
61 53 43 61 52 43 61 52 43 61 52 43 61 52 43 61 52 43 61 52 43 61 52
43 61 52 43 61 52 43 61 52 43 61 52 43 61 52 43 61 52 43 61 52 43 61
52 43 61 52 43 61 52 43 61 52 43 61 52 43 61 52 43 61 52 43 61 52 43
61 52 43 61 52 43 61 52 43 61 52 43 61 52 43 61 52 43 61 52 43 61 52
43 61 52 43 61 51 43 61 51 43 61 51 43 61 51 43 61 51 43 61 51 43 61
51 43 61 51 43 61 51 43 61 51 43 61 51 43 61 51 43 61 51 43 61 51 43
61 51 43 61 51 43 61 51 43 61 51 43 61 51 43 61 51 43 61 51 43 61 51
43 61 51 43 60 51 43 60 51 43 60 51 19 38 43 19 37 43 19 37 43 19 37
43 19 37 43
20 48 62 20 48 62 20 48 62 20 48 62 20 48 62 20 48 62 20 48 62 20 48
62 20 48 62 20 48 61 20 48 61 20 48 61 20 48 61 20 48 61 20 48 61 20
48 61 20 48 61 20 48 61 20 48 61 20 48 61 20 48 61 20 48 61 20 47 61
20 47 60 20 47 60 20 47 60 20 47 60 20 47 60 20 47 60 20 47 60 20 47
60 20 47 60 20 47 60 20 47 60 20 47 60 20 47 60 20 47 60 20 47 60 20
47 59 20 47 59 20 47 59 20 47 59 20 47 59 20 47 59 20 47 59 20 47 59
20 47 59 20 47 59 20 47 59 20 46 59 20 46 59 20 46 59 20 46 59 20 46
58 20 46 58 20 46 58 20 46 58 20 46 58 20 46 58 20 46 58 20 46 58 20
46 58 20 46 58 20 46 58 20 46 58 20 46 58 20 46 58 20 46 58 20 46 58
20 46 57 20 46 57 20 46 57 20 46 57 20 46 57 20 46 57 20 46 57 20 46
57 20 45 57 20 45 57 20 45 57 20 45 57 20 45 57 20 45 57 20 45 57 20
45 57 20 45 56 20 45 56 20 45 56 20 45 56 20 45 56 20 45 56 20 45 56
20 45 56 20 45 56 20 45 56 20 45 56 20 45 56 20 45 56 20 45 56 20 45
56 20 45 56 20 45 56 20 45 55 20 45 55 20 45 55 20 45 55 20 45 55 20
44 55 20 44 55 20 44 55 20 44 55 20 44 55 20 44 55 20 44 55 20 44 55
20 44 55 20 44 55 20 44 55 40 64 61 40 64 61 40 64 61 40 64 61 40 64
61 40 64 61 40 64 61 40 64 61 40 64 61 40 64 61 40 64 61 40 64 61 40
64 61 40 64 61 40 64 61 40 64 61 40 64 61 40 64 61 40 64 61 40 64 60
40 64 60 40 64 60 40 64 60 40 64 60 40 64 60 40 64 60 40 64 60 40 64
60 40 64 60 40 64 60 40 64 60 40 64 60 41 64 60 41 64 60 41 64 60 41
64 60 41 64 60 41 64 60 41 63 60 41 63 60 41 63 59 41 63 59 41 63 59
41 63 59 41 63 59 41 63 59 41 63 59 41 63 59 41 63 59 41 63 59 41 63
59 41 63 59 41 63 59 41 63 59 41 63 59 41 63 59 41 63 59 41 63 59 41
63 59 41 63 59 41 63 59 41 63 59 41 63 58 41 63 58 41 63 58 41 63 58
41 63 58 41 63 58 41 63 58 41 63 58 41 63 58 41 63 58 41 63 58 41 63
58 41 63 58 41 63 58 41 63 58 41 63 58 41 63 58 41 63 58 41 63 58 41
63 58 41 63 58 41 63 58 41 63 58 41 63 57 41 63 57 41 63 57 41 63 57
41 63 57 41 63 57 41 63 57 42 63 57 42 63 57 42 63 57 42 63 57 42 63
57 42 63 57 42 63 57 42 63 57 42 63 57 42 63 57 42 63 57 42 63 57 42
63 57 42 63 57 42 63 57 42 63 57 42 63 57 42 63 57 42 63 56 42 63 56
42 63 56 42 63 56 42 63 56 42 63 56 42 63 56 42 63 56 42 63 56 42 63
56 42 63 56 42 63 56 42 63 56 42 63 56 42 63 56 42 63 56 42 63 56 42
63 56 42 63 56 42 62 56 42 62 56 42 62 56 42 62 56 42 62 56 42 62 56
42 62 55 42 62 55 42 62 55 42 62 55 42 62 55 42 62 55 42 62 55 42 62
55 42 62 55 42 62 55 42 62 55 42 62 55 42 62 55 42 62 55 42 62 55 42
62 55 42 62 55 42 62 55 42 62 55 42 62 55 42 62 55 42 62 55 42 62 55
42 62 55 42 62 55 42 62 55 42 62 55 42 62 54 42 62 54 42 62 54 42 62
54 42 62 54 42 62 54 42 62 54 42 62 54 42 62 54 42 62 54 43 62 54 43
62 54 43 62 54 43 62 54 43 62 54 43 62 54 43 62 54 43 62 54 43 62 54
43 62 54 43 62 54 43 62 54 43 62 54 43 62 54 43 62 54 43 62 54 43 62
54 43 62 54 43 62 53 43 62 53 43 62 53 43 62 53 43 62 53 43 62 53 43
62 53 43 62 53 43 62 53 43 62 53 43 62 53 43 62 53 43 62 53 43 62 53
43 62 53 43 62 53 43 62 53 43 62 53 43 62 53 43 62 53 43 61 53 43 61
53 43 61 53 43 61 53 43 61 53 43 61 53 43 61 53 43 61 53 43 61 53 43
61 53 43 61 52 43 61 52 43 61 52 43 61 52 43 61 52 43 61 52 43 61 52
43 61 52 43 61 52 43 61 52 43 61 52 43 61 52 43 61 52 43 61 52 43 61
52 43 61 52 43 61 52 43 61 52 43 61 52 43 61 52 43 61 52 43 61 52 43
61 52 43 61 52 43 61 52 43 61 52 43 61 52 43 61 52 43 61 52 43 61 52
43 61 52 43 61 51 43 61 51 43 61 51 43 61 51 43 61 51 43 61 51 43 61
51 43 61 51 43 61 51 43 61 51 43 61 51 43 61 51 43 61 51 43 61 51 43
61 51 43 61 51 43 61 51 43 61 51 43 61 51 43 61 51 43 60 51 43 60 51
43 60 51 43 60 51 43 60 51 43 60 51 19 38 43 19 38 43 19 37 43 19 37
43 19 37 43
