P3
100 50
255
0 0 0 0 0 0 0 0 0 0 0 0 0 0 0 0 0 0 0 0 0 0 0 0 0 0 0 0 0 0 0 0 0 0 0
0 0 0 0 0 0 0 0 0 0 0 0 0 0 0 0 0 0 0 0 0 0 0 0 0 0 0 0 0 0 0 0 0 0 0
0 0 0 0 0 0 0 0 0 0 0 0 0 0 0 0 0 0 0 0 0 0 0 0 0 0 0 0 0 0 0 0 0 0 0
0 0 0 0 0 0 0 0 0 0 0 0 0 0 0 0 0 0 0 0 0 0 0 0 0 0 0 2 6 157 2 6 174
2 5 163 2 4 152 3 5 159 3 7 170 3 8 169 0 0 0 0 0 0 0 0 0 0 0 0 0 0 0
0 0 0 0 0 0 0 0 0 0 0 0 0 0 0 63 15 29 53 11 24 44 9 19 38 8 16 33 8
13 27 8 11 25 8 9 25 8 9 25 8 9 25 8 9 25 8 9 25 8 9 25 8 9 25 8 9 25
8 9 25 8 9 25 8 9 25 8 9 0 0 0 0 0 0 0 0 0 0 0 0 0 0 0 0 0 0 0 0 0 0 0
0 0 0 0 0 0 0 0 0 0 0 0 0 0 0 0 0 0 0 0 0 0 0 0 0 0 0 0 0 0 0 0 0 0 0
0 0 0 0 0
0 0 0 0 0 0 0 0 0 0 0 0 0 0 0 0 0 0 0 0 0 0 0 0 0 0 0 0 0 0 0 0 0 0 0
0 0 0 0 0 0 0 0 0 0 0 0 0 0 0 0 0 0 0 0 0 0 0 0 0 0 0 0 0 0 0 0 0 0 0
0 0 0 0 0 0 0 0 0 0 0 0 0 0 0 0 0 0 0 0 0 0 0 0 0 0 0 0 0 0 0 0 0 0 0
0 0 0 0 0 0 0 0 0 0 0 0 0 0 0 0 0 0 0 0 0 0 0 0 0 0 0 2 6 161 2 5 182
6 5 179 2 4 158 3 4 163 3 6 171 3 7 161 0 0 0 0 0 0 0 0 0 0 0 0 0 0 0
0 0 0 0 0 0 0 0 0 0 0 0 0 0 0 69 17 33 57 13 26 48 10 21 41 8 17 35 8
14 30 8 12 25 8 10 25 8 9 25 8 9 25 8 9 25 8 9 25 8 9 25 8 9 25 8 9 25
8 9 25 8 9 25 8 9 0 0 0 0 0 0 0 0 0 0 0 0 0 0 0 0 0 0 0 0 0 0 0 0 0 0
0 0 0 0 0 0 0 0 0 0 0 0 0 0 0 0 0 0 0 0 0 0 0 0 0 0 0 0 0 0 0 0 0 0 0
0 0 0 0 0
0 0 0 0 0 0 0 0 0 0 0 0 0 0 0 0 0 0 0 0 0 0 0 0 0 0 0 0 0 0 0 0 0 0 0
0 0 0 0 0 0 0 0 0 0 0 0 0 0 0 0 0 0 0 0 0 0 0 0 0 0 0 0 0 0 0 0 0 0 0
0 0 0 0 0 0 0 0 0 0 0 0 0 0 0 0 0 0 0 0 0 0 0 0 0 0 0 0 0 0 0 0 0 0 0
0 0 0 0 0 0 0 0 0 0 0 0 0 0 0 0 0 0 0 0 0 0 0 0 0 0 0 0 0 0 2 5 178 2
4 171 2 3 151 2 4 150 3 5 152 2 6 125 0 0 0 0 0 0 0 0 0 0 0 0 0 0 0 0
0 0 0 0 0 0 0 0 0 0 0 0 0 0 0 0 0 63 15 29 53 11 23 44 8 19 38 8 16 33
8 13 27 8 11 25 8 9 25 8 9 25 8 9 25 8 9 25 8 9 25 8 9 25 8 9 25 8 9
25 8 9 0 0 0 0 0 0 0 0 0 0 0 0 0 0 0 0 0 0 0 0 0 0 0 0 0 0 0 0 0 0 0 0
0 0 0 0 0 0 0 0 0 0 0 0 0 0 0 0 0 0 0 0 0 0 0 0 0 0 0 0 0 0 0 0 0 0 0
0 0
0 0 0 0 0 0 0 0 0 0 0 0 0 0 0 0 0 0 0 0 0 0 0 0 0 0 0 0 0 0 0 0 0 0 0
0 0 0 0 0 0 0 0 0 0 0 0 0 0 0 0 0 0 0 0 0 0 0 0 0 0 0 0 0 0 0 0 0 0 0
0 0 0 0 0 0 0 0 0 0 0 0 0 0 0 0 0 0 0 0 0 0 0 0 0 0 0 0 0 0 0 0 0 0 0
0 0 0 0 0 0 0 0 0 0 0 0 0 0 0 0 0 0 0 0 0 0 0 0 0 0 0 0 0 0 2 4 140 2
4 156 2 3 139 2 3 120 2 3 106 0 0 0 0 0 0 0 0 0 0 0 0 0 0 0 0 0 0 0 0
0 0 0 0 0 0 0 0 0 0 0 0 0 0 0 0 0 0 0 60 13 27 49 10 22 42 8 18 36 8
15 30 8 12 26 8 10 25 8 9 25 8 9 25 8 9 25 8 9 25 8 9 25 8 9 25 8 9 0
0 0 0 0 0 0 0 0 0 0 0 0 0 0 0 0 0 0 0 0 0 0 0 0 0 0 0 0 0 0 0 0 0 0 0
0 0 0 0 0 0 0 0 0 0 0 0 0 0 0 0 0 0 0 0 0 0 0 0 0 0 0 0 0 0 0 0 0 0 0
0
0 0 0 0 0 0 0 0 0 0 0 0 0 0 0 0 0 0 0 0 0 0 0 0 0 0 0 0 0 0 0 0 0 0 0
0 0 0 0 0 0 0 0 0 0 0 0 0 0 0 0 0 0 0 0 0 0 0 0 0 0 0 0 0 0 0 0 0 0 0
0 0 0 0 0 0 0 0 0 0 0 0 0 0 0 0 0 0 0 0 0 0 0 0 0 0 0 0 0 0 0 0 0 0 0
0 0 0 0 0 0 0 0 0 0 0 0 0 0 0 0 0 0 0 0 0 0 0 0 0 0 0 0 0 0 0 0 0 0 0
0 0 0 0 0 0 0 0 0 0 0 0 0 0 0 0 0 0 0 0 0 0 0 0 0 0 0 0 0 0 0 0 0 0 0
0 0 0 0 0 0 0 0 0 0 0 0 0 0 0 0 0 0 0 0 48 9 21 40 8 17 34 8 14 29 8
11 25 8 9 25 8 9 25 8 9 25 8 9 25 8 9 0 0 0 0 0 0 0 0 0 0 0 0 0 0 0 0
0 0 0 0 0 0 0 0 0 0 0 0 0 0 0 0 0 0 0 0 0 0 0 0 0 0 0 0 0 0 0 0 0 0 0
0 0 0 0 0 0 0 0 0 0 0 0 0 0 0 0 0 0 0 0 0 0 0 0 0 0 0
0 0 0 0 0 0 0 0 0 0 0 0 0 0 0 0 0 0 0 0 0 0 0 0 0 0 0 0 0 0 0 0 0 0 0
0 0 0 0 0 0 0 0 0 0 0 0 0 0 0 0 0 0 0 0 0 0 0 0 0 0 0 0 0 0 0 0 0 0 0
0 0 0 0 0 0 0 0 0 0 0 0 0 0 0 0 0 0 0 0 0 0 0 0 0 0 0 0 0 0 0 0 0 0 0
0 0 0 0 0 0 0 0 0 0 0 0 0 0 0 0 0 0 0 0 0 0 0 0 0 0 0 0 0 0 0 0 0 0 0
0 0 0 0 0 0 0 0 0 0 0 0 0 0 0 0 0 0 0 0 0 0 0 0 0 0 0 0 0 0 0 0 0 0 0
0 0 0 0 0 0 0 0 0 0 0 0 0 0 0 0 0 0 0 0 0 0 0 0 0 0 25 8 9 25 8 9 25 8
9 25 8 9 0 0 0 0 0 0 0 0 0 0 0 0 0 0 0 0 0 0 0 0 0 0 0 0 0 0 0 0 0 0 0
0 0 0 0 0 0 0 0 0 0 0 0 0 0 0 0 0 0 0 0 0 0 0 0 0 0 0 0 0 0 0 0 0 0 0
0 0 0 0 0 0 0 0 0 0 0 0 0 0 0 0 0 0 0 0 0
0 0 0 0 0 0 0 0 0 0 0 0 0 0 0 0 0 0 0 0 0 0 0 0 0 0 0 0 0 0 0 0 0 0 0
0 0 0 0 0 0 0 0 0 0 0 0 0 0 0 0 0 0 0 0 0 0 0 0 0 0 0 0 0 0 0 0 0 0 0
0 0 0 0 0 0 0 0 0 0 0 0 0 0 0 0 0 0 0 0 0 0 0 0 0 0 0 0 0 0 0 0 0 0 0
0 0 0 0 0 0 0 0 0 0 0 0 0 0 0 0 0 0 0 0 0 0 0 0 0 0 0 0 0 0 0 0 0 0 0
0 0 0 0 0 0 0 0 0 0 0 0 0 0 0 0 0 0 0 0 0 0 0 0 0 0 0 0 0 0 0 0 0 0 0
0 0 0 0 0 0 0 0 0 0 0 0 0 0 0 0 0 0 0 0 0 0 0 0 0 0 0 0 0 0 0 0 0 0 0
0 0 0 0 0 0 0 0 0 0 0 0 0 0 0 0 0 0 0 0 0 0 0 0 0 0 0 0 0 0 0 0 0 0 0
0 0 0 0 0 0 0 0 0 0 0 0 0 0 0 0 0 0 0 0 0 0 0 0 0 0 0 0 0 0 0 0 0 0 0
0 0 0 0 0 0 0 0 0 0 0 0 0 0 0 0 0 0 0 0
0 0 0 0 0 0 0 0 0 0 0 0 0 0 0 0 0 0 0 0 0 0 0 0 0 0 0 0 0 0 0 0 0 0 0
0 0 0 0 0 0 0 0 0 0 0 0 0 0 0 0 0 0 0 0 0 0 0 0 0 0 0 0 0 0 0 0 0 0 0
0 0 0 0 0 0 0 0 0 0 0 0 0 0 0 0 0 0 0 0 0 0 0 0 0 0 0 0 0 0 0 0 0 0 0
0 0 0 0 0 0 0 0 0 0 0 0 0 0 0 0 0 0 0 0 0 0 0 0 0 0 0 0 0 0 0 0 0 0 0
0 0 0 0 0 0 0 0 0 0 0 0 0 0 0 0 0 0 0 0 0 0 81 6 52 77 6 48 76 5 47 76
5 47 76 5 47 76 5 47 76 5 47 0 0 0 0 0 0 0 0 0 0 0 0 0 0 0 0 0 0 0 0 0
0 0 0 0 0 0 0 0 0 0 0 0 0 0 0 0 0 0 0 0 0 0 0 0 0 0 0 0 0 0 0 0 0 0 0
0 0 0 0 0 0 0 0 0 0 0 0 0 0 0 0 0 0 0 0 0 0 0 0 0 0 0 0 0 0 0 0 0 0 0
0 0 0 0 0 0 0 0 0 0 0 0 0 0 0 0 0 0 0 0 0 0 0 0 0 0
0 0 0 0 0 0 0 0 0 0 0 0 0 0 0 0 0 0 0 0 0 0 0 0 0 0 0 0 0 0 0 0 0 0 0
0 0 0 0 0 0 0 0 0 0 0 0 0 0 0 0 0 0 0 0 0 0 0 0 0 0 0 0 0 0 0 0 0 0 0
0 0 0 0 0 0 0 0 0 0 0 0 0 0 0 0 0 0 0 0 0 0 0 0 0 0 0 0 0 0 0 0 0 0 0
0 0 0 0 0 0 0 0 0 0 0 0 0 0 0 0 0 0 0 0 0 0 0 0 0 0 0 0 0 0 0 0 0 0 0
0 0 0 0 0 0 0 0 0 0 0 0 0 0 0 0 113 17 81 83 6 53 77 5 47 76 5 47 76 5
47 76 5 47 76 5 47 76 5 47 76 5 47 76 5 47 76 5 47 0 0 0 0 0 0 0 0 0 0
0 0 0 0 0 0 0 0 0 0 0 0 0 0 0 0 0 0 0 0 0 0 0 0 0 0 0 0 0 0 0 0 0 0 0
0 0 0 0 0 0 0 0 0 0 0 0 0 0 0 0 0 0 0 0 0 0 0 0 0 0 0 0 0 0 0 0 0 0 0
0 0 0 0 0 0 0 0 0 0 0 0 0 0 0 0 0 0 0 0 0 0 0 0 0 0 0 0 0 0 0
0 0 0 0 0 0 0 0 0 0 0 0 0 0 0 0 0 0 0 0 0 0 0 0 0 0 0 0 0 0 0 0 0 0 0
0 0 0 0 0 0 0 0 0 0 0 0 0 0 0 0 0 0 0 0 0 0 0 0 0 0 0 0 0 0 0 0 0 0 0
0 0 0 0 0 0 0 0 0 0 0 0 0 0 0 0 0 0 0 0 0 0 0 0 0 0 0 0 0 0 0 0 0 0 0
0 0 0 0 0 0 0 0 0 0 0 0 0 0 0 0 0 0 0 0 0 0 0 0 0 0 0 0 0 0 0 0 0 0 0
0 0 0 0 0 0 0 0 0 0 0 0 0 102 7 69 87 6 56 77 5 48 76 5 47 76 5 47 76
5 47 76 5 47 76 5 47 76 5 47 76 5 47 76 5 47 76 5 47 76 5 47 0 0 0 0 0
0 0 0 0 0 0 0 0 0 0 0 0 0 0 0 0 0 0 0 0 0 0 0 0 0 0 0 0 0 0 0 0 0 0 0
0 0 0 0 0 0 0 0 0 0 0 0 0 0 0 0 0 0 0 0 0 0 0 0 0 0 0 0 0 0 0 0 0 0 0
0 0 0 0 0 0 0 0 0 0 0 0 0 0 0 0 0 0 0 0 0 0 0 0 0 0 0 0 0 0 0 0 0
0 0 0 0 0 0 0 0 0 0 0 0 0 0 0 0 0 0 0 0 0 0 0 0 0 0 0 0 0 0 0 0 0 0 0
0 0 0 0 0 0 0 0 0 0 0 0 0 0 0 0 0 0 0 0 0 0 0 0 0 0 0 0 0 0 0 0 0 0 0
0 0 0 0 0 0 0 0 0 0 0 0 0 0 0 0 0 0 0 0 0 0 0 0 0 0 0 0 0 0 0 0 0 0 0
0 0 0 0 0 0 0 0 0 0 0 0 0 0 0 0 0 0 0 0 0 0 0 0 0 0 0 0 0 0 0 0 0 0 0
0 0 0 0 0 0 0 0 0 0 0 0 0 96 19 70 82 6 52 76 5 47 76 5 47 76 5 47 76
5 47 76 5 47 76 5 47 76 5 47 76 5 47 76 5 47 76 5 47 76 5 47 0 0 0 0 0
0 0 0 0 0 0 0 0 0 0 0 0 0 0 0 0 0 0 0 0 0 0 0 0 0 0 0 0 0 0 0 0 0 0 0
0 0 0 0 0 0 0 0 0 0 0 0 0 0 0 0 0 0 0 0 0 0 0 0 0 0 0 0 0 0 0 0 0 0 0
0 0 0 0 0 0 0 0 0 0 0 0 0 0 0 0 0 0 0 0 0 0 0 0 0 0 0 0 0 0 0 0 0
0 0 0 0 0 0 0 0 0 0 0 0 0 0 0 0 0 0 0 0 0 0 0 0 0 0 0 0 0 0 0 0 0 0 0
0 0 0 0 0 0 0 0 0 0 0 0 0 0 0 0 0 0 0 0 0 0 0 0 0 0 0 0 0 0 0 0 0 0 0
0 0 0 0 0 0 0 0 0 0 0 0 0 0 0 0 0 0 0 0 0 0 0 0 0 0 0 0 0 0 0 0 0 0 0
0 0 0 0 0 0 0 0 0 0 0 0 0 0 0 0 0 0 0 0 0 0 0 0 0 0 0 0 0 0 0 0 0 0 0
0 0 0 0 0 0 0 0 0 0 33 28 37 12 12 15 12 12 14 12 12 14 53 39 57 76 5
47 76 5 47 76 5 47 76 5 47 76 5 47 76 5 47 76 5 47 76 5 47 76 5 47 76
5 47 0 0 0 0 0 0 0 0 0 0 0 0 0 0 0 0 0 0 0 0 0 0 0 0 0 0 0 0 0 0 0 0 0
0 0 0 0 0 0 0 0 0 0 0 0 0 0 0 0 0 0 0 0 0 0 0 0 0 0 0 0 0 0 0 0 0 0 0
0 0 0 0 0 0 0 0 0 0 0 0 0 0 0 0 0 0 0 0 0 0 0 0 0 0 0 0 0 0 0 0 0 0 0
0 0
0 0 0 0 0 0 0 0 0 0 0 0 0 0 0 0 0 0 0 0 0 0 0 0 0 0 0 0 0 0 0 0 0 0 0
0 0 0 0 0 0 0 0 0 0 0 0 0 0 0 0 0 0 0 0 0 0 0 0 0 0 0 0 0 0 0 0 0 0 0
0 0 0 0 0 0 0 0 0 0 0 0 0 0 0 0 0 0 0 0 0 0 0 0 0 0 0 0 0 0 0 0 0 0 0
0 0 0 0 0 0 0 0 0 0 0 0 0 0 0 0 0 0 0 0 0 0 0 0 0 0 0 0 0 0 0 0 0 0 0
0 0 0 0 13 16 17 12 12 15 12 12 14 12 12 14 12 12 14 12 12 14 12 12 14
12 12 14 12 12 14 76 5 47 76 5 47 76 5 47 76 5 47 76 5 47 76 5 47 76 5
47 76 5 47 0 0 0 0 0 0 0 0 0 0 0 0 0 0 0 0 0 0 0 0 0 0 0 0 0 0 0 0 0 0
0 0 0 0 0 0 0 0 0 0 0 0 0 0 0 0 0 0 0 0 0 0 0 0 0 0 0 0 0 0 0 0 0 0 0
0 0 0 0 0 0 0 0 0 0 0 0 0 0 0 0 0 0 0 0 0 0 0 0 0 0 0 0 0 0 0 0 0 0 0
0 0 0 0 0
22 20 6 22 20 6 22 20 6 22 20 6 22 20 6 22 20 6 22 20 6 22 20 6 22 20
6 22 20 6 22 20 6 22 20 6 22 20 6 22 20 6 22 20 6 22 20 6 22 20 6 22
20 6 22 20 6 22 20 6 24 22 6 24 22 6 24 22 6 24 22 6 24 22 6 24 22 6
24 22 6 24 22 6 24 22 6 24 22 6 24 22 6 24 22 6 24 22 6 24 22 6 24 22
6 24 22 6 24 22 6 24 22 6 24 22 6 24 22 6 24 22 6 24 22 6 24 22 6 24
22 6 24 22 6 24 22 6 18 26 28 13 14 16 12 12 14 12 12 14 12 12 14 12
12 14 12 12 14 12 12 14 12 12 14 12 12 14 12 12 14 12 12 14 12 12 14
76 5 47 76 5 47 76 5 47 76 5 47 76 5 47 76 5 47 76 5 47 24 22 6 24 22
6 24 22 6 24 22 6 24 22 6 24 22 6 24 22 6 24 22 6 24 22 6 24 22 6 24
22 6 24 22 6 24 22 6 104 48 36 39 18 12 38 17 12 24 22 6 24 22 6 24 22
6 24 22 6 24 22 6 24 22 6 24 22 6 24 22 6 24 22 6 24 22 6 24 22 6 24
22 6 24 21 6 24 21 6 24 21 6 24 21 6 24 21 6 24 21 6
23 22 6 23 22 6 23 22 6 23 22 6 23 22 6 23 22 6 23 22 6 23 22 6 23 22
6 23 22 6 23 22 6 23 22 6 23 22 6 23 22 6 23 22 6 23 22 6 23 22 6 23
22 6 23 22 6 23 22 6 23 22 6 23 22 6 23 22 6 29 27 7 29 28 7 29 28 7
30 28 7 30 28 7 30 28 7 30 28 7 30 28 7 30 28 7 30 28 7 30 28 7 30 28
7 30 28 7 30 28 7 30 28 7 30 28 7 30 28 7 30 28 7 30 28 7 30 28 7 30
28 7 30 28 7 19 19 28 13 14 16 12 12 14 12 12 14 12 12 14 12 12 14 12
12 14 12 12 14 12 12 14 12 12 14 12 12 14 12 12 14 12 12 14 12 12 14
12 12 14 76 5 47 76 5 47 76 5 47 76 5 47 76 5 47 76 5 47 30 28 7 30 28
7 30 28 7 30 28 7 30 28 7 30 28 7 30 28 7 30 28 7 29 27 7 29 27 7 29
27 7 29 27 7 152 72 59 73 28 27 38 17 12 38 17 12 29 27 7 29 27 7 29
27 7 29 27 7 29 27 7 29 27 7 29 27 7 29 27 7 29 27 7 29 26 7 28 26 7
28 26 7 28 26 7 28 26 7 28 26 7 28 26 7 28 26 7 28 26 7
24 24 6 24 24 6 24 24 6 24 24 6 24 24 7 24 24 7 24 24 7 24 24 7 24 24
7 24 24 7 24 24 7 24 24 7 24 24 7 24 24 7 24 24 7 24 24 7 24 25 7 24
25 7 24 25 7 24 25 7 25 25 7 25 25 7 25 25 7 25 25 7 25 25 7 25 25 7
36 35 9 36 35 9 36 35 9 36 35 9 36 35 9 37 35 9 37 35 9 37 35 9 37 35
9 37 35 9 37 35 9 37 36 9 37 36 9 37 36 9 37 36 9 37 36 9 37 36 9 37
36 9 37 36 9 15 21 23 12 12 14 12 12 14 12 12 14 12 12 14 12 12 14 12
12 14 12 12 14 12 12 14 12 12 14 12 12 14 12 12 14 12 12 14 12 12 14
12 12 14 76 5 47 76 5 47 76 5 47 76 5 47 76 5 47 76 5 47 37 35 9 37 35
9 36 35 9 36 35 9 36 35 9 36 35 9 36 34 9 36 34 9 36 34 9 36 34 9 36
34 9 36 34 9 106 41 41 67 22 24 38 17 12 38 17 12 35 33 9 35 33 9 35
33 8 35 33 8 35 33 8 34 33 8 34 33 8 34 32 8 34 32 8 34 32 8 34 32 8
34 32 8 34 32 8 33 32 8 33 32 8 33 31 8 33 31 8 33 31 8
25 26 7 26 26 7 26 27 7 26 27 7 26 27 7 26 27 7 26 27 7 26 27 7 26 27
7 26 27 7 26 27 7 26 27 7 26 27 7 26 27 7 26 27 7 26 28 7 26 28 7 26
28 7 26 28 7 26 28 7 26 28 7 26 28 7 26 28 7 26 28 7 27 28 7 27 28 7
27 28 7 27 28 8 27 28 8 44 44 11 45 44 11 45 44 11 45 44 11 45 44 11
45 44 11 45 45 11 46 45 11 46 45 11 46 45 11 46 45 11 46 45 11 46 45
11 46 45 11 46 45 11 80 33 142 12 12 15 12 12 14 12 12 14 12 12 14 12
12 14 12 12 14 12 12 14 12 12 14 12 12 14 12 12 14 12 12 14 12 12 14
12 12 14 12 12 14 12 12 14 12 12 14 76 5 47 76 5 47 76 5 47 76 5 47 45
44 11 45 44 11 45 44 11 45 43 11 45 43 11 44 43 11 44 43 11 44 43 11
44 42 11 44 42 11 43 42 10 43 42 10 43 42 10 95 34 37 59 18 21 38 17
12 38 17 12 42 40 10 42 40 10 42 40 10 41 40 10 41 40 10 41 39 10 41
39 10 41 39 10 40 39 10 40 39 10 40 38 10 40 38 10 40 38 10 39 38 10
39 38 9 39 37 9 39 37 9 39 37 9
27 29 8 27 30 8 27 30 8 27 30 8 27 30 8 28 30 8 28 30 8 28 30 8 28 30
8 28 31 8 28 31 8 28 31 8 28 31 8 28 31 8 28 31 8 28 31 8 28 32 8 28
32 8 29 32 8 29 32 8 29 32 8 29 32 8 29 32 8 29 32 8 29 33 8 29 33 8
29 33 8 29 33 8 29 33 9 29 33 9 29 33 9 55 55 13 55 56 13 56 56 13 56
56 14 56 56 14 57 57 14 57 57 14 57 57 14 57 57 14 57 57 14 58 57 14
58 58 14 58 58 14 19 14 27 12 12 14 12 12 14 12 12 14 12 12 14 12 12
14 12 12 14 12 12 14 12 12 14 12 12 14 12 12 14 12 12 14 12 12 14 12
12 14 12 12 14 12 12 14 12 12 14 76 5 47 76 5 47 76 5 47 76 5 47 56 55
13 56 55 13 55 54 13 55 54 13 55 54 13 54 53 13 54 53 13 54 52 13 53
52 13 53 52 13 53 51 13 52 51 12 52 51 12 52 50 12 51 50 12 51 50 12
51 49 12 50 49 12 50 48 12 50 48 12 49 48 12 49 47 12 49 47 12 48 47
12 48 46 11 48 46 11 47 46 11 47 45 11 47 45 11 46 45 11 46 44 11 46
44 11 45 44 11 45 44 11 45 43 11
29 33 9 29 33 9 29 33 9 30 34 9 30 34 9 30 34 9 30 34 9 30 34 9 30 35
9 30 35 9 30 35 9 30 35 9 31 36 9 31 36 9 31 36 9 31 36 9 31 36 9 31
37 9 31 37 9 31 37 9 31 37 9 32 37 9 32 38 10 32 38 10 32 38 10 32 38
10 32 38 10 32 39 10 32 39 10 32 39 10 32 39 10 32 39 10 68 70 16 69
70 17 69 71 17 70 71 17 70 71 17 71 72 17 71 72 17 71 73 17 72 73 17
72 73 17 72 73 17 73 74 17 12 12 15 12 12 14 12 12 14 12 12 14 12 12
14 12 12 14 12 12 14 12 12 14 12 12 14 12 12 14 12 12 14 12 12 14 12
12 14 12 12 14 12 12 14 12 12 14 12 12 14 76 5 47 76 5 47 76 5 47 76 5
47 69 68 16 69 68 16 68 67 16 68 67 16 67 66 16 67 65 16 66 65 16 65
64 15 65 64 15 64 63 15 64 62 15 63 62 15 63 61 15 62 61 15 61 60 15
61 60 14 60 59 14 60 58 14 59 58 14 59 57 14 58 57 14 58 56 14 57 56
14 57 55 13 56 55 13 56 54 13 55 54 13 55 53 13 54 53 13 54 52 13 53
52 13 53 51 13 52 51 12 50 40 11 50 39 11
32 37 9 32 38 10 32 38 10 32 38 10 32 38 10 32 39 10 33 39 10 33 39 10
33 40 10 33 40 10 33 40 10 33 41 10 34 41 10 34 41 10 34 42 10 34 42
11 34 43 11 34 43 11 35 43 11 35 44 11 35 44 11 35 44 11 35 45 11 35
45 11 36 45 11 36 45 11 36 46 11 36 46 11 36 46 11 36 46 11 36 47 11
37 47 11 84 87 20 85 88 20 86 89 21 87 90 21 87 90 21 88 91 21 89 91
21 86 44 48 72 45 41 67 37 35 58 33 30 47 26 37 47 21 29 47 21 29 12
12 14 12 12 14 12 12 14 12 12 14 12 12 14 12 12 14 12 12 14 12 12 14
12 12 14 12 12 14 12 12 14 12 12 14 12 12 14 12 12 14 12 12 14 76 5 47
76 5 47 76 5 47 87 86 20 86 85 20 85 84 20 84 83 20 83 82 19 82 81 19
81 80 19 80 79 19 80 78 18 79 77 18 78 76 18 77 75 18 76 74 18 75 73
17 74 72 17 73 71 17 72 71 17 71 70 17 71 69 16 70 68 16 69 67 16 68
66 16 67 66 16 67 65 16 66 64 15 65 64 15 65 63 15 64 62 15 63 61 15
62 61 15 62 60 15 61 60 14 61 59 14 60 58 14 59 58 14 59 57 14
34 42 11 35 43 11 35 43 11 35 43 11 35 44 11 35 44 11 36 45 11 36 45
11 36 46 11 36 46 11 37 47 12 37 47 12 37 48 12 38 48 12 38 49 12 38
49 12 38 50 12 39 50 12 39 51 12 39 52 13 39 52 13 40 53 13 40 53 13
40 54 13 40 54 13 41 54 13 94 100 23 96 102 23 97 103 24 98 104 24 100
106 24 101 107 25 102 108 25 104 109 25 105 110 25 106 111 26 108 112
26 87 75 81 62 40 34 61 35 30 60 34 30 60 34 30 61 34 30 45 22 32 37
17 24 37 17 24 37 17 24 37 17 24 37 17 24 12 12 14 12 12 14 12 12 14
12 12 14 12 12 14 12 12 14 12 12 14 12 12 14 12 12 14 12 12 14 12 12
14 12 12 14 76 5 47 76 5 47 109 106 25 107 105 24 106 103 24 104 102
24 103 100 23 101 99 23 100 97 23 98 96 23 97 94 22 95 93 22 94 92 22
93 90 21 91 89 21 90 87 21 88 86 20 87 85 20 86 84 20 85 82 20 83 81
19 82 80 19 81 79 19 80 78 19 79 77 18 78 76 18 77 75 18 76 74 18 75
73 17 74 72 17 73 71 17 72 70 17 71 69 17 70 68 16 69 67 16 69 67 16
68 66 16 67 65 16 66 64 16
75 80 19 76 81 19 77 82 19 78 83 20 79 84 20 80 86 20 82 87 20 83 88
21 84 90 21 85 91 21 86 92 22 88 94 22 89 95 22 90 97 23 92 99 23 93
100 23 94 102 24 96 104 24 97 105 24 99 107 25 100 109 25 102 111 26
104 112 26 105 114 26 107 116 27 109 118 27 111 119 27 112 121 28 114
123 28 116 125 29 118 126 29 120 128 29 122 129 30 123 131 30 125 132
30 92 46 68 64 42 34 63 37 31 63 36 30 63 37 30 64 37 30 64 37 30 64
37 31 45 22 32 37 17 24 37 17 24 37 17 24 37 17 24 37 17 24 37 17 24
12 12 14 12 12 14 12 12 14 12 12 14 12 12 14 12 12 14 12 12 14 12 12
14 12 12 14 12 12 14 12 12 14 76 5 47 132 128 30 130 126 29 128 124 29
126 122 28 124 120 28 122 118 28 120 116 27 118 114 27 115 112 26 113
110 26 111 108 25 109 106 25 107 104 24 105 102 24 104 100 24 102 99
23 100 97 23 98 95 22 97 94 22 95 92 22 93 91 21 92 89 21 91 88 21 89
86 20 88 85 20 86 84 20 85 83 20 84 81 19 83 80 19 82 79 19 80 78 19
79 77 18 78 76 18 77 75 18 76 74 18 75 73 18 74 72 17 73 71 17
83 89 21 84 90 21 86 92 22 87 93 22 88 94 22 89 96 23 91 97 23 92 99
23 93 101 24 95 102 24 96 104 24 98 106 25 99 108 25 101 110 26 103
112 26 105 113 27 106 115 27 108 117 27 110 120 28 112 122 28 114 124
29 116 126 29 118 128 30 120 130 30 122 132 31 124 134 31 126 136 32
129 138 32 131 140 33 133 142 33 135 144 34 137 145 34 139 147 35 141
148 35 110 46 106 66 40 32 65 39 31 66 39 31 66 39 31 66 39 31 66 39
31 67 39 31 67 40 31 45 22 31 37 17 24 37 17 24 37 17 24 37 17 24 37
17 24 37 17 24 37 17 24 12 12 14 12 12 14 12 12 14 12 12 14 12 12 14
12 12 14 12 12 14 12 12 14 12 12 14 12 12 14 151 145 34 149 143 33 147
141 33 144 138 32 142 136 32 139 133 31 136 131 31 134 129 30 131 126
30 129 124 29 126 121 29 124 119 28 122 117 28 119 115 27 117 113 27
115 111 26 113 109 26 111 107 25 109 105 25 107 103 24 105 101 24 103
99 24 101 98 23 100 96 23 98 95 22 96 93 22 95 92 22 93 90 21 92 89 21
91 88 21 89 86 21 88 85 20 87 84 20 86 83 20 84 82 19 83 81 19 82 79
19 81 78 19 80 77 19
91 97 23 92 98 23 93 100 24 95 101 24 96 103 25 97 105 25 99 106 25
101 108 26 102 110 26 104 112 27 106 114 27 107 115 28 109 117 28 111
119 29 113 121 29 115 123 30 117 126 30 120 128 31 122 130 31 124 132
32 126 134 33 129 136 33 131 138 34 133 140 34 136 142 35 138 144 36
141 146 36 143 148 37 145 149 37 148 151 38 150 153 38 152 154 39 154
155 39 82 45 53 67 41 32 67 40 32 67 40 32 67 40 32 68 40 32 68 40 32
68 40 32 68 40 32 68 40 32 45 22 31 37 17 24 37 17 24 37 17 24 37 17
24 37 17 24 37 17 24 37 17 24 37 17 24 12 12 14 12 12 14 12 12 14 12
12 14 12 12 14 12 12 14 12 12 14 12 12 14 12 12 14 157 150 36 155 148
35 153 146 35 151 144 34 148 141 33 146 139 33 143 137 32 141 135 32
138 132 31 136 130 31 133 128 30 131 125 30 129 123 29 126 121 29 124
119 28 122 117 28 120 115 27 118 113 27 116 111 26 114 109 26 112 107
25 110 106 25 108 104 25 106 102 24 105 101 24 103 99 24 101 98 23 100
96 23 98 95 23 97 93 22 95 92 22 94 91 22 93 89 21 91 88 21 90 87 21
89 86 21 88 85 20 87 84 20 86 83 20
97 103 25 98 104 25 100 106 26 101 107 26 103 109 27 105 111 27 106
112 27 108 114 28 110 116 28 112 118 29 114 119 30 116 121 30 118 123
31 120 125 31 122 127 32 125 129 33 127 131 33 129 132 34 132 134 35
135 136 35 137 138 36 140 140 37 143 142 37 145 143 38 148 145 39 151
146 39 153 148 40 156 149 41 158 151 41 160 152 42 162 153 42 164 154
43 166 155 43 68 40 33 68 39 32 68 39 32 68 39 32 68 39 32 69 40 32 69
40 32 69 40 32 69 40 32 69 40 32 69 40 32 45 22 31 37 17 24 37 17 24
37 17 24 37 17 24 37 17 24 37 17 24 37 17 24 37 17 24 12 12 14 12 12
14 12 12 14 12 12 14 12 12 14 12 12 14 12 12 14 156 149 36 155 147 35
153 145 35 151 144 34 149 142 34 147 140 34 145 138 33 143 136 33 141
134 32 139 132 32 137 130 31 135 128 31 133 126 30 131 125 30 128 123
29 126 121 29 125 119 28 123 117 28 121 115 28 119 114 27 117 112 27
115 110 26 113 109 26 112 107 26 110 106 25 108 104 25 107 103 24 105
101 24 104 100 24 102 98 23 101 97 23 100 96 23 98 95 23 97 93 22 96
92 22 94 91 22 93 90 21 92 89 21 91 88 21 90 87 21
102 107 26 104 108 27 105 109 27 107 111 28 109 112 28 110 114 29 112
115 29 114 117 30 116 118 30 118 120 31 120 122 31 122 123 32 124 125
33 127 126 33 129 128 34 132 129 35 134 131 35 137 132 36 140 134 37
142 135 38 145 137 38 148 138 39 151 140 40 154 141 41 156 142 41 159
143 42 162 144 43 164 146 43 166 147 44 168 147 44 169 148 44 170 149
45 69 40 33 69 38 32 69 38 32 69 38 32 69 38 32 69 38 32 68 39 32 68
39 32 68 39 32 68 39 32 68 39 32 68 39 32 68 39 32 37 17 24 37 17 24
37 17 24 37 17 24 37 17 24 37 17 24 37 17 24 37 17 24 46 19 28 12 12
14 12 12 14 12 12 14 12 12 14 12 12 14 12 12 14 149 141 35 148 140 34
147 139 34 145 138 34 144 136 33 142 135 33 140 133 32 139 132 32 137
130 32 136 129 31 134 127 31 132 126 30 131 124 30 129 123 30 127 121
29 126 120 29 124 118 28 122 117 28 121 115 28 119 114 27 118 112 27
116 111 27 114 110 26 113 108 26 111 107 26 110 105 25 109 104 25 107
103 25 106 102 24 105 100 24 103 99 24 102 98 23 101 97 23 99 96 23 98
95 23 97 93 22 96 92 22 95 91 22 94 90 22 93 89 21
106 108 28 108 110 28 109 111 28 111 112 29 113 113 29 114 115 30 116
116 30 118 117 31 120 118 31 122 120 32 124 121 33 126 122 33 128 124
34 130 125 34 133 126 35 135 127 36 138 128 36 140 130 37 143 131 38
145 132 38 148 133 39 150 134 40 153 135 40 155 136 41 157 137 42 159
138 42 161 139 43 162 139 43 164 140 43 165 140 43 165 141 43 166 141
43 68 37 32 68 37 32 68 37 32 68 37 32 68 37 32 67 37 32 67 37 32 67
37 32 67 37 32 67 37 32 67 37 32 67 37 31 67 37 31 66 37 31 37 17 24
37 17 24 37 17 24 37 17 24 37 17 24 37 17 24 37 17 24 37 17 24 12 12
14 12 12 14 12 12 14 12 12 14 12 12 14 143 135 34 142 134 33 141 133
33 140 132 33 138 131 32 137 130 32 136 129 32 135 128 31 133 127 31
132 126 31 131 124 30 130 123 30 128 122 30 127 121 29 126 120 29 124
118 29 123 117 28 122 116 28 120 115 28 119 114 27 118 112 27 116 111
27 115 110 27 114 109 26 112 108 26 111 106 26 110 105 25 109 104 25
108 103 25 106 102 25 105 101 24 104 100 24 103 99 24 102 98 24 101 97
23 100 96 23 99 95 23 98 94 23 97 93 22 96 92 22 95 91 22
109 109 28 110 110 29 112 111 29 113 112 29 115 113 30 116 114 30 118
115 31 120 116 31 121 117 32 123 118 32 125 119 33 127 120 33 129 121
34 131 122 34 133 123 35 134 124 35 136 125 36 138 125 36 140 126 37
142 127 38 144 128 38 146 129 38 147 129 39 149 130 39 150 131 40 151
131 40 152 132 40 153 132 40 154 133 40 154 133 40 155 133 40 67 37 32
66 36 32 66 36 32 66 36 32 66 36 31 66 36 31 66 36 31 66 36 31 66 36
31 66 36 31 66 36 31 65 36 31 65 36 31 65 36 31 65 36 31 65 36 31 65
36 31 37 17 24 37 17 24 37 17 24 37 17 24 37 17 24 46 19 28 12 12 14
12 12 14 12 12 14 137 129 33 136 128 33 136 128 32 135 127 32 134 126
32 133 126 31 132 125 31 131 124 31 130 123 31 129 122 30 128 121 30
127 121 30 126 120 29 125 119 29 124 118 29 123 117 29 122 116 28 121
115 28 120 114 28 119 113 28 117 112 27 116 111 27 115 110 27 114 109
27 113 108 26 112 107 26 111 106 26 110 105 26 109 104 25 108 103 25
107 102 25 106 101 25 105 101 24 104 100 24 103 99 24 102 98 24 101 97
23 100 96 23 99 95 23 98 94 23 97 93 23 96 93 22 95 92 22
110 108 28 111 109 29 112 109 29 114 110 30 115 111 30 116 112 30 118
113 31 119 114 31 121 114 31 122 115 32 124 116 32 125 117 33 126 117
33 128 118 33 129 119 34 131 120 34 132 120 35 134 121 35 135 122 35
136 122 36 137 123 36 138 123 36 139 124 36 140 124 37 141 125 37 142
125 37 142 125 37 143 126 37 143 126 37 143 126 37 144 127 37 65 35 31
65 35 31 65 35 31 65 35 31 65 35 31 65 35 31 65 35 31 64 35 31 64 35
31 64 35 31 64 35 31 64 35 31 64 35 31 64 35 31 64 35 31 64 35 31 64
35 31 64 35 31 63 29 30 37 17 24 37 17 24 37 17 24 46 19 28 46 19 28
105 122 23 105 121 23 105 121 23 104 120 23 104 120 23 104 119 23 128
120 30 127 120 30 126 119 30 125 119 30 125 118 30 124 117 29 123 117
29 122 116 29 121 115 29 120 115 28 120 114 28 119 113 28 118 112 28
117 112 27 116 111 27 115 110 27 114 109 27 114 108 27 113 108 26 112
107 26 111 106 26 110 105 26 109 104 25 108 104 25 107 103 25 107 102
25 106 101 25 105 100 24 104 100 24 103 99 24 102 98 24 101 97 24 101
97 23 100 96 23 99 95 23 98 94 23 97 94 23 97 93 23 96 92 22
109 106 28 111 107 29 112 108 29 113 108 29 114 109 30 115 110 30 116
110 30 117 111 30 118 112 31 120 112 31 121 113 31 122 113 32 123 114
32 124 115 32 125 115 33 126 116 33 127 116 33 128 117 33 129 117 33
130 118 34 130 118 34 131 118 34 132 119 34 132 119 34 133 119 34 133
120 34 134 120 34 134 120 34 134 120 34 134 121 34 134 121 34 63 34 31
63 34 31 63 34 31 63 34 31 63 34 31 63 34 31 63 34 31 63 34 31 63 34
31 53 26 29 53 26 29 53 26 29 53 25 29 53 25 29 53 25 29 53 25 29 52
20 28 52 20 28 62 29 30 58 28 29 58 28 29 58 28 29 58 28 29 58 28 29
94 81 19 94 81 19 94 81 19 94 81 19 94 81 19 99 114 22 99 114 22 99
113 22 99 113 22 98 112 22 98 112 22 98 111 22 98 111 21 97 110 21 97
110 21 97 109 21 96 109 21 96 108 21 114 109 27 114 108 27 113 108 27
112 107 26 111 106 26 111 106 26 110 105 26 109 104 26 109 104 26 108
103 25 107 102 25 106 102 25 106 101 25 105 100 25 104 100 24 103 99
24 103 98 24 102 98 24 101 97 24 101 96 24 100 96 23 99 95 23 98 94 23
98 94 23 97 93 23 96 93 23 96 92 22
108 105 28 109 105 28 110 106 28 111 106 29 112 107 29 113 107 29 114
108 29 115 108 30 116 109 30 116 109 30 117 110 30 118 110 31 119 111
31 120 111 31 120 112 31 121 112 31 122 112 31 122 113 32 123 113 32
124 113 32 124 114 32 125 114 32 125 114 32 125 115 32 126 115 32 126
115 32 126 115 32 127 115 32 127 116 32 127 116 32 127 116 32 62 33 30
62 33 30 62 33 30 62 33 30 62 33 30 62 33 30 62 33 30 53 25 29 53 25
29 53 25 29 53 25 29 52 25 29 52 25 29 52 25 28 52 25 28 52 25 28 52
25 28 51 20 28 51 20 28 61 28 30 61 28 30 61 28 30 57 28 28 57 28 28
90 78 18 90 78 18 90 78 18 90 78 18 90 77 18 90 77 18 90 77 18 90 77
18 95 109 21 95 109 21 94 108 21 94 108 21 89 77 18 89 76 18 89 76 18
89 76 18 88 76 18 88 76 18 88 75 18 87 75 18 92 104 20 91 103 20 91
103 20 91 102 20 90 101 20 90 101 20 89 100 20 106 101 25 105 101 25
104 100 25 104 99 24 103 99 24 103 98 24 102 98 24 101 97 24 101 97 24
100 96 24 99 95 23 99 95 23 98 94 23 98 94 23 97 93 23 96 93 23 96 92
22 95 91 22
107 103 28 108 103 28 108 104 28 109 104 28 110 105 28 111 105 28 111
105 29 112 106 29 113 106 29 113 107 29 114 107 29 114 107 29 115 108
30 116 108 30 116 108 30 117 109 30 117 109 30 118 109 30 118 110 30
118 110 30 119 110 30 119 110 30 120 110 31 120 111 31 120 111 31 120
111 31 120 111 31 121 111 31 121 111 31 121 112 31 121 112 31 61 33 30
61 33 30 61 33 30 61 33 30 61 33 30 52 25 29 52 25 28 52 25 28 52 25
28 52 25 28 52 25 28 52 25 28 52 25 28 52 25 28 52 25 28 52 25 28 52
25 28 52 25 28 61 33 30 61 33 30 60 28 30 60 28 29 60 28 29 51 20 28
45 20 13 21 19 5 21 19 5 21 19 5 21 19 5 21 19 5 21 19 5 21 19 5 87 74
17 87 74 17 86 74 17 86 74 17 86 74 17 86 74 17 86 74 17 86 74 17 86
73 17 85 73 17 85 73 17 85 73 17 85 73 17 84 73 17 84 72 17 84 72 17
84 72 17 83 72 17 83 71 17 83 71 17 83 71 17 82 71 17 82 70 16 82 70
16 85 96 19 85 95 19 85 95 19 84 94 19 84 94 19 84 93 18 83 93 18 83
92 18 82 92 18 82 91 18 82 91 18 81 90 18 81 90 18
105 101 27 106 101 27 106 102 27 107 102 27 108 102 28 108 103 28 109
103 28 109 103 28 110 104 28 110 104 28 111 104 28 111 105 28 112 105
29 112 105 29 112 105 29 113 106 29 113 106 29 114 106 29 114 106 29
114 107 29 114 107 29 115 107 29 115 107 29 115 107 29 115 107 29 116
108 29 116 108 29 116 108 29 116 108 29 116 108 29 116 108 29 61 32 30
61 32 30 61 32 30 61 32 30 61 32 30 52 25 28 52 25 28 52 25 28 52 25
28 52 25 28 52 25 28 52 25 28 52 25 28 52 25 28 52 25 28 52 25 28 52
25 28 60 32 30 60 32 30 60 32 30 51 24 28 51 24 28 51 24 28 51 24 28
49 52 16 48 52 16 43 20 12 43 20 12 43 20 12 42 20 12 21 19 5 21 19 5
21 19 5 21 19 5 21 19 5 21 19 5 21 19 5 84 72 17 83 72 17 83 72 17 83
71 17 83 71 17 83 71 17 83 71 17 82 71 17 82 71 17 82 71 17 82 70 16
82 70 16 81 70 16 81 70 16 81 70 16 81 69 16 81 69 16 80 69 16 80 69
16 80 69 16 79 68 16 79 68 16 79 68 16 79 68 16 78 67 16 78 67 16 78
67 16 81 91 18 81 90 18 81 90 18 80 90 18 80 89 18
103 99 26 104 100 27 104 100 27 105 100 27 105 100 27 106 101 27 106
101 27 107 101 27 107 102 27 107 102 27 108 102 27 108 102 28 108 102
28 109 103 28 109 103 28 109 103 28 110 103 28 110 103 28 110 104 28
110 104 28 111 104 28 111 104 28 111 104 28 111 104 28 111 104 28 112
105 28 112 105 28 112 105 28 112 105 28 112 105 28 112 105 28 60 32 30
60 32 30 60 32 30 60 32 30 60 32 30 60 32 30 52 25 28 52 25 28 52 25
28 52 25 28 52 25 28 52 25 28 52 25 28 51 25 28 60 32 30 60 32 30 60
32 30 60 32 30 51 24 28 51 24 28 51 24 28 51 24 28 51 24 28 51 24 28
48 51 15 47 51 15 47 51 15 47 51 15 47 50 15 46 50 15 46 50 15 46 50
15 46 50 15 45 49 14 45 49 14 21 19 5 21 19 5 21 19 5 21 19 5 21 19 5
81 70 16 81 70 16 81 69 16 81 69 16 81 69 16 80 69 16 80 69 16 80 69
16 80 69 16 80 69 16 80 68 16 79 68 16 79 68 16 79 68 16 79 68 16 79
68 16 78 67 16 78 67 16 78 67 16 78 67 16 77 67 16 77 66 16 77 66 16
77 66 16 76 66 15 76 66 15 76 65 15 76 65 15 75 65 15
102 98 26 102 98 26 102 98 26 103 98 26 103 99 26 104 99 26 104 99 26
104 99 26 105 99 27 105 100 27 105 100 27 105 100 27 106 100 27 106
100 27 106 101 27 107 101 27 107 101 27 107 101 27 107 101 27 107 101
27 108 101 27 108 102 27 108 102 27 108 102 27 108 102 27 108 102 27
108 102 27 108 102 27 108 102 27 108 102 27 108 102 27 60 31 30 60 31
30 60 31 30 60 31 30 60 31 30 60 31 30 60 31 30 60 31 30 60 31 30 60
31 30 60 31 30 60 31 30 60 31 30 60 31 30 60 31 30 60 31 30 51 24 28
51 24 28 51 24 28 51 24 28 51 24 28 51 24 28 51 24 28 47 51 15 47 50
15 47 50 15 46 50 15 46 50 15 46 50 15 46 50 15 46 49 14 45 49 14 45
49 14 45 49 14 45 49 14 44 48 14 44 48 14 40 20 11 39 20 11 39 20 11
39 20 11 21 19 5 21 19 5 79 68 16 79 68 16 79 68 16 79 68 16 78 67 16
78 67 16 78 67 16 78 67 16 78 67 16 78 67 16 78 67 16 77 67 16 77 66
16 77 66 16 77 66 16 77 66 16 76 66 15 76 66 15 76 65 15 76 65 15 76
65 15 75 65 15 75 65 15 75 64 15 75 64 15 74 64 15
100 96 25 100 96 25 101 96 26 101 97 26 101 97 26 102 97 26 102 97 26
102 97 26 102 98 26 103 98 26 103 98 26 103 98 26 103 98 26 104 98 26
104 99 26 104 99 26 104 99 26 104 99 26 104 99 26 105 99 26 105 99 26
105 99 26 105 99 26 105 100 26 105 100 26 105 100 26 105 100 26 105
100 26 105 100 26 106 100 26 106 100 26 59 31 30 59 31 30 59 31 30 59
31 30 59 31 30 59 31 30 59 31 30 59 31 30 59 31 30 59 31 30 59 31 30
59 31 30 40 19 21 40 19 21 59 31 30 51 24 28 51 24 28 51 24 28 51 24
28 51 24 28 51 24 28 51 24 28 51 24 28 46 50 15 46 50 15 46 50 15 46
49 15 45 49 14 45 49 14 45 49 14 45 49 14 45 49 14 44 48 14 44 48 14
44 48 14 44 48 14 44 48 14 44 48 14 43 47 14 39 20 11 39 20 11 39 20
11 38 20 11 38 20 11 38 20 11 94 68 21 94 68 21 94 67 21 77 66 16 77
66 16 77 66 16 76 66 15 76 66 15 76 66 15 76 65 15 76 65 15 76 65 15
76 65 15 75 65 15 75 65 15 75 65 15 75 64 15 75 64 15 75 64 15 74 64
15 74 64 15 74 64 15 74 64 15 74 63 15
98 95 25 99 95 25 99 95 25 99 95 25 99 95 25 100 96 25 100 96 25 100
96 25 100 96 25 101 96 25 101 96 25 101 96 25 101 97 26 101 97 26 102
97 26 102 97 26 102 97 26 102 97 26 102 97 26 102 97 26 102 97 26 102
97 26 103 98 26 103 98 26 103 98 26 103 98 26 103 98 26 103 98 26 103
98 26 103 98 26 103 98 26 103 98 26 59 31 30 59 31 30 59 31 30 59 31
30 59 31 30 40 19 21 40 19 21 40 19 21 40 19 21 40 19 21 40 19 21 40
19 21 40 19 21 40 19 21 40 19 21 40 19 21 40 19 21 40 19 21 50 20 28
51 24 28 51 24 28 51 24 28 45 49 14 45 49 14 45 49 14 45 49 14 45 49
14 45 48 14 44 48 14 44 48 14 44 48 14 44 48 14 44 48 14 44 48 14 43
47 14 43 47 14 43 47 14 43 47 14 43 47 13 43 47 13 38 20 11 38 20 11
38 20 11 38 20 11 38 20 11 38 20 11 92 66 21 92 66 21 92 66 21 92 66
20 91 66 20 91 66 20 91 66 20 91 66 20 75 64 15 75 64 15 75 64 15 74
64 15 74 64 15 74 64 15 74 64 15 74 64 15 74 63 15 73 63 15 73 63 15
73 63 15 73 63 15 73 63 15
97 93 24 97 93 25 97 94 25 98 94 25 98 94 25 98 94 25 98 94 25 98 94
25 99 94 25 99 95 25 99 95 25 99 95 25 99 95 25 99 95 25 100 95 25 100
95 25 100 95 25 100 95 25 100 95 25 100 96 25 100 96 25 100 96 25 100
96 25 101 96 25 101 96 25 101 96 25 101 96 25 101 96 25 101 96 25 101
96 25 101 96 25 101 96 25 59 31 29 59 31 29 51 24 28 40 19 21 40 19 21
40 19 21 40 19 21 40 19 21 40 19 21 40 19 21 40 19 21 40 19 21 40 19
21 40 19 21 40 19 21 40 19 21 40 19 21 40 19 21 40 19 21 40 19 21 47
20 27 21 19 5 45 49 14 45 48 14 45 48 14 44 48 14 44 48 14 44 48 14 40
20 11 39 20 11 39 20 11 43 47 14 43 47 14 43 47 14 43 47 14 43 47 14
43 47 13 43 47 13 42 47 13 42 46 13 42 46 13 42 46 13 42 46 13 38 20
11 38 20 11 37 20 11 37 20 10 37 20 10 91 65 20 90 65 20 90 65 20 90
65 20 90 65 20 89 65 20 89 65 20 89 65 20 89 64 20 89 64 20 88 64 20
88 64 20 88 64 20 88 64 20 87 64 19 73 63 15 73 62 15 72 62 15 72 62
15 72 62 15
96 92 24 96 92 24 96 92 24 96 93 24 96 93 24 97 93 24 97 93 24 97 93
24 97 93 24 97 93 24 97 93 24 97 93 24 98 94 24 98 94 24 98 94 25 98
94 25 98 94 25 98 94 25 98 94 25 98 94 25 98 94 25 99 94 25 99 94 25
99 94 25 99 94 25 99 94 25 99 94 25 99 94 25 99 94 25 99 94 25 99 94
25 99 94 25 47 50 15 51 24 28 40 19 21 40 19 21 40 19 21 40 19 21 40
19 21 40 19 21 40 19 21 40 19 21 40 19 21 40 19 21 40 19 21 40 19 21
40 19 21 40 19 21 40 19 21 40 19 21 40 19 21 40 19 21 21 19 5 21 19 5
21 19 5 21 19 5 44 48 14 40 20 11 39 20 11 39 20 11 39 20 11 39 20 11
39 20 11 39 20 11 39 20 11 39 20 11 38 20 11 38 20 11 38 20 11 38 20
11 38 20 11 42 46 13 42 46 13 42 46 13 42 46 13 41 46 13 41 45 13 41
45 13 37 20 10 37 20 10 37 20 10 37 20 10 89 64 20 89 64 20 89 64 20
88 64 20 88 64 20 88 64 20 88 64 20 88 64 20 87 63 20 87 63 19 87 63
19 87 63 19 87 63 19 86 63 19 86 63 19 86 63 19 86 63 19 71 61 15
94 91 24 95 91 24 95 91 24 95 91 24 95 91 24 95 92 24 95 92 24 95 92
24 96 92 24 96 92 24 96 92 24 96 92 24 96 92 24 96 92 24 96 92 24 96
92 24 96 92 24 97 93 24 97 93 24 97 93 24 97 93 24 97 93 24 97 93 24
97 93 24 97 93 24 97 93 24 97 93 24 97 93 24 97 93 24 97 93 24 46 50
15 46 49 15 46 49 15 41 20 12 40 19 21 40 19 21 40 19 21 40 19 21 40
19 21 40 19 21 40 19 21 40 19 21 40 19 21 40 19 21 40 19 21 40 19 21
40 19 21 40 19 21 40 19 21 40 19 21 40 19 21 21 19 5 21 19 5 21 19 5
21 19 5 21 19 5 21 19 5 21 19 5 21 19 5 39 20 11 39 20 11 39 20 11 39
20 11 38 20 11 38 20 11 38 20 11 38 20 11 38 20 11 38 20 11 38 20 11
38 20 11 38 20 11 38 20 11 37 20 11 37 20 11 41 45 13 41 45 13 41 45
13 41 45 13 41 45 13 41 45 13 37 20 10 37 20 10 36 20 10 88 63 20 87
63 20 87 63 20 87 63 19 87 63 19 87 63 19 86 63 19 86 63 19 86 63 19
86 63 19 86 62 19 86 62 19 85 62 19 85 62 19 85 62 19 85 62 19
93 90 23 93 90 23 94 90 23 94 90 23 94 90 24 94 90 24 94 91 24 94 91
24 94 91 24 94 91 24 95 91 24 95 91 24 95 91 24 95 91 24 95 91 24 95
91 24 95 91 24 95 91 24 95 91 24 95 91 24 95 91 24 95 91 24 95 92 24
95 92 24 96 92 24 96 92 24 96 92 24 96 92 24 46 49 14 46 49 14 45 49
14 45 49 14 45 49 14 21 19 5 21 19 5 40 19 21 40 19 21 40 19 21 40 19
21 40 19 21 40 19 21 40 19 21 40 19 21 40 19 21 40 19 21 40 19 21 40
19 21 40 19 21 40 19 21 40 19 21 21 19 5 21 19 5 21 19 5 21 19 5 21 19
5 21 19 5 21 19 5 21 19 5 21 19 5 21 19 5 21 19 5 21 19 5 38 20 11 38
20 11 38 20 11 38 20 11 38 20 11 38 20 11 38 20 11 38 20 11 38 20 11
37 20 11 37 20 11 37 20 10 37 20 10 37 20 10 37 20 10 37 20 10 37 20
10 37 20 10 40 45 13 40 44 13 40 44 13 40 44 13 36 20 10 36 20 10 86
62 19 86 62 19 86 62 19 86 62 19 86 62 19 85 62 19 85 62 19 85 62 19
85 62 19 85 62 19 85 62 19 84 62 19 84 61 19 84 61 19
92 89 23 92 89 23 92 89 23 93 89 23 93 89 23 93 89 23 93 90 23 93 90
23 93 90 23 93 90 23 93 90 23 93 90 23 93 90 23 94 90 23 94 90 23 94
90 23 94 90 23 94 90 23 94 90 23 94 90 23 94 90 23 94 90 23 94 90 23
94 90 23 94 90 23 94 90 23 94 90 23 45 49 14 45 49 14 45 48 14 45 48
14 45 48 14 40 20 11 21 19 5 21 19 5 21 19 5 21 19 5 21 19 5 40 19 21
40 19 21 40 19 21 40 19 21 40 19 21 40 19 21 40 19 21 40 19 21 21 19 5
21 19 5 21 19 5 21 19 5 21 19 5 21 19 5 21 19 5 21 19 5 21 19 5 21 19
5 21 19 5 21 19 5 21 19 5 21 19 5 21 19 5 21 19 5 21 19 5 21 19 5 38
20 11 38 20 11 38 20 11 38 20 11 21 19 5 21 19 5 21 19 5 21 19 5 21 19
5 21 19 5 21 19 5 21 19 5 21 19 5 21 19 5 21 19 5 36 20 10 36 20 10 36
20 10 36 20 10 40 44 12 40 44 12 40 44 12 40 44 12 36 20 10 85 62 19
85 62 19 85 62 19 85 62 19 85 61 19 84 61 19 84 61 19 84 61 19 84 61
19 84 61 19 84 61 19 83 61 19
91 88 23 91 88 23 91 88 23 92 88 23 92 88 23 92 89 23 92 89 23 92 89
23 92 89 23 92 89 23 92 89 23 92 89 23 92 89 23 92 89 23 92 89 23 93
89 23 93 89 23 93 89 23 93 89 23 93 89 23 93 89 23 93 89 23 93 89 23
93 89 23 93 89 23 45 48 14 44 48 14 44 48 14 44 48 14 44 48 14 44 48
14 44 48 14 40 20 11 21 19 5 21 19 5 21 19 5 21 19 5 21 19 5 21 19 5
21 19 5 21 19 5 21 19 5 21 19 5 21 19 5 21 19 5 21 19 5 21 19 5 21 19
5 21 19 5 21 19 5 21 19 5 21 19 5 21 19 5 21 19 5 21 19 5 21 19 5 21
19 5 21 19 5 21 19 5 21 19 5 21 19 5 21 19 5 21 19 5 21 19 5 21 19 5
21 19 5 21 19 5 37 20 11 21 19 5 21 19 5 21 19 5 21 19 5 21 19 5 21 19
5 21 19 5 21 19 5 21 19 5 21 19 5 21 19 5 21 19 5 21 19 5 21 19 5 21
19 5 21 19 5 21 19 5 36 20 10 36 20 10 39 43 12 39 43 12 88 85 21 84
61 19 84 61 19 84 61 19 84 61 19 84 61 19 83 61 19 83 61 19 83 61 19
83 61 19 83 60 19
90 87 23 90 87 23 91 87 23 91 88 23 91 88 23 91 88 23 91 88 23 91 88
23 91 88 23 91 88 23 91 88 23 91 88 23 91 88 23 91 88 23 91 88 23 91
88 23 92 88 23 92 88 23 92 88 23 92 88 23 92 88 23 92 88 23 92 88 23
44 48 14 44 48 14 44 48 14 44 48 14 44 48 14 44 48 14 44 47 14 44 47
14 44 47 14 39 20 11 21 19 5 21 19 5 21 19 5 21 19 5 21 19 5 21 19 5
21 19 5 21 19 5 21 19 5 21 19 5 21 19 5 21 19 5 21 19 5 21 19 5 21 19
5 21 19 5 21 19 5 21 19 5 21 19 5 21 19 5 21 19 5 21 19 5 21 19 5 21
19 5 21 19 5 21 19 5 21 19 5 21 19 5 21 19 5 21 19 5 21 19 5 21 19 5
21 19 5 21 19 5 21 19 5 21 19 5 21 19 5 21 19 5 21 19 5 21 19 5 21 19
5 21 19 5 21 19 5 21 19 5 21 19 5 21 19 5 21 19 5 21 19 5 21 19 5 21
19 5 21 19 5 21 19 5 21 19 5 21 19 5 21 19 5 21 19 5 21 19 5 39 43 12
87 84 21 87 84 21 87 84 21 83 60 19 83 60 19 83 60 19 83 60 19 82 60
18 82 60 18
89 87 22 90 87 22 90 87 22 90 87 22 90 87 22 90 87 22 90 87 22 90 87
22 90 87 22 90 87 22 90 87 22 90 87 22 90 87 22 90 87 22 90 87 22 91
87 22 91 87 22 91 87 22 91 87 22 91 87 22 91 87 22 91 87 22 44 47 14
44 47 14 44 47 14 44 47 14 44 47 14 43 47 14 43 47 14 43 47 14 43 47
14 43 47 14 21 19 5 21 19 5 21 19 5 21 19 5 21 19 5 21 19 5 21 19 5 21
19 5 21 19 5 21 19 5 21 19 5 21 19 5 21 19 5 21 19 5 21 19 5 21 19 5
21 19 5 21 19 5 21 19 5 21 19 5 21 19 5 21 19 5 21 19 5 21 19 5 21 19
5 21 19 5 21 19 5 21 19 5 21 19 5 21 19 5 21 19 5 21 19 5 21 19 5 21
19 5 21 19 5 21 19 5 21 19 5 21 19 5 21 19 5 21 19 5 21 19 5 21 19 5
21 19 5 21 19 5 21 19 5 21 19 5 21 19 5 21 19 5 21 19 5 21 19 5 21 19
5 21 19 5 21 19 5 21 19 5 21 19 5 21 19 5 21 19 5 21 19 5 21 19 5 21
19 5 21 19 5 68 59 14 72 82 16 86 83 21 86 83 21 82 60 18 82 60 18 82
60 18
89 86 22 89 86 22 89 86 22 89 86 22 89 86 22 89 86 22 89 86 22 89 86
22 89 86 22 89 86 22 89 86 22 89 86 22 89 86 22 90 86 22 90 86 22 90
86 22 90 87 22 90 87 22 90 87 22 90 87 22 43 47 14 43 47 14 43 47 14
43 47 14 43 47 14 43 47 14 43 47 14 43 47 14 43 47 14 43 47 14 43 47
14 43 47 13 21 19 5 21 19 5 21 19 5 21 19 5 21 19 5 21 19 5 21 19 5 21
19 5 21 19 5 21 19 5 21 19 5 21 19 5 21 19 5 21 19 5 21 19 5 21 19 5
21 19 5 21 19 5 21 19 5 21 19 5 21 19 5 21 19 5 21 19 5 21 19 5 21 19
5 21 19 5 21 19 5 21 19 5 21 19 5 21 19 5 21 19 5 21 19 5 21 19 5 21
19 5 21 19 5 21 19 5 21 19 5 21 19 5 21 19 5 21 19 5 21 19 5 21 19 5
21 19 5 21 19 5 21 19 5 21 19 5 21 19 5 21 19 5 21 19 5 21 19 5 21 19
5 21 19 5 21 19 5 21 19 5 21 19 5 21 19 5 21 19 5 21 19 5 21 19 5 21
19 5 21 19 5 21 19 5 68 58 14 68 58 14 68 58 14 71 81 16 71 81 16 71
81 16
88 85 22 88 85 22 88 85 22 88 85 22 88 85 22 88 85 22 88 85 22 88 86
22 88 86 22 89 86 22 89 86 22 89 86 22 89 86 22 89 86 22 89 86 22 89
86 22 89 86 22 89 86 22 89 86 22 43 47 14 43 47 14 43 47 14 43 47 13
43 47 13 43 47 13 43 46 13 43 46 13 43 46 13 43 46 13 43 46 13 43 46
13 42 46 13 21 19 5 21 19 5 21 19 5 21 19 5 21 19 5 21 19 5 21 19 5 21
19 5 21 19 5 21 19 5 21 19 5 21 19 5 21 19 5 21 19 5 21 19 5 21 19 5
21 19 5 21 19 5 21 19 5 21 19 5 21 19 5 21 19 5 21 19 5 21 19 5 21 19
5 21 19 5 21 19 5 21 19 5 21 19 5 21 19 5 21 19 5 21 19 5 21 19 5 21
19 5 21 19 5 21 19 5 21 19 5 21 19 5 21 19 5 21 19 5 21 19 5 21 19 5
21 19 5 21 19 5 21 19 5 21 19 5 21 19 5 21 19 5 21 19 5 21 19 5 21 19
5 21 19 5 21 19 5 21 19 5 21 19 5 21 19 5 21 19 5 21 19 5 21 19 5 21
19 5 21 19 5 21 19 5 21 19 5 21 19 5 67 58 14 67 58 14 67 58 14 67 58
14
87 85 22 87 85 22 87 85 22 88 85 22 88 85 22 88 85 22 88 85 22 88 85
22 88 85 22 88 85 22 88 85 22 88 85 22 88 85 22 88 85 22 88 85 22 88
85 22 88 85 22 88 85 22 43 46 13 43 46 13 43 46 13 43 46 13 42 46 13
42 46 13 42 46 13 42 46 13 42 46 13 42 46 13 42 46 13 42 46 13 42 46
13 42 46 13 21 19 5 21 19 5 21 19 5 21 19 5 21 19 5 21 19 5 21 19 5 21
19 5 21 19 5 21 19 5 21 19 5 21 19 5 21 19 5 21 19 5 21 19 5 21 19 5
21 19 5 21 19 5 21 19 5 21 19 5 21 19 5 21 19 5 21 19 5 21 19 5 21 19
5 21 19 5 21 19 5 21 19 5 21 19 5 21 19 5 21 19 5 21 19 5 21 19 5 21
19 5 21 19 5 21 19 5 21 19 5 21 19 5 21 19 5 21 19 5 21 19 5 21 19 5
21 19 5 21 19 5 21 19 5 21 19 5 21 19 5 21 19 5 21 19 5 21 19 5 21 19
5 21 19 5 21 19 5 21 19 5 21 19 5 21 19 5 21 19 5 21 19 5 21 19 5 21
19 5 21 19 5 21 19 5 21 19 5 21 19 5 21 19 5 21 19 5 67 58 14 67 57 14
87 84 22 87 84 22 87 84 22 87 84 22 87 84 22 87 84 22 87 84 22 87 84
22 87 84 22 87 84 22 87 84 22 87 84 22 87 84 22 87 84 22 87 84 22 87
84 22 42 46 13 42 46 13 42 46 13 42 46 13 42 46 13 42 46 13 42 46 13
42 46 13 42 46 13 42 46 13 42 46 13 42 46 13 42 46 13 42 46 13 42 46
13 42 46 13 21 19 5 21 19 5 21 19 5 21 19 5 21 19 5 21 19 5 21 19 5 21
19 5 21 19 5 21 19 5 21 19 5 21 19 5 21 19 5 21 19 5 21 19 5 21 19 5
21 19 5 21 19 5 21 19 5 21 19 5 21 19 5 21 19 5 21 19 5 21 19 5 21 19
5 21 19 5 21 19 5 21 19 5 21 19 5 21 19 5 21 19 5 21 19 5 21 19 5 21
19 5 21 19 5 21 19 5 21 19 5 21 19 5 21 19 5 21 19 5 21 19 5 21 19 5
21 19 5 21 19 5 21 19 5 21 19 5 21 19 5 21 19 5 21 19 5 21 19 5 21 19
5 21 19 5 21 19 5 21 19 5 21 19 5 21 19 5 21 19 5 21 19 5 21 19 5 21
19 5 21 19 5 21 19 5 21 19 5 21 19 5 21 19 5 21 19 5 21 19 5 66 57 14
86 83 21 86 83 21 86 84 21 86 84 21 86 84 21 86 84 21 86 84 21 86 84
21 86 84 21 87 84 21 87 84 21 87 84 21 87 84 21 87 84 21 87 84 21 42
46 13 42 46 13 42 46 13 42 46 13 42 46 13 42 46 13 42 46 13 42 46 13
42 46 13 42 46 13 42 46 13 42 46 13 42 46 13 42 45 13 42 45 13 42 45
13 42 45 13 21 19 5 21 19 5 21 19 5 21 19 5 21 19 5 21 19 5 21 19 5 21
19 5 21 19 5 21 19 5 21 19 5 21 19 5 21 19 5 21 19 5 21 19 5 21 19 5
21 19 5 21 19 5 21 19 5 21 19 5 21 19 5 21 19 5 21 19 5 21 19 5 21 19
5 21 19 5 21 19 5 21 19 5 21 19 5 21 19 5 21 19 5 21 19 5 21 19 5 21
19 5 21 19 5 21 19 5 21 19 5 21 19 5 21 19 5 21 19 5 21 19 5 21 19 5
21 19 5 21 19 5 21 19 5 21 19 5 21 19 5 21 19 5 21 19 5 21 19 5 21 19
5 21 19 5 21 19 5 21 19 5 21 19 5 21 19 5 21 19 5 21 19 5 21 19 5 21
19 5 21 19 5 21 19 5 21 19 5 21 19 5 21 19 5 21 19 5 21 19 5 21 19 5
