P3
200 100
255
23 127 95 23 127 95 23 128 96 23 128 96 23 128 96 23 129 96 23 129 97
23 129 97 23 130 97 23 130 97 23 130 98 23 131 98 23 131 98 23 131 98
23 132 99 23 132 99 23 132 99 23 133 99 24 133 100 24 133 100 24 134
100 24 134 101 24 134 101 24 135 101 24 135 101 24 135 102 24 136 102
24 136 102 24 137 102 24 137 103 24 137 103 24 138 103 24 138 104 24
138 104 24 139 104 24 139 104 24 139 105 24 140 105 24 140 105 24 141
106 25 141 106 25 141 106 25 142 106 25 142 107 25 142 107 25 143 107
25 143 108 25 144 108 25 144 108 25 144 108 25 145 109 25 145 109 25
146 109 25 146 110 25 146 110 25 147 110 25 147 111 25 148 111 25 148
111 25 148 111 25 149 112 25 149 112 25 150 112 25 150 113 25 150 113
25 151 113 25 151 114 26 152 114 26 152 114 26 153 114 26 153 115 26
153 115 26 154 115 26 154 116 26 155 116 26 155 116 26 156 117 26 156
117 26 156 117 26 157 118 26 157 118 26 158 118 26 158 118 26 159 119
26 159 119 26 160 119 26 160 120 26 161 120 26 161 120 26 161 121 26
162 121 26 162 121 26 163 122 26 163 122 26 164 122 26 164 122 26 165
123 26 165 123 26 166 123 26 166 124 26 167 124 26 167 124 26 168 125
26 168 125 26 169 125 26 169 126 26 170 126 26 170 126 26 171 126 26
171 127 26 172 127 26 172 127 26 173 128 26 174 128 26 174 128 26 175
128 26 175 129 26 176 129 26 176 129 26 177 129 26 177 130 26 178 130
26 178 130 26 179 131 26 179 131 26 180 131 26 181 131 26 181 132 26
182 132 26 182 132 26 183 132 26 183 133 26 184 133 26 184 133 26 185
133 26 185 133 26 186 134 26 186 134 26 187 134 26 187 134 26 188 134
26 188 135 26 189 135 26 189 135 26 190 135 26 190 135 26 191 136 26
191 136 26 192 136 26 192 136 26 193 136 26 193 136 26 194 136 26 194
137 26 194 137 26 195 137 26 195 137 26 195 137 26 196 137 26 196 137
26 196 137 26 197 137 26 197 137 26 197 137 26 198 137 26 198 137 26
198 138 26 198 138 26 198 138 26 199 138 26 199 138 26 199 138 26 199
137 26 199 137 26 199 137 26 199 137 26 199 137 26 199 137 25 199 137
25 199 137 25 199 137 25 199 137 25 199 137 25 199 137 25 198 136 25
198 136 25 198 136 25 198 136 25 197 136 25 197 136 25 197 135 25 197
135 25 196 135 25 196 135 25 195 135 25 195 134 25 195 134 25 194 134
25 194 134 25 193 133
23 128 96 23 128 96 23 128 96 23 129 96 23 129 97 23 129 97 23 130 97
23 130 97 23 130 98 23 131 98 23 131 98 23 131 99 23 132 99 23 132 99
24 133 99 24 133 100 24 133 100 24 134 100 24 134 100 24 134 101 24
135 101 24 135 101 24 135 101 24 136 102 24 136 102 24 136 102 24 137
103 24 137 103 24 137 103 24 138 103 24 138 104 24 139 104 24 139 104
24 139 105 24 140 105 25 140 105 25 140 105 25 141 106 25 141 106 25
142 106 25 142 107 25 142 107 25 143 107 25 143 107 25 143 108 25 144
108 25 144 108 25 145 109 25 145 109 25 145 109 25 146 110 25 146 110
25 147 110 25 147 110 25 147 111 25 148 111 25 148 111 25 149 112 25
149 112 25 149 112 25 150 113 26 150 113 26 151 113 26 151 113 26 151
114 26 152 114 26 152 114 26 153 115 26 153 115 26 154 115 26 154 116
26 154 116 26 155 116 26 155 117 26 156 117 26 156 117 26 157 118 26
157 118 26 158 118 26 158 118 26 158 119 26 159 119 26 159 119 26 160
120 26 160 120 26 161 120 26 161 121 26 162 121 26 162 121 26 163 122
26 163 122 26 164 122 26 164 123 26 165 123 26 165 123 26 166 124 26
166 124 26 167 124 26 167 124 26 168 125 27 168 125 27 169 125 27 169
126 27 170 126 27 170 126 27 171 127 27 171 127 27 172 127 27 172 127
27 173 128 27 173 128 27 174 128 27 174 129 27 175 129 27 176 129 27
176 130 27 177 130 27 177 130 27 178 130 27 178 131 27 179 131 27 179
131 27 180 132 27 181 132 27 181 132 27 182 132 27 182 133 27 183 133
27 183 133 27 184 133 27 184 134 27 185 134 27 186 134 27 186 134 27
187 135 27 187 135 27 188 135 27 188 135 27 189 135 27 189 136 27 190
136 27 191 136 27 191 136 27 192 136 27 192 137 27 193 137 27 193 137
27 194 137 27 194 137 26 195 138 26 195 138 26 195 138 26 196 138 26
196 138 26 197 138 26 197 138 26 198 138 26 198 139 26 198 139 26 199
139 26 199 139 26 199 139 26 200 139 26 200 139 26 200 139 26 201 139
26 201 139 26 201 139 26 201 139 26 201 139 26 202 139 26 202 139 26
202 139 26 202 139 26 202 139 26 202 139 26 202 139 26 202 139 26 202
139 26 202 139 26 202 139 26 202 139 26 202 138 26 202 138 25 201 138
25 201 138 25 201 138 25 201 138 25 201 138 25 200 137 25 200 137 25
200 137 25 199 137 25 199 137 25 199 136 25 198 136 25 198 136 25 197
136 25 197 135 25 196 135
23 129 96 23 129 97 23 129 97 23 130 97 23 130 97 23 130 98 23 131 98
23 131 98 23 131 98 23 132 99 24 132 99 24 132 99 24 133 99 24 133 100
24 133 100 24 134 100 24 134 100 24 134 101 24 135 101 24 135 101 24
136 102 24 136 102 24 136 102 24 137 102 24 137 103 24 137 103 24 138
103 24 138 104 24 138 104 24 139 104 24 139 104 25 140 105 25 140 105
25 140 105 25 141 106 25 141 106 25 141 106 25 142 106 25 142 107 25
143 107 25 143 107 25 143 108 25 144 108 25 144 108 25 144 108 25 145
109 25 145 109 25 146 109 25 146 110 25 146 110 25 147 110 25 147 111
25 148 111 25 148 111 25 148 112 26 149 112 26 149 112 26 150 112 26
150 113 26 150 113 26 151 113 26 151 114 26 152 114 26 152 114 26 153
115 26 153 115 26 153 115 26 154 116 26 154 116 26 155 116 26 155 117
26 156 117 26 156 117 26 156 117 26 157 118 26 157 118 26 158 118 26
158 119 26 159 119 26 159 119 26 160 120 26 160 120 26 161 120 26 161
121 26 161 121 26 162 121 26 162 122 26 163 122 27 163 122 27 164 123
27 164 123 27 165 123 27 165 124 27 166 124 27 166 124 27 167 125 27
167 125 27 168 125 27 168 125 27 169 126 27 169 126 27 170 126 27 170
127 27 171 127 27 172 127 27 172 128 27 173 128 27 173 128 27 174 129
27 174 129 27 175 129 27 175 130 27 176 130 27 176 130 27 177 130 27
178 131 27 178 131 27 179 131 27 179 132 27 180 132 27 180 132 27 181
132 27 182 133 27 182 133 27 183 133 27 183 134 27 184 134 27 185 134
27 185 134 27 186 135 27 186 135 27 187 135 27 187 135 27 188 136 27
189 136 27 189 136 27 190 136 27 190 137 27 191 137 27 191 137 27 192
137 27 193 137 27 193 138 27 194 138 27 194 138 27 195 138 27 195 138
27 196 139 27 196 139 27 197 139 27 197 139 27 198 139 27 198 139 27
199 140 27 199 140 27 200 140 27 200 140 27 200 140 27 201 140 27 201
140 27 202 140 26 202 140 26 202 141 26 203 141 26 203 141 26 203 141
26 204 141 26 204 141 26 204 141 26 204 141 26 204 141 26 205 141 26
205 141 26 205 141 26 205 141 26 205 141 26 205 141 26 205 141 26 205
141 26 205 140 26 205 140 26 205 140 26 205 140 26 205 140 26 205 140
26 204 140 26 204 140 26 204 139 26 204 139 25 203 139 25 203 139 25
203 139 25 203 139 25 202 138 25 202 138 25 201 138 25 201 138 25 201
137 25 200 137 25 200 137
23 129 97 23 130 97 23 130 97 23 130 98 23 131 98 23 131 98 23 131 98
24 132 99 24 132 99 24 132 99 24 133 99 24 133 100 24 134 100 24 134
100 24 134 101 24 135 101 24 135 101 24 135 101 24 136 102 24 136 102
24 136 102 24 137 102 24 137 103 24 137 103 24 138 103 24 138 104 24
139 104 25 139 104 25 139 104 25 140 105 25 140 105 25 140 105 25 141
106 25 141 106 25 142 106 25 142 107 25 142 107 25 143 107 25 143 107
25 143 108 25 144 108 25 144 108 25 145 109 25 145 109 25 145 109 25
146 110 25 146 110 25 147 110 25 147 110 26 147 111 26 148 111 26 148
111 26 149 112 26 149 112 26 149 112 26 150 113 26 150 113 26 151 113
26 151 114 26 151 114 26 152 114 26 152 114 26 153 115 26 153 115 26
154 115 26 154 116 26 154 116 26 155 116 26 155 117 26 156 117 26 156
117 26 157 118 26 157 118 26 158 118 26 158 119 26 158 119 26 159 119
26 159 120 26 160 120 27 160 120 27 161 121 27 161 121 27 162 121 27
162 122 27 163 122 27 163 122 27 164 123 27 164 123 27 165 123 27 165
124 27 166 124 27 166 124 27 167 125 27 167 125 27 168 125 27 168 126
27 169 126 27 169 126 27 170 126 27 170 127 27 171 127 27 171 127 27
172 128 27 172 128 27 173 128 27 173 129 27 174 129 27 175 129 27 175
130 27 176 130 27 176 130 27 177 131 27 177 131 27 178 131 27 179 132
27 179 132 27 180 132 27 180 132 27 181 133 27 181 133 27 182 133 27
183 134 27 183 134 27 184 134 27 184 135 27 185 135 27 186 135 27 186
135 27 187 136 27 187 136 27 188 136 27 189 136 27 189 137 27 190 137
27 190 137 27 191 137 27 192 138 27 192 138 27 193 138 27 193 138 27
194 139 27 195 139 27 195 139 27 196 139 27 196 140 27 197 140 27 197
140 27 198 140 27 199 140 27 199 140 27 200 141 27 200 141 27 201 141
27 201 141 27 202 141 27 202 141 27 203 142 27 203 142 27 203 142 27
204 142 27 204 142 27 205 142 27 205 142 27 205 142 27 206 142 27 206
142 27 206 142 27 207 142 27 207 142 26 207 142 26 207 143 26 207 143
26 208 143 26 208 142 26 208 142 26 208 142 26 208 142 26 208 142 26
208 142 26 208 142 26 208 142 26 208 142 26 208 142 26 208 142 26 208
142 26 208 142 26 207 141 26 207 141 26 207 141 26 207 141 26 206 141
26 206 140 26 206 140 26 205 140 25 205 140 25 205 140 25 204 139 25
204 139 25 203 139 25 203 139
23 130 97 23 131 98 23 131 98 24 131 98 24 132 98 24 132 99 24 132 99
24 133 99 24 133 100 24 133 100 24 134 100 24 134 100 24 134 101 24
135 101 24 135 101 24 135 101 24 136 102 24 136 102 24 137 102 24 137
103 24 137 103 24 138 103 24 138 103 25 138 104 25 139 104 25 139 104
25 139 105 25 140 105 25 140 105 25 141 105 25 141 106 25 141 106 25
142 106 25 142 107 25 142 107 25 143 107 25 143 108 25 144 108 25 144
108 25 144 108 25 145 109 25 145 109 25 146 109 25 146 110 26 146 110
26 147 110 26 147 111 26 148 111 26 148 111 26 148 111 26 149 112 26
149 112 26 150 112 26 150 113 26 150 113 26 151 113 26 151 114 26 152
114 26 152 114 26 153 115 26 153 115 26 153 115 26 154 116 26 154 116
26 155 116 26 155 117 26 156 117 26 156 117 26 156 118 26 157 118 26
157 118 27 158 119 27 158 119 27 159 119 27 159 120 27 160 120 27 160
120 27 161 121 27 161 121 27 161 121 27 162 122 27 162 122 27 163 122
27 163 123 27 164 123 27 164 123 27 165 124 27 165 124 27 166 124 27
166 125 27 167 125 27 167 125 27 168 126 27 168 126 27 169 126 27 169
127 27 170 127 27 170 127 27 171 127 27 172 128 27 172 128 27 173 128
27 173 129 27 174 129 27 174 129 27 175 130 27 175 130 27 176 130 27
176 131 27 177 131 27 178 131 27 178 132 27 179 132 27 179 132 27 180
133 27 181 133 27 181 133 27 182 134 27 182 134 27 183 134 27 184 135
27 184 135 27 185 135 27 185 135 27 186 136 27 187 136 27 187 136 27
188 137 27 189 137 27 189 137 27 190 137 27 190 138 27 191 138 27 192
138 27 192 139 27 193 139 27 194 139 27 194 139 27 195 140 27 195 140
27 196 140 27 197 140 27 197 140 27 198 141 27 198 141 27 199 141 27
200 141 27 200 142 27 201 142 27 201 142 27 202 142 27 202 142 27 203
142 27 203 143 27 204 143 27 205 143 27 205 143 27 205 143 27 206 143
27 206 143 27 207 144 27 207 144 27 208 144 27 208 144 27 208 144 27
209 144 27 209 144 27 209 144 27 210 144 27 210 144 27 210 144 27 210
144 27 211 144 27 211 144 27 211 144 27 211 144 26 211 144 26 211 144
26 211 144 26 211 144 26 211 144 26 211 144 26 211 144 26 211 144 26
211 143 26 211 143 26 211 143 26 210 143 26 210 143 26 210 143 26 210
142 26 209 142 26 209 142 26 209 142 26 208 142 26 208 141 26 208 141
26 207 141 26 207 141 25 206 140
24 131 98 24 131 98 24 132 99 24 132 99 24 132 99 24 133 99 24 133 100
24 133 100 24 134 100 24 134 100 24 135 101 24 135 101 24 135 101 24
136 102 24 136 102 24 136 102 24 137 102 24 137 103 24 137 103 25 138
103 25 138 103 25 139 104 25 139 104 25 139 104 25 140 105 25 140 105
25 140 105 25 141 106 25 141 106 25 142 106 25 142 106 25 142 107 25
143 107 25 143 107 25 143 108 25 144 108 25 144 108 25 145 109 25 145
109 25 145 109 26 146 109 26 146 110 26 147 110 26 147 110 26 147 111
26 148 111 26 148 111 26 149 112 26 149 112 26 149 112 26 150 113 26
150 113 26 151 113 26 151 114 26 151 114 26 152 114 26 152 114 26 153
115 26 153 115 26 154 115 26 154 116 26 154 116 26 155 116 26 155 117
26 156 117 27 156 117 27 157 118 27 157 118 27 157 118 27 158 119 27
158 119 27 159 119 27 159 120 27 160 120 27 160 120 27 161 121 27 161
121 27 162 121 27 162 122 27 163 122 27 163 122 27 164 123 27 164 123
27 164 123 27 165 124 27 165 124 27 166 124 27 166 125 27 167 125 27
167 125 27 168 126 27 169 126 27 169 126 27 170 127 27 170 127 27 171
127 27 171 128 27 172 128 27 172 129 27 173 129 27 173 129 27 174 130
27 174 130 27 175 130 27 176 131 27 176 131 27 177 131 28 177 132 28
178 132 28 178 132 28 179 133 28 180 133 28 180 133 28 181 133 28 181
134 28 182 134 28 183 134 28 183 135 28 184 135 28 184 135 28 185 136
28 186 136 28 186 136 28 187 137 28 188 137 28 188 137 28 189 138 28
190 138 28 190 138 28 191 138 28 191 139 28 192 139 28 193 139 28 193
140 28 194 140 28 195 140 28 195 140 28 196 141 28 197 141 28 197 141
28 198 141 28 199 142 28 199 142 28 200 142 28 200 142 28 201 143 27
202 143 27 202 143 27 203 143 27 204 143 27 204 144 27 205 144 27 205
144 27 206 144 27 206 144 27 207 144 27 207 145 27 208 145 27 208 145
27 209 145 27 209 145 27 210 145 27 210 145 27 211 145 27 211 146 27
212 146 27 212 146 27 212 146 27 213 146 27 213 146 27 213 146 27 213
146 27 214 146 27 214 146 27 214 146 27 214 146 27 214 146 27 214 146
27 214 146 27 214 146 27 214 146 27 214 146 27 214 145 26 214 145 26
214 145 26 214 145 26 214 145 26 214 145 26 214 145 26 213 144 26 213
144 26 213 144 26 212 144 26 212 144 26 212 143 26 211 143 26 211 143
26 210 143 26 210 142 26 209 142
24 132 99 24 132 99 24 133 99 24 133 99 24 133 100 24 134 100 24 134
100 24 134 100 24 135 101 24 135 101 24 135 101 24 136 102 24 136 102
24 136 102 24 137 102 25 137 103 25 138 103 25 138 103 25 138 104 25
139 104 25 139 104 25 139 104 25 140 105 25 140 105 25 141 105 25 141
106 25 141 106 25 142 106 25 142 106 25 142 107 25 143 107 25 143 107
25 144 108 25 144 108 25 144 108 26 145 109 26 145 109 26 146 109 26
146 110 26 146 110 26 147 110 26 147 110 26 148 111 26 148 111 26 148
111 26 149 112 26 149 112 26 150 112 26 150 113 26 150 113 26 151 113
26 151 114 26 152 114 26 152 114 26 152 115 26 153 115 26 153 115 26
154 116 26 154 116 27 155 116 27 155 117 27 155 117 27 156 117 27 156
118 27 157 118 27 157 118 27 158 119 27 158 119 27 159 119 27 159 120
27 159 120 27 160 120 27 160 121 27 161 121 27 161 121 27 162 122 27
162 122 27 163 122 27 163 123 27 164 123 27 164 123 27 165 124 27 165
124 27 166 124 27 166 125 27 167 125 27 167 125 27 168 126 27 168 126
27 169 126 27 169 127 27 170 127 27 170 127 28 171 128 28 171 128 28
172 128 28 172 129 28 173 129 28 173 130 28 174 130 28 175 130 28 175
131 28 176 131 28 176 131 28 177 132 28 177 132 28 178 132 28 179 133
28 179 133 28 180 133 28 180 134 28 181 134 28 182 134 28 182 135 28
183 135 28 183 135 28 184 136 28 185 136 28 185 136 28 186 137 28 187
137 28 187 137 28 188 138 28 189 138 28 189 138 28 190 138 28 191 139
28 191 139 28 192 139 28 193 140 28 193 140 28 194 140 28 195 141 28
195 141 28 196 141 28 197 141 28 197 142 28 198 142 28 199 142 28 199
143 28 200 143 28 201 143 28 201 143 28 202 144 28 203 144 28 203 144
28 204 144 28 204 144 28 205 145 28 206 145 28 206 145 28 207 145 28
208 145 28 208 146 28 209 146 28 209 146 28 210 146 28 210 146 28 211
146 28 211 147 27 212 147 27 212 147 27 213 147 27 213 147 27 214 147
27 214 147 27 215 147 27 215 147 27 215 147 27 216 148 27 216 148 27
216 148 27 217 148 27 217 148 27 217 148 27 217 148 27 217 148 27 217
148 27 218 147 27 218 147 27 218 147 27 218 147 27 218 147 27 218 147
27 218 147 27 217 147 27 217 147 27 217 147 26 217 146 26 217 146 26
216 146 26 216 146 26 216 146 26 215 145 26 215 145 26 215 145 26 214
145 26 214 144 26 213 144 26 213 144
24 133 99 24 133 99 24 133 100 24 134 100 24 134 100 24 134 101 24 135
101 24 135 101 24 135 101 24 136 102 24 136 102 25 137 102 25 137 102
25 137 103 25 138 103 25 138 103 25 138 104 25 139 104 25 139 104 25
140 104 25 140 105 25 140 105 25 141 105 25 141 106 25 141 106 25 142
106 25 142 107 25 143 107 25 143 107 25 143 107 25 144 108 26 144 108
26 144 108 26 145 109 26 145 109 26 146 109 26 146 110 26 146 110 26
147 110 26 147 111 26 148 111 26 148 111 26 148 111 26 149 112 26 149
112 26 150 112 26 150 113 26 150 113 26 151 113 26 151 114 26 152 114
26 152 114 26 153 115 27 153 115 27 153 115 27 154 116 27 154 116 27
155 116 27 155 117 27 156 117 27 156 117 27 156 118 27 157 118 27 157
118 27 158 119 27 158 119 27 159 119 27 159 120 27 160 120 27 160 120
27 161 121 27 161 121 27 161 121 27 162 122 27 162 122 27 163 122 27
163 123 27 164 123 27 164 124 27 165 124 27 165 124 27 166 125 27 166
125 28 167 125 28 167 126 28 168 126 28 168 126 28 169 127 28 169 127
28 170 127 28 170 128 28 171 128 28 171 128 28 172 129 28 173 129 28
173 129 28 174 130 28 174 130 28 175 131 28 175 131 28 176 131 28 176
132 28 177 132 28 178 132 28 178 133 28 179 133 28 179 133 28 180 134
28 181 134 28 181 134 28 182 135 28 182 135 28 183 135 28 184 136 28
184 136 28 185 136 28 186 137 28 186 137 28 187 137 28 187 138 28 188
138 28 189 138 28 189 139 28 190 139 28 191 139 28 191 140 28 192 140
28 193 140 28 193 141 28 194 141 28 195 141 28 196 142 28 196 142 28
197 142 28 198 142 28 198 143 28 199 143 28 200 143 28 200 144 28 201
144 28 202 144 28 202 144 28 203 145 28 204 145 28 205 145 28 205 145
28 206 146 28 207 146 28 207 146 28 208 146 28 209 147 28 209 147 28
210 147 28 210 147 28 211 147 28 212 148 28 212 148 28 213 148 28 213
148 28 214 148 28 215 148 28 215 148 28 216 149 28 216 149 28 217 149
28 217 149 28 217 149 28 218 149 28 218 149 27 219 149 27 219 149 27
219 149 27 220 149 27 220 149 27 220 149 27 220 149 27 220 149 27 221
149 27 221 149 27 221 149 27 221 149 27 221 149 27 221 149 27 221 149
27 221 149 27 221 149 27 221 149 27 220 148 27 220 148 27 220 148 27
220 148 27 220 148 27 219 147 26 219 147 26 219 147 26 218 147 26 218
147 26 217 146 26 217 146 26 216 146
24 133 100 24 134 100 24 134 100 24 135 101 24 135 101 24 135 101 24
136 101 24 136 102 25 136 102 25 137 102 25 137 103 25 137 103 25 138
103 25 138 103 25 139 104 25 139 104 25 139 104 25 140 105 25 140 105
25 140 105 25 141 105 25 141 106 25 142 106 25 142 106 25 142 107 25
143 107 25 143 107 26 143 107 26 144 108 26 144 108 26 145 108 26 145
109 26 145 109 26 146 109 26 146 110 26 147 110 26 147 110 26 147 111
26 148 111 26 148 111 26 149 112 26 149 112 26 149 112 26 150 113 26
150 113 26 151 113 26 151 113 26 151 114 27 152 114 27 152 114 27 153
115 27 153 115 27 154 115 27 154 116 27 154 116 27 155 116 27 155 117
27 156 117 27 156 117 27 157 118 27 157 118 27 157 118 27 158 119 27
158 119 27 159 120 27 159 120 27 160 120 27 160 121 27 161 121 27 161
121 27 162 122 27 162 122 27 162 122 27 163 123 27 163 123 28 164 123
28 164 124 28 165 124 28 165 124 28 166 125 28 166 125 28 167 125 28
167 126 28 168 126 28 168 127 28 169 127 28 169 127 28 170 128 28 170
128 28 171 128 28 172 129 28 172 129 28 173 129 28 173 130 28 174 130
28 174 130 28 175 131 28 175 131 28 176 132 28 177 132 28 177 132 28
178 133 28 178 133 28 179 133 28 179 134 28 180 134 28 181 134 28 181
135 28 182 135 28 182 135 28 183 136 28 184 136 28 184 136 28 185 137
28 186 137 28 186 138 28 187 138 28 188 138 28 188 139 28 189 139 28
190 139 28 190 140 28 191 140 28 192 140 28 192 141 28 193 141 28 194
141 28 194 142 28 195 142 28 196 142 28 197 143 28 197 143 28 198 143
28 199 143 28 199 144 28 200 144 28 201 144 28 202 145 28 202 145 28
203 145 28 204 146 28 204 146 28 205 146 28 206 146 28 207 147 28 207
147 28 208 147 28 209 147 28 209 148 28 210 148 28 211 148 28 211 148
28 212 148 28 213 149 28 213 149 28 214 149 28 215 149 28 215 149 28
216 150 28 216 150 28 217 150 28 218 150 28 218 150 28 219 150 28 219
150 28 220 151 28 220 151 28 221 151 28 221 151 28 221 151 28 222 151
28 222 151 28 223 151 28 223 151 28 223 151 28 223 151 27 224 151 27
224 151 27 224 151 27 224 151 27 224 151 27 224 151 27 224 151 27 224
151 27 224 151 27 224 150 27 224 150 27 224 150 27 224 150 27 224 150
27 223 150 27 223 150 27 223 149 27 222 149 27 222 149 27 222 149 27
221 148 27 221 148 26 220 148 26 220 148
24 134 100 24 135 101 24 135 101 24 135 101 24 136 101 25 136 102 25
136 102 25 137 102 25 137 103 25 138 103 25 138 103 25 138 103 25 139
104 25 139 104 25 139 104 25 140 105 25 140 105 25 141 105 25 141 105
25 141 106 25 142 106 25 142 106 25 142 107 26 143 107 26 143 107 26
144 108 26 144 108 26 144 108 26 145 108 26 145 109 26 146 109 26 146
109 26 146 110 26 147 110 26 147 110 26 148 111 26 148 111 26 148 111
26 149 112 26 149 112 26 150 112 26 150 113 26 150 113 27 151 113 27
151 114 27 152 114 27 152 114 27 152 115 27 153 115 27 153 115 27 154
116 27 154 116 27 155 116 27 155 117 27 155 117 27 156 117 27 156 118
27 157 118 27 157 118 27 158 119 27 158 119 27 158 119 27 159 120 27
159 120 27 160 120 27 160 121 27 161 121 27 161 121 28 162 122 28 162
122 28 163 122 28 163 123 28 164 123 28 164 123 28 165 124 28 165 124
28 165 125 28 166 125 28 166 125 28 167 126 28 167 126 28 168 126 28
168 127 28 169 127 28 169 127 28 170 128 28 171 128 28 171 129 28 172
129 28 172 129 28 173 130 28 173 130 28 174 130 28 174 131 28 175 131
28 175 131 28 176 132 28 177 132 28 177 133 28 178 133 28 178 133 28
179 134 28 179 134 28 180 134 28 181 135 28 181 135 28 182 135 28 183
136 28 183 136 28 184 137 28 184 137 28 185 137 28 186 138 29 186 138
29 187 138 29 188 139 29 188 139 29 189 139 29 190 140 29 190 140 29
191 140 29 192 141 29 192 141 29 193 141 29 194 142 29 195 142 29 195
142 29 196 143 29 197 143 29 197 143 29 198 144 29 199 144 29 200 144
29 200 145 29 201 145 29 202 145 29 203 146 29 203 146 29 204 146 29
205 147 29 206 147 29 206 147 29 207 147 29 208 148 28 209 148 28 209
148 28 210 149 28 211 149 28 211 149 28 212 149 28 213 150 28 214 150
28 214 150 28 215 150 28 216 150 28 216 151 28 217 151 28 218 151 28
218 151 28 219 151 28 220 152 28 220 152 28 221 152 28 221 152 28 222
152 28 222 152 28 223 152 28 223 152 28 224 153 28 224 153 28 225 153
28 225 153 28 225 153 28 226 153 28 226 153 28 226 153 28 227 153 28
227 153 28 227 153 28 227 153 28 227 153 28 227 153 27 228 153 27 228
153 27 228 152 27 227 152 27 227 152 27 227 152 27 227 152 27 227 152
27 227 152 27 226 151 27 226 151 27 226 151 27 226 151 27 225 151 27
225 150 27 224 150 27 224 150 27 223 149
24 135 101 25 135 101 25 136 101 25 136 102 25 137 102 25 137 102 25
137 103 25 138 103 25 138 103 25 138 103 25 139 104 25 139 104 25 139
104 25 140 105 25 140 105 25 141 105 25 141 105 25 141 106 25 142 106
26 142 106 26 143 107 26 143 107 26 143 107 26 144 108 26 144 108 26
144 108 26 145 109 26 145 109 26 146 109 26 146 109 26 146 110 26 147
110 26 147 110 26 148 111 26 148 111 26 148 111 26 149 112 26 149 112
26 150 112 27 150 113 27 150 113 27 151 113 27 151 114 27 152 114 27
152 114 27 153 115 27 153 115 27 153 115 27 154 116 27 154 116 27 155
116 27 155 117 27 156 117 27 156 117 27 156 118 27 157 118 27 157 118
27 158 119 27 158 119 27 159 119 27 159 120 27 159 120 28 160 120 28
160 121 28 161 121 28 161 121 28 162 122 28 162 122 28 163 123 28 163
123 28 164 123 28 164 124 28 165 124 28 165 124 28 166 125 28 166 125
28 167 125 28 167 126 28 168 126 28 168 126 28 169 127 28 169 127 28
170 128 28 170 128 28 171 128 28 171 129 28 172 129 28 172 129 28 173
130 28 173 130 28 174 131 28 174 131 28 175 131 28 175 132 28 176 132
28 177 132 28 177 133 29 178 133 29 178 134 29 179 134 29 179 134 29
180 135 29 181 135 29 181 135 29 182 136 29 183 136 29 183 136 29 184
137 29 184 137 29 185 138 29 186 138 29 186 138 29 187 139 29 188 139
29 188 139 29 189 140 29 190 140 29 190 141 29 191 141 29 192 141 29
192 142 29 193 142 29 194 142 29 195 143 29 195 143 29 196 143 29 197
144 29 197 144 29 198 144 29 199 145 29 200 145 29 200 145 29 201 146
29 202 146 29 203 146 29 204 147 29 204 147 29 205 147 29 206 148 29
207 148 29 207 148 29 208 149 29 209 149 29 210 149 29 210 149 29 211
150 29 212 150 29 213 150 29 214 150 29 214 151 29 215 151 29 216 151
29 216 151 29 217 152 29 218 152 29 219 152 29 219 152 29 220 153 29
221 153 28 221 153 28 222 153 28 223 153 28 223 153 28 224 154 28 225
154 28 225 154 28 226 154 28 226 154 28 227 154 28 227 154 28 228 154
28 228 154 28 228 155 28 229 155 28 229 155 28 229 155 28 230 155 28
230 155 28 230 155 28 230 155 28 231 155 28 231 154 28 231 154 28 231
154 28 231 154 28 231 154 28 231 154 28 231 154 27 231 154 27 230 154
27 230 153 27 230 153 27 230 153 27 229 153 27 229 153 27 229 152 27
228 152 27 228 152 27 227 152 27 227 151
25 136 101 25 136 102 25 137 102 25 137 102 25 137 103 25 138 103 25
138 103 25 138 103 25 139 104 25 139 104 25 140 104 25 140 105 25 140
105 25 141 105 25 141 105 25 141 106 26 142 106 26 142 106 26 143 107
26 143 107 26 143 107 26 144 108 26 144 108 26 145 108 26 145 109 26
145 109 26 146 109 26 146 109 26 147 110 26 147 110 26 147 110 26 148
111 26 148 111 26 149 111 26 149 112 27 149 112 27 150 112 27 150 113
27 151 113 27 151 113 27 151 114 27 152 114 27 152 114 27 153 115 27
153 115 27 153 115 27 154 116 27 154 116 27 155 116 27 155 117 27 156
117 27 156 117 27 156 118 27 157 118 27 157 118 27 158 119 27 158 119
28 159 119 28 159 120 28 160 120 28 160 120 28 160 121 28 161 121 28
161 122 28 162 122 28 162 122 28 163 123 28 163 123 28 164 123 28 164
124 28 165 124 28 165 124 28 166 125 28 166 125 28 167 126 28 167 126
28 168 126 28 168 127 28 169 127 28 169 127 28 170 128 28 170 128 28
171 128 28 171 129 28 172 129 28 172 130 28 173 130 29 173 130 29 174
131 29 174 131 29 175 131 29 175 132 29 176 132 29 177 133 29 177 133
29 178 133 29 178 134 29 179 134 29 179 134 29 180 135 29 181 135 29
181 136 29 182 136 29 183 136 29 183 137 29 184 137 29 184 138 29 185
138 29 186 138 29 186 139 29 187 139 29 188 139 29 188 140 29 189 140
29 190 141 29 190 141 29 191 141 29 192 142 29 192 142 29 193 142 29
194 143 29 195 143 29 195 143 29 196 144 29 197 144 29 197 145 29 198
145 29 199 145 29 200 146 29 201 146 29 201 146 29 202 147 29 203 147
29 204 147 29 204 148 29 205 148 29 206 148 29 207 149 29 208 149 29
208 149 29 209 150 29 210 150 29 211 150 29 212 150 29 212 151 29 213
151 29 214 151 29 215 152 29 216 152 29 216 152 29 217 152 29 218 153
29 219 153 29 219 153 29 220 153 29 221 154 29 222 154 29 222 154 29
223 154 29 224 155 29 224 155 29 225 155 29 226 155 29 226 155 29 227
155 29 228 156 29 228 156 29 229 156 28 229 156 28 230 156 28 230 156
28 231 156 28 231 156 28 232 156 28 232 156 28 233 156 28 233 156 28
233 156 28 233 156 28 234 156 28 234 156 28 234 156 28 234 156 28 234
156 28 234 156 28 234 156 28 234 156 28 234 156 28 234 156 28 234 155
28 234 155 28 234 155 28 233 155 27 233 155 27 233 155 27 232 154 27
232 154 27 231 154 27 231 154 27 230 153
25 137 102 25 137 102 25 137 103 25 138 103 25 138 103 25 139 103 25
139 104 25 139 104 25 140 104 25 140 105 25 140 105 25 141 105 26 141
106 26 142 106 26 142 106 26 142 106 26 143 107 26 143 107 26 143 107
26 144 108 26 144 108 26 145 108 26 145 109 26 145 109 26 146 109 26
146 109 26 147 110 26 147 110 26 147 110 26 148 111 26 148 111 27 149
111 27 149 112 27 149 112 27 150 112 27 150 113 27 151 113 27 151 113
27 151 114 27 152 114 27 152 114 27 153 115 27 153 115 27 154 115 27
154 116 27 154 116 27 155 116 27 155 117 27 156 117 27 156 117 27 157
118 27 157 118 28 157 118 28 158 119 28 158 119 28 159 119 28 159 120
28 160 120 28 160 121 28 161 121 28 161 121 28 161 122 28 162 122 28
162 122 28 163 123 28 163 123 28 164 123 28 164 124 28 165 124 28 165
125 28 166 125 28 166 125 28 167 126 28 167 126 28 168 126 28 168 127
28 169 127 28 169 127 28 170 128 29 170 128 29 171 129 29 171 129 29
172 129 29 172 130 29 173 130 29 173 130 29 174 131 29 174 131 29 175
132 29 175 132 29 176 132 29 177 133 29 177 133 29 178 134 29 178 134
29 179 134 29 179 135 29 180 135 29 181 135 29 181 136 29 182 136 29
182 137 29 183 137 29 184 137 29 184 138 29 185 138 29 186 139 29 186
139 29 187 139 29 188 140 29 188 140 29 189 140 29 190 141 29 190 141
29 191 142 29 192 142 29 192 142 29 193 143 29 194 143 29 194 144 29
195 144 29 196 144 29 197 145 29 197 145 29 198 145 29 199 146 29 200
146 29 200 146 29 201 147 29 202 147 29 203 148 29 204 148 29 204 148
29 205 149 29 206 149 29 207 149 29 208 150 29 208 150 29 209 150 29
210 151 29 211 151 29 212 151 29 213 152 29 213 152 29 214 152 29 215
152 29 216 153 29 217 153 29 217 153 29 218 154 29 219 154 29 220 154
29 221 154 29 222 155 29 222 155 29 223 155 29 224 155 29 225 156 29
225 156 29 226 156 29 227 156 29 228 156 29 228 157 29 229 157 29 230
157 29 230 157 29 231 157 29 232 157 29 232 158 29 233 158 29 233 158
29 234 158 29 234 158 29 235 158 29 235 158 29 236 158 28 236 158 28
236 158 28 237 158 28 237 158 28 237 158 28 237 158 28 237 158 28 238
158 28 238 158 28 238 158 28 238 158 28 238 158 28 238 157 28 237 157
28 237 157 28 237 157 28 237 157 28 237 157 28 236 156 28 236 156 28
236 156 27 235 156 27 235 155 27 234 155
25 138 103 25 138 103 25 138 103 25 139 103 25 139 104 25 139 104 25
140 104 25 140 105 25 140 105 26 141 105 26 141 106 26 142 106 26 142
106 26 142 106 26 143 107 26 143 107 26 144 107 26 144 108 26 144 108
26 145 108 26 145 109 26 146 109 26 146 109 26 146 109 26 147 110 26
147 110 26 148 110 27 148 111 27 148 111 27 149 111 27 149 112 27 150
112 27 150 112 27 150 113 27 151 113 27 151 113 27 152 114 27 152 114
27 152 114 27 153 115 27 153 115 27 154 115 27 154 116 27 155 116 27
155 116 27 155 117 27 156 117 28 156 117 28 157 118 28 157 118 28 158
118 28 158 119 28 158 119 28 159 120 28 159 120 28 160 120 28 160 121
28 161 121 28 161 121 28 162 122 28 162 122 28 162 122 28 163 123 28
163 123 28 164 123 28 164 124 28 165 124 28 165 125 28 166 125 28 166
125 28 167 126 28 167 126 29 168 126 29 168 127 29 169 127 29 169 128
29 170 128 29 170 128 29 171 129 29 171 129 29 172 129 29 172 130 29
173 130 29 173 131 29 174 131 29 174 131 29 175 132 29 175 132 29 176
133 29 177 133 29 177 133 29 178 134 29 178 134 29 179 134 29 179 135
29 180 135 29 181 136 29 181 136 29 182 136 29 182 137 29 183 137 29
184 138 29 184 138 29 185 138 29 186 139 29 186 139 29 187 140 29 187
140 29 188 140 29 189 141 29 189 141 29 190 142 29 191 142 29 192 142
29 192 143 29 193 143 29 194 143 29 194 144 29 195 144 29 196 145 30
197 145 30 197 145 30 198 146 30 199 146 30 200 147 30 200 147 30 201
147 30 202 148 30 203 148 30 203 148 30 204 149 30 205 149 30 206 149
30 207 150 30 208 150 30 208 151 30 209 151 30 210 151 30 211 152 30
212 152 30 213 152 29 213 153 29 214 153 29 215 153 29 216 154 29 217
154 29 218 154 29 219 154 29 219 155 29 220 155 29 221 155 29 222 156
29 223 156 29 224 156 29 224 156 29 225 157 29 226 157 29 227 157 29
228 157 29 228 158 29 229 158 29 230 158 29 231 158 29 231 158 29 232
159 29 233 159 29 234 159 29 234 159 29 235 159 29 235 159 29 236 159
29 237 160 29 237 160 29 238 160 29 238 160 29 239 160 29 239 160 29
239 160 29 240 160 29 240 160 29 240 160 29 240 160 28 241 160 28 241
160 28 241 160 28 241 160 28 241 160 28 241 159 28 241 159 28 241 159
28 241 159 28 241 159 28 240 159 28 240 159 28 240 158 28 240 158 28
239 158 28 239 158 28 238 157 28 238 157
25 138 103 25 139 103 25 139 104 25 139 104 25 140 104 25 140 105 26
141 105 26 141 105 26 141 106 26 142 106 26 142 106 26 142 106 26 143
107 26 143 107 26 144 107 26 144 108 26 144 108 26 145 108 26 145 109
26 146 109 26 146 109 26 146 109 26 147 110 27 147 110 27 148 110 27
148 111 27 148 111 27 149 111 27 149 112 27 150 112 27 150 112 27 150
113 27 151 113 27 151 113 27 152 114 27 152 114 27 152 114 27 153 115
27 153 115 27 154 115 27 154 116 27 155 116 28 155 116 28 155 117 28
156 117 28 156 117 28 157 118 28 157 118 28 158 118 28 158 119 28 158
119 28 159 120 28 159 120 28 160 120 28 160 121 28 161 121 28 161 121
28 162 122 28 162 122 28 163 122 28 163 123 28 163 123 28 164 124 28
164 124 28 165 124 29 165 125 29 166 125 29 166 125 29 167 126 29 167
126 29 168 127 29 168 127 29 169 127 29 169 128 29 170 128 29 170 128
29 171 129 29 171 129 29 172 130 29 172 130 29 173 130 29 173 131 29
174 131 29 174 131 29 175 132 29 175 132 29 176 133 29 177 133 29 177
133 29 178 134 29 178 134 29 179 135 29 179 135 29 180 135 29 180 136
29 181 136 29 182 137 29 182 137 29 183 137 29 184 138 29 184 138 30
185 139 30 185 139 30 186 139 30 187 140 30 187 140 30 188 141 30 189
141 30 189 141 30 190 142 30 191 142 30 191 143 30 192 143 30 193 143
30 193 144 30 194 144 30 195 145 30 196 145 30 196 145 30 197 146 30
198 146 30 199 147 30 199 147 30 200 147 30 201 148 30 202 148 30 203
148 30 203 149 30 204 149 30 205 150 30 206 150 30 207 150 30 207 151
30 208 151 30 209 151 30 210 152 30 211 152 30 212 153 30 213 153 30
213 153 30 214 154 30 215 154 30 216 154 30 217 155 30 218 155 30 219
155 30 220 156 30 220 156 30 221 156 30 222 156 30 223 157 30 224 157
30 225 157 30 226 158 30 227 158 30 227 158 30 228 158 30 229 159 30
230 159 29 231 159 29 232 159 29 232 160 29 233 160 29 234 160 29 235
160 29 235 160 29 236 161 29 237 161 29 237 161 29 238 161 29 239 161
29 239 161 29 240 161 29 240 161 29 241 162 29 241 162 29 242 162 29
242 162 29 243 162 29 243 162 29 243 162 29 244 162 29 244 162 29 244
162 29 244 162 29 244 162 29 244 161 29 244 161 28 244 161 28 244 161
28 244 161 28 244 161 28 244 161 28 244 160 28 243 160 28 243 160 28
243 160 28 242 160 28 242 159 28 241 159
25 139 104 25 139 104 25 140 104 26 140 105 26 141 105 26 141 105 26
141 105 26 142 106 26 142 106 26 143 106 26 143 107 26 143 107 26 144
107 26 144 108 26 144 108 26 145 108 26 145 109 26 146 109 26 146 109
26 146 109 27 147 110 27 147 110 27 148 110 27 148 111 27 148 111 27
149 111 27 149 112 27 150 112 27 150 112 27 150 113 27 151 113 27 151
113 27 152 114 27 152 114 27 153 114 27 153 115 27 153 115 27 154 115
28 154 116 28 155 116 28 155 116 28 156 117 28 156 117 28 156 117 28
157 118 28 157 118 28 158 118 28 158 119 28 159 119 28 159 120 28 159
120 28 160 120 28 160 121 28 161 121 28 161 121 28 162 122 28 162 122
28 163 122 28 163 123 28 163 123 29 164 124 29 164 124 29 165 124 29
165 125 29 166 125 29 166 125 29 167 126 29 167 126 29 168 127 29 168
127 29 169 127 29 169 128 29 170 128 29 170 128 29 171 129 29 171 129
29 172 130 29 172 130 29 173 130 29 173 131 29 174 131 29 174 132 29
175 132 29 175 132 29 176 133 29 176 133 29 177 134 29 178 134 29 178
134 29 179 135 30 179 135 30 180 136 30 180 136 30 181 136 30 182 137
30 182 137 30 183 138 30 183 138 30 184 138 30 185 139 30 185 139 30
186 140 30 187 140 30 187 140 30 188 141 30 188 141 30 189 142 30 190
142 30 190 142 30 191 143 30 192 143 30 193 144 30 193 144 30 194 144
30 195 145 30 195 145 30 196 146 30 197 146 30 198 146 30 198 147 30
199 147 30 200 148 30 201 148 30 201 148 30 202 149 30 203 149 30 204
150 30 205 150 30 205 150 30 206 151 30 207 151 30 208 152 30 209 152
30 210 152 30 211 153 30 211 153 30 212 153 30 213 154 30 214 154 30
215 155 30 216 155 30 217 155 30 218 156 30 219 156 30 219 156 30 220
157 30 221 157 30 222 157 30 223 158 30 224 158 30 225 158 30 226 159
30 227 159 30 228 159 30 229 159 30 229 160 30 230 160 30 231 160 30
232 160 30 233 161 30 234 161 30 235 161 30 235 161 30 236 162 30 237
162 30 238 162 30 239 162 30 239 162 29 240 163 29 241 163 29 241 163
29 242 163 29 243 163 29 243 163 29 244 163 29 244 163 29 245 163 29
245 164 29 246 164 29 246 164 29 247 164 29 247 164 29 247 164 29 247
164 29 248 163 29 248 163 29 248 163 29 248 163 29 248 163 29 248 163
29 248 163 29 248 163 29 247 163 28 247 162 28 247 162 28 247 162 28
246 162 28 246 161 28 246 161 28 245 161
26 140 104 26 140 105 26 141 105 26 141 105 26 141 105 26 142 106 26
142 106 26 143 106 26 143 107 26 143 107 26 144 107 26 144 108 26 145
108 26 145 108 26 145 109 26 146 109 27 146 109 27 147 109 27 147 110
27 147 110 27 148 110 27 148 111 27 149 111 27 149 111 27 149 112 27
150 112 27 150 112 27 151 113 27 151 113 27 151 113 27 152 114 27 152
114 27 153 114 27 153 115 28 153 115 28 154 115 28 154 116 28 155 116
28 155 116 28 156 117 28 156 117 28 156 117 28 157 118 28 157 118 28
158 118 28 158 119 28 159 119 28 159 120 28 159 120 28 160 120 28 160
121 28 161 121 28 161 121 28 162 122 28 162 122 29 163 122 29 163 123
29 164 123 29 164 124 29 164 124 29 165 124 29 165 125 29 166 125 29
166 125 29 167 126 29 167 126 29 168 127 29 168 127 29 169 127 29 169
128 29 170 128 29 170 129 29 171 129 29 171 129 29 172 130 29 172 130
29 173 130 29 173 131 29 174 131 29 174 132 29 175 132 29 175 132 30
176 133 30 176 133 30 177 134 30 177 134 30 178 134 30 179 135 30 179
135 30 180 136 30 180 136 30 181 136 30 181 137 30 182 137 30 183 138
30 183 138 30 184 139 30 184 139 30 185 139 30 186 140 30 186 140 30
187 141 30 188 141 30 188 141 30 189 142 30 190 142 30 190 143 30 191
143 30 192 143 30 192 144 30 193 144 30 194 145 30 194 145 30 195 146
30 196 146 30 197 146 30 197 147 30 198 147 30 199 148 30 200 148 30
200 148 30 201 149 30 202 149 30 203 150 30 204 150 30 204 150 30 205
151 30 206 151 30 207 152 30 208 152 30 209 152 30 209 153 30 210 153
30 211 154 30 212 154 30 213 154 30 214 155 30 215 155 30 216 155 30
217 156 30 217 156 30 218 157 30 219 157 30 220 157 30 221 158 30 222
158 30 223 158 30 224 159 30 225 159 30 226 159 30 227 160 30 228 160
30 229 160 30 230 161 30 231 161 30 231 161 30 232 161 30 233 162 30
234 162 30 235 162 30 236 163 30 237 163 30 238 163 30 239 163 30 239
163 30 240 164 30 241 164 30 242 164 30 243 164 30 243 164 30 244 165
30 245 165 30 245 165 30 246 165 30 247 165 30 247 165 29 248 165 29
248 165 29 249 165 29 249 165 29 250 165 29 250 165 29 250 165 29 251
165 29 251 165 29 251 165 29 251 165 29 251 165 29 251 165 29 251 165
29 251 165 29 251 165 29 251 164 29 251 164 29 251 164 29 250 164 29
250 164 28 250 163 28 249 163 28 249 163
26 141 105 26 141 105 26 141 105 26 142 106 26 142 106 26 143 106 26
143 107 26 143 107 26 144 107 26 144 108 26 145 108 26 145 108 26 145
108 27 146 109 27 146 109 27 147 109 27 147 110 27 147 110 27 148 110
27 148 111 27 149 111 27 149 111 27 149 112 27 150 112 27 150 112 27
151 113 27 151 113 27 151 113 27 152 114 27 152 114 28 153 114 28 153
115 28 154 115 28 154 115 28 154 116 28 155 116 28 155 116 28 156 117
28 156 117 28 156 117 28 157 118 28 157 118 28 158 118 28 158 119 28
159 119 28 159 120 28 160 120 28 160 120 28 160 121 28 161 121 29 161
121 29 162 122 29 162 122 29 163 122 29 163 123 29 164 123 29 164 124
29 164 124 29 165 124 29 165 125 29 166 125 29 166 125 29 167 126 29
167 126 29 168 127 29 168 127 29 169 127 29 169 128 29 170 128 29 170
129 29 171 129 29 171 129 29 172 130 29 172 130 29 173 130 30 173 131
30 174 131 30 174 132 30 175 132 30 175 132 30 176 133 30 176 133 30
177 134 30 177 134 30 178 134 30 178 135 30 179 135 30 180 136 30 180
136 30 181 137 30 181 137 30 182 137 30 182 138 30 183 138 30 184 139
30 184 139 30 185 139 30 186 140 30 186 140 30 187 141 30 187 141 30
188 142 30 189 142 30 189 142 30 190 143 30 191 143 30 191 144 30 192
144 30 193 144 30 193 145 30 194 145 30 195 146 30 196 146 30 196 147
30 197 147 30 198 147 30 199 148 30 199 148 30 200 149 30 201 149 30
202 149 30 202 150 30 203 150 30 204 151 30 205 151 30 206 152 30 206
152 30 207 152 30 208 153 30 209 153 30 210 154 31 211 154 31 212 154
31 213 155 31 213 155 30 214 156 30 215 156 30 216 156 30 217 157 30
218 157 30 219 157 30 220 158 30 221 158 30 222 159 30 223 159 30 224
159 30 225 160 30 226 160 30 227 160 30 228 161 30 229 161 30 230 161
30 230 162 30 231 162 30 232 162 30 233 163 30 234 163 30 235 163 30
236 164 30 237 164 30 238 164 30 239 164 30 240 165 30 241 165 30 242
165 30 243 165 30 243 165 30 244 166 30 245 166 30 246 166 30 247 166
30 247 166 30 248 167 30 249 167 30 249 167 30 250 167 30 251 167 30
251 167 30 252 167 30 252 167 30 253 167 30 253 167 29 253 167 29 254
167 29 254 167 29 254 167 29 254 167 29 255 167 29 255 167 29 255 167
29 255 167 29 255 167 29 255 166 29 254 166 29 254 166 29 254 166 29
254 166 29 253 165 29 253 165 29 252 165
26 142 105 26 142 106 26 142 106 26 143 106 26 143 107 26 143 107 26
144 107 26 144 108 26 145 108 26 145 108 27 145 108 27 146 109 27 146
109 27 147 109 27 147 110 27 147 110 27 148 110 27 148 111 27 149 111
27 149 111 27 149 112 27 150 112 27 150 112 27 151 113 27 151 113 27
151 113 28 152 114 28 152 114 28 153 114 28 153 115 28 154 115 28 154
115 28 154 116 28 155 116 28 155 116 28 156 117 28 156 117 28 157 117
28 157 118 28 157 118 28 158 118 28 158 119 28 159 119 28 159 120 28
160 120 29 160 120 29 160 121 29 161 121 29 161 121 29 162 122 29 162
122 29 163 122 29 163 123 29 164 123 29 164 124 29 164 124 29 165 124
29 165 125 29 166 125 29 166 125 29 167 126 29 167 126 29 168 127 29
168 127 29 169 127 29 169 128 29 170 128 29 170 129 30 171 129 30 171
129 30 172 130 30 172 130 30 173 130 30 173 131 30 174 131 30 174 132
30 175 132 30 175 133 30 176 133 30 176 133 30 177 134 30 177 134 30
178 135 30 178 135 30 179 135 30 179 136 30 180 136 30 181 137 30 181
137 30 182 137 30 182 138 30 183 138 30 184 139 30 184 139 30 185 140
30 185 140 30 186 140 30 187 141 30 187 141 30 188 142 30 188 142 30
189 142 30 190 143 30 190 143 30 191 144 30 192 144 31 192 145 31 193
145 31 194 145 31 195 146 31 195 146 31 196 147 31 197 147 31 197 148
31 198 148 31 199 148 31 200 149 31 200 149 31 201 150 31 202 150 31
203 151 31 204 151 31 204 151 31 205 152 31 206 152 31 207 153 31 208
153 31 209 154 31 209 154 31 210 154 31 211 155 31 212 155 31 213 156
31 214 156 31 215 156 31 216 157 31 217 157 31 218 158 31 218 158 31
219 158 31 220 159 31 221 159 31 222 160 31 223 160 31 224 160 31 225
161 31 226 161 31 227 161 31 228 162 31 229 162 31 230 162 31 231 163
31 232 163 31 233 163 31 234 164 31 235 164 31 236 164 31 237 165 30
238 165 30 239 165 30 240 166 30 241 166 30 242 166 30 243 166 30 244
167 30 245 167 30 246 167 30 247 167 30 247 167 30 248 168 30 249 168
30 250 168 30 251 168 30 251 168 30 252 168 30 253 169 30 253 169 30
254 169 30 255 169 30 255 169 30 255 169 30 255 169 30 255 169 30 255
169 30 255 169 30 255 169 30 255 169 30 255 169 29 255 169 29 255 169
29 255 169 29 255 168 29 255 168 29 255 168 29 255 168 29 255 168 29
255 167 29 255 167 29 255 167 29 255 167
26 142 106 26 143 106 26 143 107 26 143 107 26 144 107 26 144 107 27
145 108 27 145 108 27 145 108 27 146 109 27 146 109 27 147 109 27 147
110 27 147 110 27 148 110 27 148 111 27 149 111 27 149 111 27 149 112
27 150 112 27 150 112 27 151 113 27 151 113 28 152 113 28 152 114 28
152 114 28 153 114 28 153 115 28 154 115 28 154 115 28 154 116 28 155
116 28 155 116 28 156 117 28 156 117 28 157 117 28 157 118 28 157 118
28 158 118 28 158 119 28 159 119 29 159 119 29 160 120 29 160 120 29
160 121 29 161 121 29 161 121 29 162 122 29 162 122 29 163 122 29 163
123 29 164 123 29 164 124 29 164 124 29 165 124 29 165 125 29 166 125
29 166 125 29 167 126 29 167 126 29 168 127 29 168 127 29 169 127 30
169 128 30 170 128 30 170 129 30 171 129 30 171 129 30 172 130 30 172
130 30 173 130 30 173 131 30 174 131 30 174 132 30 175 132 30 175 133
30 176 133 30 176 133 30 177 134 30 177 134 30 178 135 30 178 135 30
179 135 30 179 136 30 180 136 30 180 137 30 181 137 30 182 137 30 182
138 30 183 138 30 183 139 30 184 139 30 185 140 30 185 140 31 186 140
31 186 141 31 187 141 31 188 142 31 188 142 31 189 143 31 189 143 31
190 143 31 191 144 31 191 144 31 192 145 31 193 145 31 193 146 31 194
146 31 195 146 31 196 147 31 196 147 31 197 148 31 198 148 31 198 149
31 199 149 31 200 150 31 201 150 31 202 150 31 202 151 31 203 151 31
204 152 31 205 152 31 206 153 31 206 153 31 207 153 31 208 154 31 209
154 31 210 155 31 211 155 31 212 156 31 212 156 31 213 156 31 214 157
31 215 157 31 216 158 31 217 158 31 218 158 31 219 159 31 220 159 31
221 160 31 222 160 31 223 160 31 224 161 31 225 161 31 226 162 31 227
162 31 228 162 31 229 163 31 230 163 31 231 163 31 232 164 31 233 164
31 234 165 31 235 165 31 236 165 31 237 166 31 238 166 31 239 166 31
240 166 31 241 167 31 242 167 31 243 167 31 244 168 31 245 168 31 246
168 31 247 168 31 248 169 31 249 169 31 250 169 30 251 169 30 251 170
30 252 170 30 253 170 30 254 170 30 255 170 30 255 170 30 255 170 30
255 171 30 255 171 30 255 171 30 255 171 30 255 171 30 255 171 30 255
171 30 255 171 30 255 171 30 255 171 30 255 171 30 255 171 30 255 171
30 255 170 30 255 170 30 255 170 29 255 170 29 255 170 29 255 170 29
255 169 29 255 169 29 255 169 29 255 169
26 143 107 26 143 107 26 144 107 27 144 107 27 145 108 27 145 108 27
145 108 27 146 109 27 146 109 27 147 109 27 147 110 27 147 110 27 148
110 27 148 111 27 149 111 27 149 111 27 149 112 27 150 112 27 150 112
28 151 113 28 151 113 28 152 113 28 152 114 28 152 114 28 153 114 28
153 115 28 154 115 28 154 115 28 154 116 28 155 116 28 155 116 28 156
117 28 156 117 28 157 117 28 157 118 28 157 118 28 158 118 29 158 119
29 159 119 29 159 119 29 160 120 29 160 120 29 160 121 29 161 121 29
161 121 29 162 122 29 162 122 29 163 122 29 163 123 29 164 123 29 164
123 29 165 124 29 165 124 29 165 125 29 166 125 29 166 125 29 167 126
30 167 126 30 168 127 30 168 127 30 169 127 30 169 128 30 170 128 30
170 128 30 171 129 30 171 129 30 172 130 30 172 130 30 173 130 30 173
131 30 174 131 30 174 132 30 175 132 30 175 132 30 176 133 30 176 133
30 177 134 30 177 134 30 178 135 30 178 135 30 179 135 30 179 136 30
180 136 30 180 137 30 181 137 31 181 137 31 182 138 31 183 138 31 183
139 31 184 139 31 184 140 31 185 140 31 186 140 31 186 141 31 187 141
31 187 142 31 188 142 31 189 143 31 189 143 31 190 144 31 190 144 31
191 144 31 192 145 31 192 145 31 193 146 31 194 146 31 195 147 31 195
147 31 196 147 31 197 148 31 197 148 31 198 149 31 199 149 31 200 150
31 200 150 31 201 151 31 202 151 31 203 151 31 203 152 31 204 152 31
205 153 31 206 153 31 207 154 31 208 154 31 208 155 31 209 155 31 210
155 31 211 156 31 212 156 31 213 157 31 214 157 31 215 158 31 215 158
31 216 158 31 217 159 31 218 159 31 219 160 31 220 160 31 221 160 31
222 161 31 223 161 31 224 162 31 225 162 31 226 162 31 227 163 31 228
163 31 229 164 31 230 164 31 231 164 31 232 165 31 233 165 31 235 166
31 236 166 31 237 166 31 238 167 31 239 167 31 240 167 31 241 168 31
242 168 31 243 168 31 244 169 31 245 169 31 246 169 21 209 158 21 210
159 21 211 159 21 213 159 21 214 159 21 215 160 21 216 160 31 254 171
31 255 171 31 255 172 31 255 172 31 255 172 31 255 172 30 255 172 30
255 172 30 255 172 30 255 172 30 255 173 30 255 173 30 255 173 30 255
173 30 255 173 30 255 173 30 255 173 30 255 173 30 255 172 30 255 172
30 255 172 30 255 172 30 255 172 30 255 172 30 255 172 30 255 172 30
255 171 29 255 171 29 255 171 29 255 171
27 144 107 27 144 107 27 145 108 27 145 108 27 145 108 27 146 109 27
146 109 27 147 109 27 147 110 27 147 110 27 148 110 27 148 111 27 149
111 27 149 111 27 150 111 27 150 112 28 150 112 28 151 112 28 151 113
28 152 113 28 152 113 28 152 114 28 153 114 28 153 114 28 154 115 28
154 115 28 154 116 28 155 116 28 155 116 28 156 117 28 156 117 28 157
117 28 157 118 29 157 118 29 158 118 29 158 119 29 159 119 29 159 119
29 160 120 29 160 120 29 161 120 29 161 121 29 161 121 29 162 122 29
162 122 29 163 122 29 163 123 29 164 123 29 164 123 29 165 124 29 165
124 29 165 125 30 166 125 30 166 125 30 167 126 30 167 126 30 168 126
30 168 127 30 169 127 30 169 128 30 170 128 30 170 128 30 171 129 30
171 129 30 172 130 30 172 130 30 172 130 30 173 131 30 173 131 30 174
132 30 174 132 30 175 132 30 175 133 30 176 133 30 177 134 30 177 134
30 178 135 30 178 135 31 179 135 31 179 136 31 180 136 31 180 137 31
181 137 31 181 137 31 182 138 31 182 138 31 183 139 31 184 139 31 184
140 31 185 140 31 185 140 31 186 141 31 186 141 31 187 142 31 188 142
31 188 143 31 189 143 31 190 144 31 190 144 31 191 144 31 191 145 31
192 145 31 193 146 31 193 146 31 194 147 31 195 147 31 196 148 31 196
148 31 197 148 31 198 149 31 198 149 31 199 150 31 200 150 31 201 151
31 201 151 31 202 152 31 203 152 31 204 152 31 204 153 31 205 153 31
206 154 31 207 154 31 208 155 31 209 155 31 209 156 31 210 156 31 211
156 31 212 157 31 213 157 31 214 158 31 215 158 31 216 159 31 217 159
31 218 160 31 219 160 31 220 160 31 220 161 31 221 161 31 222 162 31
223 162 31 224 163 31 225 163 31 227 163 31 228 164 31 229 164 31 230
165 31 231 165 31 232 165 31 233 166 31 234 166 31 235 167 31 236 167
31 237 167 31 238 168 31 239 168 31 240 168 21 202 157 21 204 158 21
205 158 21 206 158 21 207 159 21 208 159 21 210 159 21 211 160 21 212
160 21 213 160 21 214 161 21 215 161 21 217 161 21 218 161 21 219 162
21 220 162 21 221 162 21 222 162 21 223 163 31 255 174 31 255 174 31
255 174 31 255 174 31 255 174 31 255 174 31 255 174 31 255 174 30 255
174 30 255 174 30 255 174 30 255 174 30 255 174 30 255 174 30 255 174
30 255 174 30 255 174 30 255 174 30 255 174 30 255 174 30 255 173 30
255 173 30 255 173 30 255 173 30 255 173
27 145 108 27 145 108 27 145 108 27 146 109 27 146 109 27 147 109 27
147 109 27 147 110 27 148 110 27 148 110 27 149 111 27 149 111 27 150
111 28 150 112 28 150 112 28 151 112 28 151 113 28 152 113 28 152 113
28 152 114 28 153 114 28 153 114 28 154 115 28 154 115 28 155 115 28
155 116 28 155 116 28 156 116 28 156 117 29 157 117 29 157 118 29 157
118 29 158 118 29 158 119 29 159 119 29 159 119 29 160 120 29 160 120
29 161 120 29 161 121 29 161 121 29 162 121 29 162 122 29 163 122 29
163 123 29 164 123 29 164 123 29 165 124 30 165 124 30 165 124 30 166
125 30 166 125 30 167 126 30 167 126 30 168 126 30 168 127 30 169 127
30 169 128 30 170 128 30 170 128 30 171 129 30 171 129 30 171 130 30
172 130 30 172 130 30 173 131 30 173 131 30 174 132 30 174 132 30 175
132 30 175 133 31 176 133 31 176 134 31 177 134 31 177 134 31 178 135
31 178 135 31 179 136 31 180 136 31 180 137 31 181 137 31 181 137 31
182 138 31 182 138 31 183 139 31 183 139 31 184 140 31 184 140 31 185
140 31 186 141 31 186 141 31 187 142 31 187 142 31 188 143 31 189 143
31 189 144 31 190 144 31 191 144 31 191 145 31 192 145 31 192 146 31
193 146 31 194 147 31 194 147 31 195 148 31 196 148 31 197 149 31 197
149 31 198 149 31 199 150 32 199 150 32 200 151 32 201 151 32 202 152
32 202 152 32 203 153 32 204 153 32 205 154 32 206 154 32 206 154 32
207 155 32 208 155 32 209 156 32 210 156 32 211 157 32 211 157 32 212
158 32 213 158 32 214 158 32 215 159 32 216 159 32 217 160 32 218 160
32 219 161 32 220 161 32 221 162 32 222 162 32 223 162 32 224 163 32
225 163 32 226 164 32 227 164 32 228 165 32 229 165 32 230 165 32 231
166 32 232 166 32 233 167 32 234 167 32 235 167 32 236 168 32 238 168
21 199 157 21 200 157 21 201 158 21 202 158 21 204 158 21 205 159 21
206 159 21 207 160 21 209 160 21 210 160 21 211 161 21 212 161 21 214
161 21 215 162 21 216 162 21 217 162 21 218 163 21 219 163 21 221 163
21 222 164 21 223 164 21 224 164 21 225 164 21 226 164 21 227 165 21
228 165 31 255 176 31 255 176 31 255 176 31 255 176 31 255 176 31 255
176 31 255 176 31 255 176 31 255 176 31 255 176 30 255 176 30 255 176
30 255 176 30 255 176 30 255 176 30 255 176 30 255 176 30 255 175 30
255 175 30 255 175 30 255 175 30 255 174
27 145 108 27 146 108 27 146 109 27 147 109 27 147 109 27 147 110 27
148 110 27 148 110 27 149 111 27 149 111 28 150 111 28 150 112 28 150
112 28 151 112 28 151 113 28 152 113 28 152 113 28 152 114 28 153 114
28 153 114 28 154 115 28 154 115 28 155 115 28 155 116 28 155 116 28
156 116 29 156 117 29 157 117 29 157 117 29 158 118 29 158 118 29 158
119 29 159 119 29 159 119 29 160 120 29 160 120 29 161 120 29 161 121
29 161 121 29 162 121 29 162 122 29 163 122 29 163 123 29 164 123 30
164 123 30 165 124 30 165 124 30 165 124 30 166 125 30 166 125 30 167
126 30 167 126 30 168 126 30 168 127 30 169 127 30 169 128 30 170 128
30 170 128 30 170 129 30 171 129 30 171 129 30 172 130 30 172 130 30
173 131 30 173 131 31 174 132 31 174 132 31 175 132 31 175 133 31 176
133 31 176 134 31 177 134 31 177 134 31 178 135 31 178 135 31 179 136
31 179 136 31 180 137 31 180 137 31 181 137 31 182 138 31 182 138 31
183 139 31 183 139 31 184 140 31 184 140 31 185 140 31 185 141 31 186
141 31 187 142 31 187 142 31 188 143 31 188 143 31 189 144 31 190 144
31 190 144 31 191 145 31 191 145 32 192 146 32 193 146 32 193 147 32
194 147 32 195 148 32 195 148 32 196 149 32 197 149 32 197 149 32 198
150 32 199 150 32 200 151 32 200 151 32 201 152 32 202 152 32 203 153
32 203 153 32 204 154 32 205 154 32 206 155 32 207 155 32 207 155 32
208 156 32 209 156 32 210 157 32 211 157 32 212 158 32 212 158 32 213
159 32 214 159 32 215 160 32 216 160 32 217 161 32 218 161 32 219 161
32 220 162 32 221 162 32 222 163 32 223 163 32 224 164 32 225 164 32
226 165 32 227 165 32 228 165 32 229 166 32 230 166 32 231 167 32 232
167 32 233 168 32 234 168 21 195 156 21 196 157 21 197 157 21 198 158
21 200 158 21 201 158 21 202 159 21 203 159 21 205 160 21 206 160 21
207 161 21 209 161 21 210 161 21 211 162 21 212 162 21 214 162 21 215
163 21 216 163 21 217 163 21 219 164 21 220 164 21 221 164 21 222 165
21 223 165 21 225 165 21 226 166 21 227 166 21 228 166 21 229 166 21
230 166 21 231 167 21 232 167 31 255 178 31 255 178 31 255 178 31 255
178 31 255 178 31 255 178 31 255 178 31 255 178 31 255 178 31 255 178
31 255 178 31 255 178 31 255 178 30 255 178 30 255 177 30 255 177 30
255 177 30 255 177 30 255 177 30 255 176
27 146 109 27 147 109 27 147 109 27 147 110 27 148 110 27 148 110 27
149 111 28 149 111 28 150 111 28 150 112 28 150 112 28 151 112 28 151
113 28 152 113 28 152 113 28 152 114 28 153 114 28 153 114 28 154 115
28 154 115 28 155 115 28 155 116 29 155 116 29 156 116 29 156 117 29
157 117 29 157 117 29 158 118 29 158 118 29 158 118 29 159 119 29 159
119 29 160 119 29 160 120 29 161 120 29 161 121 29 161 121 29 162 121
29 162 122 29 163 122 30 163 122 30 164 123 30 164 123 30 165 124 30
165 124 30 165 124 30 166 125 30 166 125 30 167 125 30 167 126 30 168
126 30 168 127 30 169 127 30 169 127 30 170 128 30 170 128 30 170 129
30 171 129 30 171 129 30 172 130 31 172 130 31 173 131 31 173 131 31
174 131 31 174 132 31 175 132 31 175 133 31 176 133 31 176 134 31 177
134 31 177 134 31 178 135 31 178 135 31 179 136 31 179 136 31 180 136
31 180 137 31 181 137 31 181 138 31 182 138 31 182 139 31 183 139 31
184 139 31 184 140 31 185 140 31 185 141 31 186 141 31 186 142 32 187
142 32 188 143 32 188 143 32 189 144 32 189 144 32 190 144 32 191 145
32 191 145 32 192 146 32 192 146 32 193 147 32 194 147 32 194 148 32
195 148 32 196 149 32 196 149 32 197 149 32 198 150 32 198 150 32 199
151 32 200 151 32 201 152 32 201 152 32 202 153 32 203 153 32 204 154
32 204 154 32 205 155 32 206 155 32 207 156 32 208 156 32 208 156 32
209 157 32 210 157 32 211 158 32 212 158 32 213 159 32 213 159 32 214
160 32 215 160 32 216 161 32 217 161 32 218 162 32 219 162 32 220 163
32 221 163 32 222 163 32 223 164 32 224 164 32 225 165 32 226 165 32
227 166 32 228 166 32 229 167 32 230 167 32 231 167 32 232 168 32 233
168 21 193 157 21 194 157 21 195 157 21 197 158 21 198 158 21 199 159
21 201 159 21 202 160 21 203 160 21 205 161 21 206 161 21 207 161 21
208 162 21 210 162 21 211 163 21 212 163 21 214 163 21 215 164 21 216
164 21 218 165 21 219 165 21 220 165 21 221 166 21 223 166 21 224 166
21 225 166 21 226 167 21 227 167 21 229 167 21 230 167 21 231 168 21
232 168 21 233 168 21 234 168 21 235 169 21 236 169 31 255 180 31 255
180 31 255 180 31 255 180 31 255 180 31 255 180 31 255 180 31 255 180
31 255 180 31 255 180 31 255 179 31 255 179 31 255 179 31 255 179 31
255 179 30 255 179 30 255 179 30 255 178
27 147 109 27 147 110 27 148 110 27 148 110 28 149 111 28 149 111 28
150 111 28 150 112 28 150 112 28 151 112 28 151 112 28 152 113 28 152
113 28 152 113 28 153 114 28 153 114 28 154 114 28 154 115 28 155 115
29 155 116 29 155 116 29 156 116 29 156 117 29 157 117 29 157 117 29
158 118 29 158 118 29 158 118 29 159 119 29 159 119 29 160 119 29 160
120 29 161 120 29 161 120 29 161 121 29 162 121 30 162 122 30 163 122
30 163 122 30 164 123 30 164 123 30 164 123 30 165 124 30 165 124 30
166 125 30 166 125 30 167 125 30 167 126 30 168 126 30 168 127 30 169
127 30 169 127 30 169 128 30 170 128 30 170 129 31 171 129 31 171 129
31 172 130 31 172 130 31 173 131 31 173 131 31 174 131 31 174 132 31
175 132 31 175 133 31 176 133 31 176 133 31 177 134 31 177 134 31 178
135 31 178 135 31 179 136 31 179 136 31 180 136 31 180 137 31 181 137
31 181 138 31 182 138 31 182 139 31 183 139 31 183 139 32 184 140 32
184 140 32 185 141 32 186 141 32 186 142 32 187 142 32 187 143 32 188
143 32 188 143 32 189 144 32 190 144 32 190 145 32 191 145 32 191 146
32 192 146 32 193 147 32 193 147 32 194 148 32 195 148 32 195 149 32
196 149 32 197 149 32 197 150 32 198 150 32 199 151 32 199 151 32 200
152 32 201 152 32 202 153 32 202 153 32 203 154 32 204 154 32 205 155
32 205 155 32 206 156 32 207 156 32 208 157 32 208 157 32 209 157 32
210 158 32 211 158 32 212 159 32 213 159 32 214 160 32 214 160 32 215
161 32 216 161 32 217 162 32 218 162 32 219 163 32 220 163 32 221 164
32 222 164 32 223 165 32 224 165 32 225 166 32 226 166 32 227 166 32
228 167 32 229 167 32 230 168 32 231 168 21 190 156 21 191 157 21 192
157 21 194 158 21 195 158 21 196 159 21 198 159 21 199 160 21 200 160
21 202 160 21 203 161 21 204 161 21 206 162 21 207 162 21 208 163 21
210 163 21 211 164 21 212 164 21 214 164 21 215 165 21 216 165 21 218
165 21 219 166 21 220 166 21 222 167 21 223 167 21 224 167 21 225 168
21 227 168 21 228 168 21 229 168 21 230 169 21 231 169 21 232 169 21
234 169 21 235 170 21 236 170 21 237 170 21 238 170 21 238 170 31 255
181 31 255 181 31 255 181 31 255 181 31 255 181 31 255 181 31 255 181
31 255 181 31 255 181 31 255 181 31 255 181 31 255 181 31 255 181 31
255 181 31 255 181 31 255 180 31 255 180
27 148 110 28 148 110 28 149 110 28 149 111 28 150 111 28 150 111 28
150 112 28 151 112 28 151 112 28 152 113 28 152 113 28 152 113 28 153
114 28 153 114 28 154 114 28 154 115 29 155 115 29 155 115 29 155 116
29 156 116 29 156 116 29 157 117 29 157 117 29 157 118 29 158 118 29
158 118 29 159 119 29 159 119 29 160 119 29 160 120 29 161 120 29 161
120 30 161 121 30 162 121 30 162 121 30 163 122 30 163 122 30 164 123
30 164 123 30 164 123 30 165 124 30 165 124 30 166 124 30 166 125 30
167 125 30 167 126 30 168 126 30 168 126 30 169 127 30 169 127 31 169
128 31 170 128 31 170 128 31 171 129 31 171 129 31 172 130 31 172 130
31 173 130 31 173 131 31 174 131 31 174 132 31 175 132 31 175 132 31
176 133 31 176 133 31 177 134 31 177 134 31 178 135 31 178 135 31 179
135 31 179 136 31 180 136 31 180 137 31 181 137 32 181 138 32 182 138
32 182 138 32 183 139 32 183 139 32 184 140 32 184 140 32 185 141 32
185 141 32 186 142 32 186 142 32 187 142 32 188 143 32 188 143 32 189
144 32 189 144 32 190 145 32 191 145 32 191 146 32 192 146 32 192 147
32 193 147 32 194 148 32 194 148 32 195 148 32 195 149 32 196 149 32
197 150 32 197 150 32 198 151 32 199 151 32 200 152 32 200 152 32 201
153 32 202 153 32 202 154 32 203 154 32 204 155 32 205 155 32 205 156
32 206 156 33 207 157 33 208 157 33 209 158 33 209 158 33 210 159 33
211 159 33 212 159 33 213 160 33 214 160 33 215 161 33 215 161 33 216
162 33 217 162 33 218 163 33 219 163 33 220 164 33 221 164 33 222 165
33 223 165 33 224 166 33 225 166 33 226 167 33 227 167 33 228 168 33
229 168 33 230 169 21 188 156 21 189 157 21 191 157 21 192 158 21 193
158 21 194 159 21 196 159 21 197 160 21 198 160 21 200 161 21 201 161
21 202 162 21 204 162 21 205 163 21 206 163 21 208 163 21 209 164 21
211 164 21 212 165 21 213 165 21 215 166 21 216 166 21 217 166 21 219
167 22 220 167 22 221 168 22 223 168 22 224 168 22 225 169 22 227 169
22 228 169 22 229 170 22 230 170 22 232 170 22 233 170 22 234 171 22
235 171 22 236 171 22 237 171 22 238 172 22 239 172 22 240 172 22 241
172 32 255 183 32 255 183 32 255 183 32 255 183 31 255 183 31 255 183
31 255 183 31 255 183 31 255 183 31 255 183 31 255 183 31 255 183 31
255 183 31 255 182 31 255 182 31 255 182
28 149 110 28 149 111 28 149 111 28 150 111 28 150 112 28 151 112 28
151 112 28 152 113 28 152 113 28 152 113 28 153 114 28 153 114 28 154
114 29 154 115 29 154 115 29 155 115 29 155 116 29 156 116 29 156 116
29 157 117 29 157 117 29 157 117 29 158 118 29 158 118 29 159 118 29
159 119 29 160 119 29 160 120 30 161 120 30 161 120 30 161 121 30 162
121 30 162 121 30 163 122 30 163 122 30 164 122 30 164 123 30 164 123
30 165 124 30 165 124 30 166 124 30 166 125 30 167 125 30 167 126 30
168 126 30 168 126 31 168 127 31 169 127 31 169 127 31 170 128 31 170
128 31 171 129 31 171 129 31 172 129 31 172 130 31 173 130 31 173 131
31 174 131 31 174 132 31 175 132 31 175 132 31 175 133 31 176 133 31
176 134 31 177 134 31 177 134 31 178 135 31 178 135 32 179 136 32 179
136 32 180 137 32 180 137 32 181 137 32 181 138 32 182 138 32 182 139
32 183 139 32 184 140 32 184 140 32 185 141 32 185 141 32 186 141 32
186 142 32 187 142 32 187 143 32 188 143 32 188 144 32 189 144 32 190
145 32 190 145 32 191 146 32 191 146 32 192 146 32 193 147 32 193 147
32 194 148 32 194 148 32 195 149 32 196 149 32 196 150 32 197 150 32
198 151 33 198 151 33 199 152 33 200 152 33 200 153 33 201 153 33 202
154 33 203 154 33 203 155 33 204 155 33 205 156 33 206 156 33 206 157
33 207 157 33 208 158 33 209 158 33 209 159 33 210 159 33 211 159 33
212 160 33 213 160 33 214 161 33 215 161 33 215 162 33 216 162 33 217
163 33 218 163 33 219 164 33 220 164 33 221 165 33 222 165 33 223 166
33 224 166 33 225 167 33 226 167 33 227 168 33 228 168 33 229 169 21
186 156 21 188 157 21 189 157 21 190 158 21 191 158 21 193 159 21 194
159 21 195 160 21 196 160 21 198 161 21 199 161 21 200 162 21 202 162
21 203 163 21 204 163 21 206 164 21 207 164 21 209 165 21 210 165 22
211 166 22 213 166 22 214 166 22 216 167 22 217 167 22 218 168 22 220
168 22 221 168 22 223 169 22 224 169 22 225 170 22 227 170 22 228 170
22 229 171 22 231 171 22 232 171 22 233 172 22 234 172 22 236 172 22
237 172 22 238 173 22 239 173 22 240 173 22 241 173 22 242 173 22 243
174 22 244 174 32 255 185 32 255 185 32 255 185 32 255 185 32 255 185
32 255 185 32 255 185 32 255 185 31 255 185 31 255 185 31 255 185 31
255 184 31 255 184 31 255 184 31 255 184
28 149 111 28 150 111 28 150 112 28 151 112 28 151 112 28 152 113 28
152 113 28 152 113 28 153 114 28 153 114 29 154 114 29 154 115 29 154
115 29 155 115 29 155 116 29 156 116 29 156 116 29 157 117 29 157 117
29 157 117 29 158 118 29 158 118 29 159 118 29 159 119 29 160 119 30
160 119 30 160 120 30 161 120 30 161 121 30 162 121 30 162 121 30 163
122 30 163 122 30 164 122 30 164 123 30 164 123 30 165 123 30 165 124
30 166 124 30 166 125 30 167 125 30 167 125 31 168 126 31 168 126 31
168 127 31 169 127 31 169 127 31 170 128 31 170 128 31 171 129 31 171
129 31 172 129 31 172 130 31 173 130 31 173 131 31 174 131 31 174 131
31 174 132 31 175 132 31 175 133 31 176 133 31 176 133 32 177 134 32
177 134 32 178 135 32 178 135 32 179 136 32 179 136 32 180 136 32 180
137 32 181 137 32 181 138 32 182 138 32 182 139 32 183 139 32 183 140
32 184 140 32 184 140 32 185 141 32 185 141 32 186 142 32 187 142 32
187 143 32 188 143 32 188 144 32 189 144 32 189 145 32 190 145 32 190
145 32 191 146 32 192 146 32 192 147 33 193 147 33 193 148 33 194 148
33 195 149 33 195 149 33 196 150 33 197 150 33 197 151 33 198 151 33
199 152 33 199 152 33 200 153 33 201 153 33 201 154 33 202 154 33 203
155 33 203 155 33 204 156 33 205 156 33 206 157 33 206 157 33 207 157
33 208 158 33 209 158 33 210 159 33 210 159 33 211 160 33 212 160 33
213 161 33 214 161 33 215 162 33 215 162 33 216 163 33 217 163 33 218
164 33 219 164 33 220 165 33 221 165 33 222 166 33 223 166 33 224 167
33 225 167 33 226 168 33 227 168 33 228 169 21 184 156 21 186 157 21
187 157 21 188 158 21 189 158 21 191 159 21 192 159 21 193 160 21 194
160 21 196 161 21 197 161 21 198 162 21 200 162 21 201 163 21 202 163
22 204 164 22 205 164 22 207 165 22 208 165 22 209 166 22 211 166 22
212 167 22 214 167 22 215 168 22 216 168 22 218 169 22 219 169 22 221
169 22 222 170 22 224 170 22 225 171 22 226 171 22 228 171 22 229 172
22 230 172 22 232 172 22 233 173 22 234 173 22 236 173 22 237 174 22
238 174 22 239 174 22 240 174 22 242 175 22 243 175 22 244 175 22 245
175 22 246 175 22 247 175 32 255 186 32 255 187 32 255 187 32 255 187
32 255 187 32 255 187 32 255 187 32 255 186 32 255 186 32 255 186 32
255 186 32 255 186 31 255 186 31 255 186
28 150 111 28 151 112 28 151 112 28 151 112 28 152 113 28 152 113 28
153 113 29 153 114 29 154 114 29 154 114 29 154 115 29 155 115 29 155
115 29 156 116 29 156 116 29 157 116 29 157 117 29 157 117 29 158 118
29 158 118 29 159 118 29 159 119 30 160 119 30 160 119 30 160 120 30
161 120 30 161 120 30 162 121 30 162 121 30 163 121 30 163 122 30 164
122 30 164 123 30 164 123 30 165 123 30 165 124 30 166 124 30 166 125
31 167 125 31 167 125 31 168 126 31 168 126 31 168 126 31 169 127 31
169 127 31 170 128 31 170 128 31 171 128 31 171 129 31 172 129 31 172
130 31 173 130 31 173 130 31 173 131 31 174 131 31 174 132 31 175 132
32 175 132 32 176 133 32 176 133 32 177 134 32 177 134 32 178 135 32
178 135 32 179 135 32 179 136 32 180 136 32 180 137 32 181 137 32 181
138 32 182 138 32 182 138 32 183 139 32 183 139 32 184 140 32 184 140
32 185 141 32 185 141 32 186 142 32 186 142 32 187 143 32 187 143 32
188 143 32 188 144 33 189 144 33 190 145 33 190 145 33 191 146 33 191
146 33 192 147 33 192 147 33 193 148 33 194 148 33 194 149 33 195 149
33 196 150 33 196 150 33 197 151 33 197 151 33 198 152 33 199 152 33
199 152 33 200 153 33 201 153 33 201 154 33 202 154 33 203 155 33 204
155 33 204 156 33 205 156 33 206 157 33 206 157 33 207 158 33 208 158
33 209 159 33 210 159 33 210 160 33 211 160 33 212 161 33 213 161 33
214 162 33 214 162 33 215 163 33 216 163 33 217 164 33 218 164 33 219
165 33 220 165 33 221 166 33 222 166 33 223 167 33 224 167 33 225 168
33 226 168 33 227 169 21 182 156 21 184 157 21 185 157 21 186 158 21
187 158 21 189 159 21 190 159 21 191 160 21 192 160 21 194 161 21 195
161 21 196 162 21 198 163 22 199 163 22 200 164 22 202 164 22 203 165
22 204 165 22 206 166 22 207 166 22 209 167 22 210 167 22 211 167 22
213 168 22 214 168 22 216 169 22 217 169 22 219 170 22 220 170 22 222
171 22 223 171 22 224 171 22 226 172 22 227 172 22 229 173 22 230 173
22 231 173 22 233 174 22 234 174 22 235 174 22 237 175 22 238 175 22
239 175 22 241 176 22 242 176 22 243 176 22 244 176 22 245 176 22 246
177 22 247 177 22 248 177 22 249 177 32 255 188 32 255 188 32 255 188
32 255 188 32 255 188 32 255 188 32 255 188 32 255 188 32 255 188 32
255 188 32 255 188 32 255 188 32 255 187
28 151 112 28 151 112 28 152 113 28 152 113 29 153 113 29 153 114 29
154 114 29 154 114 29 154 115 29 155 115 29 155 115 29 156 116 29 156
116 29 157 116 29 157 117 29 157 117 29 158 117 29 158 118 29 159 118
30 159 118 30 160 119 30 160 119 30 160 120 30 161 120 30 161 120 30
162 121 30 162 121 30 163 121 30 163 122 30 163 122 30 164 122 30 164
123 30 165 123 30 165 124 31 166 124 31 166 124 31 167 125 31 167 125
31 167 126 31 168 126 31 168 126 31 169 127 31 169 127 31 170 127 31
170 128 31 171 128 31 171 129 31 172 129 31 172 129 31 172 130 31 173
130 31 173 131 31 174 131 32 174 132 32 175 132 32 175 132 32 176 133
32 176 133 32 177 134 32 177 134 32 178 134 32 178 135 32 179 135 32
179 136 32 180 136 32 180 137 32 181 137 32 181 137 32 182 138 32 182
138 32 183 139 32 183 139 32 184 140 32 184 140 32 185 141 32 185 141
32 186 141 33 186 142 33 187 142 33 187 143 33 188 143 33 188 144 33
189 144 33 189 145 33 190 145 33 190 146 33 191 146 33 192 147 33 192
147 33 193 148 33 193 148 33 194 148 33 195 149 33 195 149 33 196 150
33 196 150 33 197 151 33 198 151 33 198 152 33 199 152 33 200 153 33
200 153 33 201 154 33 202 154 33 202 155 33 203 155 33 204 156 33 204
156 33 205 157 33 206 157 33 207 158 33 207 158 33 208 159 33 209 159
33 210 160 33 210 160 33 211 161 33 212 161 33 213 162 33 214 162 33
214 163 33 215 163 34 216 164 34 217 164 34 218 165 34 219 165 34 220
166 34 221 166 34 222 167 34 222 167 34 223 168 34 224 169 34 225 169
21 181 156 21 182 157 21 183 157 21 184 158 21 185 158 21 187 159 21
188 159 21 189 160 21 190 160 21 192 161 21 193 161 22 194 162 22 195
163 22 197 163 22 198 164 22 199 164 22 201 165 22 202 165 22 204 166
22 205 166 22 206 167 22 208 167 22 209 168 22 211 168 22 212 169 22
214 169 22 215 170 22 216 170 22 218 170 22 219 171 22 221 171 22 222
172 22 224 172 22 225 173 22 227 173 22 228 173 22 229 174 22 231 174
22 232 175 22 234 175 22 235 175 22 236 176 22 238 176 22 239 176 22
240 177 22 242 177 22 243 177 22 244 177 22 245 178 22 247 178 22 248
178 22 249 178 22 250 178 22 251 179 33 255 190 33 255 190 32 255 190
32 255 190 32 255 190 32 255 190 32 255 190 32 255 190 32 255 190 32
255 190 32 255 189 32 255 189 32 255 189
28 152 112 29 152 113 29 153 113 29 153 113 29 154 114 29 154 114 29
154 114 29 155 115 29 155 115 29 156 116 29 156 116 29 156 116 29 157
117 29 157 117 29 158 117 29 158 118 30 159 118 30 159 118 30 160 119
30 160 119 30 160 119 30 161 120 30 161 120 30 162 120 30 162 121 30
163 121 30 163 122 30 163 122 30 164 122 30 164 123 30 165 123 31 165
123 31 166 124 31 166 124 31 167 125 31 167 125 31 167 125 31 168 126
31 168 126 31 169 127 31 169 127 31 170 127 31 170 128 31 171 128 31
171 129 31 172 129 31 172 129 31 172 130 32 173 130 32 173 131 32 174
131 32 174 131 32 175 132 32 175 132 32 176 133 32 176 133 32 177 133
32 177 134 32 178 134 32 178 135 32 178 135 32 179 136 32 179 136 32
180 136 32 180 137 32 181 137 32 181 138 32 182 138 32 182 139 32 183
139 32 183 139 33 184 140 33 184 140 33 185 141 33 185 141 33 186 142
33 186 142 33 187 143 33 187 143 33 188 144 33 189 144 33 189 145 33
190 145 33 190 145 33 191 146 33 191 146 33 192 147 33 192 147 33 193
148 33 194 148 33 194 149 33 195 149 33 195 150 33 196 150 33 197 151
33 197 151 33 198 152 33 198 152 33 199 153 33 200 153 33 200 154 33
201 154 33 202 155 33 202 155 33 203 156 33 204 156 33 204 157 34 205
157 34 206 158 34 207 158 34 207 159 34 208 159 34 209 160 34 210 160
34 210 161 34 211 161 34 212 162 34 213 162 34 214 163 34 214 163 34
215 164 34 216 164 34 217 165 34 218 165 34 219 166 34 220 166 34 220
167 34 221 167 34 222 168 34 223 169 34 224 169 21 179 156 21 180 156
21 181 157 21 182 157 21 183 158 21 184 159 21 186 159 21 187 160 21
188 160 21 189 161 22 191 161 22 192 162 22 193 162 22 195 163 22 196
164 22 197 164 22 199 165 22 200 165 22 201 166 22 203 166 22 204 167
22 205 167 22 207 168 22 208 168 22 210 169 22 211 169 22 213 170 22
214 170 22 215 171 22 217 171 22 218 172 22 220 172 22 221 173 22 223
173 22 224 173 22 226 174 22 227 174 22 229 175 22 230 175 22 232 176
22 233 176 22 235 176 22 236 177 22 237 177 22 239 177 22 240 178 22
241 178 22 243 178 22 244 179 22 245 179 22 246 179 22 248 179 22 249
179 22 250 180 22 251 180 22 252 180 22 253 180 33 255 191 33 255 191
33 255 191 33 255 191 33 255 191 32 255 191 32 255 191 32 255 191 32
255 191 32 255 191 32 255 191 32 255 191
29 153 113 29 153 113 29 153 114 29 154 114 29 154 114 29 155 115 29
155 115 29 156 115 29 156 116 29 156 116 29 157 116 29 157 117 29 158
117 30 158 117 30 159 118 30 159 118 30 159 119 30 160 119 30 160 119
30 161 120 30 161 120 30 162 120 30 162 121 30 163 121 30 163 121 30
163 122 30 164 122 31 164 123 31 165 123 31 165 123 31 166 124 31 166
124 31 167 124 31 167 125 31 167 125 31 168 126 31 168 126 31 169 126
31 169 127 31 170 127 31 170 128 31 171 128 31 171 128 31 171 129 32
172 129 32 172 130 32 173 130 32 173 130 32 174 131 32 174 131 32 175
132 32 175 132 32 176 132 32 176 133 32 177 133 32 177 134 32 177 134
32 178 135 32 178 135 32 179 135 32 179 136 32 180 136 32 180 137 32
181 137 32 181 138 33 182 138 33 182 138 33 183 139 33 183 139 33 184
140 33 184 140 33 185 141 33 185 141 33 186 142 33 186 142 33 187 142
33 187 143 33 188 143 33 188 144 33 189 144 33 189 145 33 190 145 33
190 146 33 191 146 33 192 147 33 192 147 33 193 148 33 193 148 33 194
149 33 194 149 33 195 150 33 196 150 33 196 151 33 197 151 33 197 152
33 198 152 34 199 153 34 199 153 34 200 154 34 200 154 34 201 155 34
202 155 34 202 156 34 203 156 34 204 157 34 204 157 34 205 158 34 206
158 34 207 159 34 207 159 34 208 160 34 209 160 34 210 161 34 210 161
34 211 162 34 212 162 34 213 163 34 213 163 34 214 164 34 215 164 34
216 165 34 217 165 34 218 166 34 218 166 34 219 167 34 220 167 34 221
168 34 222 168 34 223 169 34 224 169 21 178 156 21 179 157 21 180 157
21 181 158 21 182 158 21 184 159 21 185 160 21 186 160 22 187 161 22
188 161 22 190 162 22 191 162 22 192 163 22 194 163 22 195 164 22 196
165 22 198 165 22 199 166 22 200 166 22 202 167 22 203 167 22 204 168
22 206 168 22 207 169 22 209 169 22 210 170 22 212 170 22 213 171 22
214 171 22 216 172 22 217 172 22 219 173 22 220 173 22 222 174 22 223
174 22 225 175 22 226 175 23 228 175 23 229 176 23 231 176 23 232 177
23 234 177 23 235 177 23 237 178 23 238 178 23 239 179 23 241 179 23
242 179 23 244 180 23 245 180 23 246 180 23 247 180 23 249 181 23 250
181 23 251 181 23 252 181 23 253 181 23 254 182 33 255 193 33 255 193
33 255 193 33 255 193 33 255 193 33 255 193 33 255 193 33 255 193 33
255 193 33 255 193 32 255 193 32 255 192
29 153 114 29 154 114 29 154 114 29 155 115 29 155 115 29 156 115 29
156 116 29 156 116 29 157 116 29 157 117 30 158 117 30 158 117 30 159
118 30 159 118 30 159 118 30 160 119 30 160 119 30 161 119 30 161 120
30 162 120 30 162 121 30 162 121 30 163 121 30 163 122 31 164 122 31
164 122 31 165 123 31 165 123 31 166 124 31 166 124 31 166 124 31 167
125 31 167 125 31 168 125 31 168 126 31 169 126 31 169 127 31 170 127
31 170 127 31 170 128 32 171 128 32 171 129 32 172 129 32 172 129 32
173 130 32 173 130 32 174 131 32 174 131 32 175 131 32 175 132 32 176
132 32 176 133 32 176 133 32 177 133 32 177 134 32 178 134 32 178 135
32 179 135 32 179 136 32 180 136 33 180 136 33 181 137 33 181 137 33
182 138 33 182 138 33 183 139 33 183 139 33 184 140 33 184 140 33 185
140 33 185 141 33 186 141 33 186 142 33 187 142 33 187 143 33 188 143
33 188 144 33 189 144 33 189 145 33 190 145 33 190 146 33 191 146 33
191 146 33 192 147 33 192 147 33 193 148 33 193 148 34 194 149 34 195
149 34 195 150 34 196 150 34 196 151 34 197 151 34 198 152 34 198 152
34 199 153 34 199 153 34 200 154 34 201 154 34 201 155 34 202 155 34
203 156 34 203 156 34 204 157 34 205 157 34 205 158 34 206 158 34 207
159 34 207 159 34 208 160 34 209 160 34 210 161 34 210 162 34 211 162
34 212 163 34 213 163 34 213 164 34 214 164 34 215 165 34 216 165 34
217 166 34 217 166 34 218 167 34 219 167 34 220 168 34 221 168 34 222
169 34 223 169 21 176 156 21 177 156 21 178 157 21 179 158 21 180 158
21 181 159 21 183 159 21 184 160 22 185 160 22 186 161 22 187 162 22
189 162 22 190 163 22 191 163 22 193 164 22 194 164 22 195 165 22 196
166 22 198 166 22 199 167 22 201 167 22 202 168 22 203 168 22 205 169
22 206 169 22 208 170 22 209 170 22 210 171 22 212 171 22 213 172 22
215 172 22 216 173 22 218 173 23 219 174 23 221 174 23 222 175 23 224
175 23 225 176 23 227 176 23 228 177 23 230 177 23 231 178 23 233 178
23 234 178 23 236 179 23 237 179 23 239 179 23 240 180 23 242 180 23
243 180 23 244 181 23 246 181 23 247 181 23 248 182 23 249 182 23 251
182 23 252 182 23 253 183 23 254 183 23 255 183 23 255 183 33 255 194
33 255 194 33 255 195 33 255 195 33 255 195 33 255 195 33 255 194 33
255 194 33 255 194 33 255 194 33 255 194
29 154 114 29 155 114 29 155 115 29 155 115 29 156 115 29 156 116 29
157 116 30 157 116 30 158 117 30 158 117 30 158 117 30 159 118 30 159
118 30 160 119 30 160 119 30 161 119 30 161 120 30 162 120 30 162 120
30 162 121 30 163 121 31 163 121 31 164 122 31 164 122 31 165 123 31
165 123 31 166 123 31 166 124 31 166 124 31 167 124 31 167 125 31 168
125 31 168 126 31 169 126 31 169 126 31 170 127 31 170 127 32 170 128
32 171 128 32 171 128 32 172 129 32 172 129 32 173 130 32 173 130 32
174 130 32 174 131 32 175 131 32 175 132 32 175 132 32 176 132 32 176
133 32 177 133 32 177 134 32 178 134 32 178 135 33 179 135 33 179 135
33 180 136 33 180 136 33 181 137 33 181 137 33 181 138 33 182 138 33
182 138 33 183 139 33 183 139 33 184 140 33 184 140 33 185 141 33 185
141 33 186 142 33 186 142 33 187 143 33 187 143 33 188 143 33 188 144
33 189 144 33 189 145 33 190 145 33 190 146 34 191 146 34 192 147 34
192 147 34 193 148 34 193 148 34 194 149 34 194 149 34 195 150 34 195
150 34 196 151 34 197 151 34 197 152 34 198 152 34 198 153 34 199 153
34 199 154 34 200 154 34 201 155 34 201 155 34 202 156 34 203 156 34
203 157 34 204 157 34 205 158 34 205 158 34 206 159 34 207 159 34 207
160 34 208 160 34 209 161 34 209 161 34 210 162 34 211 162 34 212 163
34 212 163 34 213 164 34 214 164 34 215 165 34 216 166 34 216 166 34
217 167 34 218 167 34 219 168 34 220 168 34 221 169 34 222 169 34 223
170 21 175 156 21 176 157 21 177 157 21 178 158 21 179 158 21 181 159
22 182 160 22 183 160 22 184 161 22 185 161 22 187 162 22 188 162 22
189 163 22 190 164 22 192 164 22 193 165 22 194 165 22 195 166 22 197
166 22 198 167 22 199 168 22 201 168 22 202 169 22 204 169 22 205 170
22 206 170 22 208 171 22 209 171 22 211 172 23 212 172 23 214 173 23
215 173 23 217 174 23 218 174 23 220 175 23 221 175 23 223 176 23 224
176 23 226 177 23 227 177 23 229 178 23 230 178 23 232 179 23 233 179
23 235 179 23 236 180 23 238 180 23 239 181 23 241 181 23 242 181 23
243 182 23 245 182 23 246 182 23 248 183 23 249 183 23 250 183 23 251
183 23 253 184 23 254 184 23 255 184 23 255 184 23 255 184 33 255 196
33 255 196 33 255 196 33 255 196 33 255 196 33 255 196 33 255 196 33
255 196 33 255 196 33 255 196 33 255 196
29 155 115 29 155 115 29 156 115 29 156 116 30 157 116 30 157 116 30
158 117 30 158 117 30 158 117 30 159 118 30 159 118 30 160 118 30 160
119 30 161 119 30 161 119 30 161 120 30 162 120 30 162 121 31 163 121
31 163 121 31 164 122 31 164 122 31 165 122 31 165 123 31 165 123 31
166 124 31 166 124 31 167 124 31 167 125 31 168 125 31 168 125 31 169
126 31 169 126 32 169 127 32 170 127 32 170 127 32 171 128 32 171 128
32 172 129 32 172 129 32 173 129 32 173 130 32 174 130 32 174 131 32
174 131 32 175 131 32 175 132 32 176 132 32 176 133 32 177 133 33 177
134 33 178 134 33 178 134 33 179 135 33 179 135 33 179 136 33 180 136
33 180 137 33 181 137 33 181 137 33 182 138 33 182 138 33 183 139 33
183 139 33 184 140 33 184 140 33 185 140 33 185 141 33 186 141 33 186
142 33 187 142 33 187 143 33 188 143 34 188 144 34 189 144 34 189 145
34 190 145 34 190 146 34 191 146 34 191 147 34 192 147 34 192 147 34
193 148 34 193 148 34 194 149 34 194 149 34 195 150 34 196 150 34 196
151 34 197 151 34 197 152 34 198 152 34 198 153 34 199 153 34 200 154
34 200 154 34 201 155 34 201 155 34 202 156 34 203 156 34 203 157 34
204 157 34 205 158 34 205 158 34 206 159 34 207 160 34 207 160 34 208
161 34 209 161 34 209 162 34 210 162 34 211 163 35 212 163 35 212 164
35 213 164 35 214 165 35 215 165 35 216 166 35 216 166 35 217 167 35
218 168 35 219 168 35 220 169 35 220 169 35 221 170 21 173 156 21 174
156 21 175 157 21 176 157 21 177 158 21 179 159 22 180 159 22 181 160
22 182 160 22 183 161 22 184 162 22 185 162 22 187 163 22 188 163 22
189 164 22 190 165 22 192 165 22 193 166 22 194 166 22 196 167 22 197
167 22 198 168 22 200 169 22 201 169 22 202 170 22 204 170 22 205 171
23 207 171 23 208 172 23 209 172 23 211 173 23 212 173 23 214 174 23
215 175 23 217 175 23 218 176 23 220 176 23 221 177 23 223 177 23 224
177 23 226 178 23 227 178 23 229 179 23 230 179 23 232 180 23 233 180
23 235 181 23 236 181 23 238 181 23 239 182 23 241 182 23 242 183 23
244 183 23 245 183 23 247 184 23 248 184 23 249 184 23 251 184 23 252
185 23 253 185 23 254 185 23 255 185 23 255 186 23 255 186 34 255 197
34 255 197 34 255 197 34 255 197 33 255 197 33 255 197 33 255 197 33
255 197 33 255 197 33 255 197 33 255 197
29 156 115 29 156 115 30 157 116 30 157 116 30 157 116 30 158 117 30
158 117 30 159 118 30 159 118 30 160 118 30 160 119 30 161 119 30 161
119 30 161 120 30 162 120 31 162 120 31 163 121 31 163 121 31 164 121
31 164 122 31 165 122 31 165 123 31 165 123 31 166 123 31 166 124 31
167 124 31 167 124 31 168 125 31 168 125 31 169 126 32 169 126 32 169
126 32 170 127 32 170 127 32 171 128 32 171 128 32 172 128 32 172 129
32 173 129 32 173 130 32 173 130 32 174 130 32 174 131 32 175 131 32
175 132 32 176 132 33 176 132 33 177 133 33 177 133 33 178 134 33 178
134 33 178 135 33 179 135 33 179 135 33 180 136 33 180 136 33 181 137
33 181 137 33 182 138 33 182 138 33 183 138 33 183 139 33 184 139 33
184 140 33 185 140 33 185 141 33 186 141 33 186 142 34 186 142 34 187
143 34 187 143 34 188 143 34 188 144 34 189 144 34 189 145 34 190 145
34 190 146 34 191 146 34 192 147 34 192 147 34 193 148 34 193 148 34
194 149 34 194 149 34 195 150 34 195 150 34 196 151 34 196 151 34 197
152 34 197 152 34 198 153 34 199 153 34 199 154 34 200 154 34 200 155
34 201 155 34 202 156 34 202 156 34 203 157 34 203 157 34 204 158 35
205 158 35 205 159 35 206 159 35 207 160 35 207 160 35 208 161 35 209
161 35 209 162 35 210 162 35 211 163 35 212 164 35 212 164 35 213 165
35 214 165 35 215 166 35 215 166 35 216 167 35 217 167 35 218 168 35
219 168 35 219 169 35 220 170 35 221 170 21 172 156 21 173 157 21 174
157 21 175 158 21 176 158 22 178 159 22 179 160 22 180 160 22 181 161
22 182 161 22 183 162 22 184 162 22 186 163 22 187 164 22 188 164 22
189 165 22 191 165 22 192 166 22 193 167 22 194 167 22 196 168 22 197
168 22 198 169 22 200 169 22 201 170 23 202 171 23 204 171 23 205 172
23 207 172 23 208 173 23 210 173 23 211 174 23 212 174 23 214 175 23
215 176 23 217 176 23 218 177 23 220 177 23 221 178 23 223 178 23 224
179 23 226 179 23 228 180 23 229 180 23 231 180 23 232 181 23 234 181
23 235 182 23 237 182 23 238 183 23 240 183 23 241 183 23 243 184 23
244 184 23 246 184 23 247 185 23 248 185 23 250 185 23 251 186 23 252
186 23 254 186 23 255 186 23 255 187 23 255 187 23 255 187 34 255 199
34 255 199 34 255 199 34 255 199 34 255 199 34 255 199 34 255 199 34
255 199 34 255 199 33 255 199 33 255 199
30 157 116 30 157 116 30 157 116 30 158 117 30 158 117 30 159 117 30
159 118 30 160 118 30 160 118 30 160 119 30 161 119 30 161 119 31 162
120 31 162 120 31 163 121 31 163 121 31 164 121 31 164 122 31 164 122
31 165 122 31 165 123 31 166 123 31 166 124 31 167 124 31 167 124 31
168 125 32 168 125 32 168 125 32 169 126 32 169 126 32 170 127 32 170
127 32 171 127 32 171 128 32 172 128 32 172 129 32 173 129 32 173 129
32 173 130 32 174 130 32 174 131 32 175 131 33 175 131 33 176 132 33
176 132 33 177 133 33 177 133 33 177 134 33 178 134 33 178 134 33 179
135 33 179 135 33 180 136 33 180 136 33 181 136 33 181 137 33 182 137
33 182 138 33 183 138 33 183 139 33 183 139 33 184 140 34 184 140 34
185 140 34 185 141 34 186 141 34 186 142 34 187 142 34 187 143 34 188
143 34 188 144 34 189 144 34 189 145 34 190 145 34 190 146 34 191 146
34 191 146 34 192 147 34 192 147 34 193 148 34 193 148 34 194 149 22
175 63 22 175 63 22 176 63 22 176 63 22 177 63 22 177 63 22 178 63 22
178 63 22 179 64 22 179 64 22 180 64 22 180 64 22 181 64 22 181 64 22
182 64 22 182 64 35 204 157 35 204 158 35 205 159 35 205 159 35 206
160 35 207 160 35 207 161 35 208 161 35 209 162 35 209 162 35 210 163
35 211 163 35 211 164 35 212 164 35 213 165 35 214 165 35 214 166 35
215 167 35 216 167 35 217 168 35 218 168 28 24 3 28 26 3 30 28 3 33 30
4 35 32 4 36 33 5 38 35 5 40 38 5 42 40 6 43 42 6 44 44 6 45 46 6 45
48 7 44 51 7 22 182 162 22 183 163 22 185 163 22 186 164 22 187 165 22
188 165 22 189 166 22 191 166 22 192 167 22 193 167 22 195 168 22 196
169 22 197 169 23 198 170 23 200 170 23 201 171 23 203 172 23 204 172
23 205 173 23 207 173 23 208 174 23 210 174 23 211 175 23 213 175 23
214 176 23 215 177 23 217 177 23 218 178 23 220 178 23 221 179 23 223
179 23 225 180 23 226 180 23 228 181 23 229 181 23 231 181 23 232 182
23 234 182 23 235 183 23 237 183 23 238 184 23 240 184 23 241 184 23
243 185 23 244 185 23 246 186 23 247 186 23 249 186 23 250 187 23 251
187 24 253 187 24 254 187 24 255 188 23 255 188 23 255 188 23 255 188
34 255 200 34 255 200 34 255 200 34 255 200 34 255 200 34 255 200 34
255 200 34 255 200 34 255 200 34 255 200 34 255 200
30 157 116 30 158 116 30 158 117 30 159 117 30 159 118 30 160 118 30
160 118 30 160 119 30 161 119 31 161 119 31 162 120 31 162 120 31 163
120 31 163 121 31 163 121 31 164 121 31 164 122 31 165 122 31 165 123
31 166 123 31 166 123 31 167 124 31 167 124 32 168 124 32 168 125 32
168 125 32 169 126 32 169 126 32 170 126 32 170 127 32 171 127 32 171
128 32 172 128 32 172 128 32 172 129 32 173 129 32 173 130 32 174 130
32 174 130 33 175 131 33 175 131 33 176 132 33 176 132 33 176 132 33
177 133 33 177 133 33 178 134 33 178 134 33 179 135 33 179 135 33 180
135 33 180 136 33 181 136 33 181 137 33 182 137 33 182 138 33 182 138
34 183 138 34 183 139 34 184 139 34 184 140 34 185 140 34 185 141 34
186 141 34 186 142 34 187 142 34 187 142 34 188 143 34 188 143 34 189
144 34 189 144 34 190 145 34 190 145 34 191 146 34 191 146 34 192 147
34 192 147 34 193 148 22 174 63 22 174 63 22 175 63 22 175 63 22 176
63 22 176 63 22 177 63 22 177 63 22 177 63 22 178 63 22 178 64 22 179
64 22 179 64 22 180 64 22 180 64 22 181 64 22 181 64 22 182 64 22 182
64 22 183 64 22 183 65 22 184 65 22 184 65 22 185 65 22 185 65 21 186
65 35 208 161 35 209 162 35 209 162 35 210 163 35 211 164 35 211 164
35 212 165 35 213 165 35 214 166 35 214 166 35 215 167 35 216 167 33
20 3 36 22 3 37 24 3 39 26 3 42 28 4 45 30 4 46 32 5 48 34 5 49 35 5
50 37 6 50 38 6 50 40 6 50 41 7 49 43 7 50 45 7 51 47 7 52 49 8 53 51
8 53 54 8 52 56 8 22 186 165 22 187 165 22 188 166 22 190 167 22 191
167 22 192 168 22 193 168 23 195 169 23 196 170 23 197 170 23 199 171
23 200 171 23 201 172 23 203 172 23 204 173 23 205 174 23 207 174 23
208 175 23 210 175 23 211 176 23 213 176 23 214 177 23 215 177 23 217
178 23 218 179 23 220 179 23 221 180 23 223 180 23 224 181 23 226 181
23 228 182 23 229 182 23 231 183 23 232 183 24 234 183 24 235 184 24
237 184 24 238 185 24 240 185 24 241 186 24 243 186 24 244 186 24 246
187 24 247 187 24 249 187 24 250 188 24 251 188 24 253 188 24 254 189
24 255 189 24 255 189 24 255 189 24 255 189 34 255 201 34 255 201 34
255 201 34 255 202 34 255 202 34 255 202 34 255 202 34 255 202 34 255
202 34 255 201 34 255 201
30 158 117 30 159 117 30 159 117 30 159 118 30 160 118 30 160 118 30
161 119 31 161 119 31 162 119 31 162 120 31 163 120 31 163 121 31 163
121 31 164 121 31 164 122 31 165 122 31 165 122 31 166 123 31 166 123
31 167 124 32 167 124 32 167 124 32 168 125 32 168 125 32 169 125 32
169 126 32 170 126 32 170 127 32 171 127 32 171 127 32 171 128 32 172
128 32 172 129 32 173 129 32 173 129 33 174 130 33 174 130 33 175 131
33 175 131 33 176 131 33 176 132 33 176 132 33 177 133 33 177 133 33
178 133 33 178 134 33 179 134 33 179 135 33 180 135 33 180 136 33 180
136 33 181 136 33 181 137 34 182 137 34 182 138 34 183 138 34 183 139
34 184 139 34 184 140 34 185 140 34 185 140 34 186 141 34 186 141 34
186 142 34 187 142 34 187 143 34 188 143 34 188 144 34 189 144 34 189
145 34 190 145 34 190 145 34 191 146 34 191 146 34 192 147 22 173 63
22 174 63 22 174 63 22 175 63 22 175 63 22 175 63 22 176 63 22 176 63
22 177 63 22 177 63 22 178 63 22 178 64 22 178 64 22 179 64 22 179 64
22 180 64 22 180 64 22 181 64 22 181 64 22 182 64 22 182 64 22 183 65
22 183 65 22 184 65 22 184 65 22 185 65 22 185 65 22 186 65 22 186 65
22 187 65 22 188 66 22 188 66 21 189 66 35 211 164 35 212 165 35 213
165 35 213 166 35 214 167 34 20 3 39 22 3 42 23 3 44 23 3 45 24 3 48
26 4 50 28 4 53 30 4 54 32 5 56 33 5 57 35 6 58 37 6 59 38 6 59 40 7
59 41 7 59 42 7 58 44 7 58 45 8 57 46 8 56 48 8 57 50 8 58 52 9 58 55
9 58 57 9 57 60 9 53 63 8 22 190 167 22 191 168 23 192 169 23 193 169
23 195 170 23 196 170 23 197 171 23 198 172 23 200 172 23 201 173 23
203 173 23 204 174 23 205 175 23 207 175 23 208 176 23 210 176 23 211
177 23 212 177 23 214 178 23 215 178 23 217 179 23 218 180 23 220 180
23 221 181 23 223 181 24 224 182 24 226 182 24 227 183 24 229 183 24
230 184 24 232 184 24 234 184 24 235 185 24 237 185 24 238 186 24 240
186 24 241 187 24 243 187 24 244 187 24 246 188 24 247 188 24 248 188
24 250 189 24 251 189 24 253 189 24 254 190 24 255 190 24 255 190 24
255 190 24 255 191 35 255 202 35 255 203 35 255 203 35 255 203 34 255
203 34 255 203 34 255 203 34 255 203 34 255 203 34 255 203 34 255 203
30 159 117 30 159 118 30 160 118 30 160 118 31 161 119 31 161 119 31
162 119 31 162 120 31 162 120 31 163 120 31 163 121 31 164 121 31 164
121 31 165 122 31 165 122 31 166 123 31 166 123 32 166 123 32 167 124
32 167 124 32 168 124 32 168 125 32 169 125 32 169 126 32 170 126 32
170 126 32 170 127 32 171 127 32 171 128 32 172 128 32 172 128 32 173
129 33 173 129 33 174 130 33 174 130 33 175 130 33 175 131 33 175 131
33 176 132 33 176 132 33 177 132 33 177 133 33 178 133 33 178 134 33
179 134 33 179 134 33 180 135 33 180 135 34 180 136 34 181 136 34 181
137 34 182 137 34 182 137 34 183 138 34 183 138 34 184 139 34 184 139
34 185 140 34 185 140 34 185 141 34 186 141 34 186 141 34 187 142 34
187 142 34 188 143 34 188 143 34 189 144 34 189 144 34 190 145 34 190
145 35 191 146 35 191 146 23 173 62 23 173 63 23 174 63 23 174 63 23
174 63 23 175 63 23 175 63 23 176 63 23 176 63 23 176 63 22 177 63 22
177 63 22 178 64 22 178 64 22 179 64 22 179 64 22 180 64 22 180 64 22
180 64 22 181 64 22 181 64 22 182 64 22 182 64 22 183 65 22 183 65 22
184 65 22 184 65 22 185 65 22 185 65 22 186 65 22 186 65 22 187 65 22
188 66 22 188 66 22 189 66 22 189 66 22 190 66 22 190 66 21 191 66 37
21 3 43 23 3 47 24 3 49 25 3 50 25 3 51 26 3 54 26 4 57 28 4 59 30 5
61 31 5 62 33 5 64 34 6 65 36 6 65 37 6 66 39 7 66 40 7 67 42 7 66 43
8 66 44 8 66 46 8 65 47 8 64 48 9 62 49 9 61 51 9 62 53 9 63 55 9 63
58 10 63 60 10 61 63 10 23 191 169 23 192 169 23 193 170 23 195 171 23
196 171 23 197 172 23 198 172 23 200 173 23 201 174 23 202 174 23 204
175 23 205 175 23 207 176 23 208 177 23 209 177 23 211 178 23 212 178
23 214 179 23 215 179 23 217 180 24 218 180 24 220 181 24 221 182 24
223 182 24 224 183 24 226 183 24 227 184 24 229 184 24 230 185 24 232
185 24 233 185 24 235 186 24 236 186 24 238 187 24 239 187 24 241 188
24 242 188 24 244 188 24 245 189 24 247 189 24 248 190 24 250 190 24
251 190 24 252 190 24 254 191 24 255 191 24 255 191 24 255 192 24 255
192 35 255 204 35 255 204 35 255 204 35 255 204 35 255 204 35 255 204
35 255 204 35 255 204 34 255 204 34 255 204 34 255 204
30 160 118 30 160 118 31 161 118 31 161 119 31 161 119 31 162 119 31
162 120 31 163 120 31 163 121 31 164 121 31 164 121 31 165 122 31 165
122 31 165 122 32 166 123 32 166 123 32 167 123 32 167 124 32 168 124
32 168 125 32 169 125 32 169 125 32 170 126 32 170 126 32 170 127 32
171 127 32 171 127 32 172 128 33 172 128 33 173 129 33 173 129 33 174
129 33 174 130 33 174 130 33 175 131 33 175 131 33 176 131 33 176 132
33 177 132 33 177 133 33 178 133 33 178 133 33 179 134 33 179 134 34
179 135 34 180 135 34 180 136 34 181 136 34 181 136 34 182 137 34 182
137 34 183 138 34 183 138 34 183 139 34 184 139 34 184 139 34 185 140
34 185 140 34 186 141 34 186 141 34 187 142 34 187 142 34 188 143 34
188 143 34 189 143 35 189 144 35 189 144 35 190 145 35 190 145 35 191
146 35 191 146 23 173 63 23 173 63 23 174 63 23 174 63 23 175 63 23
175 63 23 175 63 23 176 63 23 176 63 23 177 63 23 177 63 23 177 64 23
178 64 23 178 64 23 179 64 23 179 64 22 180 64 22 180 64 22 181 64 22
181 64 22 181 64 22 182 64 22 182 65 22 183 65 22 183 65 22 184 65 22
184 65 22 185 65 22 185 65 22 186 65 22 186 65 22 187 65 22 187 66 22
188 66 22 189 66 22 189 66 22 190 66 22 190 66 22 191 66 45 24 3 50 25
3 52 26 3 54 27 3 55 27 3 56 28 3 59 28 4 62 29 4 64 29 5 66 30 5 67
32 5 69 34 6 70 35 6 71 37 6 72 38 7 72 39 7 73 41 7 73 42 8 73 43 8
73 45 8 72 46 9 71 47 9 70 48 9 69 50 9 68 51 9 66 52 10 66 54 10 66
56 10 67 59 10 67 61 10 66 64 10 64 67 10 23 193 171 23 194 171 23 196
172 23 197 173 23 198 173 23 200 174 23 201 175 23 202 175 23 204 176
23 205 176 23 206 177 23 208 177 23 209 178 23 211 179 24 212 179 24
214 180 24 215 180 24 216 181 24 218 181 24 219 182 24 221 182 24 222
183 24 224 183 24 225 184 24 227 185 24 228 185 24 230 185 24 232 186
24 233 186 24 235 187 24 236 187 24 238 188 24 239 188 24 241 189 24
242 189 24 244 189 24 245 190 24 247 190 24 248 191 24 249 191 24 251
191 24 252 192 24 254 192 24 255 192 24 255 192 24 255 193 24 255 193
35 255 205 35 255 205 35 255 205 35 255 205 35 255 205 35 255 205 35
255 205 35 255 205 35 255 205 35 255 205 35 255 205
31 160 118 31 161 119 31 161 119 31 162 119 31 162 120 31 163 120 31
163 120 31 164 121 31 164 121 31 164 121 31 165 122 31 165 122 32 166
123 32 166 123 32 167 123 32 167 124 32 168 124 32 168 124 32 169 125
32 169 125 32 169 126 32 170 126 32 170 126 32 171 127 32 171 127 33
172 127 33 172 128 33 173 128 33 173 129 33 173 129 33 174 129 33 174
130 33 175 130 33 175 131 33 176 131 33 176 131 33 177 132 33 177 132
33 178 133 33 178 133 33 178 134 34 179 134 34 179 134 34 180 135 34
180 135 34 181 136 34 181 136 34 182 137 34 182 137 34 182 137 34 183
138 34 183 138 34 184 139 34 184 139 34 185 140 34 185 140 34 186 140
34 186 141 34 187 141 34 187 142 35 187 142 35 188 143 35 188 143 35
189 144 35 189 144 35 190 145 35 190 145 35 191 146 35 191 146 23 173
63 23 173 63 23 174 63 23 174 63 23 174 63 23 175 63 23 175 63 23 176
63 23 176 63 23 176 63 23 177 63 23 177 64 23 178 64 23 178 64 23 179
64 23 179 64 23 179 64 23 180 64 23 180 64 23 181 64 23 181 64 23 182
64 22 182 65 22 182 65 22 183 65 22 183 65 22 184 65 22 184 65 22 185
65 22 185 65 22 186 65 22 186 65 22 187 66 22 187 66 22 188 66 22 188
66 22 189 66 22 190 66 22 190 66 43 23 3 51 26 3 54 27 3 57 28 3 59 29
3 60 29 3 60 29 3 63 30 4 66 30 4 68 31 5 70 31 5 72 31 5 73 33 6 75
34 6 76 36 6 77 37 7 77 39 7 78 40 7 78 41 8 78 42 8 78 44 8 78 45 9
78 46 9 77 47 9 76 49 9 75 50 10 74 51 10 72 52 10 70 53 10 69 55 10
70 57 11 70 59 11 70 62 11 69 64 11 68 67 11 61 71 10 23 196 173 23
197 174 23 198 174 23 200 175 23 201 175 23 202 176 23 204 177 23 205
177 23 206 178 24 208 178 24 209 179 24 210 179 24 212 180 24 213 181
24 215 181 24 216 182 24 218 182 24 219 183 24 221 183 24 222 184 24
224 184 24 225 185 24 227 185 24 228 186 24 230 186 24 231 187 24 233
187 24 234 188 24 236 188 24 237 189 24 239 189 24 240 190 24 242 190
24 243 190 24 245 191 24 246 191 24 248 192 24 249 192 24 250 192 24
252 193 24 253 193 24 254 193 24 255 193 24 255 194 24 255 194 35 255
206 35 255 206 35 255 206 35 255 206 35 255 206 35 255 207 35 255 207
35 255 207 35 255 207 35 255 207 35 255 207
31 161 119 31 162 119 31 162 119 31 163 120 31 163 120 31 163 120 31
164 121 31 164 121 31 165 122 32 165 122 32 166 122 32 166 123 32 167
123 32 167 123 32 168 124 32 168 124 32 168 125 32 169 125 32 169 125
32 170 126 32 170 126 32 171 126 33 171 127 33 172 127 33 172 128 33
172 128 33 173 128 33 173 129 33 174 129 33 174 130 33 175 130 33 175
130 33 176 131 33 176 131 33 177 132 33 177 132 33 177 132 34 178 133
34 178 133 34 179 134 34 179 134 34 180 135 34 180 135 34 181 135 34
181 136 34 181 136 34 182 137 34 182 137 34 183 138 34 183 138 34 184
138 34 184 139 34 185 139 34 185 140 34 186 140 35 186 141 35 186 141
35 187 142 35 187 142 35 188 142 35 188 143 35 189 143 35 189 144 35
190 144 35 190 145 35 191 145 35 191 146 35 191 146 23 173 63 23 174
63 23 174 63 23 174 63 23 175 63 23 175 63 23 175 63 23 176 63 23 176
63 23 177 63 23 177 64 23 177 64 23 178 64 23 178 64 23 179 64 23 179
64 23 180 64 23 180 64 23 180 64 23 181 64 23 181 64 23 182 64 23 182
65 23 183 65 23 183 65 23 183 65 23 184 65 22 184 65 22 185 65 22 185
65 22 186 65 22 186 65 22 187 66 22 187 66 22 188 66 22 188 66 22 189
66 22 189 66 22 190 66 49 25 3 55 27 3 59 29 3 61 30 3 63 30 3 64 31 3
64 31 3 67 31 4 69 32 4 72 32 5 74 32 5 76 33 5 77 33 6 78 33 6 80 35
6 81 36 7 82 37 7 82 39 7 83 40 8 83 41 8 83 43 8 83 44 9 83 45 9 83
46 9 82 48 9 82 49 10 81 50 10 79 51 10 78 52 10 76 53 10 74 54 11 72
56 11 73 58 11 73 60 11 73 63 11 73 65 11 71 68 11 68 71 11 23 197 174
23 198 175 23 199 176 23 201 176 23 202 177 24 203 177 24 205 178 24
206 179 24 207 179 24 209 180 24 210 180 24 212 181 24 213 181 24 214
182 24 216 183 24 217 183 24 219 184 24 220 184 24 222 185 24 223 185
24 225 186 24 226 186 24 228 187 24 229 187 24 231 188 24 232 188 24
234 189 24 235 189 24 237 190 24 238 190 24 240 191 24 241 191 24 243
191 24 244 192 24 246 192 24 247 193 24 248 193 24 250 193 24 251 194
24 253 194 24 254 194 24 255 194 24 255 195 24 255 195 36 255 207 36
255 207 36 255 207 35 255 207 35 255 208 35 255 208 35 255 208 35 255
208 35 255 208 35 255 208 35 255 208
31 162 119 31 162 120 31 163 120 31 163 120 31 164 121 31 164 121 32
165 121 32 165 122 32 166 122 32 166 122 32 167 123 32 167 123 32 167
124 32 168 124 32 168 124 32 169 125 32 169 125 32 170 125 32 170 126
33 171 126 33 171 127 33 171 127 33 172 127 33 172 128 33 173 128 33
173 129 33 174 129 33 174 129 33 175 130 33 175 130 33 176 131 33 176
131 33 176 131 33 177 132 34 177 132 34 178 133 34 178 133 34 179 133
34 179 134 34 180 134 34 180 135 34 181 135 34 181 136 34 181 136 34
182 136 34 182 137 34 183 137 34 183 138 34 184 138 34 184 139 35 185
139 35 185 139 35 185 140 35 186 140 35 186 141 35 187 141 35 187 142
35 188 142 35 188 143 35 189 143 35 189 144 35 189 144 35 190 144 35
190 145 35 191 145 35 191 146 35 192 146 23 173 63 23 174 63 23 174 63
23 175 63 23 175 63 23 175 63 23 176 63 23 176 63 23 176 63 23 177 64
23 177 64 23 178 64 23 178 64 23 178 64 23 179 64 23 179 64 23 180 64
23 180 64 23 180 64 23 181 64 23 181 64 23 182 65 23 182 65 23 183 65
23 183 65 23 184 65 23 184 65 23 184 65 23 185 65 23 185 65 23 186 65
22 186 65 22 187 66 22 187 66 22 188 66 22 188 66 22 189 66 22 189 66
22 190 66 52 26 3 58 29 3 62 30 3 64 31 3 66 31 4 67 32 4 68 32 4 69
32 4 72 33 4 75 33 5 77 34 5 79 34 5 80 34 6 82 34 6 83 34 6 84 35 6
85 36 7 86 38 7 87 39 8 87 40 8 88 42 8 88 43 8 88 44 9 88 45 9 87 46
9 87 48 10 86 49 10 85 50 10 84 51 10 83 52 11 82 53 11 80 54 11 78 56
11 75 57 11 75 59 11 76 61 12 76 64 12 75 66 12 74 69 12 71 72 11 23
198 176 23 199 176 24 200 177 24 202 178 24 203 178 24 204 179 24 206
179 24 207 180 24 208 181 24 210 181 24 211 182 24 213 182 24 214 183
24 216 183 24 217 184 24 218 185 24 220 185 24 221 186 24 223 186 24
224 187 24 226 187 24 227 188 24 229 188 24 230 189 24 232 189 24 233
190 24 235 190 24 236 191 25 238 191 25 239 191 25 241 192 25 242 192
25 244 193 25 245 193 25 246 193 25 248 194 25 249 194 25 251 194 25
252 195 25 253 195 25 255 195 25 255 196 25 255 196 36 255 208 36 255
208 36 255 208 36 255 209 36 255 209 36 255 209 36 255 209 35 255 209
35 255 209 35 255 209 35 255 209
31 163 120 31 163 120 31 164 120 31 164 121 32 165 121 32 165 121 32
165 122 32 166 122 32 166 123 32 167 123 32 167 123 32 168 124 32 168
124 32 169 124 32 169 125 32 170 125 33 170 126 33 170 126 33 171 126
33 171 127 33 172 127 33 172 128 33 173 128 33 173 128 33 174 129 33
174 129 33 175 130 33 175 130 33 175 130 33 176 131 34 176 131 34 177
132 34 177 132 34 178 132 34 178 133 34 179 133 34 179 134 34 180 134
34 180 134 34 180 135 34 181 135 34 181 136 34 182 136 34 182 137 34
183 137 34 183 137 35 184 138 35 184 138 35 184 139 35 185 139 35 185
140 35 186 140 35 186 140 35 187 141 35 187 141 35 188 142 35 188 142
35 188 143 35 189 143 35 189 144 35 190 144 35 190 145 35 191 145 35
191 146 35 192 146 35 192 146 24 174 63 24 174 63 24 174 63 24 175 63
24 175 63 24 176 63 23 176 63 23 176 63 23 177 64 23 177 64 23 177 64
23 178 64 23 178 64 23 179 64 23 179 64 23 179 64 23 180 64 23 180 64
23 181 64 23 181 64 23 181 65 23 182 65 23 182 65 23 183 65 23 183 65
23 184 65 23 184 65 23 184 65 23 185 65 23 185 65 23 186 65 23 186 66
23 187 66 23 187 66 23 188 66 22 188 66 22 189 66 22 189 66 22 190 66
55 27 3 61 30 3 65 31 4 67 32 4 69 33 4 71 33 4 71 33 4 72 34 4 75 34
4 77 34 4 80 35 5 82 35 5 83 35 5 85 35 6 86 35 6 87 35 6 88 35 7 89
37 7 90 38 7 91 39 8 91 40 8 92 42 8 92 43 9 92 44 9 92 45 9 91 46 10
91 48 10 90 49 10 90 50 10 89 51 11 88 52 11 86 53 11 85 54 11 83 55
11 81 57 12 78 58 12 78 60 12 78 62 12 78 64 12 78 67 12 76 70 12 73
73 12 24 199 177 24 200 178 24 201 178 24 203 179 24 204 180 24 205
180 24 207 181 24 208 181 24 209 182 24 211 183 24 212 183 24 214 184
24 215 184 24 217 185 24 218 185 24 219 186 24 221 187 24 222 187 24
224 188 24 225 188 24 227 189 25 228 189 25 230 190 25 231 190 25 233
191 25 234 191 25 236 191 25 237 192 25 239 192 25 240 193 25 241 193
25 243 194 25 244 194 25 246 194 25 247 195 25 249 195 25 250 195 25
251 196 25 253 196 25 254 196 25 255 197 25 255 197 36 255 209 36 255
209 36 255 209 36 255 210 36 255 210 36 255 210 36 255 210 36 255 210
36 255 210 36 255 210 36 255 210
31 164 120 31 164 121 32 164 121 32 165 121 32 165 122 32 166 122 32
166 122 32 167 123 32 167 123 32 168 123 32 168 124 32 169 124 32 169
125 32 169 125 33 170 125 33 170 126 33 171 126 33 171 127 33 172 127
33 172 127 33 173 128 33 173 128 33 174 128 33 174 129 33 174 129 33
175 130 33 175 130 34 176 130 34 176 131 34 177 131 34 177 132 34 178
132 34 178 132 34 179 133 34 179 133 34 179 134 34 180 134 34 180 135
34 181 135 34 181 135 34 182 136 34 182 136 35 183 137 35 183 137 35
183 138 35 184 138 35 184 138 35 185 139 35 185 139 35 186 140 35 186
140 35 187 141 35 187 141 35 187 142 35 188 142 35 188 142 35 189 143
35 189 143 35 190 144 35 190 144 35 191 145 35 191 145 36 191 146 36
192 146 36 192 147 24 174 63 24 174 63 24 175 63 24 175 63 24 175 63
24 176 63 24 176 63 24 177 64 24 177 64 24 177 64 24 178 64 24 178 64
24 178 64 23 179 64 23 179 64 23 180 64 23 180 64 23 180 64 23 181 64
23 181 65 23 182 65 23 182 65 23 182 65 23 183 65 23 183 65 23 184 65
23 184 65 23 185 65 23 185 65 23 185 65 23 186 65 23 186 66 23 187 66
23 187 66 23 188 66 23 188 66 23 189 66 23 189 66 23 190 66 56 28 3 63
30 3 67 32 4 70 33 4 72 34 4 73 34 4 74 34 4 75 35 4 77 35 4 79 36 4
82 36 5 84 36 5 86 36 5 87 37 6 89 37 6 90 37 6 91 37 7 92 37 7 93 37
7 94 38 8 94 39 8 95 41 8 95 42 9 95 43 9 95 44 9 95 45 9 95 46 10 95
48 10 94 49 10 93 50 10 93 51 11 92 52 11 90 53 11 89 54 11 87 55 12
85 56 12 83 57 12 80 58 12 80 60 12 80 63 12 80 65 12 80 68 12 78 71
12 74 74 12 24 200 178 24 201 179 24 202 180 24 204 180 24 205 181 24
206 182 24 208 182 24 209 183 24 210 183 24 212 184 24 213 185 24 215
185 24 216 186 24 217 186 24 219 187 24 220 187 25 222 188 25 223 188
25 225 189 25 226 189 25 228 190 25 229 190 25 230 191 25 232 191 25
233 192 25 235 192 25 236 193 25 238 193 25 239 194 25 241 194 25 242
194 25 244 195 25 245 195 25 246 196 25 248 196 25 249 196 25 251 197
25 252 197 25 253 197 25 254 197 36 255 210 36 255 210 36 255 210 36
255 211 36 255 211 36 255 211 36 255 211 36 255 211 36 255 211 36 255
211 36 255 211 36 255 211
32 164 121 32 165 121 32 165 121 32 166 122 32 166 122 32 167 122 32
167 123 32 168 123 32 168 124 32 168 124 32 169 124 33 169 125 33 170
125 33 170 125 33 171 126 33 171 126 33 172 127 33 172 127 33 173 127
33 173 128 33 173 128 33 174 129 33 174 129 33 175 129 34 175 130 34
176 130 34 176 131 34 177 131 34 177 131 34 178 132 34 178 132 34 178
133 34 179 133 34 179 133 34 180 134 34 180 134 34 181 135 34 181 135
34 182 136 35 182 136 35 182 136 35 183 137 35 183 137 35 184 138 35
184 138 35 185 139 35 185 139 35 186 139 35 186 140 35 186 140 35 187
141 35 187 141 35 188 142 35 188 142 35 189 143 35 189 143 35 190 143
36 190 144 36 190 144 36 191 145 36 191 145 36 192 146 36 192 146 36
193 147 36 193 147 24 175 63 24 175 63 24 175 63 24 176 63 24 176 63
24 176 64 24 177 64 24 177 64 24 178 64 24 178 64 24 178 64 24 179 64
24 179 64 24 179 64 24 180 64 24 180 64 24 181 64 24 181 65 23 181 65
23 182 65 23 182 65 23 183 65 23 183 65 23 183 65 23 184 65 23 184 65
23 185 65 23 185 65 23 185 65 23 186 66 23 186 66 23 187 66 23 187 66
23 188 66 23 188 66 23 189 66 23 189 66 23 190 66 56 28 3 65 31 4 69
33 4 72 34 4 74 34 4 76 35 4 77 35 4 78 36 4 79 36 4 81 36 4 84 37 5
86 37 5 88 37 5 90 38 6 91 38 6 93 38 6 94 38 7 95 38 7 96 38 7 97 38
7 97 38 8 98 39 8 98 41 8 99 42 9 99 43 9 99 44 9 99 45 10 98 46 10 98
47 10 98 49 10 97 50 11 96 51 11 95 52 11 94 53 11 93 54 12 91 55 12
89 56 12 87 57 12 85 58 12 82 59 12 82 61 13 82 64 13 82 66 13 81 69
13 80 72 13 75 75 12 24 201 180 24 202 180 24 203 181 24 205 182 24
206 182 24 207 183 24 209 184 24 210 184 24 211 185 24 213 185 24 214
186 24 216 186 25 217 187 25 218 188 25 220 188 25 221 189 25 223 189
25 224 190 25 225 190 25 227 191 25 228 191 25 230 192 25 231 192 25
233 193 25 234 193 25 236 194 25 237 194 25 238 195 25 240 195 25 241
195 25 243 196 25 244 196 25 246 196 25 247 197 25 248 197 25 250 198
25 251 198 25 252 198 25 254 198 37 255 211 37 255 211 37 255 211 36
255 212 36 255 212 36 255 212 36 255 212 36 255 212 36 255 212 36 255
212 36 255 212 36 255 212
32 165 121 32 166 122 32 166 122 32 166 122 32 167 123 32 167 123 32
168 123 32 168 124 32 169 124 33 169 124 33 170 125 33 170 125 33 171
126 33 171 126 33 172 126 33 172 127 33 172 127 33 173 128 33 173 128
33 174 128 33 174 129 34 175 129 34 175 130 34 176 130 34 176 130 34
177 131 34 177 131 34 177 132 34 178 132 34 178 132 34 179 133 34 179
133 34 180 134 34 180 134 34 181 134 35 181 135 35 181 135 35 182 136
35 182 136 35 183 137 35 183 137 35 184 137 35 184 138 35 185 138 35
185 139 35 185 139 35 186 140 35 186 140 35 187 140 35 187 141 35 188
141 35 188 142 35 189 142 36 189 143 36 189 143 36 190 144 36 190 144
36 191 144 36 191 145 36 192 145 36 192 146 36 192 146 36 193 147 36
193 147 24 175 63 24 175 63 24 176 63 24 176 64 24 176 64 24 177 64 24
177 64 24 177 64 24 178 64 24 178 64 24 179 64 24 179 64 24 179 64 24
180 64 24 180 64 24 180 64 24 181 65 24 181 65 24 181 65 24 182 65 24
182 65 24 183 65 24 183 65 23 183 65 23 184 65 23 184 65 23 185 65 23
185 65 23 185 66 23 186 66 23 186 66 23 187 66 23 187 66 23 188 66 23
188 66 23 189 66 23 189 66 23 189 66 53 27 3 65 31 4 71 33 4 74 34 4
76 35 4 78 36 4 80 36 4 81 37 4 81 37 4 82 37 4 85 38 4 87 38 5 90 38
5 91 39 5 93 39 6 95 39 6 96 39 6 97 39 7 98 39 7 99 39 7 100 39 8 100
38 8 101 39 8 101 40 8 102 42 9 102 43 9 102 44 9 102 45 10 102 46 10
101 47 10 101 48 11 100 49 11 99 50 11 98 52 11 97 53 12 96 54 12 95
55 12 93 56 12 91 57 12 89 58 12 86 59 13 84 60 13 84 62 13 84 65 13
84 67 13 83 70 13 80 73 13 73 77 12 24 202 181 24 203 182 24 204 182
24 206 183 24 207 184 24 208 184 24 210 185 24 211 185 25 212 186 25
214 187 25 215 187 25 216 188 25 218 188 25 219 189 25 221 189 25 222
190 25 223 191 25 225 191 25 226 192 25 228 192 25 229 193 25 230 193
25 232 194 25 233 194 25 235 194 25 236 195 25 238 195 25 239 196 25
240 196 25 242 197 25 243 197 25 245 197 25 246 198 25 247 198 25 249
198 25 250 199 25 251 199 25 253 199 37 255 212 37 255 212 37 255 212
37 255 212 37 255 213 37 255 213 37 255 213 36 255 213 36 255 213 36
255 213 36 255 213 36 255 213
32 166 122 32 166 122 32 167 122 32 167 123 32 168 123 32 168 123 33
169 124 33 169 124 33 170 125 33 170 125 33 170 125 33 171 126 33 171
126 33 172 127 33 172 127 33 173 127 33 173 128 33 174 128 34 174 128
34 175 129 34 175 129 34 176 130 34 176 130 34 176 130 34 177 131 34
177 131 34 178 132 34 178 132 34 179 132 34 179 133 34 180 133 34 180
134 35 180 134 35 181 135 35 181 135 35 182 135 35 182 136 35 183 136
35 183 137 35 184 137 35 184 138 35 184 138 35 185 138 35 185 139 35
186 139 35 186 140 35 187 140 35 187 141 36 188 141 36 188 141 36 188
142 36 189 142 36 189 143 36 190 143 36 190 144 36 191 144 36 191 145
36 191 145 36 192 146 36 192 146 36 193 146 36 193 147 36 194 147 36
194 148 24 176 63 24 176 64 24 176 64 24 177 64 24 177 64 24 177 64 24
178 64 24 178 64 24 178 64 24 179 64 24 179 64 24 179 64 24 180 64 24
180 64 24 181 65 24 181 65 24 181 65 24 182 65 24 182 65 24 182 65 24
183 65 24 183 65 24 184 65 24 184 65 24 184 65 24 185 65 24 185 65 23
186 66 23 186 66 23 186 66 23 187 66 23 187 66 23 188 66 23 188 66 23
189 66 23 189 66 23 189 66 23 190 66 65 31 4 71 33 4 75 35 4 78 36 4
80 37 4 82 37 4 83 38 4 84 38 4 84 38 4 86 38 4 89 39 5 91 39 5 93 39
5 95 40 6 96 40 6 98 40 6 99 40 7 100 40 7 101 40 7 102 40 7 103 39 8
103 39 8 104 39 8 104 40 9 105 42 9 105 43 9 105 44 10 105 45 10 104
46 10 104 47 10 104 48 11 103 49 11 102 50 11 101 51 11 100 52 12 99
53 12 98 54 12 96 55 12 94 56 12 92 57 13 90 59 13 87 60 13 85 61 13
86 63 13 85 66 13 85 68 13 84 71 13 81 74 13 24 201 182 24 203 183 24
204 183 24 205 184 24 206 184 25 208 185 25 209 186 25 210 186 25 212
187 25 213 187 25 214 188 25 216 189 25 217 189 25 218 190 25 220 190
25 221 191 25 223 191 25 224 192 25 225 192 25 227 193 25 228 193 25
230 194 25 231 194 25 233 195 25 234 195 25 235 196 25 237 196 25 238
197 25 240 197 25 241 197 25 242 198 25 244 198 25 245 199 25 246 199
25 248 199 25 249 200 25 250 200 37 255 213 37 255 213 37 255 213 37
255 213 37 255 213 37 255 214 37 255 214 37 255 214 37 255 214 37 255
214 37 255 214 37 255 214 36 255 214
32 167 122 32 167 122 32 168 123 32 168 123 33 168 124 33 169 124 33
169 124 33 170 125 33 170 125 33 171 125 33 171 126 33 172 126 33 172
127 33 173 127 33 173 127 33 174 128 34 174 128 34 174 129 34 175 129
34 175 129 34 176 130 34 176 130 34 177 131 34 177 131 34 178 131 34
178 132 34 179 132 34 179 133 34 179 133 35 180 133 35 180 134 35 181
134 35 181 135 35 182 135 35 182 135 35 183 136 35 183 136 35 184 137
35 184 137 35 184 138 35 185 138 35 185 138 35 186 139 35 186 139 36
187 140 36 187 140 36 187 141 36 188 141 36 188 142 36 189 142 36 189
142 36 190 143 36 190 143 36 190 144 36 191 144 36 191 145 36 192 145
36 192 146 36 193 146 36 193 147 36 194 147 36 194 148 36 194 148 24
176 64 24 176 64 24 177 64 24 177 64 24 177 64 24 178 64 24 178 64 24
178 64 24 179 64 24 179 64 24 179 64 24 180 64 24 180 64 24 180 65 24
181 65 24 181 65 24 181 65 24 182 65 24 182 65 24 183 65 24 183 65 24
183 65 24 184 65 24 184 65 24 184 65 24 185 65 24 185 66 24 186 66 24
186 66 24 186 66 24 187 66 23 187 66 23 188 66 23 188 66 23 188 66 23
189 66 23 189 66 23 190 66 63 30 3 71 33 4 76 35 4 79 36 4 82 37 4 84
38 4 85 38 4 86 39 4 86 39 4 87 39 4 89 39 4 92 40 5 94 40 5 96 40 5
98 41 6 99 41 6 101 41 6 102 41 7 103 41 7 104 41 7 105 40 8 106 40 8
106 40 8 107 40 8 107 40 9 107 41 9 107 42 9 107 44 10 107 45 10 107
46 10 107 47 10 106 48 11 106 49 11 105 50 11 104 51 11 103 52 12 102
53 12 101 54 12 99 55 12 97 56 13 95 57 13 93 58 13 91 63 14 88 68 15
87 63 14 87 64 13 87 67 13 86 69 13 84 72 13 80 76 13 24 202 183 24
203 184 25 205 185 25 206 185 25 207 186 25 208 186 25 210 187 25 211
188 25 212 188 25 214 189 25 215 189 25 216 190 25 218 190 25 219 191
25 221 192 25 222 192 25 223 193 25 225 193 25 226 194 25 227 194 25
229 195 25 230 195 25 232 196 25 233 196 25 234 197 25 236 197 25 237
197 25 239 198 26 240 198 26 241 199 26 243 199 26 244 199 26 245 200
26 247 200 26 248 200 26 249 201 37 255 214 37 255 214 37 255 214 37
255 214 37 255 214 37 255 214 37 255 215 37 255 215 37 255 215 37 255
215 37 255 215 37 255 215 37 255 215
32 167 123 33 168 123 33 168 123 33 169 124 33 169 124 33 170 124 33
170 125 33 171 125 33 171 126 33 172 126 33 172 126 33 173 127 33 173
127 34 173 128 34 174 128 34 174 128 34 175 129 34 175 129 34 176 129
34 176 130 34 177 130 34 177 131 34 178 131 34 178 131 34 178 132 34
179 132 35 179 133 35 180 133 35 180 134 35 181 134 35 181 134 35 182
135 35 182 135 35 183 136 35 183 136 35 183 136 35 184 137 35 184 137
35 185 138 35 185 138 35 186 139 36 186 139 36 186 139 36 187 140 36
187 140 36 188 141 36 188 141 36 189 142 36 189 142 36 190 143 36 190
143 36 190 143 36 191 144 36 191 144 36 192 145 36 192 145 36 193 146
36 193 146 36 193 147 36 194 147 37 194 148 37 195 148 37 195 149 25
176 64 25 177 64 25 177 64 25 178 64 25 178 64 25 178 64 24 179 64 24
179 64 24 179 64 24 180 64 24 180 64 24 180 65 24 181 65 24 181 65 24
181 65 24 182 65 24 182 65 24 182 65 24 183 65 24 183 65 24 183 65 24
184 65 24 184 65 24 185 65 24 185 66 24 185 66 24 186 66 24 186 66 24
186 66 24 187 66 24 187 66 24 188 66 24 188 66 24 188 66 23 189 66 23
189 66 23 190 66 23 190 67 70 33 4 76 35 4 80 37 4 83 38 4 85 38 4 86
39 4 88 39 4 88 40 4 89 40 4 90 40 4 93 40 5 95 41 5 97 41 5 99 41 6
101 41 6 102 41 6 103 42 7 105 42 7 106 42 7 107 41 7 107 41 8 108 41
8 109 41 8 109 41 9 109 40 9 110 41 9 110 42 9 110 43 10 110 44 10 109
45 10 109 46 11 109 48 11 108 49 11 107 50 11 107 51 12 106 52 12 105
53 12 103 54 12 102 55 12 100 56 13 98 57 13 96 58 13 94 62 14 92 87
21 89 81 19 88 64 14 88 65 14 88 68 14 87 70 14 84 73 13 75 78 12 25
203 185 25 204 185 25 205 186 25 207 186 25 208 187 25 209 188 25 210
188 25 212 189 25 213 189 25 214 190 25 216 191 25 217 191 25 218 192
25 220 192 25 221 193 25 223 193 25 224 194 25 225 194 25 227 195 25
228 195 25 229 196 26 231 196 26 232 197 26 233 197 26 235 198 26 236
198 26 238 199 26 239 199 26 240 199 26 242 200 26 243 200 26 244 200
26 245 201 26 247 201 26 248 201 38 255 214 38 255 215 37 255 215 37
255 215 37 255 215 37 255 215 37 255 215 37 255 216 37 255 216 37 255
216 37 255 216 37 255 216 37 255 216
33 168 123 33 169 123 33 169 124 33 170 124 33 170 125 33 170 125 33
171 125 33 171 126 33 172 126 33 172 126 33 173 127 34 173 127 34 174
128 34 174 128 34 175 128 34 175 129 34 176 129 34 176 130 34 177 130
34 177 130 34 177 131 34 178 131 34 178 132 35 179 132 35 179 132 35
180 133 35 180 133 35 181 134 35 181 134 35 182 134 35 182 135 35 182
135 35 183 136 35 183 136 35 184 137 35 184 137 35 185 137 36 185 138
36 186 138 36 186 139 36 186 139 36 187 140 36 187 140 36 188 140 36
188 141 36 189 141 36 189 142 36 189 142 36 190 143 36 190 143 36 191
144 36 191 144 36 192 144 36 192 145 36 192 145 37 193 146 37 193 146
37 194 147 37 194 147 37 195 148 37 195 148 37 195 149 37 196 149 25
177 64 25 177 64 25 178 64 25 178 64 25 178 64 25 179 64 25 179 64 25
179 64 25 180 65 25 180 65 25 180 65 25 181 65 24 181 65 24 182 65 24
182 65 24 182 65 24 183 65 24 183 65 24 183 65 24 184 65 24 184 65 24
184 65 24 185 66 24 185 66 24 185 66 24 186 66 24 186 66 24 187 66 24
187 66 24 187 66 24 188 66 24 188 66 24 188 66 24 189 66 24 189 66 24
190 67 24 190 67 67 32 4 75 35 4 80 37 4 84 38 4 86 39 4 88 39 4 89 40
4 90 40 4 91 40 4 91 41 4 93 41 4 95 41 5 98 42 5 100 42 5 101 42 6
103 42 6 105 42 6 106 42 7 107 42 7 108 42 7 109 42 8 110 42 8 110 42
8 111 42 8 111 41 9 112 41 9 112 41 9 112 42 9 112 43 10 112 44 10 112
45 10 111 46 11 111 47 11 110 48 11 110 49 11 109 50 12 108 51 12 107
52 12 106 53 12 104 54 13 103 55 13 101 56 13 99 57 13 97 59 13 94 78
19 92 114 29 90 73 17 89 64 14 89 66 14 88 69 14 87 72 14 83 75 13 25
202 185 25 204 186 25 205 187 25 206 187 25 207 188 25 209 188 25 210
189 25 211 190 25 212 190 25 214 191 25 215 191 25 216 192 25 218 192
25 219 193 25 220 194 25 222 194 25 223 195 26 224 195 26 226 196 26
227 196 26 228 197 26 230 197 26 231 198 26 233 198 26 234 198 26 235
199 26 237 199 26 238 200 26 239 200 26 240 201 26 242 201 26 243 201
26 244 202 26 246 202 38 255 215 38 255 215 38 255 216 38 255 216 38
255 216 38 255 216 38 255 216 38 255 216 37 255 216 37 255 217 37 255
217 37 255 217 37 255 217 37 255 217
33 169 124 33 169 124 33 170 124 33 170 125 33 171 125 33 171 125 33
172 126 33 172 126 34 173 127 34 173 127 34 174 127 34 174 128 34 175
128 34 175 129 34 175 129 34 176 129 34 176 130 34 177 130 34 177 130
34 178 131 35 178 131 35 179 132 35 179 132 35 180 133 35 180 133 35
181 133 35 181 134 35 181 134 35 182 135 35 182 135 35 183 135 35 183
136 35 184 136 35 184 137 36 185 137 36 185 138 36 185 138 36 186 138
36 186 139 36 187 139 36 187 140 36 188 140 36 188 141 36 188 141 36
189 141 36 189 142 36 190 142 36 190 143 36 191 143 36 191 144 36 191
144 37 192 145 37 192 145 37 193 145 37 193 146 37 194 146 37 194 147
37 194 147 37 195 148 37 195 148 37 196 149 37 196 149 37 197 150 25
178 64 25 178 64 25 178 64 25 179 64 25 179 64 25 179 64 25 180 65 25
180 65 25 180 65 25 181 65 25 181 65 25 181 65 25 182 65 25 182 65 25
182 65 25 183 65 25 183 65 24 183 65 24 184 65 24 184 65 24 184 66 24
185 66 24 185 66 24 186 66 24 186 66 24 186 66 24 187 66 24 187 66 24
187 66 24 188 66 24 188 66 24 189 66 24 189 66 24 189 66 24 190 67 24
190 67 24 190 67 73 34 4 80 36 4 84 38 4 87 39 4 89 40 4 90 40 4 92 41
4 93 41 4 93 41 4 94 41 4 96 42 4 98 42 5 100 42 5 102 43 6 104 43 6
105 43 6 107 43 7 108 43 7 109 43 7 110 43 7 111 43 8 112 43 8 112 43
8 113 42 8 113 42 9 114 42 9 114 42 9 114 42 9 114 43 10 114 44 10 114
45 10 113 46 11 113 47 11 112 48 11 112 49 11 111 50 12 110 51 12 109
52 12 108 53 12 107 54 13 105 55 13 103 55 13 101 56 13 99 57 13 97 62
14 95 90 22 91 86 21 90 63 14 90 65 14 90 67 14 89 70 14 86 73 14 79
77 13 25 203 187 25 204 187 25 205 188 25 207 188 25 208 189 25 209
190 25 210 190 25 212 191 25 213 191 25 214 192 25 216 193 25 217 193
25 218 194 26 220 194 26 221 195 26 222 195 26 224 196 26 225 196 26
226 197 26 228 197 26 229 198 26 230 198 26 231 199 26 233 199 26 234
200 26 235 200 26 237 200 26 238 201 26 239 201 26 241 202 26 242 202
26 243 202 26 244 203 38 255 216 38 255 216 38 255 216 38 255 217 38
255 217 38 255 217 38 255 217 38 255 217 38 255 217 38 255 217 38 255
218 38 255 218 37 255 218 37 255 218
33 170 124 33 170 124 33 171 125 33 171 125 33 172 126 33 172 126 34
173 126 34 173 127 34 173 127 34 174 127 34 174 128 34 175 128 34 175
129 34 176 129 34 176 129 34 177 130 34 177 130 35 178 131 35 178 131
35 179 131 35 179 132 35 179 132 35 180 133 35 180 133 35 181 133 35
181 134 35 182 134 35 182 135 35 183 135 35 183 135 35 184 136 36 184
136 36 184 137 36 185 137 36 185 138 36 186 138 36 186 138 36 187 139
36 187 139 36 188 140 36 188 140 36 188 141 36 189 141 36 189 141 36
190 142 36 190 142 36 191 143 37 191 143 37 191 144 37 192 144 37 192
145 37 193 145 37 193 146 37 193 146 37 194 146 37 194 147 37 195 147
37 195 148 37 196 148 37 196 149 37 196 149 37 197 150 37 197 150 25
178 64 25 179 64 25 179 64 25 179 65 25 180 65 25 180 65 25 180 65 25
181 65 25 181 65 25 181 65 25 182 65 25 182 65 25 182 65 25 183 65 25
183 65 25 183 65 25 184 65 25 184 65 25 184 66 25 185 66 25 185 66 24
185 66 24 186 66 24 186 66 24 186 66 24 187 66 24 187 66 24 187 66 24
188 66 24 188 66 24 103 47 24 103 47 24 103 47 24 103 47 23 103 47 23
102 47 69 32 4 78 36 4 83 38 4 87 39 4 89 40 4 91 41 4 93 41 4 94 42 4
95 42 4 95 42 4 96 42 4 98 43 5 100 43 5 102 43 5 104 43 6 106 44 6
108 44 6 109 44 7 110 44 7 111 44 7 112 44 7 113 44 8 114 43 8 114 43
8 115 43 9 115 43 9 115 42 9 116 42 9 116 42 10 116 42 10 116 43 10
115 44 10 115 45 11 115 46 11 114 47 11 114 48 11 113 49 12 112 50 12
111 51 12 110 52 12 108 53 13 107 54 13 105 55 13 103 56 13 101 57 13
99 58 14 96 63 15 93 72 17 91 63 15 91 63 14 91 66 14 90 68 14 88 71
14 84 74 13 25 202 187 25 204 188 25 205 188 25 206 189 25 207 190 25
209 190 25 210 191 25 211 192 25 212 192 25 214 193 26 215 193 26 216
194 26 217 194 26 219 195 26 220 196 26 221 196 26 223 197 26 224 197
26 225 198 26 227 198 26 228 199 26 229 199 26 230 199 26 232 200 26
233 200 26 234 201 26 236 201 26 237 202 26 238 202 26 239 202 26 241
203 26 242 203 38 255 216 38 255 217 38 255 217 38 255 217 38 255 217
38 255 218 38 255 218 38 255 218 38 255 218 38 255 218 38 255 218 38
255 218 38 255 218 38 255 218 38 255 218
33 170 124 33 171 125 33 171 125 34 172 126 34 172 126 34 173 126 34
173 127 34 174 127 34 174 128 34 175 128 34 175 128 34 176 129 34 176
129 34 177 129 34 177 130 35 177 130 35 178 131 35 178 131 35 179 131
35 179 132 35 180 132 35 180 133 35 181 133 35 181 134 35 182 134 35
182 134 35 183 135 35 183 135 36 183 136 36 184 136 36 184 136 36 185
137 36 185 137 36 186 138 36 186 138 36 187 139 36 187 139 36 187 139
36 188 140 36 188 140 36 189 141 36 189 141 36 190 142 37 190 142 37
190 142 37 191 143 37 191 143 37 192 144 37 192 144 37 193 145 37 193
145 37 193 146 37 194 146 37 194 147 37 195 147 37 195 147 37 195 148
37 196 148 37 196 149 37 197 149 37 197 150 37 198 150 37 198 151 25
179 64 25 179 65 25 180 65 25 180 65 25 180 65 25 181 65 25 181 65 25
181 65 25 182 65 25 182 65 25 182 65 25 182 65 25 183 65 25 183 65 25
183 65 25 184 65 25 184 66 25 184 66 25 185 66 25 185 66 25 185 66 25
186 66 25 186 66 24 105 47 24 105 47 24 105 47 24 105 47 24 104 47 24
104 47 24 104 47 24 104 47 24 104 47 24 103 47 24 103 47 24 103 47 24
103 47 75 35 4 82 37 4 86 39 4 89 40 4 92 41 4 94 41 4 95 42 4 96 42 4
97 43 4 97 43 4 98 43 4 100 43 5 102 44 5 104 44 5 106 44 6 108 44 6
110 44 6 111 44 7 112 44 7 113 44 7 114 44 8 115 44 8 116 44 8 116 44
8 117 44 9 117 43 9 117 43 9 117 43 9 117 42 10 117 42 10 117 43 10
117 44 10 117 45 11 116 46 11 116 47 11 115 48 11 115 49 12 114 50 12
113 51 12 112 52 12 110 53 13 109 53 13 107 54 13 105 55 13 103 56 13
101 57 14 98 58 14 95 60 14 92 61 14 92 62 14 92 64 14 91 67 14 90 69
14 87 72 14 25 202 188 25 203 188 25 204 189 25 205 190 25 207 190 25
208 191 25 209 192 25 210 192 26 212 193 26 213 193 26 214 194 26 215
195 26 217 195 26 218 196 26 219 196 26 220 197 26 222 197 26 223 198
26 224 198 26 226 199 26 227 199 26 228 200 26 229 200 26 231 201 26
232 201 26 233 202 26 235 202 26 236 202 26 237 203 26 238 203 26 239
203 26 241 204 39 255 217 38 255 217 38 255 218 38 255 218 38 255 218
38 255 218 38 255 219 38 255 219 38 255 219 38 255 219 38 255 219 38
255 219 38 255 219 38 255 219 38 255 219
33 171 125 34 172 125 34 172 126 34 173 126 34 173 126 34 174 127 34
174 127 34 175 128 34 175 128 34 175 128 34 176 129 34 176 129 35 177
130 35 177 130 35 178 130 35 178 131 35 179 131 35 179 132 35 180 132
35 180 132 35 181 133 35 181 133 35 181 134 35 182 134 35 182 134 36
183 135 36 183 135 36 184 136 36 184 136 36 185 137 36 185 137 36 186
137 36 186 138 36 186 138 36 187 139 36 187 139 36 188 139 36 188 140
36 189 140 37 189 141 37 189 141 37 190 142 37 190 142 37 191 143 37
191 143 37 192 143 37 192 144 37 192 144 37 193 145 37 193 145 37 194
146 37 194 146 37 195 147 37 195 147 37 195 148 37 196 148 37 196 148
37 197 149 38 197 149 38 197 150 38 198 150 38 198 151 38 199 151 25
180 65 25 180 65 25 180 65 25 181 65 25 181 65 25 181 65 25 181 65 25
182 65 25 182 65 25 182 65 25 183 65 25 183 65 25 183 65 25 184 66 25
184 66 25 184 66 25 185 66 25 107 48 25 106 48 24 106 48 24 106 48 24
106 48 24 106 48 24 106 48 24 105 47 24 105 47 24 105 47 24 105 47 24
105 47 24 105 47 24 104 47 24 104 47 24 104 47 24 104 47 24 104 47 66
31 4 79 36 4 85 38 4 89 40 4 92 41 4 94 42 4 96 42 4 97 43 4 98 43 4
99 43 4 99 43 4 100 44 4 102 44 5 104 44 5 106 45 5 108 45 6 110 45 6
111 45 6 113 45 7 114 45 7 115 45 7 116 45 8 116 45 8 117 45 8 118 44
8 118 44 9 119 44 9 119 44 9 119 43 9 119 43 10 119 42 10 119 43 10
119 44 10 118 45 11 118 45 11 117 46 11 117 47 12 116 48 12 115 49 12
114 50 12 113 51 12 112 52 13 110 53 13 109 54 13 107 55 13 105 55 13
103 56 14 100 57 14 97 58 14 94 59 14 92 60 14 92 63 14 92 65 14 91 68
14 89 71 14 84 74 13 25 202 189 25 204 190 25 205 190 25 206 191 25
207 192 26 208 192 26 210 193 26 211 193 26 212 194 26 213 195 26 215
195 26 216 196 26 217 196 26 218 197 26 220 197 26 221 198 26 222 198
26 223 199 26 225 199 26 226 200 26 227 200 26 228 201 26 230 201 26
231 202 26 232 202 26 233 203 26 235 203 26 236 203 26 237 204 26 238
204 39 255 218 39 255 218 39 255 218 39 255 219 39 255 219 39 255 219
39 255 219 38 255 219 38 255 219 38 255 220 38 255 220 38 255 220 38
255 220 38 255 220 38 255 220 38 255 220
34 172 125 34 172 126 34 173 126 34 173 127 34 174 127 34 174 127 34
175 128 34 175 128 34 176 128 34 176 129 35 177 129 35 177 130 35 178
130 35 178 130 35 179 131 35 179 131 35 180 132 35 180 132 35 180 132
35 181 133 35 181 133 35 182 134 36 182 134 36 183 135 36 183 135 36
184 135 36 184 136 36 185 136 36 185 137 36 185 137 36 186 137 36 186
138 36 187 138 36 187 139 36 188 139 36 188 140 37 189 140 37 189 140
37 189 141 37 190 141 37 190 142 37 191 142 37 191 143 37 192 143 37
192 144 37 192 144 37 193 144 37 193 145 37 194 145 37 194 146 37 194
146 37 195 147 37 195 147 38 196 148 38 196 148 38 196 149 38 197 149
38 197 149 38 198 150 38 198 150 38 199 151 38 199 151 38 199 152 26
180 65 26 180 65 26 181 65 26 181 65 26 181 65 25 182 65 25 182 65 25
182 65 25 183 65 25 183 65 25 183 65 25 184 66 25 108 48 25 108 48 25
108 48 25 107 48 25 107 48 25 107 48 25 107 48 25 107 48 25 107 48 25
106 48 24 106 48 24 106 48 24 106 48 24 106 48 24 106 48 24 105 47 24
105 47 24 105 47 24 105 47 24 105 47 24 104 47 24 104 47 24 104 47 73
34 4 82 37 4 87 39 4 91 41 4 94 42 4 96 42 4 98 43 4 99 43 4 100 44 4
100 44 4 101 44 4 102 44 4 104 45 5 106 45 5 108 45 6 110 45 6 111 45
6 113 45 7 114 46 7 115 45 7 116 45 7 117 45 8 118 45 8 119 45 8 119
45 8 120 45 9 120 44 9 120 44 9 120 44 9 120 43 10 120 43 10 120 43 10
120 43 10 120 44 11 119 45 11 119 46 11 118 47 12 117 48 12 117 49 12
116 50 12 115 50 12 113 51 13 112 52 13 110 53 13 109 54 13 107 55 13
104 56 14 102 56 14 99 57 14 96 58 14 93 59 14 93 61 14 93 64 14 92 66
14 90 69 14 86 72 14 25 202 190 25 203 190 25 204 191 26 205 192 26
206 192 26 208 193 26 209 193 26 210 194 26 211 195 26 212 195 26 214
196 26 215 196 26 216 197 26 217 197 26 219 198 26 220 199 26 221 199
26 222 200 26 224 200 26 225 201 26 226 201 26 227 202 26 229 202 26
230 202 26 231 203 26 232 203 27 233 204 27 235 204 27 236 204 27 237
205 39 255 219 39 255 219 39 255 219 39 255 219 39 255 220 39 255 220
39 255 220 39 255 220 39 255 220 39 255 220 39 255 221 38 255 221 38
255 221 38 255 221 38 255 221 38 255 221
34 173 126 34 173 126 34 174 127 34 174 127 34 175 127 34 175 128 34
176 128 34 176 129 35 177 129 35 177 129 35 177 130 35 178 130 35 178
131 35 179 131 35 179 131 35 180 132 35 180 132 35 181 133 35 181 133
36 182 133 36 182 134 36 183 134 36 183 135 36 184 135 36 184 135 36
184 136 36 185 136 36 185 137 36 186 137 36 186 138 36 187 138 36 187
138 37 188 139 37 188 139 37 188 140 37 189 140 37 189 140 37 190 141
37 190 141 37 191 142 37 191 142 37 191 143 37 192 143 37 192 144 37
193 144 37 193 144 37 194 145 37 194 145 37 194 146 38 195 146 38 195
147 38 196 147 38 196 148 38 196 148 38 197 149 38 197 149 38 198 149
38 198 150 38 198 150 38 199 151 38 199 151 38 200 152 38 200 152 26
181 65 26 181 65 26 181 65 26 182 65 26 182 65 26 182 65 26 183 65 26
183 65 25 109 48 25 109 48 25 109 48 25 109 48 25 108 48 25 108 48 25
108 48 25 108 48 25 108 48 25 108 48 25 107 48 25 107 48 25 107 48 25
107 48 25 107 48 25 107 48 25 106 48 24 106 48 24 106 48 24 106 48 24
106 48 24 106 47 24 105 47 24 105 47 24 105 47 24 105 47 24 105 47 77
35 4 85 38 4 90 40 4 93 41 4 96 42 4 98 43 4 99 44 4 100 44 4 101 44 4
102 44 4 102 45 4 103 45 5 106 45 5 108 45 5 110 46 6 111 46 6 113 46
6 114 46 7 116 46 7 117 46 7 118 46 7 119 46 8 119 46 8 120 45 8 120
45 9 121 45 9 121 45 9 121 44 9 122 44 10 122 44 10 122 43 10 121 43
10 121 43 10 121 44 11 120 44 11 120 45 11 119 46 12 119 47 12 118 48
12 117 49 12 116 50 12 115 51 13 113 52 13 112 52 13 110 53 13 108 54
13 106 55 14 103 56 14 101 57 14 97 57 14 94 58 14 93 60 14 93 62 14
92 65 14 91 67 14 88 70 14 25 201 190 26 202 191 26 203 192 26 205 192
26 206 193 26 207 193 26 208 194 26 209 195 26 210 195 26 212 196 26
213 196 26 214 197 26 215 198 26 216 198 26 218 199 26 219 199 26 220
200 26 221 200 26 223 201 26 224 201 26 225 202 26 226 202 27 227 203
27 229 203 27 230 204 27 231 204 27 232 204 27 233 205 27 235 205 39
255 219 39 255 219 39 255 220 39 255 220 39 255 220 39 255 220 39 255
220 39 255 221 39 255 221 39 255 221 39 255 221 39 255 221 39 255 221
39 255 222 39 255 222 39 255 222 38 255 222
34 174 126 34 174 127 34 174 127 34 175 127 34 175 128 35 176 128 35
176 129 35 177 129 35 177 129 35 178 130 35 178 130 35 179 131 35 179
131 35 180 131 35 180 132 35 181 132 35 181 133 36 182 133 36 182 133
36 182 134 36 183 134 36 183 135 36 184 135 36 184 135 36 185 136 36
185 136 36 186 137 36 186 137 36 187 138 37 187 138 37 187 138 37 188
139 37 188 139 37 189 140 37 189 140 37 190 141 37 190 141 37 190 141
37 191 142 37 191 142 37 192 143 37 192 143 37 193 144 37 193 144 37
193 145 38 194 145 38 194 145 38 195 146 38 195 146 38 195 147 38 196
147 38 196 148 38 197 148 38 197 149 38 197 149 38 198 150 38 198 150
38 199 150 38 199 151 38 199 151 38 200 152 38 200 152 38 201 153 38
201 153 26 182 65 26 182 65 26 110 49 25 110 49 25 110 49 25 110 49 25
110 49 25 109 49 25 109 49 25 109 49 25 109 49 25 109 48 25 109 48 25
109 48 25 108 48 25 108 48 25 108 48 25 108 48 25 108 48 25 108 48 25
107 48 25 107 48 25 107 48 25 107 48 25 107 48 25 107 48 25 106 48 24
106 48 24 106 48 24 106 48 24 106 48 24 105 47 24 105 47 24 105 47 80
37 4 87 39 4 92 41 4 95 42 4 98 43 4 99 44 4 101 44 4 102 44 4 103 45
4 103 45 4 103 45 4 105 45 5 107 46 5 109 46 5 111 46 6 113 46 6 114
46 6 116 46 7 117 46 7 118 46 7 119 46 7 120 46 8 120 46 8 121 46 8
122 46 9 122 45 9 122 45 9 123 45 9 123 45 10 123 44 10 123 44 10 122
43 10 122 43 10 122 43 11 121 44 11 121 45 11 120 46 11 120 47 12 119
47 12 118 48 12 117 49 12 116 50 13 114 51 13 113 52 13 111 53 13 109
53 13 107 54 14 105 55 14 102 56 14 99 57 14 95 57 14 94 59 14 93 61
14 93 63 14 91 66 14 89 69 14 83 72 13 26 202 191 26 203 192 26 204
193 26 205 193 26 206 194 26 207 195 26 209 195 26 210 196 26 211 196
26 212 197 26 213 198 26 214 198 26 216 199 26 217 199 26 218 200 26
219 200 26 220 201 27 222 201 27 223 202 27 224 202 27 225 203 27 226
203 27 227 204 27 229 204 27 230 205 27 231 205 27 232 205 39 255 219
39 255 220 39 255 220 39 255 220 39 255 221 39 255 221 39 255 221 39
255 221 39 255 221 39 255 222 39 255 222 39 255 222 39 255 222 39 255
222 39 255 222 39 255 222 39 255 222 39 255 222
34 174 127 34 175 127 34 175 128 35 176 128 35 176 128 35 177 129 35
177 129 35 178 130 35 178 130 35 179 130 35 179 131 35 180 131 35 180
131 35 180 132 36 181 132 36 181 133 36 182 133 36 182 134 36 183 134
36 183 134 36 184 135 36 184 135 36 185 136 36 185 136 36 186 136 36
186 137 37 186 137 37 187 138 37 187 138 37 188 138 37 188 139 37 189
139 37 189 140 37 190 140 37 190 141 37 190 141 37 191 141 37 191 142
37 192 142 37 192 143 37 192 143 38 193 144 38 193 144 38 194 145 38
194 145 38 195 145 38 195 146 38 195 146 38 196 147 38 196 147 38 197
148 38 197 148 38 197 149 38 198 149 38 198 150 38 199 150 38 199 151
38 199 151 38 200 151 38 200 152 38 201 152 38 201 153 38 131 137 38
131 138 26 111 49 26 111 49 26 111 49 26 111 49 26 110 49 26 110 49 26
110 49 26 110 49 25 110 49 25 110 49 25 110 49 25 109 49 25 109 49 25
109 49 25 109 49 25 109 48 25 109 48 25 109 48 25 108 48 25 108 48 25
108 48 25 108 48 25 108 48 25 107 48 25 107 48 25 107 48 25 107 48 25
107 48 25 106 48 24 106 48 24 106 48 24 106 48 24 106 48 69 32 4 83 38
4 89 40 4 94 41 4 97 43 4 99 43 4 101 44 4 102 45 4 103 45 4 104 45 4
104 45 4 105 46 4 106 46 5 108 46 5 110 46 5 112 47 6 114 47 6 115 47
6 117 47 7 118 47 7 119 47 7 120 47 7 121 47 8 121 46 8 122 46 8 123
46 9 123 46 9 123 46 9 124 45 9 124 45 10 124 45 10 124 44 10 123 44
10 123 43 10 123 43 11 122 43 11 122 44 11 121 45 11 121 46 12 120 47
12 119 48 12 118 49 13 118 50 14 116 50 13 114 51 13 112 52 13 110 53
13 108 53 14 106 54 14 103 55 14 100 56 14 97 56 14 94 57 14 94 60 14
93 62 14 92 64 14 90 67 14 85 70 13 26 201 192 26 202 193 26 203 193
26 204 194 26 205 195 26 207 195 26 208 196 26 209 196 26 210 197 26
211 198 26 212 198 26 213 199 26 215 199 26 216 200 27 217 200 27 218
201 27 219 201 27 220 202 27 222 202 27 223 203 27 224 203 27 225 204
27 226 204 27 227 205 27 229 205 27 230 206 27 231 206 40 255 220 40
255 220 40 255 221 40 255 221 40 255 221 39 255 221 39 255 222 39 255
222 39 255 222 39 255 222 39 255 223 39 255 223 39 255 223 39 255 223
39 255 223 39 255 223 39 255 223 39 255 223
34 175 127 35 176 128 35 176 128 35 176 128 35 177 129 35 177 129 35
178 130 35 178 130 35 179 130 35 179 131 35 180 131 35 180 132 36 181
132 36 181 132 36 182 133 36 182 133 36 183 134 36 183 134 36 184 134
36 184 135 36 184 135 36 185 136 36 185 136 36 186 136 37 186 137 37
187 137 37 187 138 37 188 138 37 188 139 37 189 139 37 189 139 37 189
140 37 190 140 37 190 141 37 191 141 37 191 142 37 192 142 37 192 142
38 192 143 38 193 143 38 193 144 38 194 144 38 194 145 38 194 145 38
195 146 38 195 146 38 196 146 38 196 147 38 197 147 38 197 148 38 197
148 38 198 149 38 198 149 38 199 150 38 199 150 38 199 151 39 200 151
39 200 151 38 131 136 38 131 136 38 131 137 38 131 137 38 131 138 38
131 138 26 111 49 26 111 49 26 111 49 26 111 49 26 111 49 26 111 49 26
111 49 26 111 49 26 110 49 26 110 49 26 110 49 26 110 49 25 110 49 25
110 49 25 110 49 25 109 49 25 109 49 25 109 49 25 109 48 25 109 48 25
109 48 25 108 48 25 108 48 25 108 48 25 108 48 25 108 48 25 107 48 25
107 48 25 107 48 25 107 48 25 107 48 25 106 48 24 106 48 74 34 4 85 38
4 91 40 4 95 42 4 98 43 4 100 44 4 102 45 4 103 45 4 104 45 4 105 46 4
106 46 4 106 46 4 107 46 5 109 46 5 111 47 5 113 47 6 115 47 6 116 47
6 118 47 7 119 47 7 120 47 7 121 47 8 122 47 8 122 47 8 123 47 8 123
46 9 124 46 9 124 46 9 124 46 9 124 45 10 124 45 10 124 44 10 124 44
10 124 44 10 124 43 11 123 43 11 123 44 11 122 44 11 121 45 12 120 46
12 120 47 13 124 49 20 129 51 28 121 51 19 115 50 13 113 51 13 111 52
13 109 53 14 106 53 14 104 54 14 101 55 14 98 56 14 94 56 14 94 58 14
93 61 14 92 63 14 90 66 14 86 68 13 26 200 193 26 201 193 26 202 194
26 204 194 26 205 195 26 206 196 26 207 196 26 208 197 26 209 198 26
210 198 26 211 199 26 213 199 27 214 200 27 215 200 27 216 201 27 217
202 27 218 202 27 219 203 27 221 203 27 222 204 27 223 204 27 224 204
27 225 205 27 226 205 27 227 206 27 229 206 40 255 220 40 255 221 40
255 221 40 255 221 40 255 222 40 255 222 40 255 222 40 255 222 40 255
223 40 255 223 40 255 223 39 255 223 39 255 223 39 255 224 39 255 224
39 255 224 39 255 224 39 255 224 39 255 224
35 176 128 35 176 128 35 177 128 35 177 129 35 178 129 35 178 130 35
179 130 35 179 130 35 180 131 36 180 131 36 181 132 36 181 132 36 182
132 36 182 133 36 182 133 36 183 134 36 183 134 36 184 134 36 184 135
36 185 135 36 185 136 37 186 136 37 186 137 37 187 137 37 187 137 37
187 138 37 188 138 37 188 139 37 189 139 37 189 139 37 190 140 37 190
140 37 191 141 37 191 141 38 191 142 38 192 142 38 192 142 38 193 143
38 193 143 38 194 144 38 194 144 38 194 145 38 195 145 38 195 146 38
196 146 38 196 146 38 196 147 38 197 147 38 197 148 38 198 148 38 198
149 38 198 149 39 199 150 39 199 150 38 132 135 38 132 135 38 132 136
38 132 136 38 132 137 39 132 137 39 132 137 39 132 138 39 132 138 39
132 139 39 132 139 26 112 49 26 112 49 26 112 49 26 112 49 26 111 49
26 111 49 26 111 49 26 111 49 26 111 49 26 111 49 26 111 49 26 110 49
26 110 49 26 110 49 25 110 49 25 110 49 25 110 49 25 109 49 25 109 49
25 109 49 25 109 48 25 109 48 25 108 48 25 108 48 25 108 48 25 108 48
25 108 48 25 107 48 25 107 48 25 107 48 25 107 48 25 107 48 76 35 4 87
39 4 92 41 4 96 42 4 99 44 4 102 44 4 103 45 4 105 45 4 105 46 4 106
46 4 107 46 4 107 46 4 108 46 5 110 47 5 112 47 5 114 47 6 116 47 6
117 47 6 118 47 7 120 47 7 121 47 7 122 47 8 122 47 8 123 47 8 124 47
8 124 47 9 125 46 9 125 46 9 125 46 9 125 46 10 125 45 10 125 45 10
125 44 10 125 44 10 124 43 11 124 43 11 123 43 11 123 44 11 122 45 12
121 45 12 122 47 14 135 51 33 154 57 60 134 53 35 116 50 15 113 50 13
111 51 13 109 52 13 107 52 14 104 53 14 102 54 14 98 55 14 94 55 14 94
57 14 93 59 14 92 62 14 90 64 14 87 67 13 26 200 193 26 201 194 26 202
194 26 203 195 26 204 196 26 205 196 26 206 197 26 207 198 26 208 198
26 209 199 27 211 199 27 212 200 27 213 200 27 214 201 27 215 202 27
216 202 27 217 203 27 218 203 27 220 204 27 221 204 27 222 205 27 223
205 27 224 206 27 225 206 27 226 206 40 255 221 40 255 221 40 255 221
40 255 222 40 255 222 40 255 222 40 255 223 40 255 223 40 255 223 40
255 223 40 255 224 40 255 224 40 255 224 40 255 224 40 255 224 40 255
224 39 255 224 39 255 225 39 255 225 39 255 225
35 177 128 35 177 129 35 177 129 35 178 129 35 178 130 35 179 130 35
179 130 36 180 131 36 180 131 36 181 132 36 181 132 36 182 132 36 182
133 36 183 133 36 183 134 36 184 134 36 184 135 36 185 135 37 185 135
37 186 136 37 186 136 37 186 137 37 187 137 37 187 137 37 188 138 37
188 138 37 189 139 37 189 139 37 190 140 37 190 140 37 190 140 38 191
141 38 191 141 38 192 142 38 192 142 38 193 143 38 193 143 38 193 143
38 194 144 38 194 144 38 195 145 38 195 145 38 196 146 38 196 146 38
196 146 38 197 147 38 197 147 39 198 148 39 198 148 39 198 149 39 199
149 38 132 134 38 132 135 38 132 135 39 133 136 39 133 136 39 133 136
39 133 137 39 133 137 39 133 137 39 133 138 39 133 138 39 133 139 39
133 139 39 133 139 26 112 50 26 112 50 26 112 49 26 112 49 26 112 49
26 112 49 26 112 49 26 112 49 26 111 49 26 111 49 26 111 49 26 111 49
26 111 49 26 111 49 26 110 49 26 110 49 26 110 49 25 110 49 25 110 49
25 110 49 25 109 49 25 109 49 25 109 49 25 109 48 25 109 48 25 108 48
25 108 48 25 108 48 25 108 48 25 108 48 25 107 48 25 107 48 78 36 4 88
39 4 94 41 4 97 43 4 100 44 4 102 45 4 104 45 4 105 46 4 106 46 4 107
46 4 107 47 4 108 47 5 109 47 5 111 47 5 113 47 5 115 47 6 116 48 6
118 48 6 119 48 7 120 48 7 121 48 7 122 48 8 123 48 8 124 47 8 124 47
8 125 47 9 125 47 9 125 46 9 126 46 9 126 46 10 126 45 10 126 45 10
125 45 10 125 44 10 125 44 11 124 43 11 124 43 11 123 43 11 122 44 12
121 45 12 122 46 14 134 50 31 156 56 62 137 53 39 117 49 15 114 49 13
112 50 13 110 51 13 108 52 14 105 52 14 102 53 14 99 54 14 95 54 14 93
56 14 93 58 14 92 60 14 90 63 14 87 65 13 26 199 194 26 200 194 26 201
195 26 202 196 26 203 196 26 204 197 26 205 197 26 206 198 27 207 199
27 209 199 27 210 200 27 211 200 27 212 201 27 213 202 27 214 202 27
215 203 27 216 203 27 217 204 27 218 204 27 220 205 27 221 205 27 222
206 27 223 206 27 224 207 27 225 207 40 255 221 40 255 222 40 255 222
40 255 222 40 255 223 40 255 223 40 255 223 40 255 224 40 255 224 40
255 224 40 255 224 40 255 224 40 255 225 40 255 225 40 255 225 40 255
225 40 255 225 40 255 225 40 255 225 39 255 225
35 177 129 35 178 129 35 178 129 35 179 130 35 179 130 36 180 131 36
180 131 36 181 131 36 181 132 36 182 132 36 182 133 36 183 133 36 183
133 36 184 134 36 184 134 36 184 135 37 185 135 37 185 135 37 186 136
37 186 136 37 187 137 37 187 137 37 188 137 37 188 138 37 189 138 37
189 139 37 189 139 37 190 140 38 190 140 38 191 140 38 191 141 38 192
141 38 192 142 38 193 142 38 193 143 38 193 143 38 194 143 38 194 144
38 195 144 38 195 145 38 195 145 38 196 146 38 196 146 38 197 147 39
197 147 39 197 147 39 198 148 38 133 133 38 133 134 39 133 134 39 133
134 39 133 135 39 133 135 39 133 136 39 133 136 39 133 136 39 133 137
39 133 137 39 133 138 39 133 138 39 133 138 39 133 139 39 133 139 39
133 140 39 133 140 39 133 140 26 113 50 26 113 50 26 113 50 26 113 50
26 112 50 26 112 49 26 112 49 26 112 49 26 112 49 26 112 49 26 112 49
26 111 49 26 111 49 26 111 49 26 111 49 26 111 49 26 110 49 26 110 49
26 110 49 25 110 49 25 110 49 25 110 49 25 109 49 25 109 49 25 109 48
25 109 48 25 108 48 25 108 48 25 108 48 25 108 48 25 108 48 80 36 4 89
40 4 94 42 4 98 43 4 101 44 4 103 45 4 105 46 4 106 46 4 107 46 4 108
47 5 108 47 5 108 47 5 109 47 5 111 47 5 113 48 5 115 48 6 117 48 6
118 48 6 120 48 7 121 48 7 122 48 7 123 48 7 123 48 8 124 48 8 125 47
8 125 47 9 126 47 9 126 47 9 126 46 9 126 46 10 126 46 10 126 45 10
126 45 10 125 44 10 125 44 11 125 43 11 124 43 11 123 42 11 123 43 11
122 44 12 121 45 12 124 47 18 132 49 30 125 49 23 117 48 14 114 49 13
112 49 13 110 50 13 108 51 13 105 51 14 102 52 14 99 53 14 95 53 14 93
55 14 93 57 14 92 59 14 90 61 14 87 64 13 26 198 194 26 199 195 26 200
195 26 201 196 26 202 197 26 203 197 27 205 198 27 206 199 27 207 199
27 208 200 27 209 200 27 210 201 27 211 201 27 212 202 27 213 203 27
214 203 27 215 204 27 216 204 27 217 205 27 219 205 27 220 206 27 221
206 27 222 207 27 223 207 41 255 222 40 255 222 40 255 222 40 255 223
40 255 223 40 255 223 40 255 224 40 255 224 40 255 224 40 255 224 40
255 225 40 255 225 40 255 225 40 255 225 40 255 225 40 255 226 40 255
226 40 255 226 40 255 226 40 255 226 40 255 226
35 178 129 35 179 129 35 179 130 36 179 130 36 180 131 36 180 131 36
181 131 36 181 132 36 182 132 36 182 133 36 183 133 36 183 133 36 184
134 37 184 134 37 185 135 37 185 135 37 186 135 37 186 136 37 187 136
37 187 137 37 188 137 37 188 137 37 188 138 37 189 138 37 189 139 38
190 139 38 190 140 38 191 140 38 191 140 38 192 141 38 192 141 38 192
142 38 193 142 38 193 143 38 194 143 38 194 143 38 195 144 38 195 144
38 195 145 38 196 145 39 196 146 39 197 146 39 197 147 39 197 147 38
133 133 39 133 133 39 133 133 39 134 134 39 134 134 39 134 135 39 134
135 39 134 135 39 134 136 39 134 136 39 134 136 39 134 137 39 134 137
39 134 138 39 134 138 39 134 138 39 134 139 39 134 139 39 134 140 39
134 140 39 134 140 39 134 141 26 114 50 26 113 50 26 113 50 26 113 50
26 113 50 26 113 50 26 113 50 26 113 50 26 112 50 26 112 49 26 112 49
26 112 49 26 112 49 26 112 49 26 111 49 26 111 49 26 111 49 26 111 49
26 111 49 26 110 49 26 110 49 26 110 49 25 110 49 25 110 49 25 109 49
25 109 49 25 109 49 25 109 48 25 109 48 25 108 48 25 108 48 80 37 4 90
40 4 95 42 4 99 43 4 102 44 4 104 45 4 106 46 4 107 46 4 108 47 5 108
47 5 109 47 5 109 47 5 110 47 5 112 47 5 114 48 5 116 48 6 117 48 6
119 48 6 121 49 7 123 49 7 123 49 7 123 48 7 124 48 8 124 48 8 125 48
8 126 47 9 126 47 9 126 47 9 126 46 9 126 46 10 126 46 10 126 45 10
126 45 10 126 44 10 125 44 11 125 43 11 124 43 11 124 42 11 123 42 11
122 43 12 121 44 12 120 45 13 120 46 14 118 46 14 116 47 13 114 48 13
112 48 13 110 49 13 108 50 13 105 50 13 102 51 14 99 52 14 96 52 14 93
53 14 92 55 14 92 58 14 90 60 14 87 62 13 26 198 195 26 199 195 26 200
196 26 201 196 26 202 197 27 203 198 27 204 198 27 205 199 27 206 200
27 207 200 27 208 201 27 209 201 27 210 202 27 211 203 27 212 203 27
213 204 27 214 204 27 215 205 27 216 205 27 217 206 27 218 206 27 220
207 27 221 207 41 255 222 41 255 222 41 255 223 41 255 223 41 255 223
41 255 224 41 255 224 41 255 224 41 255 225 40 255 225 40 255 225 40
255 225 40 255 226 40 255 226 40 255 226 40 255 226 40 255 226 40 255
226 40 255 226 40 255 227 40 255 227 40 255 227
35 179 129 36 179 130 36 180 130 36 180 131 36 181 131 36 181 131 36
182 132 36 182 132 36 183 133 36 183 133 36 184 133 37 184 134 37 185
134 37 185 135 37 185 135 37 186 135 37 186 136 37 187 136 37 187 137
37 188 137 37 188 138 37 189 138 37 189 138 38 190 139 38 190 139 38
191 140 38 191 140 38 191 140 38 192 141 38 192 141 38 193 142 38 193
142 38 194 143 38 194 143 38 194 143 38 195 144 39 195 144 39 196 145
39 196 145 39 196 146 39 197 146 39 134 132 39 134 132 39 134 133 39
134 133 39 134 133 39 134 134 39 134 134 39 134 135 39 134 135 39 134
135 39 134 136 39 134 136 39 135 137 39 135 137 39 135 137 39 135 138
39 135 138 39 135 139 39 135 139 39 135 139 39 135 140 39 135 140 39
135 140 40 135 141 40 135 141 40 135 142 27 114 50 27 114 50 27 114 50
26 114 50 26 113 50 26 113 50 26 113 50 26 113 50 26 113 50 26 113 50
26 112 50 26 112 49 26 112 49 26 112 49 26 112 49 26 112 49 26 111 49
26 111 49 26 111 49 26 111 49 26 111 49 26 110 49 26 110 49 25 110 49
25 110 49 25 109 49 25 109 49 25 109 49 25 109 48 25 109 48 80 37 4 90
40 4 95 42 4 99 44 4 102 45 4 104 45 4 106 46 4 107 46 4 108 47 5 109
47 5 109 47 5 110 47 5 110 47 5 112 48 5 114 48 5 116 48 6 117 48 6
120 49 6 127 52 8 138 58 10 132 54 9 125 49 8 124 48 8 125 48 8 125 48
8 126 47 8 126 47 9 126 47 9 126 47 9 126 46 9 126 46 10 126 45 10 126
45 10 126 45 10 125 44 11 125 44 11 124 43 11 124 42 11 123 42 11 122
42 12 121 43 12 120 44 12 119 45 12 117 45 12 116 46 13 114 47 13 112
47 13 110 48 13 108 49 13 105 49 13 102 50 13 99 51 14 95 51 14 92 52
14 92 54 14 91 56 14 89 59 13 86 61 13 26 197 195 26 198 196 26 199
196 26 200 197 27 201 198 27 202 198 27 203 199 27 204 199 27 205 200
27 206 201 27 207 201 27 208 202 27 209 202 27 210 203 27 211 204 27
212 204 27 213 205 27 214 205 27 215 206 27 216 206 27 217 207 27 218
207 41 255 222 41 255 223 41 255 223 41 255 223 41 255 224 41 255 224
41 255 224 41 255 225 41 255 225 41 255 225 41 255 225 41 255 226 41
255 226 41 255 226 40 255 226 40 255 227 40 255 227 40 255 227 40 255
227 40 255 227 40 255 227 40 255 227 40 255 227
36 180 130 36 180 130 36 180 131 36 181 131 36 181 131 36 182 132 36
182 132 36 183 133 36 183 133 37 184 133 37 184 134 37 185 134 37 185
135 37 186 135 37 186 136 37 187 136 37 187 136 37 188 137 37 188 137
37 189 138 38 189 138 38 189 138 38 190 139 38 190 139 38 191 140 38
191 140 38 192 141 38 192 141 38 193 141 38 193 142 38 193 142 38 194
143 38 194 143 39 195 144 39 195 144 39 196 144 39 196 145 38 134 131
39 134 131 39 134 132 39 134 132 39 134 132 39 135 133 39 135 133 39
135 134 39 135 134 39 135 134 39 135 135 39 135 135 39 135 135 39 135
136 39 135 136 39 135 137 39 135 137 39 135 137 39 135 138 39 135 138
39 135 139 40 135 139 40 135 139 40 135 140 40 135 140 40 135 141 40
135 141 40 135 141 40 135 142 40 135 142 27 115 50 27 114 50 27 114 50
27 114 50 27 114 50 27 114 50 27 114 50 26 113 50 26 113 50 26 113 50
26 113 50 26 113 50 26 113 50 26 112 50 26 112 49 26 112 49 26 112 49
26 112 49 26 111 49 26 111 49 26 111 49 26 111 49 26 111 49 26 110 49
26 110 49 25 110 49 25 110 49 25 109 49 25 109 49 25 109 49 80 36 4 90
40 4 96 42 4 100 44 4 102 45 4 105 45 4 106 46 4 108 47 5 109 47 5 109
47 5 110 47 5 110 47 5 110 47 5 112 48 5 114 48 5 116 48 6 118 48 6
121 49 7 140 59 10 171 76 17 152 65 13 128 51 8 124 48 8 125 48 8 125
48 8 126 48 8 126 47 9 126 47 9 126 47 9 127 46 9 126 46 10 126 46 10
126 45 10 126 45 10 125 44 10 125 44 11 124 43 11 124 42 11 123 42 11
122 42 11 121 42 12 120 43 12 119 44 12 117 44 12 116 45 12 114 46 13
112 47 13 110 47 13 108 48 13 105 48 13 102 49 13 99 50 13 95 50 13 92
51 13 91 53 13 90 55 13 89 57 13 86 60 13 26 196 195 26 197 196 27 198
197 27 199 197 27 200 198 27 201 199 27 202 199 27 203 200 27 204 201
27 205 201 27 206 202 27 207 202 27 208 203 27 209 204 27 210 204 27
211 205 27 212 205 27 213 206 27 214 206 27 215 207 28 216 207 41 255
222 41 255 223 41 255 223 41 255 223 41 255 224 41 255 224 41 255 225
41 255 225 41 255 225 41 255 225 41 255 226 41 255 226 41 255 226 41
255 227 41 255 227 41 255 227 41 255 227 41 255 227 41 255 227 40 255
228 40 255 228 40 255 228 40 255 228 40 255 228
36 180 130 36 181 131 36 181 131 36 182 132 36 182 132 36 183 132 36
183 133 37 184 133 37 184 134 37 185 134 37 185 134 37 186 135 37 186
135 37 187 136 37 187 136 37 187 136 37 188 137 37 188 137 38 189 138
38 189 138 38 190 138 38 190 139 38 191 139 38 191 140 38 192 140 38
192 141 38 192 141 38 193 141 38 193 142 38 194 142 39 194 143 39 195
143 39 195 144 39 195 144 39 134 130 39 134 131 39 135 131 39 135 131
39 135 132 39 135 132 39 135 133 39 135 133 39 135 133 39 135 134 39
135 134 39 135 134 39 136 135 39 136 135 39 136 136 39 136 136 39 136
136 39 136 137 39 136 137 40 136 137 40 136 138 40 136 138 40 136 139
40 136 139 40 136 139 40 136 140 40 136 140 40 136 141 40 136 141 40
136 141 40 136 142 40 136 142 40 136 143 40 136 143 27 115 50 27 115
50 27 115 50 27 115 50 27 114 50 27 114 50 27 114 50 27 114 50 27 114
50 26 114 50 26 113 50 26 113 50 26 113 50 26 113 50 26 113 50 26 112
50 26 112 49 26 112 49 26 112 49 26 112 49 26 111 49 26 111 49 26 111
49 26 111 49 26 110 49 26 110 49 25 110 49 25 110 49 25 109 49 78 36 4
90 40 4 95 42 4 100 44 4 103 45 4 105 46 4 107 46 4 108 47 5 109 47 5
110 47 5 110 47 5 110 47 5 110 48 5 112 48 5 114 48 5 116 48 6 117 48
6 120 49 6 135 57 9 163 71 15 150 63 12 128 51 8 124 48 8 125 48 8 125
48 8 126 48 8 126 47 9 126 47 9 126 47 9 126 46 9 126 46 10 126 46 10
126 45 10 126 45 10 125 44 10 125 44 11 124 43 11 123 43 11 123 42 11
122 41 11 121 41 12 119 42 12 118 43 12 117 44 12 115 44 12 114 45 13
112 46 13 110 46 13 107 47 13 105 47 13 102 48 13 98 48 13 95 49 13 91
50 13 90 52 13 90 54 13 88 56 13 85 58 13 26 195 196 27 196 197 27 197
197 27 198 198 27 199 198 27 200 199 27 201 200 27 202 200 27 203 201
27 204 202 27 205 202 27 206 203 27 207 203 27 208 204 27 209 205 27
210 205 27 211 206 27 212 206 28 213 207 28 214 207 41 255 222 41 255
223 41 255 223 41 255 224 41 255 224 41 255 224 41 255 225 41 255 225
41 255 225 41 255 226 41 255 226 41 255 226 41 255 227 41 255 227 41
255 227 41 255 227 41 255 228 41 255 228 41 255 228 41 255 228 41 255
228 41 255 228 41 255 228 41 255 229 40 255 229
36 181 131 36 181 131 36 182 132 36 182 132 37 183 132 37 183 133 37
184 133 37 184 134 37 185 134 37 185 134 37 186 135 37 186 135 37 187
136 37 187 136 37 188 136 38 188 137 38 189 137 38 189 138 38 190 138
38 190 138 38 191 139 38 191 139 38 191 140 38 192 140 38 192 141 38
193 141 38 193 141 39 194 142 39 194 142 39 195 143 39 195 143 39 135
130 39 135 130 39 135 130 39 135 131 39 135 131 39 135 131 39 135 132
39 135 132 39 136 133 39 136 133 39 136 133 39 136 134 39 136 134 39
136 134 39 136 135 39 136 135 39 136 136 40 136 136 40 136 136 40 136
137 40 136 137 40 137 138 40 137 138 40 137 138 40 137 139 40 137 139
40 137 139 40 137 140 40 137 140 40 137 141 40 137 141 40 137 141 40
137 142 40 137 142 40 137 143 40 137 143 40 136 143 40 136 144 27 115
50 27 115 50 27 115 50 27 115 50 27 115 50 27 115 50 27 114 50 27 114
50 27 114 50 27 114 50 27 114 50 26 113 50 26 113 50 26 113 50 26 113
50 26 113 50 26 112 50 26 112 49 26 112 49 26 112 49 26 112 49 26 111
49 26 111 49 26 111 49 26 111 49 26 110 49 26 110 49 25 110 49 76 35 4
89 40 4 95 42 4 99 44 4 102 45 4 105 46 4 107 46 4 108 47 5 109 47 5
110 47 5 110 47 5 110 48 5 110 48 5 112 48 5 114 48 5 116 48 5 117 48
6 119 49 6 123 50 7 131 54 9 129 52 8 124 49 8 124 48 8 124 48 8 125
48 8 125 48 8 126 47 9 126 47 9 126 47 9 126 46 9 126 46 10 126 46 10
126 45 10 125 45 10 125 44 10 124 44 11 124 43 11 123 43 11 122 42 11
121 41 11 120 41 11 119 41 12 118 42 12 116 43 12 115 43 12 113 44 12
111 45 13 109 45 13 107 46 13 104 46 13 101 47 13 98 47 13 94 48 13 90
48 13 90 50 13 89 52 13 87 55 13 83 57 13 27 195 196 27 196 197 27 197
198 27 198 198 27 199 199 27 200 200 27 201 200 27 201 201 27 202 201
27 203 202 27 204 203 27 205 203 27 206 204 27 207 204 27 208 205 27
209 206 28 210 206 28 211 207 28 212 207 42 255 223 41 255 223 41 255
223 41 255 224 41 255 224 41 255 225 41 255 225 41 255 225 41 255 226
41 255 226 41 255 226 41 255 227 41 255 227 41 255 227 41 255 227 41
255 228 41 255 228 41 255 228 41 255 228 41 255 229 41 255 229 41 255
229 41 255 229 41 255 229 41 255 229 41 255 229
36 182 131 36 182 132 37 183 132 37 183 132 37 184 133 37 184 133 37
185 134 37 185 134 37 186 134 37 186 135 37 187 135 37 187 136 37 188
136 38 188 136 38 188 137 38 189 137 38 189 138 38 190 138 38 190 138
38 191 139 38 191 139 38 192 140 38 192 140 38 193 141 38 193 141 39
193 141 39 194 142 39 194 142 39 135 129 39 135 129 39 135 130 39 135
130 39 135 130 39 136 131 39 136 131 39 136 132 39 136 132 39 136 132
39 136 133 39 136 133 39 136 133 39 136 134 39 137 134 39 137 135 40
137 135 40 137 135 40 137 136 40 137 136 40 137 136 40 137 137 40 137
137 40 137 138 40 137 138 40 137 138 40 137 139 40 137 139 40 137 140
40 137 140 40 137 140 40 137 141 40 137 141 40 137 142 40 137 142 40
137 142 40 137 143 40 137 143 40 137 144 40 137 144 40 137 144 40 137
145 27 116 51 27 116 50 27 115 50 27 115 50 27 115 50 27 115 50 27 115
50 27 115 50 27 114 50 27 114 50 27 114 50 27 114 50 26 114 50 26 113
50 26 113 50 26 113 50 26 113 50 26 113 50 26 112 49 26 112 49 26 112
49 26 112 49 26 111 49 26 111 49 26 111 49 26 111 49 26 110 49 26 110
49 88 39 4 94 42 4 99 43 4 102 45 4 104 45 4 106 46 4 108 47 5 109 47
5 110 47 5 110 47 5 110 48 5 110 48 5 111 48 5 113 48 5 115 48 5 117
48 6 118 48 6 120 49 6 121 49 7 122 49 7 123 48 7 123 48 7 124 48 8
125 48 8 125 48 8 125 47 8 126 47 9 126 47 9 126 46 9 126 46 9 125 46
10 125 45 10 125 45 10 124 44 10 124 44 10 123 43 11 123 42 11 122 42
11 121 41 11 120 40 11 118 40 11 117 41 12 116 42 12 114 42 12 112 43
12 110 43 12 108 44 13 106 45 13 103 45 13 100 46 13 97 46 13 93 47 13
89 47 13 89 49 13 88 51 13 86 53 13 82 56 12 27 194 197 27 195 197 27
196 198 27 197 199 27 198 199 27 199 200 27 200 201 27 201 201 27 202
202 27 203 202 27 204 203 27 205 204 27 205 204 27 206 205 28 207 205
28 208 206 28 209 207 28 210 207 42 255 223 42 255 223 42 255 223 42
255 224 42 255 224 42 255 225 42 255 225 42 255 226 42 255 226 42 255
226 41 255 227 41 255 227 41 255 227 41 255 227 41 255 228 41 255 228
41 255 228 41 255 229 41 255 229 41 255 229 41 255 229 41 255 229 41
255 229 41 255 230 41 255 230 41 255 230 41 255 230
37 182 132 37 183 132 37 183 132 37 184 133 37 184 133 37 185 134 37
185 134 37 186 134 37 186 135 37 187 135 37 187 136 38 188 136 38 188
136 38 189 137 38 189 137 38 190 138 38 190 138 38 191 139 38 191 139
38 192 139 38 192 140 38 192 140 39 193 141 39 193 141 39 194 141 39
135 128 39 135 129 39 135 129 39 135 129 39 136 130 39 136 130 39 136
130 39 136 131 39 136 131 39 136 132 39 137 132 39 137 132 39 137 133
39 137 133 39 137 133 40 137 134 40 137 134 40 137 135 40 137 135 40
137 135 40 138 136 40 138 136 40 138 137 40 138 137 40 138 137 40 138
138 40 138 138 40 138 138 40 138 139 40 138 139 40 138 140 40 138 140
40 138 140 40 138 141 40 138 141 40 138 142 40 138 142 40 138 142 40
138 143 40 138 143 41 138 144 41 138 144 41 138 144 41 138 145 41 138
145 41 138 146 27 116 51 27 116 51 27 116 51 27 116 50 27 115 50 27
115 50 27 115 50 27 115 50 27 115 50 27 115 50 27 114 50 27 114 50 27
114 50 27 114 50 26 113 50 26 113 50 26 113 50 26 113 50 26 113 50 26
112 49 26 112 49 26 112 49 26 112 49 26 111 49 26 111 49 26 111 49 26
111 49 86 39 4 93 41 4 98 43 4 101 44 4 104 45 4 106 46 4 108 47 4 109
47 5 109 47 5 110 47 5 110 48 5 110 48 5 111 48 5 113 48 5 115 48 5
116 48 6 118 48 6 119 48 6 120 48 7 121 48 7 122 48 7 123 48 7 123 48
8 124 48 8 124 47 8 125 47 8 125 47 9 125 47 9 125 46 9 125 46 9 125
45 10 125 45 10 124 45 10 124 44 10 123 44 10 123 43 11 122 42 11 121
42 11 120 41 11 119 40 11 118 40 11 116 40 12 115 41 12 113 41 12 112
42 12 110 42 12 107 43 12 105 43 13 102 44 13 99 44 13 96 45 13 92 45
13 88 46 13 88 48 13 86 50 13 84 52 12 80 54 12 27 193 197 27 194 198
27 195 198 27 196 199 27 197 200 27 198 200 27 199 201 27 200 202 27
201 202 27 202 203 27 203 203 27 204 204 27 205 205 28 206 205 28 206
206 28 207 206 28 208 207 42 255 223 42 255 223 42 255 224 42 255 224
42 255 224 42 255 225 42 255 225 42 255 226 42 255 226 42 255 226 42
255 227 42 255 227 42 255 227 42 255 228 42 255 228 42 255 228 42 255
229 41 255 229 41 255 229 41 255 229 41 255 229 41 255 230 41 255 230
41 255 230 41 255 230 41 255 230 41 255 230 41 255 230
37 183 132 37 184 132 37 184 133 37 185 133 37 185 134 37 186 134 37
186 134 37 187 135 38 187 135 38 188 136 38 188 136 38 189 136 38 189
137 38 190 137 38 190 138 38 190 138 38 191 139 38 191 139 38 192 139
39 192 140 39 193 140 39 193 141 39 194 141 39 135 128 39 135 128 39
136 129 39 136 129 39 136 129 39 136 130 39 136 130 39 137 131 39 137
131 39 137 131 39 137 132 39 137 132 39 137 132 39 137 133 40 137 133
40 138 134 40 138 134 40 138 134 40 138 135 40 138 135 40 138 135 40
138 136 40 138 136 40 138 137 40 138 137 40 138 137 40 138 138 40 138
138 40 138 138 40 139 139 40 139 139 40 139 140 40 139 140 40 139 140
40 139 141 41 139 141 41 139 142 41 139 142 41 139 142 41 139 143 41
138 143 41 138 144 41 138 144 41 138 144 41 138 145 41 138 145 41 138
146 41 138 146 27 117 51 27 117 51 27 116 51 27 116 51 27 116 51 27
116 51 27 116 50 27 115 50 27 115 50 27 115 50 27 115 50 27 115 50 27
114 50 27 114 50 27 114 50 27 114 50 26 113 50 26 113 50 26 113 50 26
113 50 26 113 50 26 112 49 26 112 49 26 112 49 26 112 49 26 111 49 26
111 49 83 38 4 92 41 4 97 43 4 101 44 4 103 45 4 105 46 4 107 46 4 108
47 5 109 47 5 110 47 5 110 47 5 110 47 5 110 47 5 112 48 5 114 48 5
115 48 6 117 48 6 118 48 6 119 48 6 120 48 7 121 48 7 122 48 7 123 48
8 123 48 8 124 47 8 124 47 8 124 47 9 124 46 9 124 46 9 124 46 9 124
45 9 124 45 10 124 44 10 123 44 10 123 43 10 122 43 10 121 42 11 120
42 11 119 41 11 118 40 11 117 40 11 115 39 11 114 39 12 112 40 12 111
41 12 108 41 12 106 42 12 104 42 12 101 43 12 98 43 12 94 44 13 90 44
13 87 45 13 86 47 13 85 49 12 83 51 12 76 53 11 27 193 197 27 194 198
27 194 199 27 195 199 27 196 200 27 197 201 27 198 201 27 199 202 27
200 203 27 201 203 27 202 204 28 203 204 28 204 205 28 205 206 28 206
206 28 206 207 42 255 223 42 255 223 42 255 224 42 255 224 42 255 224
42 255 225 42 255 225 42 255 226 42 255 226 42 255 227 42 255 227 42
255 227 42 255 228 42 255 228 42 255 228 42 255 229 42 255 229 42 255
229 42 255 229 42 255 230 42 255 230 42 255 230 41 255 230 41 255 230
41 255 231 41 255 231 41 255 231 41 255 231 41 255 231
37 184 132 37 184 133 37 185 133 37 185 134 37 186 134 37 186 134 38
187 135 38 187 135 38 188 136 38 188 136 38 189 136 38 189 137 38 190
137 38 190 138 38 191 138 38 191 139 38 192 139 39 192 139 39 193 140
39 193 140 39 135 127 39 136 128 39 136 128 39 136 128 39 136 129 39
136 129 39 137 130 39 137 130 39 137 130 39 137 131 39 137 131 39 137
131 39 138 132 40 138 132 40 138 132 40 138 133 40 138 133 40 138 134
40 138 134 40 138 134 40 138 135 40 139 135 40 139 135 40 139 136 40
139 136 40 139 137 40 139 137 40 139 137 40 139 138 40 139 138 40 139
139 40 139 139 41 139 139 41 139 140 41 139 140 41 139 140 41 139 141
41 139 141 41 139 142 41 139 142 41 139 142 41 139 143 41 139 143 41
139 144 41 139 144 41 139 144 41 139 145 41 139 145 41 139 146 41 139
146 41 139 146 41 139 147 27 117 51 27 117 51 27 117 51 27 117 51 27
116 51 27 116 51 27 116 51 27 116 51 27 116 50 27 115 50 27 115 50 27
115 50 27 115 50 27 114 50 27 114 50 27 114 50 27 114 50 26 113 50 26
113 50 26 113 50 26 113 50 26 113 50 26 112 49 26 112 49 26 112 49 26
111 49 78 36 4 90 40 4 96 42 4 100 44 4 103 45 4 105 45 4 106 46 4 108
47 5 109 47 5 109 47 5 110 47 5 110 47 5 110 47 5 111 47 5 113 48 5
115 48 5 116 48 6 117 48 6 119 48 6 120 48 7 121 48 7 121 48 7 122 48
7 122 47 8 123 47 8 123 47 8 123 47 8 124 46 9 124 46 9 124 46 9 123
45 9 123 45 10 123 44 10 122 44 10 122 43 10 121 43 10 120 42 11 119
41 11 118 41 11 117 40 11 116 39 11 114 39 11 113 38 11 111 39 12 109
40 12 107 40 12 105 41 12 102 41 12 100 42 12 96 42 12 93 42 12 88 43
12 86 44 12 85 45 12 83 47 12 80 49 12 27 191 197 27 192 198 27 193
198 27 194 199 27 195 200 27 196 200 27 196 201 27 197 202 27 198 202
27 199 203 27 200 204 28 201 204 28 202 205 28 203 205 28 204 206 28
205 207 42 255 223 42 255 223 42 255 224 42 255 224 42 255 224 42 255
225 42 255 225 42 255 226 42 255 226 42 255 227 42 255 227 42 255 227
42 255 228 42 255 228 42 255 228 42 255 229 42 255 229 42 255 229 42
255 230 42 255 230 42 255 230 42 255 230 42 255 231 42 255 231 42 255
231 42 255 231 42 255 231 41 255 231 41 255 231 41 255 232
37 185 133 37 185 133 37 186 134 37 186 134 38 187 134 38 187 135 38
188 135 38 188 136 38 189 136 38 189 137 38 190 137 38 190 137 38 191
138 38 191 138 38 191 139 39 192 139 39 192 139 38 135 127 39 136 127
39 136 127 39 136 128 39 136 128 39 136 128 39 137 129 39 137 129 39
137 130 39 137 130 39 137 130 39 138 131 39 138 131 40 138 131 40 138
132 40 138 132 40 138 133 40 138 133 40 139 133 40 139 134 40 139 134
40 139 134 40 139 135 40 139 135 40 139 136 40 139 136 40 139 136 40
139 137 40 140 137 40 140 137 40 140 138 41 140 138 41 140 139 41 140
139 41 140 139 41 140 140 41 140 140 41 140 141 41 140 141 41 140 141
41 140 142 41 140 142 41 140 142 41 140 143 41 140 143 41 140 144 41
140 144 41 140 144 41 140 145 41 140 145 41 140 146 41 140 146 41 139
146 41 139 147 41 139 147 41 139 148 28 117 51 27 117 51 27 117 51 27
117 51 27 117 51 27 116 51 27 116 51 27 116 51 27 116 51 27 116 50 27
115 50 27 115 50 27 115 50 27 115 50 27 114 50 27 114 50 27 114 50 27
114 50 26 113 50 26 113 50 26 113 50 26 113 50 26 112 50 26 112 49 26
112 49 26 112 49 87 39 4 94 42 4 98 43 4 101 44 4 104 45 4 106 46 4
107 46 4 108 47 5 109 47 5 109 47 5 109 47 5 109 47 5 110 47 5 112 47
5 113 48 5 115 48 6 116 48 6 118 48 6 119 48 7 119 48 7 120 48 7 121
47 7 122 47 8 122 47 8 122 47 8 123 46 8 123 46 9 123 46 9 123 45 9
122 45 9 122 44 9 122 44 10 121 44 10 121 43 10 120 42 10 119 42 10
118 41 11 117 41 11 116 40 11 115 39 11 113 38 11 112 37 11 110 38 11
108 38 12 106 39 12 103 39 12 101 40 12 98 40 12 95 41 12 91 41 12 86
41 12 84 42 12 83 44 12 82 46 12 78 48 11 27 190 197 27 191 198 27 192
199 27 193 199 27 194 200 27 195 201 27 196 201 27 197 202 27 197 203
27 198 203 28 199 204 28 200 205 28 201 205 28 202 206 28 203 206 42
255 223 42 255 223 42 255 224 42 255 224 42 255 224 42 255 225 42 255
225 42 255 226 42 255 226 42 255 227 42 255 227 42 255 227 42 255 228
42 255 228 42 255 229 42 255 229 42 255 229 42 255 230 42 255 230 42
255 230 42 255 230 42 255 231 42 255 231 42 255 231 42 255 231 42 255
231 42 255 232 42 255 232 42 255 232 42 255 232 42 255 232
37 185 133 37 186 134 38 186 134 38 187 135 38 187 135 38 188 135 38
188 136 38 189 136 38 189 137 38 190 137 38 190 137 38 191 138 39 191
138 39 192 139 39 192 139 39 136 126 39 136 127 39 136 127 39 136 127
39 137 128 39 137 128 39 137 129 39 137 129 39 137 129 39 138 130 39
138 130 39 138 130 40 138 131 40 138 131 40 138 131 40 139 132 40 139
132 40 139 133 40 139 133 40 139 133 40 139 134 40 139 134 40 140 134
40 140 135 40 140 135 40 140 136 40 140 136 40 140 136 41 140 137 41
140 137 41 140 137 41 140 138 41 140 138 41 140 139 41 140 139 41 140
139 41 140 140 41 140 140 41 141 141 41 141 141 41 141 141 41 141 142
41 141 142 41 141 142 41 140 143 41 140 143 41 140 144 41 140 144 41
140 144 41 140 145 41 140 145 41 140 146 41 140 146 41 140 146 41 140
147 41 140 147 41 140 148 41 140 148 41 140 149 41 140 149 28 118 51
28 117 51 27 117 51 27 117 51 27 117 51 27 117 51 27 116 51 27 116 51
27 116 51 27 116 50 27 115 50 27 115 50 27 115 50 27 115 50 27 114 50
27 114 50 27 114 50 27 114 50 26 113 50 26 113 50 26 113 50 26 113 50
26 112 50 26 112 49 83 38 4 91 41 4 96 42 4 100 44 4 103 45 4 104 45 4
106 46 4 107 46 4 108 47 5 108 47 5 109 47 5 109 47 5 108 47 5 110 47
5 112 47 5 114 47 5 115 47 6 116 47 6 117 47 6 118 47 7 119 47 7 120
47 7 120 47 7 121 47 8 121 46 8 121 46 8 121 46 8 121 45 9 121 45 9
121 45 9 121 44 9 121 44 10 120 43 10 119 43 10 119 42 10 118 42 10
117 41 10 116 40 11 115 40 11 113 39 11 112 38 11 110 37 11 108 37 11
106 37 11 104 38 11 102 38 12 99 39 12 96 39 12 92 39 12 89 39 12 84
40 12 83 41 12 81 43 12 79 45 11 74 47 11 27 190 198 27 191 198 27 192
199 27 192 200 27 193 200 27 194 201 27 195 202 27 196 202 27 197 203
28 198 204 28 198 204 28 199 205 28 200 205 28 201 206 42 255 222 42
255 223 42 255 223 42 255 224 42 255 224 42 255 225 42 255 225 42 255
226 42 255 226 42 255 227 42 255 227 42 255 228 42 255 228 42 255 228
42 255 229 42 255 229 42 255 229 42 255 230 42 255 230 42 255 230 42
255 231 42 255 231 42 255 231 42 255 231 42 255 232 42 255 232 42 255
232 42 255 232 42 255 232 42 255 232 42 255 232 42 255 233
38 186 134 38 187 134 38 187 135 38 188 135 38 188 135 38 189 136 38
189 136 38 190 137 38 190 137 38 191 137 39 191 138 39 191 138 38 136
126 39 136 126 39 136 126 39 136 127 39 137 127 39 137 127 39 137 128
39 137 128 39 137 129 39 138 129 39 138 129 39 138 130 39 138 130 40
138 130 40 139 131 40 139 131 40 139 131 40 139 132 40 139 132 40 139
133 40 140 133 40 140 133 40 140 134 40 140 134 40 140 134 40 140 135
40 140 135 40 140 136 41 140 136 41 141 136 41 141 137 41 141 137 41
141 137 41 141 138 41 141 138 41 141 139 41 141 139 41 141 139 41 141
140 41 141 140 41 141 141 41 141 141 41 141 141 41 141 142 41 141 142
41 141 143 41 141 143 41 141 143 41 141 144 41 141 144 41 141 144 41
141 145 41 141 145 41 141 146 41 141 146 42 141 146 42 141 147 42 141
147 42 141 148 42 140 148 42 140 149 42 140 149 42 140 149 42 140 150
28 118 51 28 118 51 28 117 51 27 117 51 27 117 51 27 117 51 27 117 51
27 116 51 27 116 51 27 116 51 27 116 50 27 115 50 27 115 50 27 115 50
27 115 50 27 114 50 27 114 50 27 114 50 26 114 50 26 113 50 26 113 50
26 113 50 26 113 50 76 35 4 88 40 4 94 42 4 98 43 4 101 44 4 103 45 4
105 46 4 106 46 4 107 46 4 107 46 4 108 47 5 108 47 5 108 47 5 109 47
5 111 47 5 112 47 5 114 47 6 115 47 6 116 47 6 117 47 7 118 47 7 118
47 7 119 47 7 120 46 8 120 46 8 120 46 8 120 46 8 120 45 9 120 45 9
120 44 9 120 44 9 119 43 9 119 43 10 118 42 10 117 42 10 116 41 10 115
41 10 114 40 10 113 39 11 112 38 11 110 38 11 109 37 11 107 36 11 105
36 11 102 36 11 100 37 11 97 37 11 94 37 11 90 38 12 86 38 12 81 38 11
81 40 11 79 42 11 77 44 11 27 188 197 27 189 198 27 190 199 27 191 199
27 192 200 27 193 201 27 193 201 27 194 202 27 195 203 28 196 203 28
197 204 28 198 205 28 199 205 28 199 206 43 254 222 43 255 223 43 255
223 43 255 224 43 255 224 43 255 225 43 255 225 43 255 226 43 255 226
43 255 227 43 255 227 43 255 228 43 255 228 43 255 228 42 255 229 42
255 229 42 255 229 42 255 230 42 255 230 42 255 230 42 255 231 42 255
231 42 255 231 42 255 232 42 255 232 42 255 232 42 255 232 42 255 232
42 255 233 42 255 233 42 255 233 42 255 233 42 255 233
38 187 134 38 187 135 38 188 135 38 188 135 38 189 136 38 189 136 38
190 137 38 190 137 39 191 137 39 191 138 38 136 125 39 136 126 39 136
126 39 137 126 39 137 127 39 137 127 39 137 128 39 138 128 39 138 128
39 138 129 39 138 129 39 138 129 40 139 130 40 139 130 40 139 130 40
139 131 40 139 131 40 139 132 40 140 132 40 140 132 40 140 133 40 140
133 40 140 133 40 140 134 40 141 134 40 141 135 41 141 135 41 141 135
41 141 136 41 141 136 41 141 136 41 141 137 41 141 137 41 141 138 41
141 138 41 142 138 41 142 139 41 142 139 41 142 139 41 142 140 41 142
140 41 142 141 41 142 141 41 142 141 41 142 142 41 142 142 41 142 143
41 142 143 41 142 143 42 142 144 42 142 144 42 142 144 42 142 145 42
142 145 42 142 146 42 141 146 42 141 146 42 141 147 42 141 147 42 141
148 42 141 148 42 141 149 42 141 149 42 141 149 42 141 150 42 141 150
42 141 151 28 118 51 28 118 51 28 118 51 28 118 51 28 117 51 27 117 51
27 117 51 27 117 51 27 116 51 27 116 51 27 116 51 27 116 50 27 115 50
27 115 50 27 115 50 27 115 50 27 114 50 27 114 50 27 114 50 26 114 50
26 113 50 26 113 50 26 113 50 84 38 4 91 41 4 96 42 4 99 43 4 102 44 4
103 45 4 105 46 4 106 46 4 106 46 4 107 46 4 107 46 4 107 46 4 107 46
5 109 46 5 111 47 5 112 47 6 113 47 6 114 47 6 115 47 6 116 47 7 117
46 7 118 46 7 118 46 7 118 46 8 119 46 8 119 45 8 119 45 8 119 44 9
118 44 9 118 44 9 118 43 9 117 43 9 116 42 10 116 41 10 115 41 10 114
40 10 113 40 10 111 39 10 110 38 10 108 37 11 107 36 11 105 35 11 103
34 11 100 35 11 98 35 11 95 36 11 91 36 11 88 36 11 83 36 11 80 37 11
79 39 11 77 40 11 73 42 10 27 188 197 27 188 198 27 189 199 27 190 200
27 191 200 27 192 201 27 193 202 27 193 202 28 194 203 28 195 204 28
196 204 28 197 205 28 198 205 43 253 222 43 254 223 43 254 223 43 255
224 43 255 224 43 255 225 43 255 225 43 255 226 43 255 226 43 255 227
43 255 227 43 255 228 43 255 228 43 255 228 43 255 229 43 255 229 43
255 230 43 255 230 43 255 230 43 255 231 43 255 231 42 255 231 42 255
231 42 255 232 42 255 232 42 255 232 42 255 232 42 255 233 42 255 233
42 255 233 42 255 233 42 255 233 42 255 233 42 255 234
38 188 135 38 188 135 38 189 135 38 189 136 38 190 136 38 190 137 39
191 137 38 136 125 38 136 125 39 136 125 39 137 126 39 137 126 39 137
126 39 137 127 39 138 127 39 138 128 39 138 128 39 138 128 39 138 129
39 139 129 40 139 129 40 139 130 40 139 130 40 139 130 40 140 131 40
140 131 40 140 132 40 140 132 40 140 132 40 140 133 40 141 133 40 141
133 40 141 134 41 141 134 41 141 135 41 141 135 41 141 135 41 142 136
41 142 136 41 142 136 41 142 137 41 142 137 41 142 138 41 142 138 41
142 138 41 142 139 41 142 139 41 142 139 41 142 140 41 142 140 41 142
141 41 142 141 41 142 141 42 142 142 42 142 142 42 142 143 42 142 143
42 142 143 42 142 144 42 142 144 42 142 144 42 142 145 42 142 145 42
142 146 42 142 146 42 142 146 42 142 147 42 142 147 42 142 148 42 142
148 42 142 149 42 142 149 42 142 149 42 141 150 42 141 150 42 141 151
42 141 151 42 141 151 28 118 51 28 118 51 28 118 51 28 118 51 28 118
51 28 117 51 27 117 51 27 117 51 27 117 51 27 116 51 27 116 51 27 116
51 27 116 50 27 115 50 27 115 50 27 115 50 27 114 50 27 114 50 27 114
50 27 114 50 26 113 50 26 113 50 76 35 4 88 39 4 93 41 4 97 43 4 100
44 4 102 44 4 103 45 4 104 45 4 105 46 4 106 46 4 106 46 4 106 46 4
106 46 4 107 46 5 109 46 5 110 46 5 112 46 6 113 46 6 114 46 6 115 46
6 115 46 7 116 46 7 116 46 7 117 45 8 117 45 8 117 45 8 117 44 8 117
44 8 117 44 9 116 43 9 116 43 9 115 42 9 115 42 9 114 41 10 113 40 10
112 40 10 111 39 10 110 38 10 108 38 10 106 37 10 105 36 10 103 35 11
100 34 11 98 34 11 95 34 11 92 34 11 89 34 11 85 35 11 80 35 11 78 36
11 76 37 11 74 39 10 27 186 197 27 187 198 27 188 198 27 189 199 27
189 200 27 190 200 27 191 201 27 192 202 28 193 202 28 194 203 28 194
204 28 195 204 43 251 221 43 252 222 43 252 222 43 253 223 43 254 224
43 254 224 43 255 225 43 255 225 43 255 226 43 255 226 43 255 227 43
255 227 43 255 227 43 255 228 43 255 228 43 255 229 43 255 229 43 255
230 43 255 230 43 255 230 43 255 231 43 255 231 43 255 231 43 255 232
43 255 232 43 255 232 43 255 232 43 255 233 42 255 233 42 255 233 42
255 233 42 255 234 42 255 234 42 255 234 42 255 234 42 255 234
38 188 135 38 189 135 38 189 136 38 190 136 39 190 137 38 136 124 38
136 125 39 136 125 39 137 125 39 137 126 39 137 126 39 137 127 39 138
127 39 138 127 39 138 128 39 138 128 39 139 128 40 139 129 40 139 129
40 139 129 40 140 130 40 140 130 40 140 131 40 140 131 40 140 131 40
141 132 40 141 132 40 141 132 40 141 133 40 141 133 41 141 133 41 141
134 41 142 134 41 142 135 41 142 135 41 142 135 41 142 136 41 142 136
41 142 136 41 142 137 41 142 137 41 143 138 41 143 138 41 143 138 41
143 139 41 143 139 41 143 139 41 143 140 42 143 140 42 143 141 42 143
141 42 143 141 42 143 142 42 143 142 42 143 143 42 143 143 42 143 143
42 143 144 42 143 144 42 143 144 42 143 145 42 143 145 42 143 146 42
143 146 42 143 146 42 143 147 42 143 147 42 143 148 42 142 148 42 142
149 42 142 149 42 142 149 42 142 150 42 142 150 42 142 151 42 142 151
42 142 151 42 142 152 42 141 152 28 119 51 28 119 51 28 118 51 28 118
51 28 118 51 28 118 51 28 117 51 27 117 51 27 117 51 27 117 51 27 116
51 27 116 51 27 116 51 27 115 50 27 115 50 27 115 50 27 115 50 27 114
50 27 114 50 27 114 50 26 114 50 26 113 50 82 37 4 90 40 4 94 42 4 97
43 4 100 44 4 101 44 4 103 45 4 104 45 4 104 45 4 105 45 4 105 45 4
104 45 4 105 45 5 107 46 5 108 46 5 110 46 5 111 46 6 112 46 6 113 46
6 113 46 7 114 45 7 115 45 7 115 45 7 115 45 8 115 44 8 115 44 8 115
44 8 115 43 8 115 43 9 114 42 9 114 42 9 113 41 9 112 41 9 111 40 10
110 39 10 109 39 10 107 38 10 106 37 10 104 36 10 102 35 10 100 34 10
98 33 10 95 32 10 92 32 10 89 33 11 86 33 11 81 33 11 76 33 10 75 34
10 74 36 10 70 38 10 27 186 197 27 186 198 27 187 199 27 188 199 27
189 200 27 190 201 27 190 201 28 191 202 28 192 203 28 193 203 28 194
204 43 250 221 43 251 222 43 251 222 43 252 223 43 252 223 43 253 224
43 254 224 43 254 225 43 255 225 43 255 226 43 255 226 43 255 227 43
255 227 43 255 228 43 255 228 43 255 229 43 255 229 43 255 230 43 255
230 43 255 230 43 255 231 43 255 231 43 255 231 43 255 232 43 255 232
43 255 232 43 255 233 43 255 233 43 255 233 43 255 233 43 255 234 43
255 234 43 255 234 42 255 234 42 255 234 42 255 234 42 255 235
38 189 135 38 189 136 38 136 124 38 136 124 38 136 124 39 137 125 39
137 125 39 137 125 39 137 126 39 138 126 39 138 127 39 138 127 39 138
127 39 139 128 39 139 128 40 139 128 40 139 129 40 140 129 40 140 129
40 140 130 40 140 130 40 140 131 40 141 131 40 141 131 40 141 132 40
141 132 40 141 132 41 142 133 41 142 133 41 142 133 41 142 134 41 142
134 41 142 135 41 142 135 41 143 135 41 143 136 41 143 136 41 143 136
41 143 137 41 143 137 41 143 138 41 143 138 41 143 138 41 143 139 42
143 139 42 143 139 42 144 140 42 144 140 42 144 141 42 144 141 42 144
141 42 144 142 42 144 142 42 144 143 42 144 143 42 144 143 42 144 144
42 144 144 42 144 144 42 144 145 42 144 145 42 143 146 42 143 146 42
143 146 42 143 147 42 143 147 42 143 148 42 143 148 42 143 148 42 143
149 42 143 149 42 143 150 42 143 150 42 143 151 42 142 151 42 142 151
42 142 152 42 142 152 42 142 153 42 142 153 42 142 153 28 119 51 28
119 51 28 118 51 28 118 51 28 118 51 28 117 51 27 117 51 27 117 51 27
117 51 27 116 51 27 116 51 27 116 51 27 116 50 27 115 50 27 115 50 27
115 50 27 115 50 27 114 50 27 114 50 27 114 50 71 33 4 85 38 4 91 40 4
95 42 4 97 43 4 99 44 4 101 44 4 102 44 4 103 45 4 103 45 4 103 45 4
103 45 4 103 45 4 104 45 5 106 45 5 107 45 5 109 45 6 110 45 6 111 45
6 111 45 6 112 45 7 112 45 7 113 44 7 113 44 7 113 44 8 113 43 8 113
43 8 113 43 8 113 42 8 112 42 9 111 41 9 111 41 9 110 40 9 109 39 9
108 39 9 107 38 10 105 37 10 104 36 10 102 36 10 100 35 10 98 34 10 95
33 10 92 31 10 89 31 10 86 31 10 82 31 10 77 31 10 74 32 10 73 33 10
70 35 10 27 184 197 27 185 197 27 186 198 27 187 199 27 187 200 27 188
200 27 189 201 27 190 202 28 191 202 28 191 203 28 192 204 43 249 221
43 250 221 43 250 222 43 251 223 43 251 223 43 252 224 43 252 224 43
253 225 43 253 225 43 254 226 43 255 226 43 255 227 43 255 227 43 255
228 43 255 228 43 255 229 43 255 229 43 255 229 43 255 230 43 255 230
43 255 231 43 255 231 43 255 231 43 255 232 43 255 232 43 255 232 43
255 233 43 255 233 43 255 233 43 255 234 43 255 234 43 255 234 43 255
234 43 255 234 43 255 235 43 255 235 43 255 235 42 255 235
38 136 123 38 136 124 38 136 124 39 137 124 39 137 125 39 137 125 39
137 125 39 138 126 39 138 126 39 138 127 39 139 127 39 139 127 39 139
128 40 139 128 40 140 128 40 140 129 40 140 129 40 140 129 40 140 130
40 141 130 40 141 131 40 141 131 40 141 131 40 141 132 41 142 132 41
142 132 41 142 133 41 142 133 41 142 134 41 143 134 41 143 134 41 143
135 41 143 135 41 143 135 41 143 136 41 143 136 41 143 136 41 144 137
41 144 137 41 144 138 42 144 138 42 144 138 42 144 139 42 144 139 42
144 139 42 144 140 42 144 140 42 144 141 42 144 141 42 144 141 42 144
142 42 144 142 42 144 143 42 144 143 42 144 143 42 144 144 42 144 144
42 144 144 42 144 145 42 144 145 42 144 146 42 144 146 42 144 146 42
144 147 42 144 147 42 144 148 42 144 148 42 144 148 42 144 149 42 144
149 42 143 150 42 143 150 42 143 150 42 143 151 42 143 151 43 143 152
43 143 152 43 143 153 43 143 153 43 142 153 43 142 154 43 142 154 28
119 51 28 119 51 28 118 51 28 118 51 28 118 51 28 118 51 28 117 51 27
117 51 27 117 51 27 117 51 27 116 51 27 116 51 27 116 51 27 115 50 27
115 50 27 115 50 27 115 50 27 114 50 27 114 50 27 114 50 78 36 4 87 39
4 91 41 4 95 42 4 97 43 4 99 43 4 100 44 4 101 44 4 101 44 4 102 44 4
102 44 4 101 44 4 102 44 4 103 44 5 105 45 5 106 45 5 107 45 6 108 45
6 109 44 6 110 44 6 110 44 7 111 44 7 111 44 7 111 43 7 111 43 8 111
43 8 111 42 8 110 42 8 110 41 8 109 41 9 108 40 9 108 39 9 107 39 9
105 38 9 104 37 9 103 37 9 101 36 10 99 35 10 97 34 10 95 33 10 92 32
10 89 31 10 86 29 10 82 29 10 78 29 10 73 29 10 71 30 10 69 32 9 65 33
9 27 184 197 27 184 198 27 185 198 27 186 199 27 187 200 27 187 200 27
188 201 28 189 202 28 190 202 43 248 220 43 248 221 43 249 221 43 249
222 43 250 222 43 250 223 43 251 223 43 251 224 43 252 224 43 252 225
43 253 226 43 253 226 43 254 227 43 254 227 43 255 228 43 255 228 43
255 228 43 255 229 43 255 229 43 255 230 43 255 230 43 255 231 43 255
231 43 255 231 43 255 232 43 255 232 43 255 232 43 255 233 43 255 233
43 255 233 43 255 234 43 255 234 43 255 234 43 255 234 43 255 235 43
255 235 43 255 235 43 255 235 43 255 235 43 255 235
38 136 124 39 137 124 39 137 124 39 137 125 39 138 125 39 138 126 39
138 126 39 138 126 39 139 127 39 139 127 39 139 127 40 139 128 40 140
128 40 140 128 40 140 129 40 140 129 40 141 129 40 141 130 40 141 130
40 141 131 40 142 131 40 142 131 41 142 132 41 142 132 41 142 132 41
143 133 41 143 133 41 143 134 41 143 134 41 143 134 41 143 135 41 143
135 41 144 135 41 144 136 41 144 136 41 144 137 42 144 137 42 144 137
42 144 138 42 144 138 42 144 138 42 145 139 42 145 139 42 145 140 42
145 140 42 145 140 42 145 141 42 145 141 42 145 141 42 145 142 42 145
142 42 145 143 42 145 143 42 145 143 42 145 144 42 145 144 42 145 144
42 145 145 42 145 145 42 145 146 42 145 146 42 145 146 43 145 147 43
145 147 43 145 148 43 144 148 43 144 148 43 144 149 43 144 149 43 144
150 43 144 150 43 144 150 43 144 151 43 144 151 43 144 152 43 143 152
43 143 153 43 143 153 43 143 153 43 143 154 43 143 154 43 143 155 43
143 155 43 142 155 28 119 51 28 119 51 28 118 51 28 118 51 28 118 51
28 118 51 28 117 51 27 117 51 27 117 51 27 116 51 27 116 51 27 116 51
27 116 50 27 115 50 27 115 50 27 115 50 27 114 50 27 114 50 27 114 50
80 37 4 87 39 4 91 41 4 94 42 4 96 42 4 97 43 4 99 43 4 99 44 4 100 44
4 100 44 4 100 44 4 100 44 4 101 44 5 102 44 5 103 44 5 105 44 5 106
44 6 106 44 6 107 44 6 108 43 6 108 43 7 108 43 7 108 43 7 108 42 7
108 42 8 108 41 8 108 41 8 107 40 8 107 40 8 106 39 9 105 39 9 104 38
9 103 37 9 101 37 9 100 36 9 98 35 9 96 34 9 94 33 9 92 32 10 89 31 10
86 30 10 82 28 9 78 27 9 73 27 9 70 27 9 68 29 9 65 30 9 27 182 196 27
183 197 27 184 198 27 185 199 27 185 199 27 186 200 27 187 201 28 188
201 28 188 202 43 247 220 43 247 220 43 248 221 43 248 221 43 249 222
43 249 223 43 250 223 43 250 224 43 251 224 43 251 225 43 252 225 43
252 226 43 253 226 43 253 227 43 254 227 43 254 228 43 255 228 43 255
229 43 255 229 43 255 230 43 255 230 43 255 231 43 255 231 43 255 231
43 255 232 43 255 232 43 255 232 43 255 233 43 255 233 43 255 233 43
255 234 43 255 234 43 255 234 43 255 234 43 255 235 43 255 235 43 255
235 43 255 235 43 255 235 43 255 236 43 255 236
39 137 124 39 137 124 39 138 125 39 138 125 39 138 126 39 139 126 39
139 126 39 139 127 39 139 127 40 140 127 40 140 128 40 140 128 40 140
128 40 141 129 40 141 129 40 141 130 40 141 130 40 142 130 40 142 131
41 142 131 41 142 131 41 142 132 41 143 132 41 143 132 41 143 133 41
143 133 41 143 134 41 144 134 41 144 134 41 144 135 41 144 135 41 144
135 41 144 136 42 144 136 42 145 137 42 145 137 42 145 137 42 145 138
42 145 138 42 145 138 42 145 139 42 145 139 42 145 140 42 145 140 42
145 140 42 145 141 42 145 141 42 145 141 42 146 142 42 146 142 42 146
143 42 146 143 42 146 143 42 146 144 42 146 144 43 146 144 43 145 145
43 145 145 43 145 146 43 145 146 43 145 146 43 145 147 43 145 147 43
145 148 43 145 148 43 145 148 43 145 149 43 145 149 43 145 150 43 145
150 43 145 150 43 144 151 43 144 151 43 144 152 43 144 152 43 144 152
43 144 153 43 144 153 43 144 154 43 144 154 43 143 155 43 143 155 43
143 155 43 143 156 43 143 156 43 143 157 28 119 51 28 119 51 28 118 51
28 118 51 28 118 51 28 117 51 27 117 51 27 117 51 27 117 51 27 116 51
27 116 51 27 116 51 27 115 50 27 115 50 27 115 50 27 115 50 27 114 50
27 114 50 81 37 4 87 39 4 90 40 4 93 41 4 95 42 4 96 42 4 97 43 4 98
43 4 98 43 4 98 43 4 98 43 4 97 43 4 99 43 5 100 43 5 102 43 5 103 43
5 104 43 6 104 43 6 105 43 6 105 42 6 106 42 7 106 42 7 106 42 7 106
41 7 105 41 8 105 40 8 104 40 8 104 39 8 103 39 8 102 38 8 101 37 9
100 37 9 98 36 9 97 35 9 95 34 9 93 33 9 90 32 9 88 31 9 85 30 9 82 29
9 78 27 9 73 26 9 68 25 9 66 26 9 64 28 8 27 181 196 27 182 197 27 182
197 27 183 198 27 184 199 27 185 199 27 185 200 27 186 201 44 245 219
44 246 219 44 246 220 44 247 220 44 247 221 44 248 222 44 248 222 44
249 223 44 249 223 44 250 224 44 250 225 44 251 225 44 251 226 44 252
226 44 252 227 44 253 227 44 253 228 44 254 228 44 254 229 44 255 229
43 255 230 43 255 230 43 255 230 43 255 231 43 255 231 43 255 232 43
255 232 43 255 232 43 255 233 43 255 233 43 255 233 43 255 234 43 255
234 43 255 234 43 255 235 43 255 235 43 255 235 43 255 235 43 255 235
43 255 236 43 255 236 43 255 236 43 255 236
39 138 124 39 138 125 39 138 125 39 139 126 39 139 126 39 139 126 39
139 127 40 140 127 40 140 127 40 140 128 40 141 128 40 141 128 40 141
129 40 141 129 40 142 130 40 142 130 40 142 130 41 142 131 41 142 131
41 143 131 41 143 132 41 143 132 41 143 132 41 144 133 41 144 133 41
144 134 41 144 134 41 144 134 41 144 135 41 145 135 42 145 135 42 145
136 42 145 136 42 145 137 42 145 137 42 145 137 42 145 138 42 145 138
42 146 138 42 146 139 42 146 139 42 146 140 42 146 140 42 146 140 42
146 141 42 146 141 42 146 141 42 146 142 42 146 142 43 146 143 43 146
143 43 146 143 43 146 144 43 146 144 43 146 144 43 146 145 43 146 145
43 146 146 43 146 146 43 146 146 43 146 147 43 146 147 43 146 148 43
146 148 43 146 148 43 146 149 43 145 149 43 145 150 43 145 150 43 145
150 43 145 151 43 145 151 43 145 152 43 145 152 43 145 152 43 145 153
43 144 153 43 144 154 43 144 154 43 144 154 43 144 155 43 144 155 43
144 156 43 143 156 43 143 157 43 143 157 43 143 157 28 119 51 28 119
51 28 118 51 28 118 51 28 118 51 28 118 51 28 117 51 27 117 51 27 117
51 27 116 51 27 116 51 27 116 51 27 116 50 27 115 50 27 115 50 27 115
50 27 114 50 69 32 4 81 37 4 86 39 4 89 40 4 91 41 4 93 41 4 94 42 4
95 42 4 95 42 4 96 42 4 96 42 4 95 42 4 96 42 4 97 42 5 98 42 5 100 42
5 100 42 5 101 42 6 102 42 6 102 42 6 103 41 6 103 41 7 103 41 7 103
40 7 102 40 7 102 39 8 101 39 8 101 38 8 100 38 8 99 37 8 98 37 8 96
36 8 95 35 9 93 34 9 91 33 9 89 32 9 87 31 9 84 30 9 81 29 9 77 27 9
73 26 9 67 24 8 64 23 8 62 25 8 56 26 7 27 180 196 27 181 197 27 182
197 27 183 198 27 183 199 27 184 200 44 244 218 44 244 218 44 245 219
44 245 220 44 246 220 44 246 221 44 247 221 44 247 222 44 248 222 44
248 223 44 249 224 44 249 224 44 250 225 44 250 225 44 251 226 44 251
226 44 252 227 44 252 227 44 253 228 44 253 228 44 254 229 44 254 229
44 255 230 44 255 230 44 255 231 44 255 231 44 255 232 44 255 232 44
255 232 44 255 233 43 255 233 43 255 233 43 255 234 43 255 234 43 255
234 43 255 235 43 255 235 43 255 235 43 255 235 43 255 236 43 255 236
43 255 236 43 255 236 43 255 236 43 255 237
39 138 125 39 139 125 39 139 126 39 139 126 39 140 126 40 140 127 40
140 127 40 140 127 40 141 128 40 141 128 40 141 128 40 141 129 40 142
129 40 142 130 40 142 130 41 142 130 41 143 131 41 143 131 41 143 131
41 143 132 41 144 132 41 144 132 41 144 133 41 144 133 41 144 134 41
145 134 41 145 134 42 145 135 42 145 135 42 145 135 42 145 136 42 145
136 42 146 137 42 146 137 42 146 137 42 146 138 42 146 138 42 146 138
42 146 139 42 146 139 42 146 140 42 146 140 42 147 140 42 147 141 43
147 141 43 147 141 43 147 142 43 147 142 43 147 143 43 147 143 43 147
143 43 147 144 43 147 144 43 147 144 43 147 145 43 147 145 43 147 146
43 147 146 43 147 146 43 147 147 43 146 147 43 146 148 43 146 148 43
146 148 43 146 149 43 146 149 43 146 149 43 146 150 43 146 150 43 146
151 43 146 151 43 146 152 43 145 152 43 145 152 43 145 153 43 145 153
43 145 154 43 145 154 43 145 154 43 145 155 43 144 155 43 144 156 43
144 156 43 144 157 43 144 157 43 144 157 43 143 158 43 143 158 43 143
159 28 119 51 28 119 51 28 118 51 28 118 51 28 118 51 28 117 51 27 117
51 27 117 51 27 117 51 27 116 51 27 116 51 27 116 50 27 115 50 27 115
50 27 115 50 27 114 50 69 33 4 80 36 4 84 38 4 87 39 4 90 40 4 91 41 4
92 41 4 93 41 4 93 41 4 93 41 4 93 41 4 93 41 4 93 41 4 95 41 5 96 41
5 97 41 5 98 41 5 98 41 6 99 41 6 99 40 6 99 40 6 99 40 7 99 39 7 99
39 7 99 39 7 98 38 7 97 38 8 96 37 8 95 36 8 94 36 8 93 35 8 91 34 8
89 33 8 87 32 8 85 31 8 82 30 8 79 29 8 76 28 8 72 26 8 67 24 8 62 23
8 60 22 8 55 23 7 27 179 195 27 180 196 27 181 197 27 181 198 27 182
198 27 183 199 44 243 217 44 243 218 44 244 218 44 244 219 44 245 220
44 245 220 44 246 221 44 246 222 44 247 222 44 247 223 44 248 223 44
248 224 44 249 224 44 249 225 44 250 226 44 250 226 44 251 227 44 251
227 44 251 228 44 252 228 44 252 229 44 253 229 44 253 230 44 254 230
44 254 231 44 255 231 44 255 231 44 255 232 44 255 232 44 255 233 44
255 233 44 255 233 44 255 234 44 255 234 44 255 234 44 255 235 44 255
235 43 255 235 43 255 235 43 255 236 43 255 236 43 255 236 43 255 236
43 255 237 43 255 237 43 255 237
39 139 125 39 139 126 39 140 126 40 140 126 40 140 127 40 141 127 40
141 127 40 141 128 40 141 128 40 142 128 40 142 129 40 142 129 40 142
130 41 143 130 41 143 130 41 143 131 41 143 131 41 144 131 41 144 132
41 144 132 41 144 132 41 144 133 41 145 133 41 145 134 41 145 134 42
145 134 42 145 135 42 146 135 42 146 135 42 146 136 42 146 136 42 146
137 42 146 137 42 146 137 42 146 138 42 147 138 42 147 138 42 147 139
42 147 139 42 147 140 43 147 140 43 147 140 43 147 141 43 147 141 43
147 141 43 147 142 43 147 142 43 147 143 43 147 143 43 147 143 43 147
144 43 147 144 43 147 144 43 147 145 43 147 145 43 147 146 43 147 146
43 147 146 43 147 147 43 147 147 43 147 147 43 147 148 43 147 148 43
147 149 43 147 149 43 147 149 43 147 150 43 147 150 43 146 151 43 146
151 43 146 151 43 146 152 43 146 152 43 146 153 43 146 153 43 146 153
43 145 154 43 145 154 43 145 155 43 145 155 43 145 156 43 145 156 43
145 156 43 144 157 43 144 157 43 144 158 43 144 158 43 144 159 43 144
159 43 143 159 43 143 160 28 119 51 28 118 51 28 118 51 28 118 51 28
118 51 27 117 51 27 117 51 27 117 51 27 116 51 27 116 51 27 116 51 27
115 50 27 115 50 27 115 50 27 114 50 67 32 4 78 36 4 82 37 4 85 38 4
87 39 4 89 40 4 90 40 4 90 40 4 90 40 4 90 40 4 90 40 4 90 40 4 91 40
4 92 40 5 93 40 5 94 40 5 95 40 5 95 40 6 96 39 6 96 39 6 96 39 6 96
38 7 95 38 7 95 38 7 94 37 7 94 37 7 93 36 7 92 35 8 90 35 8 89 34 8
87 33 8 85 32 8 83 31 8 80 30 8 77 29 8 74 27 8 70 26 8 65 24 8 59 22
8 58 22 7 53 21 7 27 178 195 27 179 195 27 179 196 27 180 197 27 181
198 44 242 216 44 242 217 44 243 217 44 243 218 44 244 219 44 244 219
44 244 220 44 245 221 44 245 221 44 246 222 44 246 222 44 247 223 44
247 223 44 248 224 44 248 225 44 249 225 44 249 226 44 249 226 44 250
227 44 250 227 44 251 228 44 251 228 44 252 229 44 252 229 44 253 230
44 253 230 44 254 231 44 254 231 44 255 232 44 255 232 44 255 232 44
255 233 44 255 233 44 255 234 44 255 234 44 255 234 44 255 235 44 255
235 44 255 235 44 255 236 44 255 236 44 255 236 43 255 236 43 255 236
43 255 237 43 255 237 43 255 237 43 255 237
39 140 126 40 140 126 40 140 126 40 141 127 40 141 127 40 141 127 40
141 128 40 142 128 40 142 128 40 142 129 40 143 129 41 143 130 41 143
130 41 143 130 41 144 131 41 144 131 41 144 131 41 144 132 41 144 132
41 145 132 41 145 133 41 145 133 42 145 134 42 145 134 42 146 134 42
146 135 42 146 135 42 146 135 42 146 136 42 146 136 42 147 137 42 147
137 42 147 137 42 147 138 42 147 138 42 147 138 42 147 139 43 147 139
43 148 139 43 148 140 43 148 140 43 148 141 43 148 141 43 148 141 43
148 142 43 148 142 43 148 142 43 148 143 43 148 143 43 148 144 43 148
144 43 148 144 43 148 145 43 148 145 43 148 146 43 148 146 43 148 146
43 148 147 43 148 147 43 148 147 43 148 148 43 148 148 43 147 149 43
147 149 43 147 149 43 147 150 43 147 150 43 147 151 43 147 151 43 147
151 43 147 152 43 147 152 43 146 153 43 146 153 43 146 153 43 146 154
43 146 154 43 146 155 43 146 155 43 146 155 43 145 156 43 145 156 43
145 157 43 145 157 43 145 158 43 145 158 43 144 158 43 144 159 43 144
159 43 144 160 43 144 160 43 144 161 43 143 161 28 119 51 28 118 51 28
118 51 28 118 51 28 117 51 27 117 51 27 117 51 27 116 51 27 116 51 27
116 51 27 115 50 27 115 50 27 115 50 27 115 50 27 114 50 75 35 4 80 36
4 83 37 4 85 38 4 86 39 4 87 39 4 87 39 4 87 39 4 87 39 4 87 39 4 87
39 4 88 39 4 89 39 5 90 39 5 91 39 5 91 39 5 92 38 6 92 38 6 92 38 6
92 37 6 91 37 6 91 36 7 90 36 7 89 35 7 88 35 7 87 34 7 86 33 7 84 33
7 82 32 7 80 31 8 78 30 8 75 28 8 71 27 8 68 26 7 63 24 7 57 22 7 55
22 7 49 21 6 27 177 194 27 177 195 27 178 196 27 179 196 44 241 215 44
241 216 44 241 216 44 242 217 44 242 218 44 243 218 44 243 219 44 244
219 44 244 220 44 244 221 44 245 221 44 245 222 44 246 223 44 246 223
44 247 224 44 247 224 44 248 225 44 248 225 44 248 226 44 249 226 44
249 227 44 250 228 44 250 228 44 251 229 44 251 229 44 252 230 44 252
230 44 253 231 44 253 231 44 253 231 44 254 232 44 254 232 44 255 233
44 255 233 44 255 233 44 255 234 44 255 234 44 255 235 44 255 235 44
255 235 44 255 235 44 255 236 44 255 236 44 255 236 44 255 237 44 255
237 44 255 237 44 255 237 43 255 237 43 255 237
40 140 126 40 141 126 40 141 127 40 141 127 40 142 127 40 142 128 40
142 128 40 142 128 40 143 129 41 143 129 41 143 130 41 143 130 41 144
130 41 144 131 41 144 131 41 144 131 41 145 132 41 145 132 41 145 132
41 145 133 42 146 133 42 146 134 42 146 134 42 146 134 42 146 135 42
146 135 42 147 135 42 147 136 42 147 136 42 147 137 42 147 137 42 147
137 42 148 138 42 148 138 43 148 138 43 148 139 43 148 139 43 148 139
43 148 140 43 148 140 43 148 141 43 148 141 43 148 141 43 148 142 43
148 142 43 149 142 43 149 143 43 149 143 43 149 144 43 149 144 43 149
144 43 149 145 43 149 145 43 149 145 43 148 146 43 148 146 43 148 147
43 148 147 43 148 147 43 148 148 44 148 148 44 148 149 44 148 149 44
148 149 44 148 150 44 148 150 44 148 151 44 148 151 44 147 151 44 147
152 44 147 152 44 147 153 44 147 153 44 147 153 44 147 154 44 147 154
44 146 155 44 146 155 44 146 155 44 146 156 44 146 156 44 146 157 44
146 157 44 145 157 44 145 158 44 145 158 44 145 159 44 145 159 44 145
160 44 144 160 44 144 161 44 144 161 44 144 161 44 144 162 44 143 162
44 143 163 28 118 51 28 118 51 28 117 51 27 117 51 27 117 51 27 116 51
27 116 51 27 116 51 27 116 50 27 115 50 27 115 50 27 115 50 27 114 50
71 33 4 76 35 4 79 36 4 81 37 4 83 37 4 83 38 4 84 38 4 84 38 4 84 38
4 83 38 4 83 38 4 84 38 4 85 38 4 86 37 5 87 37 5 87 37 5 87 37 5 87
37 6 87 36 6 87 36 6 86 35 6 86 35 6 85 34 7 84 33 7 82 33 7 81 32 7
79 31 7 77 30 7 75 29 7 72 28 7 68 27 7 65 25 7 60 24 7 54 22 7 51 21
6 27 175 193 27 175 193 27 176 194 27 177 195 44 239 214 44 240 215 44
240 215 44 241 216 44 241 217 44 242 217 44 242 218 44 242 218 44 243
219 44 243 220 44 244 220 44 244 221 44 244 221 44 245 222 44 245 223
44 246 223 44 246 224 44 247 224 44 247 225 44 248 226 44 248 226 44
248 227 44 249 227 44 249 228 44 250 228 44 250 229 44 251 229 44 251
230 44 251 230 44 252 231 44 252 231 44 253 232 44 253 232 44 254 232
44 254 233 44 254 233 44 255 234 44 255 234 44 255 234 44 255 235 44
255 235 44 255 235 44 255 236 44 255 236 44 255 236 44 255 237 44 255
237 44 255 237 44 255 237 44 255 237 44 255 238 44 255 238
40 141 126 40 141 127 40 142 127 40 142 127 40 142 128 40 142 128 40
143 128 41 143 129 41 143 129 41 144 130 41 144 130 41 144 130 41 144
131 41 145 131 41 145 131 41 145 132 41 145 132 42 146 132 42 146 133
42 146 133 42 146 134 42 146 134 42 147 134 42 147 135 42 147 135 42
147 135 42 147 136 42 147 136 42 148 137 42 148 137 42 148 137 43 148
138 43 148 138 43 148 138 43 148 139 43 148 139 43 149 139 43 149 140
43 149 140 43 149 141 43 149 141 43 149 141 43 149 142 43 149 142 43
149 142 43 149 143 43 149 143 43 149 144 43 149 144 43 149 144 43 149
145 43 149 145 44 149 145 44 149 146 44 149 146 44 149 147 44 149 147
44 149 147 44 149 148 44 149 148 44 149 148 44 149 149 44 149 149 44
149 150 44 148 150 44 148 150 44 148 151 44 148 151 44 148 152 44 148
152 44 148 152 44 148 153 44 148 153 44 147 154 44 147 154 44 147 154
44 147 155 44 147 155 44 147 156 44 147 156 44 146 157 44 146 157 44
146 157 44 146 158 44 146 158 44 146 159 44 145 159 44 145 160 44 145
160 44 145 160 44 145 161 44 144 161 44 144 162 44 144 162 44 144 163
44 144 163 44 144 164 44 143 164 28 118 51 28 117 51 27 117 51 27 117
51 27 117 51 27 116 51 27 116 51 27 116 50 27 115 50 27 115 50 27 115
50 27 114 50 65 31 4 72 34 4 75 35 4 77 36 4 79 36 4 80 36 4 80 36 4
80 37 4 80 36 4 80 36 4 79 36 4 80 36 4 81 36 4 81 36 5 82 36 5 82 35
5 82 35 5 82 35 5 82 34 6 81 34 6 80 33 6 79 33 6 78 32 6 77 31 6 75
30 6 73 29 7 71 28 7 68 27 7 65 26 7 61 25 6 56 23 6 49 21 6 47 20 6
27 174 192 27 174 193 27 175 194 44 238 213 44 239 213 44 239 214 44
240 215 44 240 215 44 240 216 44 241 217 44 241 217 44 242 218 44 242
219 44 242 219 44 243 220 44 243 220 44 244 221 44 244 222 44 244 222
44 245 223 44 245 223 44 246 224 44 246 225 44 247 225 44 247 226 44
247 226 44 248 227 44 248 227 44 249 228 44 249 228 44 250 229 44 250
229 44 250 230 44 251 230 44 251 231 44 252 231 44 252 232 44 253 232
44 253 233 44 253 233 44 254 234 44 254 234 44 255 234 44 255 235 44
255 235 44 255 235 44 255 236 44 255 236 44 255 236 44 255 237 44 255
237 44 255 237 44 255 237 44 255 237 44 255 238 44 255 238 44 255 238
40 142 127 40 142 127 40 142 127 40 143 128 40 143 128 41 143 128 41
143 129 41 144 129 41 144 130 41 144 130 41 145 130 41 145 131 41 145
131 41 145 131 41 146 132 42 146 132 42 146 132 42 146 133 42 146 133
42 147 134 42 147 134 42 147 134 42 147 135 42 147 135 42 148 135 42
148 136 42 148 136 42 148 136 43 148 137 43 148 137 43 149 138 43 149
138 43 149 138 43 149 139 43 149 139 43 149 139 43 149 140 43 149 140
43 149 141 43 149 141 43 149 141 43 150 142 43 150 142 43 150 142 43
150 143 43 150 143 43 150 144 44 150 144 44 150 144 44 150 145 44 150
145 44 150 145 44 150 146 44 150 146 44 150 147 44 150 147 44 150 147
44 149 148 44 149 148 44 149 148 44 149 149 44 149 149 44 149 150 44
149 150 44 149 150 44 149 151 44 149 151 44 149 152 44 149 152 44 148
152 44 148 153 44 148 153 44 148 154 44 148 154 44 148 154 44 148 155
44 147 155 44 147 156 44 147 156 44 147 156 44 147 157 44 147 157 44
146 158 44 146 158 44 146 159 44 146 159 44 146 159 44 146 160 44 145
160 44 145 161 44 145 161 44 145 162 44 145 162 44 145 162 44 144 163
44 144 163 44 144 164 44 144 164 44 144 165 44 143 165 44 143 166 27
117 51 27 117 51 27 117 51 27 116 51 27 116 51 27 116 50 27 115 50 27
115 50 27 115 50 27 114 50 27 114 50 66 31 4 70 33 4 73 34 4 74 34 4
75 35 4 76 35 4 76 35 4 75 35 4 75 35 4 74 34 4 75 34 4 75 34 4 76 34
4 76 34 5 76 33 5 76 33 5 76 33 5 75 32 5 74 32 6 73 31 6 72 30 6 70
29 6 68 29 6 66 28 6 63 26 6 60 25 6 56 24 6 50 22 6 45 20 5 26 71 168
26 71 168 44 237 211 44 237 212 44 238 212 44 238 213 44 239 214 44
239 214 44 239 215 44 240 216 44 240 216 44 240 217 44 241 217 44 241
218 44 242 219 44 242 219 44 242 220 44 243 221 44 243 221 44 244 222
44 244 222 44 244 223 44 245 224 44 245 224 44 246 225 44 246 225 44
247 226 44 247 226 44 247 227 44 248 228 44 248 228 44 249 229 44 249
229 44 249 230 44 250 230 44 250 231 44 251 231 44 251 232 44 251 232
44 252 232 44 252 233 44 253 233 44 253 234 44 253 234 44 254 234 44
254 235 44 255 235 44 255 236 44 255 236 44 255 236 44 255 236 44 255
237 44 255 237 44 255 237 44 255 238 44 255 238 44 255 238 44 255 238
44 255 238
40 142 127 40 143 127 40 143 128 41 143 128 41 143 128 41 144 129 41
144 129 41 144 130 41 145 130 41 145 130 41 145 131 41 145 131 41 146
131 42 146 132 42 146 132 42 146 132 42 147 133 42 147 133 42 147 134
42 147 134 42 147 134 42 148 135 42 148 135 42 148 135 42 148 136 43
148 136 43 149 136 43 149 137 43 149 137 43 149 138 43 149 138 43 149
138 43 149 139 43 150 139 43 150 139 43 150 140 43 150 140 43 150 141
43 150 141 43 150 141 43 150 142 43 150 142 44 150 142 44 150 143 44
150 143 44 150 143 44 150 144 44 150 144 44 150 145 44 150 145 44 150
145 44 150 146 44 150 146 44 150 146 44 150 147 44 150 147 44 150 148
44 150 148 44 150 148 44 150 149 44 150 149 44 150 150 44 150 150 44
150 150 44 149 151 44 149 151 44 149 151 44 149 152 44 149 152 44 149
153 44 149 153 44 149 153 44 149 154 44 148 154 44 148 155 44 148 155
44 148 155 44 148 156 44 148 156 44 147 157 44 147 157 44 147 158 44
147 158 44 147 158 44 147 159 44 146 159 44 146 160 44 146 160 44 146
161 44 146 161 44 146 161 44 145 162 44 145 162 44 145 163 44 145 163
44 145 164 44 144 164 44 144 165 44 144 165 44 144 165 44 144 166 44
143 166 44 143 167 44 143 167 27 117 51 27 116 51 27 116 51 27 116 50
27 115 50 27 115 50 27 115 50 27 114 50 27 114 50 27 114 50 63 30 3 67
32 4 69 32 4 70 33 4 70 33 4 70 33 4 70 33 4 70 33 4 69 33 4 68 32 4
69 32 4 69 32 4 69 32 4 69 31 4 69 31 5 68 30 5 67 30 5 66 29 5 64 28
5 62 27 5 60 26 5 57 25 5 53 24 5 49 22 5 42 20 5 37 19 4 26 71 167 44
136 187 44 237 211 44 237 211 44 237 212 44 238 212 44 238 213 44 238
214 44 239 214 44 239 215 44 239 216 44 240 216 44 240 217 44 241 218
44 241 218 44 241 219 44 242 219 44 242 220 44 242 221 44 243 221 44
243 222 44 244 223 44 244 223 44 244 224 44 245 224 44 245 225 44 246
225 44 246 226 44 246 227 44 247 227 44 247 228 44 248 228 44 248 229
44 248 229 44 249 230 44 249 230 44 250 231 44 250 231 44 250 232 44
251 232 44 251 233 44 252 233 44 252 233 44 252 234 44 253 234 44 253
235 44 254 235 44 254 235 44 254 236 44 255 236 44 255 236 44 255 237
44 255 237 44 255 237 44 255 237 44 255 238 44 255 238 44 255 238 44
255 238 44 255 239
40 143 127 41 143 128 41 144 128 41 144 128 41 144 129 41 144 129 41
145 130 41 145 130 41 145 130 41 146 131 41 146 131 42 146 131 42 146
132 42 147 132 42 147 132 42 147 133 42 147 133 42 147 134 42 148 134
42 148 134 42 148 135 42 148 135 42 149 135 43 149 136 43 149 136 43
149 136 43 149 137 43 149 137 43 150 138 43 150 138 43 150 138 43 150
139 43 150 139 43 150 139 43 150 140 43 150 140 43 150 140 43 151 141
44 151 141 44 151 142 44 151 142 44 151 142 44 151 143 44 151 143 44
151 143 44 151 144 44 151 144 44 151 145 44 151 145 44 151 145 44 151
146 44 151 146 44 151 146 44 151 147 44 151 147 44 151 148 44 151 148
44 151 148 44 151 149 44 150 149 44 150 149 44 150 150 44 150 150 44
150 151 44 150 151 44 150 151 44 150 152 44 150 152 44 150 153 44 149
153 44 149 153 44 149 154 44 149 154 44 149 155 44 149 155 44 149 155
44 148 156 44 148 156 44 148 157 44 148 157 44 148 157 44 148 158 44
147 158 44 147 159 44 147 159 44 147 160 44 147 160 44 147 160 44 146
161 44 146 161 44 146 162 44 146 162 44 146 163 44 145 163 44 145 163
44 145 164 44 145 164 44 145 165 44 144 165 44 144 166 44 144 166 44
144 167 44 144 167 44 143 168 44 143 168 44 143 169 44 143 169 44 143
170 27 116 50 27 115 50 27 115 50 27 115 50 27 114 50 27 114 50 27 114
50 26 113 50 26 113 50 61 30 3 63 30 3 64 31 3 64 31 3 64 31 3 63 30 3
63 30 3 62 30 3 61 29 3 61 29 4 61 29 4 60 28 4 60 28 4 58 27 4 57 26
4 55 25 4 52 24 4 49 23 4 44 21 4 37 19 4 44 137 185 44 137 185 44 137
186 44 136 187 44 236 210 44 236 211 44 237 211 44 237 212 44 237 213
44 238 213 44 238 214 44 238 215 44 239 215 44 239 216 44 239 216 44
240 217 44 240 218 44 241 218 44 241 219 44 241 220 44 242 220 44 242
221 44 242 221 44 243 222 44 243 223 44 244 223 44 244 224 44 244 224
44 245 225 44 245 226 44 246 226 44 246 227 44 246 227 44 247 228 44
247 228 44 248 229 44 248 229 44 248 230 44 249 230 44 249 231 44 249
231 44 250 232 44 250 232 44 251 233 44 251 233 44 251 234 44 252 234
44 252 234 44 252 235 44 253 235 44 253 236 44 254 236 44 254 236 44
254 237 44 255 237 44 255 237 44 255 237 44 255 238 44 255 238 44 255
238 44 255 238 44 255 239 44 255 239
41 144 128 41 144 128 41 144 128 41 144 129 41 145 129 41 145 130 41
145 130 41 146 130 41 146 131 42 146 131 42 146 131 42 147 132 42 147
132 42 147 132 42 147 133 42 148 133 42 148 134 42 148 134 42 148 134
42 149 135 43 149 135 43 149 135 43 149 136 43 149 136 43 149 136 43
150 137 43 150 137 43 150 138 43 150 138 43 150 138 43 150 139 43 151
139 43 151 139 43 151 140 43 151 140 44 151 140 44 151 141 44 151 141
44 151 142 44 151 142 44 151 142 44 151 143 44 151 143 44 151 143 44
151 144 44 151 144 44 151 145 44 151 145 44 151 145 44 151 146 44 151
146 44 151 146 44 151 147 44 151 147 44 151 147 44 151 148 44 151 148
44 151 149 44 151 149 44 151 149 44 151 150 44 151 150 44 151 151 44
151 151 44 151 151 44 150 152 44 150 152 44 150 152 44 150 153 44 150
153 44 150 154 44 150 154 44 149 154 44 149 155 44 149 155 44 149 156
44 149 156 44 149 156 44 149 157 44 148 157 44 148 158 44 148 158 44
148 159 44 148 159 44 147 159 44 147 160 44 147 160 44 147 161 44 147
161 44 147 161 44 146 162 44 146 162 44 146 163 44 146 163 44 146 164
44 145 164 44 145 165 44 145 165 44 145 166 44 145 166 44 144 166 44
144 167 44 144 167 44 144 168 44 144 168 44 143 169 44 143 169 44 143
170 44 143 170 44 143 171 44 142 171 44 142 172 44 142 172 27 114 50
27 114 50 27 114 50 26 113 50 26 113 50 26 113 50 26 112 49 54 27 3 55
27 3 55 28 3 55 27 3 55 27 3 54 27 3 52 26 3 51 26 3 49 25 3 48 24 3
46 24 3 43 23 3 40 21 3 34 19 3 44 138 184 44 138 184 44 137 185 44
137 185 44 137 186 44 137 186 44 236 209 44 236 210 44 236 211 44 236
211 44 237 212 44 237 213 44 237 213 44 238 214 44 238 215 44 238 215
44 239 216 44 239 217 44 240 217 44 240 218 44 240 218 44 241 219 44
241 220 45 241 220 45 242 221 45 242 222 45 242 222 45 243 223 45 243
223 45 244 224 45 244 224 45 244 225 45 245 226 45 245 226 45 245 227
45 246 227 45 246 228 45 247 228 45 247 229 45 247 229 45 248 230 45
248 230 45 248 231 45 249 231 45 249 232 45 250 232 45 250 233 45 250
233 44 251 234 44 251 234 44 251 235 44 252 235 44 252 235 44 252 236
44 253 236 44 253 236 44 253 237 44 254 237 44 254 237 44 254 238 44
255 238 44 255 238 44 255 238 44 255 239 44 255 239 44 255 239
41 144 128 41 144 128 41 145 129 41 145 129 41 145 129 41 146 130 41
146 130 42 146 131 42 147 131 42 147 131 42 147 132 42 147 132 42 148
132 42 148 133 42 148 133 42 148 133 42 149 134 42 149 134 43 149 135
43 149 135 43 149 135 43 150 136 43 150 136 43 150 136 43 150 137 43
150 137 43 150 138 43 151 138 43 151 138 43 151 139 43 151 139 43 151
139 44 151 140 44 151 140 44 151 140 44 152 141 44 152 141 44 152 142
44 152 142 44 152 142 44 152 143 44 152 143 44 152 143 44 152 144 44
152 144 44 152 144 44 152 145 44 152 145 44 152 146 44 152 146 44 152
146 44 152 147 44 152 147 44 152 147 44 152 148 44 152 148 44 152 149
44 152 149 44 152 149 44 151 150 44 151 150 44 151 150 44 151 151 44
151 151 44 151 152 45 151 152 45 151 152 45 151 153 45 151 153 45 150
154 45 150 154 45 150 154 45 150 155 45 150 155 44 150 156 44 149 156
44 149 156 44 149 157 44 149 157 44 149 158 44 149 158 44 148 158 44
148 159 44 148 159 44 148 160 44 148 160 44 148 160 44 147 161 44 147
161 44 147 162 44 147 162 44 147 163 44 146 163 44 146 164 44 146 164
44 146 164 44 146 165 44 145 165 44 145 166 44 145 166 44 145 167 44
145 167 44 144 168 44 144 168 44 144 169 44 144 169 44 143 170 44 143
170 44 143 170 44 143 171 44 143 171 44 142 172 44 142 172 44 142 173
44 142 173 44 142 174 44 141 174 44 141 175 44 141 175 44 141 176 44
141 176 44 140 177 44 140 177 44 140 178 44 140 179 44 140 179 44 139
180 44 139 180 44 139 181 44 139 181 44 139 182 44 139 182 44 138 183
44 138 183 44 138 184 44 138 184 44 138 185 44 137 185 44 235 208 44
235 209 44 235 210 44 236 210 44 236 211 44 236 211 44 237 212 45 237
213 45 237 213 45 238 214 45 238 215 45 238 215 45 239 216 45 239 217
45 239 217 45 240 218 45 240 219 45 240 219 45 241 220 45 241 220 45
241 221 45 242 222 45 242 222 45 242 223 45 243 223 45 243 224 45 243
225 45 244 225 45 244 226 45 245 226 45 245 227 45 245 227 45 246 228
45 246 228 45 246 229 45 247 230 45 247 230 45 248 231 45 248 231 45
248 232 45 249 232 45 249 232 45 249 233 45 250 233 45 250 234 45 250
234 45 251 235 45 251 235 45 251 235 45 252 236 44 252 236 44 252 236
44 253 237 44 253 237 44 253 237 44 254 238 44 254 238 44 254 238 44
255 238 44 255 239 44 255 239 44 255 239
41 145 128 41 145 129 41 145 129 41 146 129 41 146 130 41 146 130 42
147 131 42 147 131 42 147 131 42 147 132 42 148 132 42 148 132 42 148
133 42 148 133 42 149 133 42 149 134 43 149 134 43 149 135 43 150 135
43 150 135 43 150 136 43 150 136 43 150 136 43 151 137 43 151 137 43
151 137 43 151 138 43 151 138 43 151 139 44 151 139 44 152 139 44 152
140 44 152 140 44 152 140 44 152 141 44 152 141 44 152 141 44 152 142
44 152 142 44 152 143 44 152 143 44 152 143 44 153 144 44 153 144 44
153 144 44 153 145 44 153 145 44 153 146 44 153 146 44 153 146 44 153
147 44 153 147 44 152 147 45 152 148 45 152 148 45 152 148 45 152 149
45 152 149 45 152 150 45 152 150 45 152 150 45 152 151 45 152 151 45
152 152 45 152 152 45 151 152 45 151 153 45 151 153 45 151 153 45 151
154 45 151 154 45 151 155 45 150 155 45 150 155 45 150 156 45 150 156
45 150 157 45 150 157 45 149 157 45 149 158 45 149 158 45 149 159 45
149 159 45 149 159 45 148 160 45 148 160 45 148 161 45 148 161 44 148
162 44 147 162 44 147 162 44 147 163 44 147 163 44 147 164 44 146 164
44 146 165 44 146 165 44 146 166 44 146 166 44 145 166 44 145 167 44
145 167 44 145 168 44 144 168 44 144 169 44 144 169 44 144 170 44 144
170 44 143 171 44 143 171 44 143 172 44 143 172 44 143 173 44 142 173
44 142 174 44 142 174 44 142 175 44 142 175 44 141 176 44 141 176 44
141 177 44 141 177 44 141 178 44 140 178 44 140 179 44 140 179 44 140
180 44 140 180 44 139 181 44 139 181 44 139 182 44 139 182 44 139 183
44 138 183 44 138 184 44 138 185 44 138 185 45 234 208 45 235 208 45
235 209 45 235 210 45 235 210 45 236 211 45 236 212 45 236 212 45 237
213 45 237 214 45 237 214 45 238 215 45 238 215 45 238 216 45 239 217
45 239 217 45 239 218 45 240 219 45 240 219 45 240 220 45 241 220 45
241 221 45 241 222 45 242 222 45 242 223 45 242 223 45 243 224 45 243
225 45 243 225 45 244 226 45 244 226 45 244 227 45 245 227 45 245 228
45 246 229 45 246 229 45 246 230 45 247 230 45 247 231 45 247 231 45
248 232 45 248 232 45 248 233 45 249 233 45 249 233 45 249 234 45 250
234 45 250 235 45 250 235 45 251 236 45 251 236 45 251 236 45 252 237
45 252 237 45 252 237 44 253 238 44 253 238 44 253 238 44 254 238 44
254 239 44 254 239 44 254 239 44 255 239
41 145 129 41 146 129 41 146 129 41 146 130 42 147 130 42 147 131 42
147 131 42 147 131 42 148 132 42 148 132 42 148 132 42 149 133 42 149
133 42 149 133 43 149 134 43 150 134 43 150 135 43 150 135 43 150 135
43 150 136 43 151 136 43 151 136 43 151 137 43 151 137 43 151 137 43
151 138 44 152 138 44 152 139 44 152 139 44 152 139 44 152 140 44 152
140 44 152 140 44 153 141 44 153 141 44 153 141 44 153 142 44 153 142
44 153 143 44 153 143 44 153 143 44 153 144 44 153 144 44 153 144 44
153 145 44 153 145 45 153 145 45 153 146 45 153 146 45 153 147 45 153
147 45 153 147 45 153 148 45 153 148 45 153 148 45 153 149 45 153 149
45 153 150 45 153 150 45 153 150 45 152 151 45 152 151 45 152 151 45
152 152 45 152 152 45 152 153 45 152 153 45 152 153 45 151 154 45 151
154 45 151 154 45 151 155 45 151 155 45 151 156 45 151 156 45 150 156
45 150 157 45 150 157 45 150 158 45 150 158 45 150 158 45 149 159 45
149 159 45 149 160 45 149 160 45 149 161 45 148 161 45 148 161 45 148
162 45 148 162 45 148 163 45 147 163 45 147 164 45 147 164 45 147 164
45 147 165 45 146 165 44 146 166 44 146 166 44 146 167 44 145 167 44
145 168 44 145 168 44 145 169 44 145 169 44 144 169 44 144 170 44 144
170 44 144 171 44 144 171 44 143 172 44 143 172 44 143 173 44 143 173
44 143 174 44 142 174 44 142 175 44 142 175 44 142 176 44 141 176 44
141 177 44 141 177 44 141 178 44 141 178 44 140 179 44 140 179 44 140
180 44 140 180 44 140 181 44 140 182 44 139 182 44 139 183 44 139 183
44 139 184 44 139 184 44 138 185 45 234 207 45 234 208 45 234 208 45
235 209 45 235 210 45 235 210 45 236 211 45 236 212 45 236 212 45 236
213 45 237 214 45 237 214 45 237 215 45 238 215 45 238 216 45 238 217
45 239 217 45 239 218 45 239 219 45 240 219 45 240 220 45 240 220 45
241 221 45 241 222 45 241 222 45 242 223 45 242 224 45 242 224 45 243
225 45 243 225 45 243 226 45 244 226 45 244 227 45 244 228 45 245 228
45 245 229 45 245 229 45 246 230 45 246 230 45 246 231 45 247 231 45
247 232 45 247 232 45 248 233 45 248 233 45 248 234 45 249 234 45 249
234 45 249 235 45 250 235 45 250 236 45 250 236 45 251 236 45 251 237
45 251 237 45 252 237 45 252 238 45 252 238 45 253 238 45 253 238 44
253 239 44 253 239 44 254 239 44 254 239
41 146 129 41 146 129 42 147 130 42 147 130 42 147 130 42 148 131 42
148 131 42 148 132 42 148 132 42 149 132 42 149 133 42 149 133 43 149
133 43 150 134 43 150 134 43 150 134 43 150 135 43 151 135 43 151 136
43 151 136 43 151 136 43 151 137 43 152 137 43 152 137 44 152 138 44
152 138 44 152 138 44 152 139 44 153 139 44 153 140 44 153 140 44 153
140 44 153 141 44 153 141 44 153 141 44 153 142 44 153 142 44 153 142
44 153 143 44 154 143 44 154 144 44 154 144 45 154 144 45 154 145 45
154 145 45 154 145 45 154 146 45 154 146 45 154 146 45 154 147 45 154
147 45 154 148 45 154 148 45 153 148 45 153 149 45 153 149 45 153 149
45 153 150 45 153 150 45 153 151 45 153 151 45 153 151 45 153 152 45
153 152 45 152 152 45 152 153 45 152 153 45 152 154 45 152 154 45 152
154 45 152 155 45 151 155 45 151 156 45 151 156 45 151 156 45 151 157
45 151 157 45 150 158 45 150 158 45 150 158 45 150 159 45 150 159 45
150 160 45 149 160 45 149 160 45 149 161 45 149 161 45 149 162 45 148
162 45 148 162 45 148 163 45 148 163 45 148 164 45 147 164 45 147 165
45 147 165 45 147 166 45 146 166 45 146 166 45 146 167 45 146 167 45
146 168 45 145 168 45 145 169 45 145 169 44 145 170 44 145 170 44 144
171 44 144 171 44 144 172 44 144 172 44 143 173 44 143 173 44 143 174
44 143 174 44 143 175 44 142 175 44 142 176 44 142 176 44 142 177 44
142 177 44 141 178 44 141 178 44 141 179 44 141 179 44 141 180 44 140
180 44 140 181 44 140 181 44 140 182 44 140 182 44 139 183 44 139 183
44 139 184 44 139 184 45 233 207 45 234 207 45 234 208 45 234 209 45
234 209 45 235 210 45 235 210 45 235 211 45 236 212 45 236 212 45 236
213 45 236 214 45 237 214 45 237 215 45 237 216 45 238 216 45 238 217
45 238 217 45 239 218 45 239 219 45 239 219 45 240 220 45 240 221 45
240 221 45 241 222 45 241 222 45 241 223 45 242 224 45 242 224 45 242
225 45 243 225 45 243 226 45 243 226 45 244 227 45 244 228 45 244 228
45 245 229 45 245 229 45 245 230 45 246 230 45 246 231 45 246 231 45
247 232 45 247 232 45 247 233 45 248 233 45 248 234 45 248 234 45 249
234 45 249 235 45 249 235 45 249 236 45 250 236 45 250 236 45 250 237
45 251 237 45 251 237 45 251 238 45 252 238 45 252 238 45 252 239 45
252 239 45 253 239 44 253 239 44 253 240
42 147 129 42 147 130 42 147 130 42 148 130 42 148 131 42 148 131 42
148 132 42 149 132 42 149 132 42 149 133 43 150 133 43 150 133 43 150
134 43 150 134 43 151 134 43 151 135 43 151 135 43 151 136 43 151 136
43 152 136 43 152 137 43 152 137 44 152 137 44 152 138 44 153 138 44
153 138 44 153 139 44 153 139 44 153 140 44 153 140 44 153 140 44 153
141 44 154 141 44 154 141 44 154 142 44 154 142 44 154 142 44 154 143
45 154 143 45 154 144 45 154 144 45 154 144 45 154 145 45 154 145 45
154 145 45 154 146 45 154 146 45 154 146 45 154 147 45 154 147 45 154
148 45 154 148 45 154 148 45 154 149 45 154 149 45 154 149 45 154 150
45 154 150 45 154 150 45 154 151 45 153 151 45 153 152 45 153 152 45
153 152 45 153 153 45 153 153 45 153 153 45 153 154 45 152 154 45 152
155 45 152 155 45 152 155 45 152 156 45 152 156 45 151 157 45 151 157
45 151 157 45 151 158 45 151 158 45 151 159 45 150 159 45 150 159 45
150 160 45 150 160 45 150 161 45 149 161 45 149 161 45 149 162 45 149
162 45 149 163 45 148 163 45 148 164 45 148 164 45 148 164 45 147 165
45 147 165 45 147 166 45 147 166 45 147 167 45 146 167 45 146 168 45
146 168 45 146 168 45 146 169 45 145 169 45 145 170 45 145 170 45 145
171 45 144 171 45 144 172 45 144 172 45 144 173 45 144 173 44 143 174
44 143 174 44 143 175 44 143 175 44 143 176 44 142 176 44 142 177 44
142 177 44 142 178 44 141 178 44 141 179 44 141 179 44 141 180 44 141
180 44 140 181 44 140 181 44 140 182 44 140 182 44 140 183 44 140 183
44 139 184 45 233 206 45 233 207 45 234 207 45 234 208 45 234 209 45
234 209 45 235 210 45 235 210 45 235 211 45 235 212 45 236 212 45 236
213 45 236 214 45 237 214 45 237 215 45 237 216 45 237 216 45 238 217
45 238 217 45 238 218 45 239 219 45 239 219 45 239 220 45 240 221 45
240 221 45 240 222 45 241 222 45 241 223 45 241 224 45 241 224 45 242
225 45 242 225 45 242 226 45 243 226 45 243 227 45 243 228 45 244 228
45 244 229 45 244 229 45 245 230 45 245 230 45 245 231 45 246 231 45
246 232 45 246 232 45 247 233 45 247 233 45 247 234 45 248 234 45 248
234 45 248 235 45 249 235 45 249 236 45 249 236 45 249 236 45 250 237
45 250 237 45 250 237 45 251 238 45 251 238 45 251 238 45 251 239 45
252 239 45 252 239 45 252 239 45 252 240
42 147 130 42 148 130 42 148 130 42 148 131 42 148 131 42 149 132 42
149 132 42 149 132 43 150 133 43 150 133 43 150 133 43 150 134 43 151
134 43 151 134 43 151 135 43 151 135 43 152 135 43 152 136 43 152 136
44 152 137 44 152 137 44 153 137 44 153 138 44 153 138 44 153 138 44
153 139 44 153 139 44 154 139 44 154 140 44 154 140 44 154 141 44 154
141 44 154 141 44 154 142 45 154 142 45 154 142 45 154 143 45 155 143
45 155 143 45 155 144 45 155 144 45 155 145 45 155 145 45 155 145 45
155 146 45 155 146 45 155 146 45 155 147 45 155 147 45 155 147 45 155
148 45 155 148 45 155 149 45 154 149 45 154 149 45 154 150 45 154 150
45 154 150 45 154 151 45 154 151 45 154 151 45 154 152 45 154 152 45
154 153 45 153 153 45 153 153 45 153 154 45 153 154 45 153 154 45 153
155 45 153 155 45 152 156 45 152 156 45 152 156 45 152 157 45 152 157
45 152 158 45 151 158 45 151 158 45 151 159 45 151 159 45 151 160 45
150 160 45 150 160 45 150 161 45 150 161 45 150 162 45 149 162 45 149
163 45 149 163 45 149 163 45 149 164 45 148 164 45 148 165 45 148 165
45 148 166 45 147 166 45 147 166 45 147 167 45 147 167 45 147 168 45
146 168 45 146 169 45 146 169 45 146 170 45 145 170 45 145 171 45 145
171 45 145 171 45 145 172 45 144 172 45 144 173 45 144 173 45 144 174
45 143 174 45 143 175 45 143 175 45 143 176 45 143 176 45 142 177 45
142 177 45 142 178 44 142 178 44 142 179 44 141 179 44 141 180 44 141
180 44 141 181 44 141 182 44 140 182 44 140 183 44 140 183 44 140 184
45 233 205 45 233 206 45 233 207 45 233 207 45 234 208 45 234 209 45
234 209 45 234 210 45 235 211 45 235 211 45 235 212 45 235 212 45 236
213 45 236 214 45 236 214 45 237 215 45 237 216 45 237 216 45 237 217
45 238 217 45 238 218 45 238 219 45 239 219 45 239 220 45 239 221 45
240 221 45 240 222 45 240 222 45 240 223 45 241 224 45 241 224 45 241
225 45 242 225 45 242 226 45 242 226 45 243 227 45 243 228 45 243 228
45 244 229 45 244 229 45 244 230 45 245 230 45 245 231 45 245 231 45
245 232 45 246 232 45 246 233 45 246 233 45 247 234 45 247 234 45 247
235 45 248 235 45 248 235 45 248 236 45 249 236 45 249 236 45 249 237
45 249 237 45 250 238 45 250 238 45 250 238 45 250 238 45 251 239 45
251 239 45 251 239 45 251 239 45 252 240
