P3
50 25
255
12 11 0 12 11 0 12 11 0 12 11 0 12 11 0 12 11 0 12 11 0 12 11 0 12 11
0 12 11 0 12 11 0 12 11 0 12 11 0 12 11 0 12 11 0 12 11 0 12 11 0 12
11 0 12 11 0 12 11 0 12 11 0 12 11 0 10 10 0 10 10 0 10 10 0 10 10 0
10 10 0 12 11 0 12 11 0 12 11 0 12 11 0 12 11 0 12 11 0 12 11 0 12 11
0 12 11 0 12 11 0 12 11 0 12 11 0 12 11 0 12 11 0 12 11 0 12 11 0 12
11 0 12 11 0 12 11 0 12 11 0 12 11 0 12 11 0 12 11 0
13 12 0 13 12 0 13 12 0 13 12 0 13 12 0 13 12 0 13 13 0 14 13 0 14 13
0 14 13 0 14 13 0 14 13 0 14 13 0 14 13 0 14 13 0 14 13 0 14 13 0 14
13 0 14 13 0 14 13 0 14 13 0 14 13 0 14 13 0 10 10 0 10 10 0 10 10 0
10 10 0 14 13 0 14 13 0 14 13 0 14 13 0 14 13 0 14 13 0 14 13 0 14 13
0 14 13 0 14 13 0 14 13 0 14 13 0 14 13 0 14 13 0 14 13 0 14 13 0 14
13 0 14 13 0 13 13 0 13 12 0 13 12 0 13 12 0 13 12 0
15 14 0 15 14 0 15 14 0 15 14 0 15 14 0 15 14 0 15 14 0 15 14 0 15 14
0 15 14 0 16 14 0 16 15 0 16 15 0 16 15 0 16 15 0 16 15 0 16 15 0 16
15 0 16 15 0 16 15 0 16 15 0 16 15 0 16 15 0 10 10 0 10 10 0 10 10 0
10 10 0 10 10 0 17 15 0 16 15 0 16 15 0 16 15 0 16 15 0 16 15 0 16 15
0 16 15 0 16 15 0 16 15 0 16 15 0 16 15 0 16 15 0 16 14 0 15 14 0 15
14 0 15 14 0 15 14 0 15 14 0 15 14 0 15 14 0 15 14 0
16 15 0 16 15 0 16 15 0 16 15 0 17 15 0 17 16 0 17 16 0 17 16 0 17 16
0 17 16 0 17 16 0 18 16 0 18 16 0 18 17 0 18 17 0 18 17 0 18 17 0 18
17 0 18 17 0 19 17 0 19 17 0 19 17 0 19 17 0 19 18 0 10 10 0 10 10 0
10 10 0 10 10 0 19 18 0 19 18 0 19 17 0 19 17 0 19 17 0 19 17 0 18 17
0 18 17 0 18 17 0 18 17 0 18 17 0 18 17 0 18 16 0 18 16 0 17 16 0 17
16 0 17 16 0 17 16 0 17 16 0 17 16 0 17 15 0 16 15 0
18 16 0 18 16 0 18 17 0 18 17 0 18 17 0 18 17 0 19 17 0 19 17 0 19 18
0 19 18 0 19 18 0 20 18 0 20 18 0 20 19 0 20 19 0 20 19 0 20 19 0 21
19 0 21 19 0 21 19 0 21 20 0 21 20 0 21 20 0 21 20 0 21 20 0 10 10 0
10 10 0 10 10 0 21 20 0 21 20 0 21 20 0 21 20 0 21 20 0 21 20 0 21 19
0 21 19 0 21 19 0 20 19 0 20 19 0 20 19 0 20 18 0 20 18 0 19 18 0 19
18 0 19 18 0 19 18 0 19 17 0 19 17 0 18 17 0 18 17 0
19 18 0 19 18 0 19 18 0 20 18 0 20 18 0 20 19 0 20 19 0 21 19 0 21 19
0 21 20 0 21 20 0 22 20 0 22 20 0 22 21 0 22 21 0 23 21 0 23 21 0 23
21 0 23 22 0 23 22 0 24 22 0 24 22 0 24 22 0 24 22 0 24 23 0 24 23 0
24 23 0 24 23 0 24 23 0 24 23 0 15 14 0 15 13 0 24 22 0 24 22 0 24 22
0 23 22 0 23 22 0 23 21 0 23 21 0 22 21 0 22 21 0 22 20 0 22 20 0 21
20 0 21 20 0 21 20 0 21 19 0 20 19 0 20 19 0 20 19 0
21 19 0 21 19 0 21 20 0 21 20 0 22 20 0 22 20 0 22 21 0 22 21 0 23 21
0 23 21 0 23 22 0 24 22 0 24 22 0 24 23 0 25 23 0 25 23 0 25 24 0 26
24 0 26 24 0 26 24 0 26 25 0 27 25 0 27 25 0 27 25 0 27 25 0 27 25 0
27 25 0 27 25 0 27 25 0 12 11 0 27 25 0 28 25 0 27 25 0 27 25 0 27 25
0 26 24 0 26 24 0 26 24 0 25 24 0 25 23 0 25 23 0 24 23 0 24 22 0 24
22 0 23 22 0 23 22 0 23 21 0 23 21 0 22 21 0 22 20 0
22 21 0 22 21 0 23 21 0 23 21 0 23 22 0 24 22 0 24 22 0 24 23 0 25 23
0 25 23 0 25 24 0 26 24 0 26 24 0 27 25 0 27 25 0 27 26 0 28 26 0 28
26 0 29 27 0 29 27 0 29 27 0 30 28 0 30 28 0 30 28 0 30 28 0 31 28 0
31 28 0 31 29 0 31 29 0 31 29 0 25 23 0 22 20 0 30 28 0 30 28 0 30 28
0 29 27 0 29 27 0 29 27 0 28 26 0 28 26 0 28 26 0 27 25 0 27 25 0 26
24 0 26 24 0 26 24 0 25 23 0 25 23 0 24 23 0 24 22 0
24 22 0 24 22 0 24 23 0 25 23 0 25 23 0 25 24 0 26 24 0 26 24 0 27 25
0 27 25 0 28 26 0 28 26 0 29 27 0 29 27 0 30 27 0 30 28 0 31 28 0 31
29 0 32 29 0 32 30 0 32 30 0 33 31 0 33 31 0 34 31 0 34 31 0 34 32 0
34 32 0 34 32 0 34 32 0 34 32 0 34 32 0 34 32 0 34 31 0 33 31 0 33 31
0 33 30 0 32 30 0 32 30 0 31 29 0 31 29 0 30 28 0 30 28 0 29 27 0 29
27 0 29 26 0 28 26 0 28 26 0 27 25 0 27 25 0 26 24 0
25 23 0 26 24 0 26 24 0 26 25 0 27 25 0 27 25 0 28 26 0 28 26 0 29 27
0 29 27 0 30 28 0 30 28 0 31 29 0 31 29 0 32 30 0 33 30 0 33 31 0 34
31 0 34 32 0 35 33 0 36 33 0 36 34 0 37 34 0 37 34 1 37 35 1 38 35 1
38 35 1 38 35 1 38 36 1 38 35 1 38 35 1 38 35 1 38 35 1 37 35 1 37 34
1 36 34 0 36 33 0 35 33 0 35 32 0 34 32 0 34 31 0 33 31 0 32 30 0 32
30 0 31 29 0 31 29 0 30 28 0 30 27 0 29 27 0 29 27 0
27 25 0 27 25 0 28 26 0 28 26 0 29 27 0 29 27 0 30 28 0 30 28 0 31 29
0 31 29 0 32 30 0 33 30 0 33 31 0 34 32 0 35 32 0 35 33 0 36 34 0 37
34 0 38 35 1 38 36 1 39 36 1 40 37 1 40 37 1 41 38 1 41 38 1 42 39 1
42 39 1 42 39 1 42 39 1 42 39 1 42 39 1 42 39 1 42 39 1 41 39 1 41 38
1 40 38 1 40 37 1 39 36 1 38 36 1 38 35 1 37 34 1 36 34 0 36 33 0 35
32 0 34 32 0 34 31 0 33 31 0 32 30 0 32 29 0 31 29 0
28 26 0 29 27 0 29 27 0 30 28 0 30 28 0 31 29 0 31 29 0 32 30 0 33 30
0 33 31 0 34 32 0 35 32 0 36 33 0 36 34 0 37 35 1 38 35 1 39 36 1 40
37 1 41 38 1 41 39 1 42 39 1 43 40 1 44 41 1 45 41 1 45 42 1 46 43 1
46 43 1 47 43 1 10 10 0 47 44 1 47 44 1 47 43 1 46 43 1 46 43 1 45 42
1 45 42 1 44 41 1 43 40 1 42 39 1 42 39 1 41 38 1 40 37 1 39 36 1 38
35 1 37 35 1 37 34 0 36 33 0 35 32 0 34 32 0 33 31 0
30 28 0 30 28 0 31 29 0 31 29 0 32 30 0 33 30 0 33 31 0 34 32 0 35 32
0 35 33 0 36 34 0 37 34 1 38 35 1 39 36 1 40 37 1 41 38 1 42 39 1 43
40 1 44 41 1 45 42 1 46 43 1 47 43 1 48 44 1 49 45 1 49 46 1 50 47 1
10 10 0 10 10 0 10 10 0 10 10 0 10 10 0 10 10 0 5 5 1 4 4 0 50 47 1 49
46 1 48 45 1 48 44 1 47 43 1 46 42 1 45 41 1 44 41 1 43 40 1 42 39 1
41 38 1 40 37 1 39 36 1 38 35 1 37 34 1 36 34 0
31 29 0 32 30 0 32 30 0 33 31 0 34 31 0 34 32 0 35 33 0 36 33 0 37 34
0 37 35 1 38 36 1 39 37 1 40 37 1 41 38 1 42 39 1 43 40 1 45 41 1 46
42 1 47 44 1 48 45 1 49 46 1 50 47 1 52 48 1 53 49 1 54 50 1 10 10 0
10 10 0 10 10 0 10 10 0 10 10 0 3 3 0 15 15 1 23 23 2 26 26 3 24 24 2
54 50 1 53 50 1 52 49 1 51 48 1 50 46 1 49 45 1 48 44 1 46 43 1 45 42
1 44 41 1 43 40 1 42 39 1 41 38 1 40 37 1 39 36 1
33 30 0 33 31 0 34 31 0 35 32 0 35 33 0 36 33 0 37 34 0 38 35 1 39 36
1 39 37 1 40 38 1 41 39 1 42 39 1 44 41 1 45 42 1 46 43 1 47 44 1 49
45 1 50 46 1 51 48 1 53 49 1 54 50 1 55 51 1 57 53 1 58 54 1 10 10 0
10 10 0 10 10 0 10 10 0 0 0 0 11 11 1 22 22 2 30 30 3 34 34 3 34 34 3
27 27 3 58 54 1 57 53 1 56 52 1 55 51 1 53 49 1 52 48 1 50 47 1 49 46
1 48 44 1 46 43 1 45 42 1 44 41 1 43 40 1 42 39 1
34 32 0 35 32 0 35 33 0 36 34 0 37 34 1 38 35 1 39 36 1 39 37 1 40 38
1 41 38 1 42 39 1 43 40 1 45 41 1 46 43 1 47 44 1 48 45 1 50 46 1 10
10 0 10 10 0 10 10 0 56 52 1 57 53 1 59 55 1 61 56 1 34 33 1 62 59 3
86 82 4 95 91 4 10 10 0 0 0 0 13 13 1 24 24 2 31 31 3 56 59 5 37 37 4
31 31 3 12 12 1 62 58 1 61 57 1 59 55 1 58 54 1 56 52 1 55 51 1 53 49
1 51 48 1 50 47 1 49 45 1 47 44 1 46 43 1 45 42 1
35 33 0 36 34 0 37 34 0 38 35 1 38 36 1 39 36 1 40 37 1 41 38 1 42 39
1 43 40 1 44 41 1 45 42 1 47 43 1 48 45 1 49 46 1 10 10 0 10 10 0 10
10 0 10 10 0 10 10 0 10 10 0 10 10 0 10 10 0 34 33 1 45 43 2 75 71 3
97 93 4 115 110 5 110 105 5 0 0 0 11 11 1 21 21 2 29 29 3 34 34 3 34
34 3 30 30 3 13 13 1 68 63 1 66 61 1 64 60 1 62 58 1 61 56 1 59 55 1
57 53 1 55 51 1 54 50 1 52 48 1 51 47 1 49 46 1 48 44 1
37 34 0 37 35 1 38 35 1 39 36 1 40 37 1 41 38 1 42 39 1 43 40 1 44 41
1 45 42 1 46 43 1 47 44 1 49 45 1 50 47 1 10 10 0 10 10 0 10 10 0 10
10 0 10 10 0 10 10 0 10 10 0 10 10 0 10 10 0 32 31 1 46 44 2 74 71 3
96 92 4 115 110 5 119 114 5 0 0 0 6 6 1 16 16 2 23 23 2 27 27 3 28 28
3 23 23 2 74 69 1 73 68 1 71 66 1 69 64 1 67 62 1 65 61 1 63 59 1 61
57 1 59 55 1 58 53 1 56 52 1 54 50 1 52 49 1 51 47 1
38 35 1 39 36 1 39 37 1 40 37 1 41 38 1 42 39 1 43 40 1 44 41 1 45 42
1 47 43 1 48 44 1 49 46 1 50 47 1 52 48 1 10 10 0 10 10 0 10 10 0 10
10 0 10 10 0 10 10 0 10 10 0 10 10 0 10 10 0 32 31 1 37 35 2 67 64 3
90 86 4 105 100 5 109 104 5 10 10 0 0 0 0 6 6 1 14 14 1 17 17 2 17 17
2 9 9 1 80 74 1 78 73 1 76 71 1 74 69 1 72 67 1 70 65 1 68 63 1 65 61
1 63 59 1 61 57 1 59 55 1 58 53 1 56 52 1 54 50 1
39 36 1 40 37 1 41 38 1 42 39 1 43 40 1 44 40 1 45 41 1 46 42 1 47 44
1 48 45 1 49 46 1 51 47 1 52 48 1 54 50 1 10 10 0 10 10 0 10 10 0 10
10 0 10 10 0 10 10 0 10 10 0 10 10 0 10 10 0 32 31 1 32 31 1 50 48 2
74 71 3 89 85 4 82 78 4 10 10 0 10 10 0 10 10 0 0 0 0 0 0 0 10 10 0 86
80 1 85 79 1 83 77 1 81 75 1 79 73 1 76 71 1 74 69 1 72 67 1 70 65 1
67 63 1 65 60 1 63 59 1 61 57 1 59 55 1 57 53 1
40 37 1 41 38 1 42 39 1 43 40 1 44 41 1 45 42 1 46 43 1 47 44 1 48 45
1 49 46 1 51 47 1 52 49 1 54 50 1 55 51 1 57 53 1 10 10 0 10 10 0 10
10 0 10 10 0 10 10 0 10 10 0 10 10 0 10 10 0 10 10 0 32 31 1 32 31 1
49 47 2 53 51 2 88 82 1 89 83 1 91 84 1 92 85 1 10 10 0 92 86 1 92 85
1 91 84 1 89 83 1 88 81 1 85 79 1 83 77 1 81 75 1 78 73 1 76 71 1 73
68 1 71 66 1 69 64 1 66 62 1 64 60 1 62 58 1 60 56 1
41 38 1 42 39 1 43 40 1 44 41 1 45 42 1 46 43 1 47 44 1 48 45 1 49 46
1 51 47 1 52 48 1 54 50 1 55 51 1 57 53 1 58 54 1 60 56 1 62 58 1 10
10 0 10 10 0 10 10 0 10 10 0 10 10 0 10 10 0 10 10 0 10 10 0 10 10 0
86 80 1 88 82 1 90 84 1 92 86 1 94 87 1 95 88 1 96 89 1 96 89 1 95 89
1 95 88 1 93 87 1 92 85 1 90 83 1 87 81 1 85 79 1 82 77 1 80 74 1 77
72 1 75 69 1 72 67 1 70 65 1 68 63 1 65 61 1 63 59 1
42 39 1 43 40 1 44 41 1 45 42 1 46 43 1 47 44 1 48 45 1 49 46 1 51 47
1 52 48 1 53 50 1 55 51 1 56 52 1 58 54 1 60 55 1 61 57 1 63 59 1 65
61 1 68 63 1 10 10 0 10 10 0 10 10 0 10 10 0 10 10 0 82 76 1 85 79 1
87 81 1 90 83 1 92 86 1 94 87 1 96 89 1 97 90 1 98 91 1 98 91 1 98 91
1 98 91 1 96 90 1 95 88 1 93 86 1 91 84 1 88 82 1 86 80 1 83 77 1 81
75 1 78 73 1 76 70 1 73 68 1 71 66 1 68 64 1 66 62 1
43 40 1 44 41 1 45 42 1 46 43 1 47 44 1 48 45 1 49 46 1 50 47 1 52 48
1 53 49 1 54 51 1 56 52 1 57 53 1 59 55 1 61 57 1 63 58 1 65 60 1 67
62 1 69 64 1 71 66 1 73 68 1 76 70 1 78 73 1 81 75 1 83 77 1 86 80 1
88 82 1 91 85 1 93 87 1 95 89 1 97 90 1 99 92 1 100 93 1 100 93 1 100
93 1 100 93 1 99 92 1 98 91 1 96 89 1 94 87 1 91 85 1 89 83 1 86 80 1
84 78 1 81 75 1 79 73 1 76 71 1 74 68 1 71 66 1 69 64 1
44 41 1 45 42 1 46 43 1 47 44 1 48 45 1 49 46 1 50 47 1 51 48 1 53 49
1 54 50 1 55 52 1 57 53 1 58 54 1 60 56 1 62 57 1 64 59 1 65 61 1 67
63 1 70 65 1 72 67 1 74 69 1 76 71 1 79 73 1 81 76 1 84 78 1 87 80 1
89 83 1 92 85 1 94 87 1 96 89 1 98 91 1 99 92 1 101 94 1 101 94 1 102
94 1 101 94 1 101 93 1 99 92 1 98 91 1 96 89 1 94 87 1 91 85 1 89 83 1
86 80 1 84 78 1 81 76 1 79 73 1 76 71 1 74 69 1 72 67 1
