P3
200 100
255
24 4 16 24 4 16 24 4 16 25 4 16 25 4 16 25 4 16 25 4 16 25 4 16 25 4
16 25 4 16 25 4 16 25 4 16 25 4 16 25 4 16 25 4 16 25 4 16 25 4 16 25
4 16 25 4 16 25 4 16 25 4 16 25 4 16 25 4 16 25 4 16 25 4 16 25 4 16
25 4 16 25 4 16 25 4 16 26 4 16 26 4 16 26 4 16 26 4 16 26 4 17 26 4
17 26 4 17 26 4 17 26 4 17 26 4 17 26 4 17 26 4 17 26 4 17 26 4 17 26
4 17 26 4 17 26 4 17 26 4 17 26 4 17 26 4 17 26 4 17 26 4 17 26 4 17
26 4 17 26 4 17 26 4 17 26 4 17 27 4 17 27 4 17 27 4 17 27 4 17 27 4
17 27 4 17 27 4 17 27 4 17 27 4 17 27 4 17 27 4 17 27 4 17 27 4 17 27
4 17 27 4 17 27 4 17 27 4 17 27 4 17 27 4 17 27 4 17 27 4 17 27 4 17
27 4 17 27 4 17 27 4 17 27 4 17 27 4 17 27 4 17 27 4 17 27 4 17 27 4
17 27 4 17 27 4 17 27 4 17 27 4 18 27 4 18 27 5 18 28 5 18 28 5 18 28
5 18 28 5 18 28 5 18 28 5 18 28 5 18 28 5 18 28 5 18 28 5 18 28 5 18
28 5 18 28 5 18 28 5 18 28 5 18 28 5 18 28 5 18 28 5 18 28 5 18 21 3
10 21 3 10 21 3 10 21 3 10 21 3 10 21 3 10 21 3 10 21 3 10 21 3 10 21
3 10 21 3 10 21 3 10 21 3 10 21 3 10 21 3 10 21 3 10 21 3 10 21 3 10
21 3 10 21 3 10 21 3 10 21 3 10 21 3 10 17 17 23 18 19 26 19 20 28 20
22 30 21 23 32 21 24 34 22 25 36 23 26 37 23 27 39 24 28 40 24 29 41
25 30 42 25 31 44 26 32 45 26 33 46 27 33 47 27 34 48 27 35 49 28 35
50 28 36 50 28 36 51 29 37 52 29 37 52 29 37 53 29 38 53 29 38 53 29
38 54 29 38 54 29 38 54 29 38 54 30 38 54 30 38 54 31 38 54 31 38 54
31 38 53 31 38 53 32 37 53 32 37 52 32 37 52 32 36 51 32 36 50 33 35
50 33 35 49 33 34 48 33 34 47 33 33 46 33 32 45 33 31 43 33 30 42 33
29 40 33 27 38 40 26 39 26 4 17 26 4 17 26 4 17 26 4 17 26 4 17 26 4
17 26 4 17 26 4 17 26 4 16 26 4 16 26 4 16 26 4 16 26 4 16
25 4 16 25 4 16 25 4 16 25 4 16 25 4 16 25 4 16 25 4 16 25 4 16 25 4
16 25 4 16 25 4 16 25 4 16 25 4 16 25 4 16 25 4 16 25 4 16 26 4 16 26
4 16 26 4 16 26 4 17 26 4 17 26 4 17 26 4 17 26 4 17 26 4 17 26 4 17
26 4 17 26 4 17 26 4 17 26 4 17 26 4 17 26 4 17 26 4 17 26 4 17 26 4
17 26 4 17 26 4 17 26 4 17 26 4 17 26 4 17 27 4 17 27 4 17 27 4 17 27
4 17 27 4 17 27 4 17 27 4 17 27 4 17 27 4 17 27 4 17 27 4 17 27 4 17
27 4 17 27 4 17 27 4 17 27 4 17 27 4 17 27 4 17 27 4 17 27 4 17 27 4
17 27 4 17 27 4 17 27 4 18 27 5 18 27 5 18 27 5 18 27 5 18 28 5 18 28
5 18 28 5 18 28 5 18 28 5 18 28 5 18 28 5 18 28 5 18 28 5 18 28 5 18
28 5 18 28 5 18 28 5 18 28 5 18 28 5 18 28 5 18 28 5 18 28 5 18 28 5
18 28 5 18 28 5 18 28 5 18 28 5 18 28 5 18 28 5 18 28 5 18 28 5 18 28
5 18 28 5 18 28 5 18 28 5 18 28 5 18 28 5 18 28 5 18 28 5 18 28 5 18
28 5 18 28 5 18 28 5 18 28 5 18 21 3 10 21 3 10 21 3 10 21 3 10 21 3
10 21 3 10 21 3 10 21 3 10 21 3 10 21 3 10 21 3 10 21 3 10 21 3 10 21
3 10 21 3 10 22 3 10 22 3 10 22 3 10 22 3 10 22 3 10 22 3 10 22 3 10
22 3 10 22 3 10 22 3 10 24 17 27 17 17 24 18 19 26 19 20 29 20 22 31
21 23 33 21 24 34 22 26 36 23 27 37 23 28 39 24 29 40 24 30 42 25 30
43 26 31 44 26 32 45 26 33 46 27 34 48 27 34 49 28 35 50 28 36 50 28
36 51 29 37 52 29 37 53 29 38 53 30 38 54 30 39 55 30 39 55 30 39 55
30 39 55 30 39 56 30 39 56 30 39 56 30 39 55 31 39 56 31 39 55 31 39
55 32 39 55 32 39 55 32 39 54 32 38 54 33 38 53 33 38 53 33 37 52 33
37 51 33 36 51 33 35 50 33 35 49 33 34 48 34 33 47 34 33 45 34 32 44
34 31 43 34 30 41 34 28 39 34 26 36 27 4 17 27 4 17 27 4 17 27 4 17 27
4 17 27 4 17 27 4 17 27 4 17 27 4 17 27 4 17 27 4 17 27 4 17
25 4 16 25 4 16 25 4 16 25 4 16 26 4 16 26 4 16 26 4 16 26 4 17 26 4
17 26 4 17 26 4 17 26 4 17 26 4 17 26 4 17 26 4 17 26 4 17 26 4 17 26
4 17 26 4 17 26 4 17 26 4 17 26 4 17 26 4 17 26 4 17 26 4 17 26 4 17
26 4 17 27 4 17 27 4 17 27 4 17 27 4 17 27 4 17 27 4 17 27 4 17 27 4
17 27 4 17 27 4 17 27 4 17 27 4 17 27 4 17 27 4 17 27 4 17 27 4 17 27
4 17 27 4 17 27 4 18 27 5 18 27 5 18 27 5 18 27 5 18 27 5 18 27 5 18
28 5 18 28 5 18 28 5 18 28 5 18 28 5 18 28 5 18 28 5 18 28 5 18 28 5
18 28 5 18 28 5 18 28 5 18 28 5 18 28 5 18 28 5 18 28 5 18 28 5 18 28
5 18 28 5 18 28 5 18 28 5 18 28 5 18 28 5 18 28 5 18 28 5 18 28 5 18
28 5 18 28 5 18 28 5 18 29 5 18 29 5 18 29 5 18 29 5 18 29 5 18 29 5
18 29 5 18 29 5 18 29 5 18 29 5 18 29 5 18 29 5 18 29 5 18 29 5 18 29
5 18 29 5 18 29 5 18 29 5 18 29 5 18 29 5 18 29 5 18 29 5 18 29 5 18
29 5 18 22 3 10 22 3 10 22 3 10 22 3 10 22 3 10 22 3 10 22 3 10 22 3
10 22 3 10 22 3 10 22 3 10 22 3 10 22 3 10 22 3 10 22 3 10 22 3 10 22
3 10 22 3 10 22 3 10 22 3 10 22 3 10 22 3 10 22 3 10 22 3 10 22 3 10
22 3 10 22 3 10 17 16 23 17 17 24 18 19 27 19 21 29 20 22 31 21 23 33
21 24 34 22 26 36 23 27 38 23 28 39 24 29 40 25 30 42 25 31 43 26 31
44 26 32 46 27 33 47 27 34 48 28 35 49 28 35 50 28 36 51 29 37 52 29
37 53 29 38 54 30 38 54 30 39 55 30 39 56 30 40 56 31 40 56 31 40 57
31 40 57 31 40 57 31 40 57 31 40 57 31 40 57 31 40 57 32 40 57 32 40
57 32 40 57 32 40 56 33 40 56 33 39 55 33 39 55 33 39 54 33 38 54 33
38 53 34 37 52 34 37 51 34 36 50 34 35 49 34 34 48 34 34 47 34 33 46
34 32 45 34 31 43 34 30 41 34 29 40 34 27 37 28 4 17 28 4 17 28 4 17
28 4 17 28 4 17 27 4 17 27 4 17 27 4 17 27 4 17 27 4 17 27 4 17
26 4 17 26 4 17 26 4 17 26 4 17 26 4 17 26 4 17 26 4 17 26 4 17 26 4
17 26 4 17 26 4 17 26 4 17 26 4 17 26 4 17 26 4 17 26 4 17 27 4 17 27
4 17 27 4 17 27 4 17 27 4 17 27 4 17 27 4 17 27 4 17 27 4 17 27 4 17
27 4 17 27 4 17 27 4 17 27 4 17 27 4 17 27 4 18 27 5 18 27 5 18 27 5
18 27 5 18 27 5 18 27 5 18 28 5 18 28 5 18 28 5 18 28 5 18 28 5 18 28
5 18 28 5 18 28 5 18 28 5 18 28 5 18 28 5 18 28 5 18 28 5 18 28 5 18
28 5 18 28 5 18 28 5 18 28 5 18 28 5 18 28 5 18 28 5 18 28 5 18 28 5
18 28 5 18 29 5 18 29 5 18 29 5 18 29 5 18 29 5 18 29 5 18 29 5 18 29
5 18 29 5 18 29 5 18 29 5 18 29 5 18 29 5 19 29 5 19 29 5 19 29 5 19
29 5 19 29 5 19 29 5 19 29 5 19 29 5 19 29 5 19 29 5 19 29 5 19 29 5
19 29 5 19 29 5 19 29 5 19 29 5 19 29 5 19 29 5 19 29 5 19 29 5 19 29
5 19 30 5 19 30 5 19 30 5 19 30 5 19 30 5 19 30 5 19 22 3 10 22 3 10
22 3 10 22 3 10 22 3 10 22 3 10 22 3 10 22 3 10 22 3 10 22 3 10 22 3
10 22 3 10 22 3 10 22 3 10 22 3 10 22 3 10 22 3 10 22 3 10 22 3 10 22
3 10 22 3 10 22 3 10 22 3 10 22 3 10 22 3 10 22 3 10 22 3 10 22 3 10
22 3 10 17 16 23 17 17 24 18 19 27 19 21 29 20 22 31 21 23 33 21 24 34
22 26 36 23 27 37 23 28 39 24 29 40 25 30 42 25 31 43 26 32 45 26 32
46 27 33 47 27 34 48 28 35 49 28 36 50 29 36 51 29 37 52 29 38 53 30
38 54 30 39 55 30 39 56 31 40 56 31 40 57 31 41 58 31 41 58 31 41 58
31 41 59 32 41 59 32 41 59 32 41 59 31 41 59 32 41 58 32 41 58 32 41
58 32 41 58 33 41 58 33 41 57 33 40 57 33 40 56 33 40 56 34 39 55 34
39 54 34 38 53 34 37 53 34 37 52 34 36 51 34 35 50 34 35 49 34 34 47
34 33 46 35 32 45 35 31 43 35 30 42 35 29 40 35 27 37 28 5 18 28 5 18
28 5 18 28 5 18 28 5 18 28 5 18 28 5 18 28 5 18 28 5 18 28 5 18
26 4 17 26 4 17 26 4 17 26 4 17 26 4 17 27 4 17 27 4 17 27 4 17 27 4
17 27 4 17 27 4 17 27 4 17 27 4 17 27 4 17 27 4 17 27 4 17 27 4 17 27
4 17 27 4 17 27 4 18 27 5 18 27 5 18 27 5 18 27 5 18 27 5 18 27 5 18
28 5 18 28 5 18 28 5 18 28 5 18 28 5 18 28 5 18 28 5 18 28 5 18 28 5
18 28 5 18 28 5 18 28 5 18 28 5 18 28 5 18 28 5 18 28 5 18 28 5 18 28
5 18 28 5 18 28 5 18 28 5 18 28 5 18 29 5 18 29 5 18 29 5 18 29 5 18
29 5 18 29 5 18 29 5 18 29 5 19 29 5 19 29 5 19 29 5 19 29 5 19 29 5
19 29 5 19 29 5 19 29 5 19 29 5 19 29 5 19 29 5 19 29 5 19 29 5 19 29
5 19 29 5 19 29 5 19 29 5 19 30 5 19 30 5 19 30 5 19 30 5 19 30 5 19
30 5 19 30 5 19 30 5 19 30 5 19 30 5 19 30 5 19 30 5 19 30 5 19 30 5
19 30 5 19 30 5 19 30 5 19 30 5 19 30 5 19 30 5 19 30 5 19 30 5 19 30
5 19 30 5 19 30 5 19 30 5 19 22 3 10 22 3 10 23 3 10 23 3 10 23 3 10
23 3 10 23 3 10 23 3 10 23 3 10 23 3 10 23 3 10 23 3 10 23 3 10 23 3
10 23 3 10 23 3 10 23 3 10 23 3 10 23 3 10 23 3 10 23 3 10 23 3 10 23
3 10 23 3 10 23 3 10 23 3 10 23 3 10 23 3 10 23 3 10 23 3 10 23 3 10
17 16 23 17 17 24 18 19 26 19 20 29 20 22 31 21 23 32 21 24 34 22 25
36 23 26 37 23 28 39 24 29 40 25 30 42 25 31 43 26 31 44 26 32 46 27
33 47 27 34 48 28 35 49 28 36 51 29 37 52 29 37 53 29 38 54 30 39 55
30 39 55 31 40 56 31 40 57 31 41 58 31 41 58 32 42 59 32 42 59 32 42
60 32 42 60 32 42 60 32 42 60 32 42 60 32 42 60 32 42 60 32 42 60 33
42 59 33 42 59 33 42 59 33 41 58 33 41 58 34 41 57 34 40 57 34 40 56
34 39 55 34 39 55 34 38 54 34 38 53 34 37 52 34 36 51 35 36 50 35 35
49 35 34 48 35 33 46 35 32 45 35 31 43 35 30 42 35 29 40 35 27 38 29 5
18 29 5 18 29 5 18 29 5 18 29 5 18 29 5 18 29 5 18 29 5 18 29 5 18
27 4 17 27 4 17 27 4 17 27 4 17 27 4 17 27 4 17 27 4 17 27 4 17 27 4
18 27 5 18 27 5 18 27 5 18 27 5 18 27 5 18 27 5 18 27 5 18 28 5 18 28
5 18 28 5 18 28 5 18 28 5 18 28 5 18 28 5 18 28 5 18 28 5 18 28 5 18
28 5 18 28 5 18 28 5 18 28 5 18 28 5 18 28 5 18 28 5 18 28 5 18 28 5
18 28 5 18 29 5 18 29 5 18 29 5 18 29 5 18 29 5 18 29 5 19 29 5 19 29
5 19 29 5 19 29 5 19 29 5 19 29 5 19 29 5 19 29 5 19 29 5 19 29 5 19
29 5 19 29 5 19 29 5 19 29 5 19 29 5 19 30 5 19 30 5 19 30 5 19 30 5
19 30 5 19 30 5 19 30 5 19 30 5 19 30 5 19 30 5 19 30 5 19 30 5 19 30
5 19 30 5 19 30 5 19 30 5 19 30 5 19 30 5 19 30 5 19 30 5 19 30 5 19
30 5 19 30 5 19 30 5 19 30 5 19 30 5 19 30 5 19 31 5 19 31 5 20 31 5
20 31 5 20 31 5 20 31 5 20 31 5 20 31 5 20 31 5 20 31 5 20 31 5 20 31
5 20 31 5 20 23 3 11 23 3 11 23 3 11 23 3 11 23 3 11 23 3 11 23 3 11
23 3 11 23 3 11 23 3 11 23 3 11 23 3 11 23 3 11 23 3 11 23 3 11 23 3
11 23 3 11 23 3 11 23 3 11 23 3 11 23 3 11 23 3 11 23 3 11 23 3 11 23
3 11 23 3 11 23 3 11 23 3 11 23 3 11 23 3 11 23 3 11 23 3 11 17 16 23
17 17 24 18 19 26 19 20 28 20 21 30 21 23 32 21 24 34 22 25 35 23 26
37 23 27 38 24 28 40 24 29 41 25 30 43 26 31 44 26 32 46 27 33 47 27
34 48 28 35 49 28 36 50 29 37 52 29 37 53 29 38 54 30 39 55 30 39 56
31 40 57 31 41 57 31 41 58 32 42 59 32 42 59 32 42 60 32 43 60 32 43
61 32 43 61 33 43 61 33 43 61 33 43 61 32 43 61 32 43 61 33 43 61 33
43 60 33 43 60 33 42 60 34 42 60 34 42 59 34 41 59 34 41 58 34 41 57
34 40 57 34 40 56 34 39 55 35 38 54 35 38 53 35 37 52 35 36 51 35 36
50 35 35 49 35 34 48 35 33 46 35 32 45 35 31 43 35 30 42 35 29 40 35
27 37 29 5 18 29 5 18 29 5 18 29 5 18 29 5 18 29 5 18 29 5 18 29 5 18
27 5 18 27 5 18 27 5 18 27 5 18 27 5 18 27 5 18 28 5 18 28 5 18 28 5
18 28 5 18 28 5 18 28 5 18 28 5 18 28 5 18 28 5 18 28 5 18 28 5 18 28
5 18 28 5 18 28 5 18 28 5 18 28 5 18 28 5 18 28 5 18 28 5 18 29 5 18
29 5 18 29 5 18 29 5 18 29 5 19 29 5 19 29 5 19 29 5 19 29 5 19 29 5
19 29 5 19 29 5 19 29 5 19 29 5 19 29 5 19 29 5 19 29 5 19 29 5 19 29
5 19 29 5 19 30 5 19 30 5 19 30 5 19 30 5 19 30 5 19 30 5 19 30 5 19
30 5 19 30 5 19 30 5 19 30 5 19 30 5 19 30 5 19 30 5 19 30 5 19 30 5
19 30 5 19 30 5 19 30 5 19 30 5 20 30 5 20 30 5 20 31 5 20 31 5 20 31
5 20 31 5 20 31 5 20 31 5 20 31 5 20 31 5 20 31 5 20 31 5 20 31 5 20
31 5 20 31 5 20 31 5 20 31 5 20 31 5 20 31 5 20 31 5 20 31 5 20 31 5
20 31 5 20 31 5 20 31 5 20 31 5 20 31 5 20 31 5 20 31 5 20 31 5 20 23
3 11 23 3 11 23 3 11 23 3 11 23 3 11 23 3 11 23 3 11 23 3 11 23 3 11
23 3 11 23 3 11 23 3 11 23 3 11 23 3 11 23 3 11 23 3 11 23 3 11 23 3
11 23 3 11 23 3 11 24 3 11 24 3 11 24 3 11 24 3 11 24 3 11 24 3 11 24
3 11 24 3 11 24 3 11 24 3 11 24 3 11 24 3 11 24 3 11 17 16 23 17 17 23
18 18 26 19 20 28 20 21 30 20 22 31 21 24 33 22 25 35 22 26 36 23 27
38 24 28 39 24 29 41 25 30 42 25 31 44 26 32 45 26 33 46 27 34 48 28
35 49 28 36 50 29 36 51 29 37 53 29 38 54 30 39 55 30 39 56 31 40 57
31 41 58 31 41 58 32 42 59 32 42 60 32 43 60 32 43 61 33 43 61 33 44
62 33 44 62 33 44 62 33 44 62 33 44 62 33 44 62 33 44 62 33 43 62 33
43 61 33 43 61 34 43 61 34 43 60 34 42 60 34 42 59 34 42 59 34 41 58
34 41 57 35 40 57 35 40 56 35 39 55 35 38 54 35 38 53 35 37 52 35 36
51 35 36 50 35 35 49 35 34 47 35 33 46 35 32 45 35 31 43 36 30 42 36
29 40 36 27 37 30 5 19 30 5 19 30 5 19 30 5 19 30 5 19 30 5 19 30 5 19
28 5 18 28 5 18 28 5 18 28 5 18 28 5 18 28 5 18 28 5 18 28 5 18 28 5
18 28 5 18 28 5 18 28 5 18 28 5 18 28 5 18 28 5 18 28 5 18 29 5 18 29
5 18 29 5 19 29 5 19 29 5 19 29 5 19 29 5 19 29 5 19 29 5 19 29 5 19
29 5 19 29 5 19 29 5 19 29 5 19 29 5 19 29 5 19 29 5 19 29 5 19 30 5
19 30 5 19 30 5 19 30 5 19 30 5 19 30 5 19 30 5 19 30 5 19 30 5 19 30
5 19 30 5 19 30 5 19 30 5 19 30 5 19 30 5 19 30 5 19 30 5 20 30 5 20
30 5 20 31 5 20 31 5 20 31 5 20 31 5 20 31 5 20 31 5 20 31 5 20 31 5
20 31 5 20 31 5 20 31 5 20 31 5 20 31 5 20 31 5 20 31 5 20 31 5 20 31
5 20 31 5 20 31 5 20 31 5 20 31 5 20 31 5 20 32 5 20 32 5 20 32 5 20
32 5 20 32 5 20 32 5 20 32 5 20 32 5 20 32 5 20 32 5 20 32 5 20 32 5
20 32 5 20 32 5 20 32 5 20 32 5 20 32 5 20 32 5 20 24 3 11 24 3 11 24
3 11 24 3 11 24 3 11 24 3 11 24 3 11 24 3 11 24 3 11 24 3 11 24 3 11
24 3 11 24 3 11 24 3 11 24 3 11 24 3 11 24 3 11 24 3 11 24 3 11 24 3
11 24 3 11 24 3 11 24 3 11 24 3 11 24 3 11 24 3 11 24 3 11 24 3 11 24
3 11 24 3 11 24 3 11 24 3 11 24 3 11 24 3 11 17 16 23 17 16 23 18 18
25 18 19 27 19 21 29 20 22 31 21 23 33 21 24 34 22 25 36 23 27 37 23
28 39 24 29 40 25 30 42 25 31 43 26 32 45 26 33 46 27 33 47 27 34 49
28 35 50 28 36 51 29 37 52 29 38 53 30 38 54 30 39 55 31 40 56 31 41
57 31 41 58 32 42 59 32 42 60 32 43 61 33 43 61 33 44 62 33 44 62 33
44 62 33 44 63 33 44 63 33 44 63 33 44 63 33 44 63 33 44 63 33 44 62
33 44 62 33 44 62 34 44 62 34 43 61 34 43 61 34 43 60 34 42 60 34 42
59 35 41 58 35 41 57 35 40 57 35 40 56 35 39 55 35 38 54 35 38 53 35
37 52 35 36 51 35 35 49 35 35 48 35 34 47 35 33 46 36 32 44 36 31 43
36 30 41 36 28 39 36 27 37 31 5 19 31 5 19 31 5 19 31 5 19 31 5 19 30
5 19
28 5 18 28 5 18 28 5 18 28 5 18 28 5 18 28 5 18 28 5 18 29 5 18 29 5
18 29 5 19 29 5 19 29 5 19 29 5 19 29 5 19 29 5 19 29 5 19 29 5 19 29
5 19 29 5 19 29 5 19 29 5 19 29 5 19 29 5 19 29 5 19 30 5 19 30 5 19
30 5 19 30 5 19 30 5 19 30 5 19 30 5 19 30 5 19 30 5 19 30 5 19 30 5
19 30 5 19 30 5 19 30 5 19 30 5 20 30 5 20 30 5 20 30 5 20 31 5 20 31
5 20 31 5 20 31 5 20 31 5 20 31 5 20 31 5 20 31 5 20 31 5 20 31 5 20
31 5 20 31 5 20 31 5 20 31 5 20 31 5 20 31 5 20 31 5 20 31 5 20 31 5
20 32 5 20 32 5 20 32 5 20 32 5 20 32 5 20 32 5 20 32 5 20 32 5 20 32
5 20 32 5 20 32 5 20 32 5 21 32 5 21 32 5 21 32 5 21 32 5 21 32 5 21
32 5 21 32 5 21 32 5 21 32 5 21 32 5 21 32 5 21 33 5 21 33 5 21 33 5
21 33 5 21 33 5 21 33 5 21 33 5 21 24 3 11 24 3 11 24 3 11 24 3 11 24
3 11 24 3 11 24 3 11 24 3 11 24 3 11 24 3 11 24 3 11 24 3 11 24 3 11
24 3 11 24 3 11 24 3 11 24 3 11 24 3 11 24 3 11 24 3 11 24 3 11 24 3
11 24 3 11 24 3 11 24 3 11 24 3 11 24 3 11 24 3 11 24 3 11 24 3 11 24
3 11 24 3 11 24 3 11 24 3 11 24 3 11 17 16 23 17 16 23 17 17 24 18 19
26 19 20 28 20 21 30 20 23 32 21 24 34 22 25 35 22 26 37 23 27 38 24
28 40 24 29 41 25 30 43 25 31 44 26 32 45 27 33 47 27 34 48 28 35 49
28 36 50 29 37 52 29 37 53 30 38 54 30 39 55 30 40 56 31 40 57 31 41
58 32 42 59 32 42 60 32 43 61 33 43 61 33 44 62 33 44 62 33 44 63 33
45 63 33 45 63 34 45 64 34 45 64 34 45 64 34 45 64 33 45 63 33 44 63
33 44 63 34 44 62 34 44 62 34 44 62 34 43 61 34 43 61 34 43 60 35 42
60 35 42 59 35 41 58 35 41 57 35 40 56 35 39 55 35 39 54 35 38 53 35
37 52 35 37 51 35 36 50 35 35 49 35 34 48 35 33 47 36 33 45 36 32 44
36 31 42 36 29 41 36 28 39 42 27 40 31 5 20 31 5 20 31 5 20 31 5 19 31
5 19
29 5 19 29 5 19 29 5 19 29 5 19 29 5 19 29 5 19 29 5 19 29 5 19 29 5
19 29 5 19 29 5 19 29 5 19 29 5 19 29 5 19 29 5 19 30 5 19 30 5 19 30
5 19 30 5 19 30 5 19 30 5 19 30 5 19 30 5 19 30 5 19 30 5 19 30 5 19
30 5 19 30 5 20 30 5 20 30 5 20 30 5 20 30 5 20 31 5 20 31 5 20 31 5
20 31 5 20 31 5 20 31 5 20 31 5 20 31 5 20 31 5 20 31 5 20 31 5 20 31
5 20 31 5 20 31 5 20 31 5 20 31 5 20 31 5 20 31 5 20 32 5 20 32 5 20
32 5 20 32 5 20 32 5 20 32 5 20 32 5 20 32 5 21 32 5 21 32 5 21 32 5
21 32 5 21 32 5 21 32 5 21 32 5 21 32 5 21 32 5 21 32 5 21 32 5 21 33
5 21 33 5 21 33 5 21 33 5 21 33 5 21 33 5 21 33 5 21 33 5 21 33 5 21
33 5 21 33 5 21 33 5 21 33 5 21 33 5 21 33 5 21 33 5 21 33 5 21 33 5
21 33 5 21 33 5 21 24 3 11 24 3 11 24 3 11 24 3 11 24 3 11 24 3 11 24
3 11 24 3 11 24 3 11 24 3 11 24 3 11 25 3 11 25 3 11 25 3 11 25 3 11
25 3 11 25 3 11 25 3 11 25 3 11 25 3 11 25 3 11 25 3 11 25 3 11 25 3
11 25 3 11 25 3 11 25 3 11 25 3 11 25 3 11 25 3 11 25 3 11 25 3 11 25
3 11 25 3 11 25 3 11 25 3 11 25 18 28 17 16 23 17 17 23 18 18 25 19 20
27 19 21 29 20 22 31 21 23 33 22 24 34 22 26 36 23 27 37 23 28 39 24
29 40 25 30 42 25 31 43 26 32 45 26 33 46 27 33 47 27 34 49 28 35 50
28 36 51 29 37 52 29 38 53 30 39 55 30 39 56 31 40 57 31 41 58 31 41
59 32 42 59 32 43 60 32 43 61 33 44 62 33 44 62 33 44 63 33 45 63 34
45 64 34 45 64 34 45 64 34 45 64 34 45 64 34 45 64 34 45 64 34 45 64
33 45 63 34 44 63 34 44 63 34 44 62 34 44 62 34 43 61 34 43 61 35 43
60 35 42 59 35 42 59 35 41 58 35 40 57 35 40 56 35 39 55 35 38 54 35
38 53 35 37 52 35 36 51 35 36 50 35 35 49 35 34 47 36 33 46 36 32 45
36 31 43 36 30 42 36 29 40 36 28 38 46 27 41 32 5 20 32 5 20 32 5 20
32 5 20
29 5 19 29 5 19 29 5 19 29 5 19 29 5 19 29 5 19 29 5 19 30 5 19 30 5
19 30 5 19 30 5 19 30 5 19 30 5 19 30 5 19 30 5 19 30 5 19 30 5 19 30
5 19 30 5 20 30 5 20 30 5 20 30 5 20 30 5 20 31 5 20 31 5 20 31 5 20
31 5 20 31 5 20 31 5 20 31 5 20 31 5 20 31 5 20 31 5 20 31 5 20 31 5
20 31 5 20 31 5 20 31 5 20 31 5 20 31 5 20 32 5 20 32 5 20 32 5 20 32
5 20 32 5 20 32 5 21 32 5 21 32 5 21 32 5 21 32 5 21 32 5 21 32 5 21
32 5 21 32 5 21 32 5 21 32 5 21 32 5 21 33 5 21 33 5 21 33 5 21 33 5
21 33 5 21 33 5 21 33 5 21 33 5 21 33 5 21 33 5 21 33 5 21 33 5 21 33
5 21 33 5 21 33 5 21 33 5 21 33 5 21 33 6 21 33 6 21 33 6 21 34 6 21
34 6 22 34 6 22 34 6 22 34 6 22 34 6 22 34 6 22 34 6 22 34 6 22 34 6
22 25 3 11 25 3 11 25 3 11 25 3 11 25 3 11 25 3 11 25 3 11 25 3 11 25
3 11 25 3 11 25 3 11 25 3 11 25 3 11 25 3 11 25 3 11 25 3 11 25 3 11
25 3 11 25 3 11 25 3 11 25 3 11 25 3 11 25 3 11 25 3 11 25 3 11 25 3
11 25 3 11 25 3 11 25 3 11 25 3 11 25 3 11 25 3 11 25 3 11 25 3 11 25
3 11 25 3 11 25 3 11 29 18 30 17 16 23 17 16 23 17 17 24 18 19 26 19
20 28 20 22 30 20 23 32 21 24 33 22 25 35 22 26 37 23 27 38 24 28 40
24 29 41 25 30 42 25 31 44 26 32 45 26 33 46 27 34 48 28 35 49 28 36
50 29 36 51 29 37 53 30 38 54 30 39 55 30 40 56 31 40 57 31 41 58 32
42 59 32 42 60 32 43 61 33 43 61 33 44 62 33 44 63 33 45 63 34 45 64
34 45 64 34 45 64 34 46 64 34 46 65 34 46 65 34 45 64 34 45 64 34 45
64 34 45 64 34 45 63 34 44 63 34 44 63 34 44 62 34 44 62 34 43 61 35
43 60 35 42 60 35 42 59 35 41 58 35 41 57 35 40 56 35 39 55 35 39 54
35 38 53 35 37 52 35 37 51 35 36 50 35 35 49 35 34 48 36 34 47 36 33
45 36 32 44 36 31 43 36 30 41 36 28 39 36 27 37 24 3 11 33 5 20 33 5
20 33 5 20
30 5 19 30 5 19 30 5 19 30 5 19 30 5 19 30 5 19 30 5 19 30 5 19 30 5
19 30 5 20 30 5 20 30 5 20 30 5 20 30 5 20 30 5 20 31 5 20 31 5 20 31
5 20 31 5 20 31 5 20 31 5 20 31 5 20 31 5 20 31 5 20 31 5 20 31 5 20
31 5 20 31 5 20 31 5 20 31 5 20 31 5 20 32 5 20 32 5 20 32 5 20 32 5
21 32 5 21 32 5 21 32 5 21 32 5 21 32 5 21 32 5 21 32 5 21 32 5 21 32
5 21 32 5 21 32 5 21 32 5 21 33 5 21 33 5 21 33 5 21 33 5 21 33 5 21
33 5 21 33 5 21 33 5 21 33 5 21 33 5 21 33 5 21 33 5 21 33 5 21 33 6
21 33 6 21 33 6 21 33 6 22 34 6 22 34 6 22 34 6 22 34 6 22 34 6 22 34
6 22 34 6 22 34 6 22 34 6 22 34 6 22 34 6 22 34 6 22 34 6 22 34 6 22
34 6 22 34 6 22 34 6 22 34 6 22 34 6 22 34 6 22 35 6 22 35 6 22 25 3
11 25 3 11 25 3 11 25 3 11 25 3 11 25 3 11 25 3 11 25 3 11 25 3 11 25
3 11 25 3 11 25 3 11 25 3 11 25 3 11 25 3 11 25 3 11 25 3 11 25 3 11
25 3 11 25 3 11 25 3 11 25 3 11 26 3 11 26 3 11 26 3 11 26 3 11 26 3
11 26 3 11 26 3 11 26 3 11 26 3 11 26 3 11 26 3 11 26 3 11 26 3 11 26
3 11 26 3 11 26 3 11 17 16 23 17 16 23 17 17 23 18 18 25 19 20 27 19
21 29 20 22 31 21 23 33 21 24 34 22 25 36 23 26 37 23 27 39 24 28 40
24 29 41 25 30 43 26 31 44 26 32 46 27 33 47 27 34 48 28 35 49 28 36
51 29 37 52 29 37 53 30 38 54 30 39 55 31 40 56 31 41 57 31 41 58 32
42 59 32 42 60 32 43 61 33 44 62 33 44 62 33 44 63 33 45 63 34 45 64
34 45 64 34 46 64 34 46 65 34 46 65 34 46 65 34 46 65 34 45 64 34 45
64 34 45 64 33 45 63 34 45 63 34 44 63 34 44 62 34 44 62 34 43 61 34
43 61 35 42 60 35 42 59 35 41 58 35 41 57 35 40 57 35 40 56 35 39 55
35 38 54 35 38 53 35 37 52 35 36 51 35 35 49 35 35 48 35 34 47 36 33
46 36 32 45 36 31 43 36 30 42 36 29 40 36 28 38 43 27 40 25 3 11 25 3
11 33 5 21
30 5 19 30 5 20 30 5 20 30 5 20 30 5 20 30 5 20 30 5 20 31 5 20 31 5
20 31 5 20 31 5 20 31 5 20 31 5 20 31 5 20 31 5 20 31 5 20 31 5 20 31
5 20 31 5 20 31 5 20 31 5 20 31 5 20 31 5 20 32 5 20 32 5 20 32 5 21
32 5 21 32 5 21 32 5 21 32 5 21 32 5 21 32 5 21 32 5 21 32 5 21 32 5
21 32 5 21 32 5 21 32 5 21 33 5 21 33 5 21 33 5 21 33 5 21 33 5 21 33
5 21 33 5 21 33 5 21 33 5 21 33 5 21 33 5 21 33 6 21 33 6 21 33 6 22
33 6 22 33 6 22 34 6 22 34 6 22 34 6 22 34 6 22 34 6 22 34 6 22 34 6
22 34 6 22 34 6 22 34 6 22 34 6 22 34 6 22 34 6 22 34 6 22 34 6 22 34
6 22 34 6 22 35 6 22 35 6 22 35 6 22 35 6 22 35 6 22 35 6 22 35 6 22
35 6 22 35 6 22 35 6 22 35 6 22 35 6 22 35 6 23 25 3 11 25 3 11 25 3
11 25 3 11 25 3 11 25 3 11 25 3 11 25 3 11 26 3 11 26 3 11 26 3 11 26
3 11 26 3 11 26 3 11 26 3 11 26 3 11 26 3 11 26 3 11 26 3 11 26 3 11
26 3 11 26 3 11 26 3 11 26 3 11 26 3 11 26 3 11 26 3 11 26 3 11 26 3
11 26 3 11 26 3 11 26 3 11 26 3 11 26 3 11 26 3 11 26 3 11 26 3 11 26
3 11 26 3 11 25 18 28 17 16 23 17 16 23 17 17 24 18 19 26 19 20 28 20
21 30 20 22 32 21 24 33 22 25 35 22 26 36 23 27 38 23 28 39 24 29 40
25 30 42 25 31 43 26 32 45 26 32 46 27 33 47 27 34 48 28 35 50 28 36
51 29 37 52 29 38 53 30 38 54 30 39 55 31 40 56 31 41 57 31 41 58 32
42 59 32 43 60 32 43 61 33 44 62 33 44 62 33 44 63 33 45 63 34 45 64
34 45 64 34 46 65 34 46 65 34 46 65 34 46 65 34 46 65 34 46 64 34 45
64 34 45 64 33 45 63 34 45 63 34 44 63 34 44 62 34 44 62 34 43 61 34
43 61 34 42 60 35 42 59 35 41 58 35 41 58 35 40 57 35 40 56 35 39 55
35 38 54 35 38 53 35 37 52 35 36 51 35 36 50 35 35 49 35 34 48 35 33
46 36 32 45 36 32 44 36 31 42 36 30 41 36 28 39 36 27 37 49 28 42 25 3
11 25 3 11
31 5 20 31 5 20 31 5 20 31 5 20 31 5 20 31 5 20 31 5 20 31 5 20 31 5
20 31 5 20 31 5 20 31 5 20 31 5 20 31 5 20 31 5 20 32 5 20 32 5 20 32
5 21 32 5 21 32 5 21 32 5 21 32 5 21 32 5 21 32 5 21 32 5 21 32 5 21
32 5 21 32 5 21 32 5 21 32 5 21 33 5 21 33 5 21 33 5 21 33 5 21 33 5
21 33 5 21 33 5 21 33 5 21 33 5 21 33 6 21 33 6 21 33 6 22 33 6 22 33
6 22 34 6 22 34 6 22 34 6 22 34 6 22 34 6 22 34 6 22 34 6 22 34 6 22
34 6 22 34 6 22 34 6 22 34 6 22 34 6 22 34 6 22 34 6 22 34 6 22 35 6
22 35 6 22 35 6 22 35 6 22 35 6 22 35 6 22 35 6 22 35 6 22 35 6 23 35
6 23 35 6 23 35 6 23 35 6 23 35 6 23 35 6 23 35 6 23 35 6 23 36 6 23
36 6 23 36 6 23 36 6 23 36 6 23 36 6 23 26 3 11 26 3 11 26 3 11 26 3
11 26 3 11 26 3 11 26 3 11 26 3 11 26 3 11 26 3 11 26 3 11 26 3 11 26
3 11 26 3 11 26 3 11 26 3 11 26 3 11 26 3 11 26 3 11 26 3 11 26 3 11
26 3 11 26 3 11 26 3 11 26 3 11 26 3 12 26 3 12 26 3 12 26 3 12 26 3
12 26 3 12 27 3 12 27 3 12 27 3 12 27 3 12 27 3 12 27 3 12 27 3 12 27
3 12 30 18 31 17 16 23 17 16 23 17 17 23 18 18 25 18 19 27 19 21 29 20
22 30 21 23 32 21 24 34 22 25 35 22 26 37 23 27 38 24 28 39 24 29 41
25 30 42 25 31 43 26 32 45 26 33 46 27 34 47 27 34 49 28 35 50 28 36
51 29 37 52 29 38 53 30 38 54 30 39 55 31 40 56 31 41 57 31 41 58 32
42 59 32 43 60 32 43 61 33 44 62 33 44 62 33 44 63 33 45 63 34 45 64
34 45 64 34 46 64 34 46 65 34 46 65 34 46 65 34 46 65 34 45 64 34 45
64 34 45 64 33 45 63 33 44 63 34 44 63 34 44 62 34 44 62 34 43 61 34
43 61 34 42 60 34 42 59 34 41 58 35 41 58 35 40 57 35 40 56 35 39 55
35 39 54 35 38 53 35 37 52 35 36 51 35 36 50 35 35 49 35 34 48 35 33
47 35 33 45 36 32 44 36 31 43 36 30 41 36 29 40 36 28 38 37 26 36 26 3
11 26 3 11
31 5 20 31 5 20 31 5 20 31 5 20 31 5 20 31 5 20 31 5 20 32 5 20 32 5
20 32 5 21 32 5 21 32 5 21 32 5 21 32 5 21 32 5 21 32 5 21 32 5 21 32
5 21 32 5 21 32 5 21 32 5 21 32 5 21 33 5 21 33 5 21 33 5 21 33 5 21
33 5 21 33 5 21 33 5 21 33 5 21 33 6 21 33 6 21 33 6 22 33 6 22 33 6
22 33 6 22 34 6 22 34 6 22 34 6 22 34 6 22 34 6 22 34 6 22 34 6 22 34
6 22 34 6 22 34 6 22 34 6 22 34 6 22 34 6 22 34 6 22 35 6 22 35 6 22
35 6 22 35 6 22 35 6 22 35 6 22 35 6 23 35 6 23 35 6 23 35 6 23 35 6
23 35 6 23 35 6 23 35 6 23 35 6 23 35 6 23 36 6 23 36 6 23 36 6 23 36
6 23 36 6 23 36 6 23 36 6 23 36 6 23 36 6 23 36 6 23 36 6 23 36 6 23
36 6 23 36 6 23 36 6 23 36 6 23 26 3 11 26 3 11 26 3 11 26 3 11 26 3
11 26 3 11 26 3 11 26 3 11 26 3 11 26 3 11 26 3 11 26 3 11 26 3 12 26
3 12 26 3 12 26 3 12 27 3 12 27 3 12 27 3 12 27 3 12 27 3 12 27 3 12
27 3 12 27 3 12 27 3 12 27 3 12 27 3 12 27 3 12 27 3 12 27 3 12 27 3
12 27 3 12 27 3 12 27 3 12 27 3 12 27 3 12 27 3 12 27 3 12 27 3 12 27
3 12 25 18 28 17 16 23 17 16 23 17 17 24 18 18 26 19 20 28 19 21 29 20
22 31 21 23 32 21 24 34 22 25 35 23 26 37 23 27 38 24 28 40 24 29 41
25 30 42 25 31 44 26 32 45 26 33 46 27 34 47 27 34 49 28 35 50 28 36
51 29 37 52 29 38 53 30 38 54 30 39 55 31 40 56 31 41 57 31 41 58 32
42 59 32 42 60 32 43 61 33 43 62 33 44 62 33 44 63 33 45 63 34 45 64
34 45 64 34 45 64 34 45 64 34 46 65 34 46 65 34 45 64 34 45 64 34 45
64 34 45 64 33 45 63 33 44 63 33 44 62 34 44 62 34 43 61 34 43 61 34
43 60 34 42 60 34 42 59 34 41 58 34 41 58 34 40 57 34 40 56 35 39 55
35 39 54 35 38 53 35 37 52 35 37 51 35 36 50 35 35 49 35 34 48 35 34
47 35 33 46 35 32 44 36 31 43 36 30 42 36 29 40 36 28 39 36 27 37 48
27 42 26 3 11
31 5 20 32 5 21 32 5 21 32 5 21 32 5 21 32 5 21 32 5 21 32 5 21 32 5
21 32 5 21 32 5 21 32 5 21 32 5 21 32 5 21 32 5 21 33 5 21 33 5 21 33
5 21 33 5 21 33 5 21 33 5 21 33 5 21 33 6 21 33 6 22 33 6 22 33 6 22
33 6 22 33 6 22 34 6 22 34 6 22 34 6 22 34 6 22 34 6 22 34 6 22 34 6
22 34 6 22 34 6 22 34 6 22 34 6 22 34 6 22 34 6 22 34 6 22 35 6 22 35
6 22 35 6 22 35 6 22 35 6 23 35 6 23 35 6 23 35 6 23 35 6 23 35 6 23
35 6 23 35 6 23 35 6 23 35 6 23 36 6 23 36 6 23 36 6 23 36 6 23 36 6
23 36 6 23 36 6 23 36 6 23 36 6 23 36 6 23 36 6 23 36 6 23 36 6 23 36
6 23 36 6 23 37 6 23 37 6 24 37 6 24 37 6 24 37 6 24 37 6 24 37 6 24
37 6 24 37 6 24 26 3 11 26 3 11 26 3 11 26 3 12 26 3 12 26 3 12 26 3
12 27 3 12 27 3 12 27 3 12 27 3 12 27 3 12 27 3 12 27 3 12 27 3 12 27
3 12 27 3 12 27 3 12 27 3 12 27 3 12 27 3 12 27 3 12 27 3 12 27 3 12
27 3 12 27 3 12 27 3 12 27 3 12 27 3 12 27 3 12 27 3 12 27 3 12 27 3
12 27 3 12 27 3 12 27 3 12 27 3 12 27 3 12 27 3 12 28 3 12 28 3 12 29
18 31 17 16 23 17 16 23 17 16 23 17 18 24 18 19 26 19 20 28 20 21 30
20 22 31 21 23 33 21 24 34 22 25 36 23 26 37 23 27 38 24 28 40 24 29
41 25 30 42 25 31 44 26 32 45 26 33 46 27 34 47 27 34 49 28 35 50 28
36 51 29 37 52 29 38 53 30 38 54 30 39 55 31 40 56 31 40 57 31 41 58
32 42 59 32 42 60 32 43 61 33 43 61 33 44 62 33 44 62 33 44 63 33 45
63 34 45 64 34 45 64 34 45 64 34 45 64 34 45 64 34 45 64 34 45 64 34
45 64 33 45 63 33 44 63 33 44 62 33 44 62 33 44 62 33 43 61 34 43 61
34 43 60 34 42 60 34 42 59 34 41 58 34 41 57 34 40 57 34 40 56 34 39
55 34 38 54 34 38 53 35 37 52 35 37 51 35 36 50 35 35 49 35 34 48 35
34 47 35 33 46 36 32 45 36 31 43 36 30 42 36 30 41 36 29 39 36 27 37
43 27 39 27 3 12
32 5 21 32 5 21 32 5 21 32 5 21 32 5 21 32 5 21 32 5 21 32 5 21 33 5
21 33 5 21 33 5 21 33 5 21 33 5 21 33 5 21 33 6 21 33 6 21 33 6 22 33
6 22 33 6 22 33 6 22 33 6 22 34 6 22 34 6 22 34 6 22 34 6 22 34 6 22
34 6 22 34 6 22 34 6 22 34 6 22 34 6 22 34 6 22 34 6 22 34 6 22 35 6
22 35 6 22 35 6 22 35 6 23 35 6 23 35 6 23 35 6 23 35 6 23 35 6 23 35
6 23 35 6 23 35 6 23 35 6 23 35 6 23 36 6 23 36 6 23 36 6 23 36 6 23
36 6 23 36 6 23 36 6 23 36 6 23 36 6 23 36 6 23 36 6 23 36 6 23 36 6
24 37 6 24 37 6 24 37 6 24 37 6 24 37 6 24 37 6 24 37 6 24 37 6 24 37
6 24 37 6 24 37 6 24 37 6 24 37 6 24 37 6 24 37 6 24 37 6 24 38 6 24
38 6 24 27 3 12 27 3 12 27 3 12 27 3 12 27 3 12 27 3 12 27 3 12 27 3
12 27 3 12 27 3 12 27 3 12 27 3 12 27 3 12 27 3 12 27 3 12 27 3 12 27
3 12 27 3 12 27 3 12 27 3 12 27 3 12 27 3 12 27 3 12 27 3 12 28 3 12
28 3 12 28 3 12 28 3 12 28 3 12 28 3 12 28 3 12 28 3 12 28 3 12 28 3
12 28 3 12 28 3 12 28 3 12 28 3 12 28 3 12 28 3 12 28 3 12 28 3 12 26
18 29 17 16 23 17 16 23 17 17 23 18 18 25 18 19 27 19 20 28 20 21 30
20 22 31 21 23 33 22 24 34 22 25 36 23 26 37 23 27 39 24 28 40 24 29
41 25 30 42 25 31 44 26 32 45 26 33 46 27 34 47 27 34 49 28 35 50 28
36 51 29 37 52 29 38 53 30 38 54 30 39 55 30 40 56 31 40 57 31 41 58
32 41 59 32 42 60 32 43 60 32 43 61 33 43 62 33 44 62 33 44 63 33 45
63 34 45 64 34 46 64 34 46 64 34 45 64 34 45 64 34 45 64 34 45 64 33
45 63 33 44 63 33 44 63 33 44 62 33 43 62 33 43 61 33 43 61 33 43 60
33 42 60 34 42 59 34 41 59 34 41 58 34 41 57 34 40 56 34 39 56 34 39
55 34 38 54 34 38 53 34 37 52 34 36 51 34 36 50 35 35 49 35 34 48 35
34 47 36 34 46 36 33 45 36 32 44 36 31 42 36 30 41 36 29 40 36 28 38
36 26 36 50 28 43
32 5 21 33 5 21 33 5 21 33 5 21 33 5 21 33 5 21 33 5 21 33 6 21 33 6
22 33 6 22 33 6 22 33 6 22 33 6 22 33 6 22 34 6 22 34 6 22 34 6 22 34
6 22 34 6 22 34 6 22 34 6 22 34 6 22 34 6 22 34 6 22 34 6 22 34 6 22
34 6 22 35 6 22 35 6 22 35 6 23 35 6 23 35 6 23 35 6 23 35 6 23 35 6
23 35 6 23 35 6 23 35 6 23 35 6 23 35 6 23 36 6 23 36 6 23 36 6 23 36
6 23 36 6 23 36 6 23 36 6 23 36 6 23 36 6 23 36 6 23 36 6 24 36 6 24
36 6 24 37 6 24 37 6 24 37 6 24 37 6 24 37 6 24 37 6 24 37 6 24 37 6
24 37 6 24 37 6 24 37 6 24 37 6 24 37 6 24 37 6 24 38 6 24 38 6 24 38
6 24 38 6 24 38 6 24 38 6 24 38 6 24 38 6 24 38 6 25 38 6 25 38 6 25
27 3 12 27 3 12 27 3 12 27 3 12 27 3 12 27 3 12 27 3 12 27 3 12 27 3
12 27 3 12 27 3 12 27 3 12 27 3 12 27 3 12 28 3 12 28 3 12 28 3 12 28
3 12 28 3 12 28 3 12 28 3 12 28 3 12 28 3 12 28 3 12 28 3 12 28 3 12
28 3 12 28 3 12 28 3 12 28 3 12 28 3 12 28 3 12 28 3 12 28 3 12 28 3
12 28 3 12 28 3 12 28 3 12 28 3 12 28 3 12 28 3 12 28 3 12 31 19 32 24
17 27 17 16 23 17 16 23 17 17 24 18 18 25 18 19 27 19 20 29 20 22 30
20 23 32 21 24 33 22 25 35 22 26 36 23 26 37 23 27 39 24 28 40 24 29
41 25 30 42 25 31 44 26 32 45 26 33 46 27 33 47 27 34 48 28 35 50 28
36 51 29 37 52 29 37 53 30 38 54 30 39 55 30 39 56 31 40 57 31 41 57
31 41 58 32 42 59 32 42 60 32 43 60 32 43 61 33 44 62 33 44 62 34 47
64 36 53 67 38 57 70 37 53 68 35 48 65 34 45 63 33 45 63 33 45 63 33
44 63 33 44 62 33 44 62 33 44 62 32 43 61 33 43 61 33 43 60 33 42 60
33 42 59 33 42 59 33 41 58 33 41 57 34 40 57 34 40 56 34 39 55 34 39
54 34 38 54 34 38 53 34 37 52 34 36 51 34 36 50 34 35 49 35 34 48 35
34 47 37 34 47 39 35 46 38 34 45 36 31 43 35 30 41 36 29 40 36 28 38
36 27 37 45 27 40
33 6 21 33 6 21 33 6 22 33 6 22 33 6 22 33 6 22 33 6 22 33 6 22 34 6
22 34 6 22 34 6 22 34 6 22 34 6 22 34 6 22 34 6 22 34 6 22 34 6 22 34
6 22 34 6 22 34 6 22 34 6 22 35 6 22 35 6 23 35 6 23 35 6 23 35 6 23
35 6 23 35 6 23 35 6 23 35 6 23 35 6 23 35 6 23 35 6 23 36 6 23 36 6
23 36 6 23 36 6 23 36 6 23 36 6 23 36 6 23 36 6 23 36 6 23 36 6 24 36
6 24 36 6 24 37 6 24 37 6 24 37 6 24 37 6 24 37 6 24 37 6 24 37 6 24
37 6 24 37 6 24 37 6 24 37 6 24 37 6 24 37 6 24 38 6 24 38 6 24 38 6
24 38 6 24 38 6 24 38 6 24 38 6 25 38 6 25 38 6 25 38 6 25 38 6 25 38
6 25 38 6 25 39 6 25 39 6 25 39 6 25 39 6 25 39 6 25 39 6 25 27 3 12
27 3 12 27 3 12 27 3 12 27 3 12 27 3 12 28 3 12 28 3 12 28 3 12 28 3
12 28 3 12 28 3 12 28 3 12 28 3 12 28 3 12 28 3 12 28 3 12 28 3 12 28
3 12 28 3 12 28 3 12 28 3 12 28 3 12 28 3 12 28 3 12 28 3 12 28 3 12
28 3 12 28 3 12 29 3 12 29 3 12 29 3 12 29 3 12 29 3 12 29 3 12 29 3
12 29 3 12 29 3 12 29 3 12 29 3 12 29 3 12 29 3 12 29 3 12 28 18 30 17
16 23 17 16 23 17 16 23 17 17 24 18 18 26 19 20 27 19 21 29 20 22 30
20 23 32 21 24 33 22 25 35 22 26 36 23 26 37 23 27 39 24 28 40 24 29
41 25 30 42 25 31 44 26 32 45 26 33 46 27 33 47 27 34 48 28 35 49 28
36 50 29 36 51 29 37 52 29 38 53 30 38 54 30 39 55 30 40 56 31 40 57
31 41 58 31 41 59 32 42 59 32 42 60 32 43 60 33 43 61 33 46 63 38 57
69 48 82 83 55 100 92 49 84 84 38 58 70 34 46 64 33 44 63 33 44 62 33
44 62 33 44 62 33 43 61 32 43 61 32 43 61 32 42 60 32 42 60 33 42 59
33 42 59 33 41 58 33 41 58 33 40 57 33 40 56 33 39 56 33 39 55 34 38
54 34 38 53 34 37 52 34 37 52 34 36 51 34 35 50 34 35 49 34 34 48 35
34 47 37 35 47 43 38 48 45 39 47 39 34 44 36 30 41 35 29 40 36 28 39
36 27 37 42 27 39
33 6 22 33 6 22 34 6 22 34 6 22 34 6 22 34 6 22 34 6 22 34 6 22 34 6
22 34 6 22 34 6 22 34 6 22 34 6 22 34 6 22 35 6 22 35 6 23 35 6 23 35
6 23 35 6 23 35 6 23 35 6 23 35 6 23 35 6 23 35 6 23 35 6 23 35 6 23
36 6 23 36 6 23 36 6 23 36 6 23 36 6 23 36 6 23 36 6 23 36 6 23 36 6
24 36 6 24 36 6 24 36 6 24 37 6 24 37 6 24 37 6 24 37 6 24 37 6 24 37
6 24 37 6 24 37 6 24 37 6 24 37 6 24 37 6 24 37 6 24 38 6 24 38 6 24
38 6 24 38 6 24 38 6 25 38 6 25 38 6 25 38 6 25 38 6 25 38 6 25 38 6
25 38 6 25 38 6 25 39 6 25 39 6 25 39 6 25 39 6 25 39 6 25 39 6 25 39
6 25 39 6 25 39 6 25 39 6 25 39 7 25 39 7 25 39 7 25 28 3 12 28 3 12
28 3 12 28 3 12 28 3 12 28 3 12 28 3 12 28 3 12 28 3 12 28 3 12 28 3
12 28 3 12 28 3 12 28 3 12 28 3 12 28 3 12 28 3 12 28 3 12 28 3 12 28
3 12 29 3 12 29 3 12 29 3 12 29 3 12 29 3 12 29 3 12 29 3 12 29 3 12
29 3 12 29 3 12 29 3 12 29 3 12 29 3 12 29 3 12 29 3 12 29 3 12 29 3
12 29 3 12 29 3 12 29 3 12 29 3 12 29 3 12 29 3 12 33 19 33 26 18 29
17 16 23 17 16 23 17 16 23 17 17 24 18 19 26 19 20 27 19 21 29 20 22
30 20 23 32 21 24 33 22 25 35 22 26 36 23 26 37 23 27 38 24 28 40 24
29 41 25 30 42 25 31 43 26 32 45 26 32 46 27 33 47 27 34 48 28 35 49
28 35 50 28 36 51 29 37 52 29 37 53 30 38 54 30 39 55 30 39 56 31 40
57 31 40 57 31 41 58 32 41 59 32 42 59 32 42 60 32 43 61 34 47 63 42
67 74 59 111 98 70 140 114 60 113 99 42 68 75 34 48 64 33 44 62 33 44
62 33 43 62 33 43 61 32 43 61 32 43 60 32 42 60 32 42 59 32 42 59 32
41 59 32 41 58 33 41 58 33 40 57 33 40 56 33 40 56 33 39 55 33 39 54
33 38 54 33 38 53 33 37 52 33 36 51 34 36 50 34 35 49 34 35 48 34 34
48 35 34 47 38 35 47 47 41 49 56 46 51 49 40 47 38 32 42 35 29 40 35
28 39 36 27 37 36 26 35
34 6 22 34 6 22 34 6 22 34 6 22 34 6 22 34 6 22 34 6 22 34 6 22 35 6
23 35 6 23 35 6 23 35 6 23 35 6 23 35 6 23 35 6 23 35 6 23 35 6 23 35
6 23 35 6 23 35 6 23 36 6 23 36 6 23 36 6 23 36 6 23 36 6 23 36 6 23
36 6 23 36 6 24 36 6 24 36 6 24 36 6 24 36 6 24 37 6 24 37 6 24 37 6
24 37 6 24 37 6 24 37 6 24 37 6 24 37 6 24 37 6 24 37 6 24 37 6 24 38
6 24 38 6 24 38 6 24 38 6 25 38 6 25 38 6 25 38 6 25 38 6 25 38 6 25
38 6 25 38 6 25 38 6 25 39 6 25 39 6 25 39 6 25 39 6 25 39 6 25 39 6
25 39 6 25 39 6 25 39 7 25 39 7 25 39 7 25 39 7 25 40 7 26 40 7 26 40
7 26 40 7 26 40 7 26 40 7 26 40 7 26 40 7 26 28 3 12 28 3 12 28 3 12
28 3 12 28 3 12 28 3 12 28 3 12 28 3 12 28 3 12 28 3 12 28 3 12 28 3
12 29 3 12 29 3 12 29 3 12 29 3 12 29 3 12 29 3 12 29 3 12 29 3 12 29
3 12 29 3 12 29 3 12 29 3 12 29 3 12 29 3 12 29 3 12 29 3 12 29 3 12
29 3 12 29 3 12 29 3 12 29 3 12 29 3 12 29 3 12 30 3 12 30 3 12 30 3
12 30 3 12 30 3 12 30 3 12 30 3 12 30 3 12 30 3 12 31 19 32 25 18 28
17 16 23 17 16 23 17 16 23 17 17 24 18 19 26 19 20 28 19 21 29 20 22
30 20 23 32 21 24 33 22 25 35 22 25 36 23 26 37 23 27 38 24 28 40 24
29 41 25 30 42 25 31 43 26 31 44 26 32 45 26 33 46 27 34 48 27 34 49
28 35 50 28 36 51 29 36 52 29 37 53 29 38 53 30 38 54 30 39 55 30 40
56 31 40 57 31 41 57 31 41 58 31 41 59 32 42 59 32 42 60 33 46 62 39
60 70 52 92 87 59 112 98 52 92 88 39 61 71 34 46 63 33 43 61 32 43 61
32 43 61 32 43 60 32 42 60 32 42 60 32 42 59 32 41 59 32 41 58 32 41
58 32 41 57 32 40 57 32 40 56 32 40 56 32 39 55 33 39 55 33 38 54 33
38 53 33 37 52 33 37 52 33 36 51 33 36 50 33 35 49 33 34 48 34 34 47
34 33 46 37 35 46 49 42 50 68 54 55 65 51 53 44 36 44 35 29 40 35 28
39 35 27 37 36 26 36
34 6 22 34 6 22 35 6 23 35 6 23 35 6 23 35 6 23 35 6 23 35 6 23 35 6
23 35 6 23 35 6 23 35 6 23 35 6 23 35 6 23 36 6 23 36 6 23 36 6 23 36
6 23 36 6 23 36 6 23 36 6 24 36 6 24 36 6 24 36 6 24 36 6 24 37 6 24
37 6 24 37 6 24 37 6 24 37 6 24 37 6 24 37 6 24 37 6 24 37 6 24 37 6
24 37 6 24 37 6 24 38 6 24 38 6 25 38 6 25 38 6 25 38 6 25 38 6 25 38
6 25 38 6 25 38 6 25 38 6 25 38 6 25 39 6 25 39 6 25 39 6 25 39 6 25
39 6 25 39 6 25 39 7 25 39 7 25 39 7 25 39 7 26 39 7 26 40 7 26 40 7
26 40 7 26 40 7 26 40 7 26 40 7 26 40 7 26 40 7 26 40 7 26 40 7 26 40
7 26 40 7 26 41 7 26 41 7 26 41 7 26 28 3 12 28 3 12 28 3 12 28 3 12
28 3 12 29 3 12 29 3 12 29 3 12 29 3 12 29 3 12 29 3 12 29 3 12 29 3
12 29 3 12 29 3 12 29 3 12 29 3 12 29 3 12 29 3 12 29 3 12 29 3 12 29
3 12 29 3 12 29 3 12 29 3 12 30 3 12 30 3 12 30 3 12 30 3 12 30 3 12
30 3 12 30 3 12 30 3 12 30 3 12 30 3 12 30 3 13 30 3 13 30 3 13 30 3
13 30 3 13 30 3 13 30 3 13 30 3 13 30 3 13 31 18 29 30 18 31 25 18 28
17 16 23 17 16 23 17 16 23 17 18 25 18 19 26 19 20 28 19 21 29 20 22
30 20 23 32 21 24 33 22 24 34 22 25 36 23 26 37 23 27 38 24 28 39 24
29 40 25 30 42 25 30 43 25 31 44 26 32 45 26 33 46 27 33 47 27 34 48
28 35 49 28 35 50 28 36 51 29 37 52 29 37 53 29 38 54 30 39 55 30 39
55 30 40 56 31 40 57 31 41 57 31 41 58 31 41 58 32 42 59 32 43 60 34
48 63 38 58 68 41 64 72 38 58 68 34 48 63 33 44 61 32 43 60 32 42 60
32 42 60 32 42 60 32 42 59 32 42 59 31 41 58 31 41 58 31 41 57 31 40
57 32 40 57 32 40 56 32 39 56 32 39 55 32 39 55 32 38 54 32 38 53 32
37 53 33 37 52 33 36 51 33 36 50 33 35 49 33 35 49 33 34 48 33 34 47
34 33 46 36 34 46 47 41 49 72 58 56 80 62 58 54 43 48 37 30 41 35 28
39 35 27 37 35 26 36
35 6 23 35 6 23 35 6 23 35 6 23 35 6 23 35 6 23 35 6 23 35 6 23 36 6
23 36 6 23 36 6 23 36 6 23 36 6 23 36 6 23 36 6 24 36 6 24 36 6 24 36
6 24 36 6 24 36 6 24 37 6 24 37 6 24 37 6 24 37 6 24 37 6 24 37 6 24
37 6 24 37 6 24 37 6 24 37 6 24 37 6 24 38 6 25 38 6 25 38 6 25 38 6
25 38 6 25 38 6 25 38 6 25 38 6 25 38 6 25 38 6 25 39 6 25 39 6 25 39
6 25 39 6 25 39 6 25 39 7 25 39 7 25 39 7 25 39 7 26 39 7 26 39 7 26
40 7 26 40 7 26 40 7 26 40 7 26 40 7 26 40 7 26 40 7 26 40 7 26 40 7
26 40 7 26 40 7 26 40 7 26 41 7 26 41 7 26 41 7 26 41 7 26 41 7 26 41
7 27 41 7 27 41 7 27 41 7 27 29 3 12 29 3 12 29 3 12 29 3 12 29 3 12
29 3 12 29 3 12 29 3 12 29 3 12 29 3 12 29 3 12 29 3 12 29 3 12 29 3
12 29 3 12 29 3 12 29 3 12 29 3 12 30 3 12 30 3 12 30 3 12 30 3 12 30
3 12 30 3 12 30 3 12 30 3 12 30 3 13 30 3 13 30 3 13 30 3 13 30 3 13
30 3 13 30 3 13 30 3 13 30 3 13 11 2 7 11 2 7 11 2 7 11 2 7 11 2 7 11
2 7 11 2 7 11 2 7 31 3 13 31 3 13 34 19 34 29 18 31 25 18 28 17 16 23
17 16 23 17 16 23 17 18 25 18 19 26 19 20 28 19 21 29 20 22 30 20 23
32 21 23 33 21 24 34 22 25 35 22 26 37 23 27 38 23 28 39 24 29 40 24
29 41 25 30 42 25 31 44 26 32 45 26 32 46 27 33 47 27 34 48 27 34 49
28 35 50 28 36 50 29 36 51 29 37 52 29 38 53 30 38 54 30 39 55 30 39
55 30 40 56 31 40 57 31 40 57 31 41 58 31 41 58 31 41 59 32 42 59 33
44 60 33 45 61 33 44 61 32 43 60 32 42 60 32 42 59 32 42 59 32 42 59
32 42 59 31 41 59 31 41 58 31 41 58 31 40 57 31 40 57 31 40 56 31 40
56 31 39 55 31 39 55 32 39 54 32 38 54 32 38 53 32 37 53 32 37 52 32
36 51 32 36 50 32 35 50 33 35 49 33 34 48 33 34 47 33 33 46 33 33 46
35 33 45 43 38 47 68 54 54 87 67 60 65 51 51 40 32 41 35 28 38 35 27
37 35 26 36
35 6 23 35 6 23 35 6 23 36 6 23 36 6 23 36 6 23 36 6 23 36 6 23 36 6
24 36 6 24 36 6 24 36 6 24 36 6 24 36 6 24 37 6 24 37 6 24 37 6 24 37
6 24 37 6 24 37 6 24 37 6 24 37 6 24 37 6 24 37 6 24 37 6 24 38 6 25
38 6 25 38 6 25 38 6 25 38 6 25 38 6 25 38 6 25 38 6 25 38 6 25 38 6
25 39 6 25 39 6 25 39 6 25 39 6 25 39 7 25 39 7 25 39 7 25 39 7 26 39
7 26 39 7 26 39 7 26 40 7 26 40 7 26 40 7 26 40 7 26 40 7 26 40 7 26
40 7 26 40 7 26 40 7 26 40 7 26 40 7 26 41 7 26 41 7 26 41 7 26 41 7
27 41 7 27 41 7 27 41 7 27 41 7 27 41 7 27 41 7 27 41 7 27 42 7 27 42
7 27 42 7 27 42 7 27 29 3 12 29 3 12 29 3 12 29 3 12 29 3 12 29 3 12
29 3 12 29 3 12 29 3 12 29 3 12 29 3 12 29 3 12 30 3 12 30 3 12 30 3
12 30 3 12 30 3 12 30 3 12 30 3 12 30 3 13 30 3 13 30 3 13 30 3 13 30
3 13 30 3 13 30 3 13 30 3 13 30 3 13 30 3 13 30 3 13 31 3 13 31 3 13
31 3 13 31 3 13 11 2 7 11 2 7 11 2 7 11 2 7 11 2 7 11 2 7 11 2 7 11 2
7 11 2 7 11 2 7 11 2 7 11 2 7 33 19 33 29 18 31 25 18 28 17 16 23 17
16 23 17 17 23 17 18 25 18 19 26 19 20 28 19 21 29 20 22 30 20 22 32
21 23 33 21 24 34 22 25 35 22 26 36 23 27 38 23 28 39 24 28 40 24 29
41 25 30 42 25 31 43 26 31 44 26 32 45 26 33 46 27 33 47 27 34 48 28
35 49 28 35 50 28 36 51 29 36 52 29 37 52 29 38 53 30 38 54 30 39 54
30 39 55 30 39 56 31 40 56 31 40 57 31 40 57 31 41 58 31 41 58 31 41
58 31 41 58 31 41 59 31 41 59 31 41 59 31 41 58 31 41 58 31 41 58 31
41 58 31 41 58 31 40 57 31 40 57 31 40 56 30 39 56 30 39 55 31 39 55
31 39 55 31 38 54 31 38 54 31 38 53 31 37 53 32 37 52 32 36 51 32 36
51 32 36 50 32 35 49 32 35 48 32 34 48 32 33 47 33 33 46 33 32 45 34
32 45 39 35 45 57 47 51 80 62 57 69 54 53 43 35 42 35 28 38 34 27 37
35 26 36
36 6 23 36 6 23 36 6 24 36 6 24 36 6 24 36 6 24 36 6 24 36 6 24 36 6
24 37 6 24 37 6 24 37 6 24 37 6 24 37 6 24 37 6 24 37 6 24 37 6 24 37
6 24 37 6 24 38 6 25 38 6 25 38 6 25 38 6 25 38 6 25 38 6 25 38 6 25
38 6 25 38 6 25 38 6 25 38 6 25 39 6 25 39 6 25 39 6 25 39 7 25 39 7
25 39 7 26 39 7 26 39 7 26 39 7 26 39 7 26 40 7 26 40 7 26 40 7 26 40
7 26 40 7 26 40 7 26 40 7 26 40 7 26 40 7 26 40 7 26 41 7 26 41 7 26
41 7 27 41 7 27 41 7 27 41 7 27 41 7 27 41 7 27 41 7 27 41 7 27 42 7
27 42 7 27 42 7 27 42 7 27 42 7 27 42 7 27 42 7 27 42 7 27 42 7 27 42
7 27 42 7 27 29 3 12 29 3 12 29 3 12 29 3 12 29 3 12 29 3 12 30 3 12
30 3 12 30 3 12 30 3 12 30 3 12 30 3 12 30 3 12 30 3 13 30 3 13 30 3
13 30 3 13 30 3 13 30 3 13 30 3 13 30 3 13 30 3 13 30 3 13 31 3 13 31
3 13 31 3 13 31 3 13 31 3 13 31 3 13 31 3 13 31 3 13 31 3 13 31 3 13
31 3 13 31 3 13 11 2 7 11 2 7 11 2 7 11 2 7 11 2 7 11 2 7 11 2 7 11 2
7 11 2 7 11 2 7 11 2 7 32 18 29 33 19 33 29 18 31 25 18 28 17 16 23 17
16 23 17 17 23 17 18 25 18 19 26 19 20 27 19 21 29 20 21 30 20 22 31
21 23 33 21 24 34 22 25 35 22 26 36 23 26 37 23 27 38 24 28 39 24 29
41 24 30 42 25 30 43 25 31 44 26 32 45 26 32 46 27 33 47 27 34 47 27
34 48 28 35 49 28 35 50 28 36 51 29 37 52 29 37 52 29 38 53 29 38 54
30 38 54 30 39 55 30 39 55 30 39 56 31 40 56 31 40 57 31 40 57 31 40
57 31 41 57 31 41 57 31 41 58 31 41 58 31 41 58 31 41 57 31 40 57 31
40 57 31 40 57 31 40 56 30 40 56 30 39 55 30 39 55 30 39 54 30 38 54
30 38 54 30 38 53 31 37 53 31 37 52 31 37 52 31 36 51 31 36 51 31 35
50 31 35 49 32 35 49 32 34 48 32 34 47 32 33 46 32 33 45 32 32 45 33
32 44 35 33 44 46 40 47 65 52 52 64 50 51 44 35 43 35 28 38 34 27 37
34 26 35
36 6 24 36 6 24 36 6 24 37 6 24 37 6 24 37 6 24 37 6 24 37 6 24 37 6
24 37 6 24 37 6 24 37 6 24 37 6 24 37 6 25 38 6 25 38 6 25 38 6 25 38
6 25 38 6 25 38 6 25 38 6 25 38 6 25 38 6 25 38 6 25 39 6 25 39 6 25
39 6 25 39 7 25 39 7 25 39 7 26 39 7 26 39 7 26 39 7 26 39 7 26 40 7
26 40 7 26 40 7 26 40 7 26 40 7 26 40 7 26 40 7 26 40 7 26 40 7 26 40
7 26 41 7 26 41 7 27 41 7 27 41 7 27 41 7 27 41 7 27 41 7 27 41 7 27
41 7 27 41 7 27 42 7 27 42 7 27 42 7 27 42 7 27 42 7 27 42 7 27 42 7
27 42 7 27 42 7 28 42 7 28 43 7 28 43 7 28 43 7 28 43 7 28 43 7 28 43
7 28 43 7 28 30 3 12 30 3 12 30 3 12 30 3 12 30 3 12 30 3 12 30 3 12
30 3 13 30 3 13 30 3 13 30 3 13 30 3 13 30 3 13 30 3 13 30 3 13 30 3
13 31 3 13 31 3 13 31 3 13 31 3 13 31 3 13 31 3 13 31 3 13 31 3 13 31
3 13 31 3 13 31 3 13 31 3 13 31 3 13 31 3 13 31 3 13 31 3 13 31 3 13
31 3 13 32 3 13 11 2 7 11 2 7 11 2 7 11 2 7 11 2 7 11 2 7 11 2 7 11 2
7 11 2 7 11 2 7 11 2 7 31 18 29 33 19 33 29 18 31 26 18 29 23 17 27 17
16 23 17 16 23 17 18 24 18 19 26 19 19 27 19 20 29 20 21 30 20 22 31
21 23 32 21 24 33 22 25 35 22 25 36 23 26 37 23 27 38 23 28 39 24 28
40 24 29 41 25 30 42 25 31 43 25 31 44 26 32 45 26 33 46 27 33 47 27
34 48 27 34 48 28 35 49 28 35 50 28 36 51 29 36 52 29 37 52 29 37 53
29 38 53 30 38 54 30 39 54 30 39 55 30 39 55 30 39 56 30 40 56 30 40
56 31 40 56 31 40 56 31 40 57 31 40 57 31 40 57 31 40 56 31 40 56 30
40 56 30 39 56 30 39 55 30 39 55 30 39 55 30 38 54 29 38 54 30 38 53
30 37 53 30 37 52 30 37 52 30 36 51 30 36 51 31 36 50 31 35 50 31 35
49 31 35 49 31 34 48 31 34 47 31 33 46 32 33 46 32 32 45 32 32 44 32
31 43 33 31 43 39 34 44 50 41 47 54 43 47 42 34 42 34 28 38 34 27 36
34 26 35
37 6 24 37 6 24 37 6 24 37 6 24 37 6 24 37 6 24 37 6 24 37 6 24 37 6
25 38 6 25 38 6 25 38 6 25 38 6 25 38 6 25 38 6 25 38 6 25 38 6 25 38
6 25 38 6 25 39 6 25 39 6 25 39 7 25 39 7 25 39 7 26 39 7 26 39 7 26
39 7 26 39 7 26 39 7 26 40 7 26 40 7 26 40 7 26 40 7 26 40 7 26 40 7
26 40 7 26 40 7 26 40 7 26 41 7 26 41 7 27 41 7 27 41 7 27 41 7 27 41
7 27 41 7 27 41 7 27 41 7 27 41 7 27 42 7 27 42 7 27 42 7 27 42 7 27
42 7 27 42 7 27 42 7 27 42 7 28 42 7 28 42 7 28 43 7 28 43 7 28 43 7
28 43 7 28 43 7 28 43 7 28 43 7 28 43 7 28 43 7 28 43 7 28 44 7 28 44
7 28 30 3 12 30 3 12 30 3 12 30 3 13 30 3 13 30 3 13 30 3 13 30 3 13
30 3 13 30 3 13 30 3 13 31 3 13 31 3 13 31 3 13 31 3 13 31 3 13 31 3
13 31 3 13 31 3 13 31 3 13 31 3 13 31 3 13 31 3 13 31 3 13 31 3 13 31
3 13 31 3 13 32 3 13 32 3 13 32 3 13 32 3 13 32 3 13 32 3 13 32 3 13
32 3 13 32 3 13 32 3 13 11 2 7 11 2 7 11 2 7 11 2 7 11 2 7 11 2 7 11 2
7 11 2 7 11 2 7 11 2 7 37 20 36 33 19 33 30 18 31 27 18 29 24 17 27 17
16 23 17 16 23 17 17 24 18 18 26 18 19 27 19 20 28 20 21 30 20 22 31
21 23 32 21 24 33 21 24 34 22 25 35 22 26 36 23 27 38 23 27 39 24 28
40 24 29 41 24 29 42 25 30 43 25 31 43 26 31 44 26 32 45 26 33 46 27
33 47 27 34 48 27 34 49 28 35 49 28 35 50 28 36 51 28 36 51 29 37 52
29 37 53 29 38 53 29 38 54 30 38 54 30 38 54 30 39 55 30 39 55 30 39
55 30 39 55 30 39 55 30 39 56 30 39 56 30 39 55 30 39 55 30 39 55 30
39 55 30 39 55 30 38 54 30 38 54 29 38 54 29 38 53 29 37 53 29 37 52
29 37 52 29 36 51 30 36 51 30 36 51 30 36 50 30 35 50 30 35 49 30 34
48 31 34 48 31 34 47 31 33 46 31 33 46 31 32 45 31 32 44 32 31 44 32
31 43 32 30 42 35 31 42 40 34 43 44 36 43 39 32 40 34 28 38 33 26 36
34 25 35
37 6 24 37 6 24 37 6 25 37 6 25 38 6 25 38 6 25 38 6 25 38 6 25 38 6
25 38 6 25 38 6 25 38 6 25 38 6 25 38 6 25 39 6 25 39 7 25 39 7 25 39
7 25 39 7 26 39 7 26 39 7 26 39 7 26 39 7 26 39 7 26 40 7 26 40 7 26
40 7 26 40 7 26 40 7 26 40 7 26 40 7 26 40 7 26 40 7 26 41 7 27 41 7
27 41 7 27 41 7 27 41 7 27 41 7 27 41 7 27 41 7 27 41 7 27 41 7 27 42
7 27 42 7 27 42 7 27 42 7 27 42 7 27 42 7 28 42 7 28 42 7 28 42 7 28
43 7 28 43 7 28 43 7 28 43 7 28 43 7 28 43 7 28 43 7 28 43 7 28 43 7
28 44 7 28 44 7 28 44 7 28 44 7 29 44 7 29 44 7 29 44 7 29 44 7 29 30
3 13 30 3 13 30 3 13 30 3 13 30 3 13 30 3 13 30 3 13 31 3 13 31 3 13
31 3 13 31 3 13 31 3 13 31 3 13 31 3 13 31 3 13 31 3 13 31 3 13 31 3
13 31 3 13 31 3 13 31 3 13 32 3 13 32 3 13 32 3 13 32 3 13 32 3 13 32
3 13 32 3 13 32 3 13 32 3 13 32 3 13 32 3 13 32 3 13 32 3 13 32 3 13
32 3 13 32 3 13 32 3 13 11 2 7 11 2 7 11 2 7 11 2 7 11 2 7 11 2 7 11 2
7 11 2 7 11 2 7 11 2 7 37 20 36 34 19 34 31 19 32 28 18 30 25 18 28 17
16 23 17 16 23 17 17 24 18 18 25 18 19 27 19 20 28 19 21 29 20 22 30
20 23 32 21 23 33 21 24 34 22 25 35 22 26 36 23 26 37 23 27 38 23 28
39 24 28 40 24 29 41 25 30 42 25 30 43 25 31 44 26 32 45 26 32 45 26
33 46 27 33 47 27 34 48 27 34 48 28 35 49 28 35 50 28 36 50 28 36 51
29 36 52 29 37 52 29 37 53 29 37 53 29 38 53 29 38 54 30 38 54 30 38
54 30 38 54 30 38 54 30 39 54 30 39 54 30 39 54 30 38 54 30 38 54 30
38 54 29 38 54 29 38 53 29 38 53 29 37 53 29 37 52 29 37 52 29 36 51
29 36 51 29 36 51 29 36 50 29 35 50 30 35 49 30 35 49 30 34 48 30 34
48 30 33 47 30 33 46 30 33 46 31 32 45 31 32 44 31 31 44 31 31 43 31
30 42 32 30 41 33 30 41 35 31 41 37 31 40 35 29 39 33 27 37 33 26 36
33 25 35
38 6 25 38 6 25 38 6 25 38 6 25 38 6 25 38 6 25 38 6 25 38 6 25 38 6
25 39 6 25 39 7 25 39 7 25 39 7 26 39 7 26 39 7 26 39 7 26 39 7 26 39
7 26 39 7 26 40 7 26 40 7 26 40 7 26 40 7 26 40 7 26 40 7 26 40 7 26
40 7 26 40 7 27 41 7 27 41 7 27 41 7 27 41 7 27 41 7 27 41 7 27 41 7
27 41 7 27 41 7 27 42 7 27 42 7 27 42 7 27 42 7 27 42 7 27 42 7 28 42
7 28 42 7 28 42 7 28 43 7 28 43 7 28 43 7 28 43 7 28 43 7 28 43 7 28
43 7 28 43 7 28 43 7 28 44 7 28 44 7 28 44 7 29 44 7 29 44 7 29 44 7
29 44 7 29 44 7 29 44 7 29 44 7 29 45 7 29 45 7 29 45 7 29 45 7 29 30
3 13 30 3 13 31 3 13 31 3 13 31 3 13 31 3 13 31 3 13 31 3 13 31 3 13
31 3 13 31 3 13 31 3 13 31 3 13 31 3 13 31 3 13 31 3 13 32 3 13 32 3
13 32 3 13 32 3 13 32 3 13 32 3 13 32 3 13 32 3 13 32 3 13 32 3 13 32
3 13 32 3 13 32 3 13 32 3 13 32 3 13 33 4 13 33 4 13 33 4 13 33 4 13
33 4 13 33 4 13 33 4 13 33 4 13 11 2 7 11 2 7 11 2 7 11 2 7 11 2 7 11
2 7 11 2 7 11 2 7 11 2 7 37 20 36 34 19 34 32 19 32 29 18 31 26 18 29
24 17 27 17 16 23 17 17 24 18 18 25 18 19 26 19 20 28 19 21 29 20 21
30 20 22 31 21 23 32 21 24 33 22 25 34 22 25 36 22 26 37 23 27 38 23
27 38 24 28 39 24 29 40 24 29 41 25 30 42 25 31 43 25 31 44 26 32 45
26 32 45 26 33 46 27 33 47 27 34 48 27 34 48 28 35 49 28 35 50 28 35
50 28 36 51 28 36 51 29 36 52 29 37 52 29 37 52 29 37 53 29 37 53 29
38 53 29 38 53 29 38 53 29 38 53 29 38 53 29 38 53 29 38 53 29 38 53
29 37 53 29 37 53 29 37 52 29 37 52 29 37 52 28 36 51 28 36 51 28 36
50 28 35 50 28 35 50 29 35 49 29 35 49 29 34 48 29 34 48 29 34 47 30
33 47 30 33 46 30 33 46 30 32 45 30 32 44 30 31 44 31 31 43 31 30 42
31 30 42 31 29 41 32 29 40 32 29 39 33 29 39 33 28 38 33 27 36 33 26
35 33 25 34
38 6 25 38 6 25 38 6 25 38 6 25 39 6 25 39 7 25 39 7 25 39 7 26 39 7
26 39 7 26 39 7 26 39 7 26 39 7 26 39 7 26 40 7 26 40 7 26 40 7 26 40
7 26 40 7 26 40 7 26 40 7 26 40 7 26 40 7 27 41 7 27 41 7 27 41 7 27
41 7 27 41 7 27 41 7 27 41 7 27 41 7 27 41 7 27 42 7 27 42 7 27 42 7
27 42 7 27 42 7 28 42 7 28 42 7 28 42 7 28 42 7 28 43 7 28 43 7 28 43
7 28 43 7 28 43 7 28 43 7 28 43 7 28 43 7 28 43 7 28 44 7 28 44 7 29
44 7 29 44 7 29 44 7 29 44 7 29 44 7 29 44 7 29 44 7 29 45 7 29 45 7
29 45 7 29 45 8 29 45 8 29 45 8 29 45 8 29 45 8 30 45 8 30 31 3 13 31
3 13 31 3 13 31 3 13 31 3 13 31 3 13 31 3 13 31 3 13 31 3 13 31 3 13
31 3 13 32 3 13 32 3 13 32 3 13 32 3 13 32 3 13 32 3 13 32 3 13 32 3
13 32 3 13 32 3 13 32 3 13 32 3 13 32 3 13 32 3 13 33 3 13 33 4 13 33
4 13 33 4 13 33 4 13 33 4 13 33 4 13 33 4 13 33 4 13 33 4 13 33 4 13
33 4 13 33 4 13 33 4 13 33 4 13 33 4 14 11 2 7 11 2 7 11 2 7 11 2 7 11
2 7 11 2 7 11 2 7 34 18 30 38 20 36 35 19 35 33 19 33 30 19 31 28 18
30 26 18 28 23 17 27 17 17 24 18 18 25 18 19 26 19 20 27 19 20 29 20
21 30 20 22 31 20 23 32 21 23 33 21 24 34 22 25 35 22 26 36 23 26 37
23 27 38 23 28 39 24 28 40 24 29 41 24 29 41 25 30 42 25 31 43 25 31
44 26 32 45 26 32 45 26 33 46 27 33 47 27 34 47 27 34 48 27 34 49 28
35 49 28 35 50 28 35 50 28 36 51 28 36 51 28 36 51 29 36 52 29 37 52
29 37 52 29 37 52 29 37 52 29 37 52 29 37 52 29 37 52 29 37 52 29 37
52 29 37 52 29 37 52 29 36 51 28 36 51 28 36 51 28 36 50 28 35 50 28
35 49 28 35 49 28 34 49 28 34 48 28 34 48 29 34 47 29 33 47 29 33 46
29 33 46 29 32 45 29 32 45 30 32 44 30 31 44 30 31 43 30 30 42 30 30
42 31 29 41 31 29 40 31 28 39 31 28 39 32 28 38 32 27 37 32 26 36 32
25 35 39 26 38
39 7 25 39 7 25 39 7 26 39 7 26 39 7 26 39 7 26 39 7 26 39 7 26 39 7
26 40 7 26 40 7 26 40 7 26 40 7 26 40 7 26 40 7 26 40 7 26 40 7 26 40
7 27 40 7 27 41 7 27 41 7 27 41 7 27 41 7 27 41 7 27 41 7 27 41 7 27
41 7 27 41 7 27 42 7 27 42 7 27 42 7 27 42 7 28 42 7 28 42 7 28 42 7
28 42 7 28 43 7 28 43 7 28 43 7 28 43 7 28 43 7 28 43 7 28 43 7 28 43
7 28 43 7 28 44 7 29 44 7 29 44 7 29 44 7 29 44 7 29 44 7 29 44 7 29
44 7 29 45 7 29 45 7 29 45 8 29 45 8 29 45 8 29 45 8 29 45 8 30 45 8
30 45 8 30 46 8 30 46 8 30 46 8 30 46 8 30 46 8 30 31 3 13 31 3 13 31
3 13 31 3 13 31 3 13 31 3 13 31 3 13 31 3 13 32 3 13 32 3 13 32 3 13
32 3 13 32 3 13 32 3 13 32 3 13 39 100 13 39 104 12 38 108 11 38 112
11 37 114 10 37 117 10 38 120 10 38 122 10 38 124 10 39 126 10 39 127
11 40 129 11 41 130 12 42 130 12 41 129 11 42 127 11 33 4 13 33 4 13
33 4 13 33 4 13 34 4 14 34 4 14 34 4 14 34 4 14 34 4 14 34 4 14 34 4
14 34 4 14 11 2 7 11 2 7 11 2 7 11 2 7 11 2 7 11 2 7 34 18 30 38 20 37
36 20 35 34 19 34 31 19 32 29 18 31 27 18 29 25 18 28 23 18 27 17 18
25 18 18 26 18 19 27 19 20 28 19 21 29 20 22 30 20 22 31 21 23 32 21
24 33 22 25 34 22 25 35 22 26 36 23 26 37 23 27 38 23 28 39 24 28 40
24 29 41 24 30 42 25 30 42 25 31 43 25 31 44 26 32 45 26 32 45 26 33
46 27 33 47 27 33 47 27 34 48 27 34 48 27 34 49 28 35 49 28 35 50 28
35 50 28 36 50 28 36 51 28 36 51 28 36 51 28 36 51 28 36 51 28 36 51
28 36 51 28 36 51 28 36 51 28 36 51 28 36 51 28 36 51 28 36 50 28 35
50 28 35 50 28 35 49 27 35 49 27 34 48 27 34 48 27 34 48 28 33 47 28
33 47 28 33 46 28 33 46 28 32 46 29 32 45 29 32 45 29 31 44 29 31 43
29 31 43 30 30 42 30 30 42 30 29 41 30 29 40 30 28 39 31 28 39 31 27
38 31 27 37 31 26 36 32 26 35 32 25 34 40 25 38
39 7 26 39 7 26 39 7 26 39 7 26 39 7 26 40 7 26 40 7 26 40 7 26 40 7
26 40 7 26 40 7 26 40 7 26 40 7 27 40 7 27 41 7 27 41 7 27 41 7 27 41
7 27 41 7 27 41 7 27 41 7 27 41 7 27 41 7 27 42 7 27 42 7 27 42 7 27
42 7 28 42 7 28 42 7 28 42 7 28 42 7 28 42 7 28 43 7 28 43 7 28 43 7
28 43 7 28 43 7 28 43 7 28 43 7 28 43 7 29 44 7 29 44 7 29 44 7 29 44
7 29 44 7 29 44 7 29 44 7 29 44 7 29 45 7 29 45 8 29 45 8 29 45 8 29
45 8 29 45 8 30 45 8 30 45 8 30 45 8 30 46 8 30 46 8 30 46 8 30 46 8
30 46 8 30 46 8 30 46 8 30 46 8 30 47 8 30 47 8 30 31 3 13 31 3 13 31
3 13 32 3 13 32 3 13 32 3 13 32 3 13 32 3 13 32 3 13 35 82 9 37 92 11
35 97 10 34 102 9 31 105 7 31 108 7 32 112 7 32 115 7 33 118 7 33 121
7 34 123 7 34 126 7 35 128 8 35 131 8 35 133 8 36 135 8 36 137 8 36
139 8 37 140 8 37 141 8 37 143 8 37 143 8 38 144 8 41 144 10 42 144 11
44 143 13 44 139 11 34 4 14 34 4 14 34 4 14 34 4 14 34 4 14 34 4 14 34
4 14 35 4 14 35 4 14 11 2 7 11 2 7 11 2 7 11 2 7 34 18 30 39 20 37 37
20 36 35 19 35 33 19 33 31 19 32 29 18 31 27 18 29 25 18 28 24 18 28
18 18 25 18 19 27 19 20 28 19 21 29 20 21 30 20 22 31 20 23 32 21 23
33 21 24 34 22 25 35 22 25 36 22 26 37 23 27 38 23 27 38 24 28 39 24
28 40 24 29 41 24 30 42 25 30 42 25 31 43 25 31 44 26 31 44 26 32 45
26 32 46 26 33 46 27 33 47 27 33 47 27 34 48 27 34 48 27 34 49 27 35
49 28 35 49 28 35 49 28 35 50 28 35 50 28 35 50 28 35 50 28 36 50 28
36 50 28 35 50 28 35 50 28 35 50 28 35 50 28 35 50 28 35 49 28 35 49
27 34 49 27 34 48 27 34 48 27 34 47 27 33 47 27 33 47 27 33 46 27 33
46 27 32 45 28 32 45 28 32 45 28 31 44 28 31 44 28 31 43 29 30 43 29
30 42 29 30 41 29 29 41 29 29 40 30 28 40 30 28 39 30 27 38 30 27 37
31 26 37 31 26 36 31 25 35 38 26 38 41 25 38
39 7 26 40 7 26 40 7 26 40 7 26 40 7 26 40 7 26 40 7 26 40 7 27 40 7
27 40 7 27 41 7 27 41 7 27 41 7 27 41 7 27 41 7 27 41 7 27 41 7 27 41
7 27 41 7 27 42 7 27 42 7 27 42 7 28 42 7 28 42 7 28 42 7 28 42 7 28
42 7 28 43 7 28 43 7 28 43 7 28 43 7 28 43 7 28 43 7 28 43 7 28 43 7
29 44 7 29 44 7 29 44 7 29 44 7 29 44 7 29 44 7 29 44 7 29 44 7 29 44
7 29 45 8 29 45 8 29 45 8 29 45 8 30 45 8 30 45 8 30 45 8 30 45 8 30
46 8 30 46 8 30 46 8 30 46 8 30 46 8 30 46 8 30 46 8 30 46 8 30 47 8
30 47 8 31 47 8 31 47 8 31 47 8 31 47 8 31 32 3 13 32 3 13 32 3 13 32
3 13 32 3 13 32 3 13 32 3 13 36 84 11 34 90 10 32 94 8 29 98 6 30 102
6 31 106 7 31 109 7 32 112 7 32 115 7 33 118 7 33 121 7 34 124 7 34
127 7 35 129 8 35 132 8 36 134 8 36 136 8 36 139 8 37 141 8 37 143 8
38 145 8 38 147 8 38 149 8 38 150 9 39 151 9 39 152 9 39 153 9 39 154
9 39 154 9 39 154 9 39 153 9 44 153 12 46 150 13 45 144 12 35 4 14 35
4 14 35 4 14 35 4 14 35 4 14 35 4 14 11 2 7 11 2 7 11 2 7 34 18 30 40
20 38 38 20 37 36 20 35 35 84 27 35 88 27 35 89 27 35 88 27 27 18 29
26 18 29 24 19 29 18 19 26 19 19 27 19 20 28 19 21 29 20 22 30 20 22
31 21 23 32 21 24 33 21 24 34 22 25 35 22 26 36 23 26 37 23 27 38 23
27 39 24 28 39 24 28 40 24 29 41 24 29 42 25 30 42 25 30 43 25 31 44
26 31 44 26 32 45 26 32 45 26 32 46 26 33 46 27 33 47 27 33 47 27 34
47 27 34 48 27 34 48 27 34 48 27 34 49 27 35 49 28 35 49 28 35 49 28
35 49 28 35 49 28 35 49 28 35 49 27 35 49 27 34 49 27 34 48 27 34 48
27 34 48 27 34 48 27 33 47 27 33 47 26 33 46 26 32 46 26 32 45 27 32
45 27 32 45 27 32 45 27 31 44 27 31 44 28 31 43 28 30 43 28 30 42 28
30 42 28 29 41 29 29 41 29 29 40 29 28 39 29 28 39 29 27 38 30 27 37
30 26 37 30 26 36 30 25 35 31 25 34 39 25 38 41 25 39
40 7 26 40 7 26 40 7 27 40 7 27 40 7 27 40 7 27 41 7 27 41 7 27 41 7
27 41 7 27 41 7 27 41 7 27 41 7 27 41 7 27 42 7 27 42 7 27 42 7 28 42
7 28 42 7 28 42 7 28 42 7 28 42 7 28 42 7 28 43 7 28 43 7 28 43 7 28
43 7 28 43 7 28 43 7 28 43 7 29 43 7 29 44 7 29 44 7 29 44 7 29 44 7
29 44 7 29 44 7 29 44 7 29 44 8 29 45 8 29 45 8 29 45 8 29 45 8 30 45
8 30 45 8 30 45 8 30 45 8 30 46 8 30 46 8 30 46 8 30 46 8 30 46 8 30
46 8 30 46 8 30 46 8 30 47 8 31 47 8 31 47 8 31 47 8 31 47 8 31 47 8
31 47 8 31 47 8 31 48 8 31 48 8 31 48 8 31 32 3 13 32 3 13 32 3 13 32
3 13 35 78 11 33 84 9 28 88 6 28 93 6 29 97 6 30 101 6 30 104 6 31 108
7 32 111 7 32 114 7 33 117 7 33 120 7 33 123 7 33 125 7 34 128 7 34
131 7 35 133 8 35 136 8 35 138 8 36 141 8 36 143 8 37 145 8 37 147 8
37 149 8 39 151 9 39 153 9 39 155 9 40 157 9 40 158 9 40 159 9 40 161
9 41 162 9 41 162 9 41 163 9 41 162 9 41 162 9 41 161 9 44 159 12 47
156 13 46 148 12 35 4 14 35 4 14 36 4 14 36 4 14 36 4 14 11 2 7 34 18
30 41 20 39 38 86 29 36 92 28 37 95 28 37 98 28 37 99 27 37 100 27 37
100 27 37 99 28 36 93 29 25 20 30 18 19 27 19 20 28 19 21 29 20 21 30
20 22 31 20 23 32 21 23 33 21 24 34 22 25 34 22 25 35 22 26 36 23 26
37 23 27 38 23 27 39 24 28 39 24 28 40 24 29 41 24 29 41 25 30 42 25
30 43 25 31 43 25 31 44 26 31 44 26 32 45 26 32 45 26 32 46 26 33 46
26 33 46 27 33 47 27 33 47 27 34 47 27 34 48 27 34 48 27 34 48 27 34
48 27 34 48 27 34 48 27 34 48 27 34 48 27 34 48 27 34 48 27 34 47 27
33 47 27 33 47 27 33 47 26 33 46 26 32 46 26 32 45 26 32 45 26 32 44
26 31 44 26 31 44 26 31 44 27 31 43 27 30 43 27 30 42 27 30 42 28 30
41 28 29 41 28 29 40 28 29 40 28 28 39 29 28 39 29 27 38 29 27 37 29
26 37 29 26 36 30 25 35 30 25 34 37 25 38 40 25 38 43 25 39
40 7 27 40 7 27 41 7 27 41 7 27 41 7 27 41 7 27 41 7 27 41 7 27 41 7
27 41 7 27 42 7 27 42 7 28 42 7 28 42 7 28 42 7 28 42 7 28 42 7 28 42
7 28 42 7 28 43 7 28 43 7 28 43 7 28 43 7 28 43 7 28 43 7 29 43 7 29
43 7 29 44 7 29 44 7 29 44 7 29 44 7 29 44 7 29 44 7 29 44 7 29 44 8
29 45 8 29 45 8 29 45 8 30 45 8 30 45 8 30 45 8 30 45 8 30 46 8 30 46
8 30 46 8 30 46 8 30 46 8 30 46 8 30 46 8 30 46 8 31 47 8 31 47 8 31
47 8 31 47 8 31 47 8 31 47 8 31 47 8 31 47 8 31 48 8 31 48 8 31 48 8
31 48 8 31 48 8 32 48 8 32 48 8 32 48 8 32 32 3 13 35 68 12 33 77 10
30 82 8 27 87 6 28 91 6 29 95 6 29 99 6 30 102 6 31 105 7 30 108 6 31
112 7 31 115 7 32 118 7 32 121 7 33 123 7 33 126 7 34 129 7 34 132 7
35 134 8 35 137 8 36 139 8 36 142 8 36 144 8 37 146 8 37 149 8 38 151
8 38 153 8 38 155 9 39 157 9 39 159 9 39 161 9 40 162 9 40 164 9 41
165 9 41 167 9 42 168 9 42 168 9 42 169 9 42 169 9 42 169 9 42 169 9
42 168 9 42 166 9 46 163 12 47 157 12 36 4 14 36 4 14 36 4 14 36 4 14
35 18 30 33 50 29 29 49 26 37 98 28 38 101 28 38 103 28 37 105 28 38
106 28 38 107 28 38 107 28 38 107 29 38 105 30 36 94 30 25 21 31 19 20
28 19 21 29 20 22 30 20 22 31 21 23 32 21 23 33 21 24 34 22 25 35 22
25 35 22 26 36 23 26 37 23 27 38 23 27 38 23 28 39 24 28 40 24 29 41
24 29 41 25 30 42 25 30 42 25 30 43 25 31 43 25 31 44 26 31 44 26 32
45 26 32 45 26 32 45 26 32 46 26 33 46 26 33 46 26 33 46 27 33 47 27
33 47 27 33 47 27 33 47 27 33 47 27 33 47 27 33 47 27 33 47 27 33 47
26 33 46 26 33 46 26 32 46 26 32 46 26 32 45 26 32 45 26 31 44 25 31
44 25 31 43 25 31 43 26 30 43 26 30 43 26 30 42 26 30 42 27 29 41 27
29 41 27 29 41 27 29 40 27 28 40 28 28 39 28 28 38 28 27 38 28 27 37
29 26 37 29 26 36 29 25 35 29 25 34 36 26 38 39 25 38 41 25 39 44 25
39
41 7 27 41 7 27 41 7 27 41 7 27 41 7 27 41 7 27 42 7 27 42 7 28 42 7
28 42 7 28 42 7 28 42 7 28 42 7 28 42 7 28 42 7 28 43 7 28 43 7 28 43
7 28 43 7 28 43 7 28 43 7 29 43 7 29 43 7 29 44 7 29 44 7 29 44 7 29
44 7 29 44 7 29 44 7 29 44 8 29 45 8 29 45 8 29 45 8 30 45 8 30 45 8
30 45 8 30 45 8 30 45 8 30 46 8 30 46 8 30 46 8 30 46 8 30 46 8 30 46
8 30 46 8 31 46 8 31 47 8 31 47 8 31 47 8 31 47 8 31 47 8 31 47 8 31
47 8 31 48 8 31 48 8 31 48 8 31 48 8 31 48 8 32 48 8 32 48 8 32 48 8
32 49 8 32 49 8 32 49 8 32 49 8 32 34 67 11 31 74 9 26 79 5 27 84 6 28
88 6 28 92 6 29 96 6 29 99 6 29 102 6 30 105 6 30 109 6 31 112 7 31
115 7 32 118 7 32 121 7 33 123 7 33 126 7 34 128 7 34 131 8 35 133 8
35 136 8 35 138 8 36 141 8 36 143 8 37 146 8 37 148 8 38 150 8 38 153
8 38 155 9 39 157 9 39 159 9 39 161 9 40 163 9 40 166 9 41 167 9 41
169 9 41 170 9 41 172 9 42 173 9 43 174 10 43 174 10 43 175 10 43 175
10 43 175 10 43 174 10 43 173 10 42 171 10 46 168 12 47 163 12 37 4 14
37 4 14 35 18 30 30 49 26 29 49 26 38 103 28 39 105 28 38 106 28 38
108 28 38 109 28 38 111 28 38 112 28 39 112 29 39 112 30 39 111 31 39
107 32 27 21 33 25 21 33 20 21 30 20 22 31 20 22 31 21 23 32 21 24 33
21 24 34 22 25 35 22 25 35 22 26 36 23 26 37 23 27 38 23 27 38 23 28
39 24 28 40 24 29 40 24 29 41 24 29 41 25 30 42 25 30 42 25 30 43 25
31 43 25 31 44 25 31 44 26 31 44 26 32 45 26 32 45 26 32 45 26 32 45
26 32 46 26 32 46 26 32 46 26 32 46 26 32 46 26 32 46 26 32 46 26 32
46 26 32 45 26 32 45 26 32 45 26 32 45 26 32 44 26 31 44 25 31 44 25
31 43 25 30 43 25 30 42 25 30 42 25 30 42 25 30 42 26 29 41 26 29 41
26 29 40 26 29 40 27 28 40 27 28 39 27 28 39 27 27 38 27 27 38 28 27
37 28 26 36 28 26 36 28 25 35 29 25 34 36 26 38 38 25 38 40 25 39 42
25 39 45 25 40
41 7 27 41 7 27 42 7 27 42 7 28 42 7 28 42 7 28 42 7 28 42 7 28 42 7
28 42 7 28 42 7 28 43 7 28 43 7 28 43 7 28 43 7 28 43 7 29 43 7 29 43
7 29 43 7 29 44 7 29 44 7 29 44 7 29 44 7 29 44 7 29 44 8 29 44 8 29
45 8 29 45 8 30 45 8 30 45 8 30 45 8 30 45 8 30 45 8 30 45 8 30 46 8
30 46 8 30 46 8 30 46 8 30 46 8 30 46 8 31 46 8 31 46 8 31 47 8 31 47
8 31 47 8 31 47 8 31 47 8 31 47 8 31 47 8 31 48 8 31 48 8 31 48 8 32
48 8 32 48 8 32 48 8 32 48 8 32 49 8 32 49 8 32 49 8 32 49 8 32 49 8
32 49 8 32 49 8 32 35 64 13 32 71 11 25 75 5 26 80 5 27 84 6 28 88 6
27 92 6 28 95 6 29 99 6 29 102 6 30 105 6 30 108 6 31 111 7 31 114 7
32 116 7 32 119 7 33 122 7 33 125 7 34 127 7 34 130 7 34 133 8 35 135
8 35 138 8 36 140 8 36 143 8 37 145 8 37 148 8 38 150 8 38 152 8 38
155 9 39 157 9 39 159 9 40 161 9 40 163 9 40 165 9 41 167 9 41 169 9
41 171 9 41 172 9 42 174 9 42 176 9 42 177 10 43 178 10 43 179 10 44
180 10 44 180 10 44 180 10 44 180 10 44 179 10 43 177 10 48 179 16 49
176 17 33 67 14 32 50 27 30 49 26 29 49 26 29 49 26 39 108 29 38 109
28 39 111 28 39 112 28 39 113 28 39 114 28 39 115 28 40 117 29 40 117
30 40 116 31 40 113 32 28 22 34 27 22 34 26 22 34 20 22 31 20 22 32 21
23 32 21 24 33 21 24 34 22 25 35 22 25 35 22 26 36 23 26 37 23 27 38
23 27 38 23 28 39 24 28 39 24 28 40 24 29 40 24 29 41 24 29 41 25 30
42 25 30 42 25 30 43 25 31 43 25 31 43 25 31 44 25 31 44 26 31 44 26
31 44 26 32 44 26 32 45 26 32 45 26 32 45 26 32 45 26 32 45 26 32 45
26 32 45 26 31 44 26 31 44 25 31 44 25 31 44 25 31 43 25 31 43 25 30
43 25 30 42 25 30 42 24 29 41 24 29 41 25 29 41 25 29 41 25 29 40 25
28 40 26 28 39 26 28 39 26 28 39 26 27 38 26 27 38 27 27 37 27 26 37
27 26 36 27 26 36 28 25 35 28 25 34 35 26 38 37 25 39 39 25 39 41 25
39 44 25 40 47 25 41
42 7 28 42 7 28 42 7 28 42 7 28 42 7 28 42 7 28 42 7 28 43 7 28 43 7
28 43 7 28 43 7 28 43 7 29 43 7 29 43 7 29 43 7 29 44 7 29 44 7 29 44
7 29 44 7 29 44 7 29 44 8 29 44 8 29 44 8 29 45 8 30 45 8 30 45 8 30
45 8 30 45 8 30 45 8 30 45 8 30 46 8 30 46 8 30 46 8 30 46 8 30 46 8
30 46 8 31 46 8 31 47 8 31 47 8 31 47 8 31 47 8 31 47 8 31 47 8 31 47
8 31 47 8 31 48 8 31 48 8 32 48 8 32 48 8 32 48 8 32 48 8 32 48 8 32
49 8 32 49 8 32 49 8 32 49 8 32 49 8 32 49 8 32 49 8 33 50 8 33 50 8
33 36 64 14 32 67 11 27 72 7 26 76 5 26 80 5 26 84 5 27 88 6 27 91 6
28 95 6 29 98 6 29 101 6 30 105 6 30 108 6 30 110 7 31 112 7 32 115 7
32 118 7 32 121 7 33 124 7 33 126 7 34 129 7 34 132 8 35 134 8 35 137
8 36 140 8 36 142 8 37 145 8 37 147 8 37 149 8 38 152 8 38 154 9 39
156 9 39 159 9 39 161 9 40 163 9 40 165 9 41 167 9 41 169 9 41 171 9
42 173 9 42 175 9 42 176 10 42 178 10 43 179 10 43 180 10 43 183 10 43
183 10 44 184 10 44 184 10 45 185 10 49 189 16 49 188 16 49 187 16 49
185 16 48 182 16 50 174 23 32 71 19 29 49 26 29 49 26 39 110 28 39 111
28 39 113 28 39 114 28 39 116 28 39 117 28 40 117 28 40 118 29 40 119
30 41 120 31 41 120 32 41 117 33 40 109 33 29 22 35 28 23 35 27 23 35
20 23 32 21 23 32 21 24 33 21 24 34 22 25 35 22 25 35 22 26 36 22 26
37 23 26 37 23 27 38 23 27 38 23 28 39 24 28 40 24 28 40 24 29 40 24
29 41 24 29 41 25 30 42 25 30 42 25 30 42 25 30 43 25 30 43 25 31 43
25 31 43 25 31 43 25 31 44 25 31 44 25 31 44 25 31 44 25 31 44 25 31
44 25 31 43 25 31 43 25 31 43 25 30 43 25 30 43 25 30 42 25 30 42 25
30 42 24 29 41 24 29 41 24 29 40 24 28 40 24 28 40 24 28 40 25 28 39
25 28 39 25 27 39 25 27 38 26 27 38 26 27 37 26 26 37 26 26 36 26 26
36 27 25 35 27 25 35 34 26 38 35 26 39 37 25 39 39 25 39 41 25 39 43
25 40 45 25 40 49 25 42
42 7 28 42 7 28 42 7 28 43 7 28 43 7 28 43 7 28 43 7 28 43 7 29 43 7
29 43 7 29 43 7 29 44 7 29 44 7 29 44 7 29 44 7 29 44 7 29 44 8 29 44
8 29 44 8 29 45 8 30 45 8 30 45 8 30 45 8 30 45 8 30 45 8 30 45 8 30
46 8 30 46 8 30 46 8 30 46 8 30 46 8 31 46 8 31 46 8 31 46 8 31 47 8
31 47 8 31 47 8 31 47 8 31 47 8 31 47 8 31 47 8 31 48 8 31 48 8 32 48
8 32 48 8 32 48 8 32 48 8 32 48 8 32 49 8 32 49 8 32 49 8 32 49 8 32
49 8 32 49 8 33 49 8 33 50 8 33 50 8 33 50 8 33 50 8 33 50 8 33 33 63
12 30 68 10 27 72 7 28 77 7 25 80 5 26 84 5 27 87 6 27 91 6 28 94 6 28
97 6 29 100 6 29 103 6 30 106 6 30 108 7 31 111 7 31 114 7 32 117 7 32
120 7 33 123 7 33 125 7 34 128 7 34 131 8 35 133 8 35 136 8 36 138 8
36 141 8 36 143 8 37 146 8 37 148 8 38 151 8 38 153 9 39 155 9 39 158
9 39 160 9 40 162 9 40 165 9 41 167 9 41 169 9 41 171 9 42 173 9 42
175 10 42 177 10 43 178 10 43 180 10 43 181 10 43 183 10 44 184 10 44
185 10 44 186 10 44 188 10 44 188 10 49 193 16 50 193 17 50 192 17 50
191 17 50 190 16 49 183 22 51 189 23 32 71 19 29 49 26 28 49 26 39 113
29 39 115 29 40 116 29 40 117 29 40 118 29 40 119 29 40 120 29 41 121
30 41 122 31 41 123 31 42 122 32 42 120 33 41 113 34 31 23 37 30 23 37
29 24 37 28 24 37 28 24 37 21 24 33 21 24 34 22 25 35 22 25 35 22 25
36 22 26 36 23 26 37 23 27 38 23 27 38 23 27 39 23 28 39 24 28 39 24
28 40 24 29 40 24 29 41 24 29 41 24 29 41 24 29 42 25 30 42 25 30 42
25 30 42 25 30 42 25 30 42 25 30 43 25 30 43 25 30 43 25 30 43 25 30
42 25 30 42 25 30 42 25 30 42 25 30 42 24 30 42 24 29 41 24 29 41 24
29 41 24 29 40 24 28 40 24 28 39 23 28 39 24 28 39 24 27 38 24 27 38
24 27 38 25 27 38 25 27 37 25 26 37 25 26 36 26 26 36 26 25 36 26 25
35 33 26 39 34 26 39 36 25 39 37 25 39 39 25 39 41 25 40 43 25 40 45
24 40 47 25 41 50 26 43
43 7 28 43 7 28 43 7 28 43 7 29 43 7 29 43 7 29 43 7 29 44 7 29 44 7
29 44 7 29 44 7 29 44 7 29 44 8 29 44 8 29 44 8 29 45 8 30 45 8 30 45
8 30 45 8 30 45 8 30 45 8 30 45 8 30 45 8 30 46 8 30 46 8 30 46 8 30
46 8 31 46 8 31 46 8 31 46 8 31 47 8 31 47 8 31 47 8 31 47 8 31 47 8
31 47 8 31 47 8 31 48 8 32 48 8 32 48 8 32 48 8 32 48 8 32 48 8 32 48
8 32 49 8 32 49 8 32 49 8 32 49 8 32 49 8 33 49 8 33 49 8 33 50 8 33
50 8 33 50 8 33 50 8 33 50 8 33 50 9 33 50 9 33 35 64 13 31 63 10 26
67 7 26 72 7 27 76 7 27 80 7 26 83 5 27 86 5 27 90 6 28 93 6 28 96 6
29 98 6 29 101 6 30 104 6 30 107 6 31 110 7 31 113 7 32 116 7 32 118 7
33 121 7 33 124 7 34 126 7 34 129 7 34 132 8 35 134 8 35 137 8 36 139
8 36 142 8 37 144 8 37 147 8 37 149 8 38 152 8 38 154 9 39 156 9 39
159 9 40 161 9 40 163 9 40 166 9 41 168 9 41 170 9 41 172 9 42 174 9
42 176 10 43 178 10 43 180 10 43 181 10 43 183 10 45 200 17 45 201 17
45 203 18 45 203 17 45 204 17 45 190 10 50 196 16 50 196 16 50 196 16
51 196 17 50 195 17 50 190 23 49 187 22 53 193 24 32 71 19 29 49 26 40
115 29 39 114 29 39 115 29 40 116 29 40 117 29 40 120 29 40 121 29 41
122 29 41 123 30 41 124 31 42 124 32 42 124 33 42 122 33 42 116 34 32
23 38 32 24 38 31 24 38 30 24 38 30 25 38 29 25 38 28 25 38 28 25 38
22 25 35 22 25 36 22 26 36 22 26 37 23 26 37 23 27 38 23 27 38 23 27
39 23 28 39 24 28 39 24 28 40 24 28 40 24 29 40 24 29 41 24 29 41 24
29 41 24 29 41 24 29 41 24 29 41 24 29 41 24 29 41 24 29 41 24 29 41
24 29 41 24 29 41 24 29 41 24 29 41 24 29 41 24 29 41 24 29 40 24 28
40 24 28 40 24 28 39 23 28 39 23 27 39 23 27 38 23 27 38 23 27 37 24
26 37 24 26 37 24 26 37 24 26 36 25 26 36 25 25 35 25 25 35 32 26 39
33 26 39 35 26 39 36 25 39 38 25 40 39 25 40 41 25 40 43 25 40 44 24
40 47 24 41 49 25 42 52 26 44
43 7 29 43 7 29 43 7 29 43 7 29 44 7 29 44 7 29 44 7 29 44 7 29 44 8
29 44 8 29 44 8 29 44 8 30 45 8 30 45 8 30 45 8 30 45 8 30 45 8 30 45
8 30 45 8 30 46 8 30 46 8 30 46 8 30 46 8 31 46 8 31 46 8 31 46 8 31
47 8 31 47 8 31 47 8 31 47 8 31 47 8 31 47 8 31 47 8 31 48 8 32 48 8
32 48 8 32 48 8 32 48 8 32 48 8 32 48 8 32 49 8 32 49 8 32 49 8 32 49
8 32 49 8 33 49 8 33 49 8 33 50 8 33 50 8 33 50 8 33 50 8 33 50 9 33
50 9 33 50 9 33 51 9 33 51 9 34 51 9 34 33 63 12 29 63 9 26 67 7 26 71
7 27 75 7 27 79 7 26 82 5 26 85 5 27 89 6 28 92 6 28 94 6 28 97 6 29
100 6 29 103 6 30 106 6 30 108 7 31 111 7 31 114 7 32 117 7 32 119 7
33 122 7 33 125 7 34 127 7 34 130 8 35 133 8 35 135 8 35 138 8 36 140
8 36 143 8 37 145 8 37 148 8 38 150 8 38 152 9 39 155 9 39 157 9 39
160 9 40 162 9 40 164 9 41 166 9 41 169 9 41 171 9 42 173 9 42 175 10
42 177 10 43 179 10 43 181 10 43 183 10 45 201 18 45 207 20 45 211 21
46 213 22 46 215 22 46 215 22 46 214 21 50 197 17 50 198 17 50 199 17
50 199 17 50 198 17 51 194 23 50 192 23 51 190 24 55 215 25 30 49 29
28 47 26 40 115 29 40 116 29 40 117 29 40 118 29 40 119 29 40 120 29
41 123 29 41 124 30 42 125 31 42 126 31 43 126 32 43 126 33 43 124 34
42 117 35 34 23 39 34 24 39 33 24 39 32 24 39 32 25 39 31 25 40 31 25
40 30 26 40 29 26 40 29 26 40 28 26 40 22 26 36 22 26 37 23 26 37 23
27 38 23 27 38 23 27 38 23 27 39 23 28 39 24 28 39 24 28 40 24 28 40
24 28 40 24 28 40 24 29 40 24 29 40 24 29 40 24 29 40 24 29 40 24 29
40 24 29 40 24 29 40 24 28 40 24 28 40 24 28 40 24 28 40 24 28 39 23
28 39 23 27 39 23 27 38 23 27 38 23 27 38 23 26 37 23 26 37 23 26 36
23 26 36 23 26 36 24 25 36 24 25 35 31 26 39 32 26 39 33 26 40 34 26
40 35 26 40 37 25 40 38 25 40 40 25 40 41 25 40 43 25 41 45 24 41 46
24 41 49 25 42 51 25 44 54 26 45
44 7 29 44 7 29 44 7 29 44 7 29 44 8 29 44 8 29 44 8 29 44 8 30 45 8
30 45 8 30 45 8 30 45 8 30 45 8 30 45 8 30 45 8 30 46 8 30 46 8 30 46
8 30 46 8 31 46 8 31 46 8 31 46 8 31 46 8 31 47 8 31 47 8 31 47 8 31
47 8 31 47 8 31 47 8 31 47 8 32 48 8 32 48 8 32 48 8 32 48 8 32 48 8
32 48 8 32 49 8 32 49 8 32 49 8 32 49 8 33 49 8 33 49 8 33 49 8 33 50
8 33 50 8 33 50 8 33 50 9 33 50 9 33 50 9 33 50 9 33 51 9 34 51 9 34
51 9 34 51 9 34 51 9 34 36 64 14 31 63 11 25 62 7 25 66 7 26 70 7 26
74 7 27 77 7 28 81 8 26 84 5 27 87 6 27 89 6 28 92 6 28 95 6 29 98 6
29 101 6 30 104 6 30 107 6 31 110 7 31 112 7 32 115 7 32 118 7 32 120
7 33 123 7 33 126 7 34 128 7 34 131 8 35 133 8 35 136 8 36 138 8 36
141 8 37 143 8 37 146 8 37 148 8 38 151 8 38 153 9 39 155 9 39 158 9
39 160 9 40 162 9 40 165 9 41 167 9 41 169 9 41 171 9 42 173 9 42 176
10 43 178 10 43 180 10 43 182 10 44 183 10 45 205 20 45 212 22 46 217
24 46 220 25 46 222 25 47 223 25 47 223 25 50 199 17 50 200 17 50 200
17 50 200 17 51 201 17 51 201 17 51 196 23 52 195 24 56 220 25 54 215
23 29 49 28 27 46 25 40 117 29 40 118 29 40 119 29 40 120 29 40 121 29
41 121 29 41 122 29 41 125 30 42 126 31 42 127 32 43 127 33 43 126 33
43 124 34 42 118 35 36 24 40 36 24 40 35 24 41 34 25 41 34 25 41 33 25
41 33 26 41 32 26 41 32 26 41 31 26 41 31 27 41 30 27 41 30 27 41 30
27 41 29 27 41 23 27 37 23 27 38 23 27 38 23 27 38 23 27 38 23 27 39
23 28 39 23 28 39 23 28 39 24 28 39 24 28 39 24 28 39 24 28 39 24 28
39 24 28 39 23 28 39 23 28 39 23 28 39 23 27 39 23 27 38 23 27 38 23
27 38 23 27 38 23 27 37 23 26 37 22 26 37 22 26 36 22 25 36 29 26 39
29 26 40 30 26 40 31 26 40 32 26 40 33 26 40 34 26 40 35 26 40 36 25
40 38 25 41 39 25 41 40 25 41 42 25 41 43 25 41 45 24 41 47 24 41 49
24 42 51 25 43 54 25 45 56 26 46
44 7 29 44 8 29 44 8 29 44 8 30 44 8 30 45 8 30 45 8 30 45 8 30 45 8
30 45 8 30 45 8 30 45 8 30 46 8 30 46 8 30 46 8 31 46 8 31 46 8 31 46
8 31 46 8 31 47 8 31 47 8 31 47 8 31 47 8 31 47 8 31 47 8 31 47 8 32
48 8 32 48 8 32 48 8 32 48 8 32 48 8 32 48 8 32 48 8 32 49 8 32 49 8
32 49 8 33 49 8 33 49 8 33 49 8 33 49 8 33 50 8 33 50 8 33 50 9 33 50
9 33 50 9 33 50 9 33 51 9 34 51 9 34 51 9 34 51 9 34 51 9 34 51 9 34
51 9 34 52 9 34 34 63 13 30 63 10 24 62 7 25 65 7 26 69 7 26 72 7 27
76 7 27 80 8 28 83 8 26 84 6 27 88 6 27 91 6 28 94 6 28 97 6 29 99 6
29 102 6 30 105 6 30 108 7 31 110 7 31 113 7 32 116 7 32 118 7 33 121
7 33 124 7 34 126 7 34 129 7 34 131 8 35 134 8 35 136 8 36 139 8 36
141 8 37 144 8 37 146 8 37 148 8 38 151 8 38 153 9 39 156 9 39 158 9
40 160 9 40 163 9 40 165 9 41 167 9 41 169 9 42 172 9 42 174 10 42 176
10 43 178 10 43 180 10 43 182 10 44 184 10 45 204 19 46 214 23 46 220
25 46 224 27 47 227 27 47 229 28 47 230 28 50 200 17 51 201 17 51 202
17 51 202 17 51 202 17 51 203 17 51 199 23 52 199 23 50 195 24 55 220
24 51 199 23 29 49 28 39 117 28 39 118 28 40 119 29 40 120 29 41 121
29 41 122 29 41 122 29 41 123 30 42 127 31 42 127 31 43 128 32 43 127
33 43 127 34 43 124 34 42 117 35 38 24 42 37 24 42 37 25 42 37 25 42
36 25 42 36 26 42 35 26 42 35 26 42 34 26 42 34 26 42 33 27 42 33 27
42 33 27 42 32 27 42 32 27 42 32 28 42 31 28 43 31 28 42 31 28 42 30
28 42 30 28 42 30 28 42 30 28 42 30 28 42 29 28 42 29 28 42 23 27 38
23 27 38 23 27 38 23 27 38 23 27 38 23 27 38 29 28 42 29 28 42 29 28
41 29 27 41 29 27 41 30 27 41 30 27 41 30 27 41 30 26 40 30 26 40 31
26 40 32 26 40 33 26 41 34 26 41 35 26 41 36 26 41 37 26 41 38 25 41
39 25 41 40 25 41 41 25 41 43 25 42 44 25 42 46 24 42 47 24 42 49 24
42 51 25 43 53 25 45 56 26 46 58 26 47
44 8 30 45 8 30 45 8 30 45 8 30 45 8 30 45 8 30 45 8 30 45 8 30 45 8
30 46 8 30 46 8 30 46 8 31 46 8 31 46 8 31 46 8 31 46 8 31 47 8 31 47
8 31 47 8 31 47 8 31 47 8 31 47 8 32 47 8 32 48 8 32 48 8 32 48 8 32
48 8 32 48 8 32 48 8 32 48 8 32 49 8 32 49 8 33 49 8 33 49 8 33 49 8
33 49 8 33 50 8 33 50 8 33 50 9 33 50 9 33 50 9 33 50 9 33 50 9 34 51
9 34 51 9 34 51 9 34 51 9 34 51 9 34 51 9 34 52 9 34 52 9 34 52 9 34
52 9 35 34 63 12 29 63 10 24 62 7 25 63 7 25 67 7 26 71 7 27 74 7 27
78 8 28 81 8 28 83 8 27 86 6 27 89 6 28 92 6 28 95 6 29 97 6 29 100 6
30 103 6 30 106 6 30 108 7 31 111 7 31 114 7 32 116 7 32 119 7 33 121
7 33 124 7 34 126 7 34 129 8 35 131 8 35 134 8 35 133 8 35 135 8 36
138 8 36 140 8 36 142 8 37 145 8 37 147 9 38 150 9 38 152 9 38 154 9
39 157 9 39 159 9 40 161 9 40 163 9 40 166 9 41 168 10 42 174 10 42
176 10 43 178 10 43 180 10 43 182 10 44 184 10 44 186 10 46 213 22 46
221 26 47 226 28 47 230 29 47 233 29 47 235 30 51 201 17 51 202 17 51
203 17 51 204 17 51 204 17 51 204 17 52 201 23 52 201 23 50 198 23 49
196 23 55 222 24 51 201 23 29 49 28 39 118 28 39 119 28 39 120 28 41
121 29 41 122 29 41 123 29 41 123 29 41 124 30 42 128 31 42 127 31 43
128 32 44 127 33 44 126 34 43 123 34 42 115 35 40 24 43 39 25 43 39 25
43 39 25 43 38 25 43 38 26 43 37 26 43 37 26 44 37 26 44 36 27 44 36
27 44 36 27 44 35 27 44 35 27 44 35 27 44 34 28 44 34 28 44 34 28 44
33 28 44 33 28 44 33 28 44 33 28 44 33 28 44 32 28 43 32 28 43 32 28
43 32 28 43 32 28 43 32 28 43 32 28 43 32 28 43 32 28 43 32 27 43 32
27 42 32 27 42 32 27 42 32 27 42 33 27 42 33 26 42 33 26 42 33 26 41
34 26 41 35 26 41 35 26 41 36 26 42 37 25 42 38 25 42 39 25 42 40 25
42 41 25 42 43 25 42 44 25 42 45 25 42 46 24 42 48 24 42 49 24 42 51
24 43 53 25 45 56 25 46 58 26 47 60 27 48
45 8 30 45 8 30 45 8 30 45 8 30 45 8 30 45 8 30 46 8 30 46 8 31 46 8
31 46 8 31 46 8 31 46 8 31 46 8 31 47 8 31 47 8 31 47 8 31 47 8 31 47
8 31 47 8 32 47 8 32 48 8 32 48 8 32 48 8 32 48 8 32 48 8 32 48 8 32
49 8 32 49 8 32 49 8 33 49 8 33 49 8 33 49 8 33 49 8 33 50 8 33 50 9
33 50 9 33 50 9 33 50 9 33 50 9 34 51 9 34 51 9 34 51 9 34 51 9 34 51
9 34 51 9 34 51 9 34 52 9 34 52 9 34 52 9 35 52 9 35 52 9 35 39 64 17
33 63 12 29 63 9 24 62 7 24 62 7 25 65 7 26 69 7 26 73 7 27 76 7 27 78
8 28 81 8 28 85 8 27 87 6 27 90 6 28 93 6 28 95 6 29 98 6 29 101 6 30
104 6 30 106 7 31 109 7 31 112 7 32 114 7 32 117 7 32 119 7 33 122 7
33 124 7 33 123 8 33 125 8 34 128 8 34 130 8 35 133 8 35 135 8 36 138
8 36 140 8 36 142 8 37 145 8 37 147 9 38 150 9 38 152 9 38 154 9 39
157 9 39 159 9 40 161 9 40 163 9 40 166 9 41 168 10 41 170 10 42 172
10 42 174 10 42 176 10 44 183 10 44 184 10 44 186 10 44 188 10 46 218
24 47 226 27 47 231 29 47 235 30 48 237 31 51 202 18 51 203 18 51 204
17 51 204 17 51 205 17 51 205 17 52 203 23 52 203 23 50 200 23 50 199
23 56 226 24 55 224 24 52 202 23 29 49 28 39 119 28 39 120 28 39 121
28 41 122 29 41 122 29 41 123 29 41 124 29 41 124 30 42 128 31 42 128
32 44 127 32 44 127 33 44 126 34 43 122 34 45 113 37 42 25 44 41 25 44
41 25 44 41 25 44 40 26 45 40 26 45 40 26 45 39 26 45 39 26 45 39 27
45 38 27 45 38 27 45 38 27 45 37 27 45 37 27 45 37 28 45 37 28 45 36
28 45 36 28 45 36 28 45 36 28 45 36 28 45 35 28 45 35 28 45 35 28 44
35 28 44 35 28 44 35 28 44 35 28 44 35 28 44 35 27 44 35 27 44 35 27
44 35 27 43 35 27 43 35 27 43 35 26 43 36 26 43 36 26 43 36 26 42 36
26 42 37 26 42 38 25 42 39 25 42 40 25 43 41 25 43 42 25 43 43 25 43
44 25 43 45 25 43 46 25 43 48 24 43 49 24 43 50 24 43 52 24 44 54 25
45 56 25 46 58 26 47 60 26 48 62 27 49
27 6 25 27 6 25 27 6 25 46 8 30 46 8 31 46 8 31 46 8 31 46 8 31 46 8
31 46 8 31 47 8 31 47 8 31 47 8 31 47 8 31 47 8 32 47 8 32 48 8 32 48
8 32 48 8 32 48 8 32 48 8 32 48 8 32 48 8 32 49 8 32 49 8 33 49 8 33
49 8 33 49 8 33 49 8 33 49 8 33 50 8 33 50 9 33 50 9 33 50 9 33 50 9
34 50 9 34 51 9 34 51 9 34 51 9 34 51 9 34 51 9 34 51 9 34 52 9 34 52
9 34 52 9 35 52 9 35 52 9 35 52 9 35 53 9 35 53 9 35 38 64 16 33 63 12
28 63 9 24 62 7 24 62 7 25 64 7 25 67 7 26 71 7 27 74 7 27 76 8 28 80
8 28 83 8 26 85 6 27 88 6 27 91 6 28 93 6 28 96 6 29 99 6 29 101 6 30
104 6 30 107 7 31 109 7 31 112 7 32 114 7 32 118 7 32 116 7 32 118 7
33 121 7 33 123 8 33 126 8 34 128 8 34 130 8 35 133 8 35 135 8 36 138
8 36 140 8 36 142 8 37 145 9 37 147 9 38 149 9 38 152 9 38 154 9 39
156 9 39 159 9 40 161 9 40 163 9 40 165 9 41 168 10 41 170 10 42 172
10 42 174 10 42 176 10 43 178 10 43 180 10 43 182 10 45 189 10 45 191
10 46 221 25 47 229 28 47 234 30 48 239 32 53 226 30 52 204 18 52 205
18 52 205 18 52 206 17 52 206 17 52 204 23 52 204 23 52 201 23 50 201
23 50 200 23 56 227 24 55 225 24 29 68 17 29 49 28 39 120 28 39 120 28
40 121 28 40 122 28 41 123 30 41 123 30 41 124 30 41 124 30 42 127 31
44 128 32 44 127 32 44 126 33 43 124 33 43 120 34 53 118 38 44 25 45
43 25 45 43 25 46 43 25 46 42 26 46 42 26 46 42 26 46 42 26 46 41 27
46 41 27 46 41 27 46 40 27 46 40 27 46 40 27 46 40 27 46 39 27 46 39
28 46 39 28 46 39 28 46 39 28 46 39 28 46 38 28 46 38 28 46 38 28 46
38 28 46 38 28 45 38 28 45 38 27 45 38 27 45 38 27 45 38 27 45 38 27
45 38 27 45 38 27 44 38 27 44 38 26 44 39 26 44 39 26 44 39 26 43 39
25 43 40 25 43 41 25 43 42 25 43 42 25 43 43 25 44 44 25 44 45 25 44
47 25 44 48 24 44 49 24 44 50 24 44 51 24 44 53 24 44 55 24 45 56 25
46 58 25 47 60 26 48 62 27 49 64 27 50
27 6 25 27 6 25 27 6 26 27 6 26 28 6 26 28 7 26 28 7 26 28 7 26 47 8
31 47 8 31 47 8 31 47 8 32 47 8 32 48 8 32 48 8 32 48 8 32 48 8 32 48
8 32 48 8 32 48 8 32 49 8 32 49 8 33 49 8 33 49 8 33 49 8 33 49 8 33
50 8 33 50 9 33 50 9 33 50 9 33 50 9 34 50 9 34 50 9 34 51 9 34 51 9
34 51 9 34 51 9 34 51 9 34 51 9 34 52 9 34 52 9 35 52 9 35 52 9 35 52
9 35 52 9 35 53 9 35 53 9 35 53 9 35 53 9 35 38 64 16 32 63 12 28 63 9
24 62 7 24 62 7 24 62 7 25 65 7 26 69 7 26 72 7 27 74 8 27 78 8 28 81
8 28 83 8 27 86 6 27 89 6 28 91 6 28 94 6 29 97 6 29 99 6 29 102 6 30
104 6 30 107 7 32 111 7 31 113 7 31 111 7 31 113 7 32 116 7 32 118 7
33 121 7 33 123 8 34 125 8 34 128 8 34 130 8 35 133 8 35 135 8 36 137
8 36 140 8 36 142 8 37 144 9 37 147 9 38 149 9 38 151 9 38 154 9 39
156 9 39 158 9 40 161 9 40 163 9 40 165 9 41 167 10 41 169 10 42 171
10 42 174 10 42 176 10 43 178 10 43 180 10 43 182 10 44 184 10 44 185
10 45 192 10 47 223 24 48 232 29 48 238 31 48 242 33 52 204 19 52 205
19 52 206 18 52 206 18 52 207 17 52 207 17 53 205 23 52 202 23 50 202
23 50 201 23 50 200 23 57 231 24 57 229 24 30 71 17 30 52 28 39 120 28
40 121 28 40 121 28 40 122 28 41 123 30 41 123 30 41 123 30 41 124 30
42 127 31 44 127 32 44 126 32 44 125 33 43 122 33 43 117 34 46 25 46
45 25 46 45 25 47 45 25 47 45 26 47 44 26 47 44 26 47 44 26 47 44 26
47 44 27 47 43 27 47 43 27 47 43 27 47 43 27 47 42 27 47 42 27 47 42
27 47 42 27 47 42 28 47 42 28 47 41 28 47 41 28 47 41 28 47 41 28 47
41 28 47 41 27 47 41 27 47 41 27 46 41 27 46 41 27 46 41 27 46 41 27
46 41 27 46 41 27 45 41 26 45 41 26 45 41 26 45 42 26 45 42 25 44 42
25 44 43 25 44 44 25 44 44 25 44 45 25 44 46 25 44 47 25 44 48 25 44
49 24 44 50 24 44 51 24 44 53 24 44 54 24 45 56 24 46 57 25 46 59 25
47 61 26 48 62 26 49 64 27 50 65 27 51
28 6 26 28 6 26 28 7 26 28 7 26 28 7 26 28 7 26 28 7 26 28 7 26 28 7
26 28 7 26 28 7 26 28 7 26 28 7 27 48 8 32 48 8 32 48 8 32 48 8 32 49
8 33 49 8 33 49 8 33 49 8 33 49 8 33 49 8 33 50 8 33 50 9 33 50 9 33
50 9 33 50 9 34 50 9 34 50 9 34 51 9 34 51 9 34 51 9 34 51 9 34 51 9
34 51 9 34 52 9 35 52 9 35 52 9 35 52 9 35 52 9 35 52 9 35 53 9 35 53
9 35 53 9 35 53 9 35 53 9 36 53 9 36 38 64 16 32 63 12 29 63 10 25 62
7 25 62 7 24 62 7 25 63 7 25 67 7 26 70 7 26 72 7 27 75 8 27 78 8 28
81 8 28 84 8 27 86 6 27 89 6 28 92 6 28 94 6 29 97 6 29 100 6 30 104 6
30 106 6 31 109 6 30 106 7 31 108 7 31 111 7 31 113 7 32 116 7 32 118
7 33 121 7 33 123 8 34 125 8 34 128 8 34 130 8 35 132 8 35 135 8 36
137 8 36 139 8 36 142 8 37 144 8 37 146 9 38 149 9 38 151 9 38 153 9
39 156 9 39 158 9 40 160 9 40 162 9 40 164 9 41 167 10 41 169 10 42
171 10 42 173 10 42 175 10 43 177 10 43 179 10 43 181 10 44 183 10 44
185 10 44 187 10 45 188 10 46 195 10 48 233 28 49 241 32 52 205 20 52
206 19 52 206 19 52 207 18 52 207 18 52 208 18 53 206 24 52 203 23 50
203 23 51 205 23 51 204 23 58 233 25 58 232 25 58 229 25 31 52 29 43
125 31 41 124 29 42 126 29 41 126 29 40 122 28 41 123 30 41 123 30 41
123 30 41 123 30 42 126 31 44 126 32 44 125 32 43 123 33 43 120 33 54
129 36 47 25 47 47 25 48 47 25 48 47 25 48 47 26 48 47 26 48 46 26 48
46 26 48 46 26 48 46 27 48 46 27 48 45 27 48 45 27 48 45 27 48 45 27
48 45 27 48 45 27 48 44 27 48 44 27 48 44 27 48 44 27 48 44 27 48 44
27 48 44 27 48 44 27 48 44 27 48 44 27 48 44 27 47 44 27 47 44 27 47
44 27 47 44 27 47 44 26 47 44 26 46 44 26 46 44 26 46 45 26 46 45 25
46 45 25 45 46 25 45 46 25 45 47 25 45 48 25 45 49 25 45 50 24 45 51
24 45 52 24 45 53 24 45 54 24 45 55 24 45 57 24 46 58 25 47 60 25 48
61 26 49 63 26 49 64 26 50 66 27 51 66 28 52
28 7 26 28 7 26 28 7 26 28 7 26 28 7 26 28 7 26 28 7 26 28 7 26 28 7
27 28 7 27 28 7 27 28 7 27 29 7 27 29 7 27 29 7 27 29 7 27 29 7 27 49
8 33 49 8 33 49 8 33 50 9 33 50 9 33 50 9 33 50 9 33 50 9 34 50 9 34
50 9 34 51 9 34 51 9 34 51 9 34 51 9 34 51 9 34 51 9 34 52 9 35 52 9
35 52 9 35 52 9 35 52 9 35 52 9 35 53 9 35 53 9 35 53 9 35 53 9 36 53
9 36 53 9 36 54 9 36 54 9 36 39 64 16 33 63 12 29 63 10 25 62 7 25 62
7 25 62 7 25 62 7 25 65 7 26 68 7 26 70 7 27 73 8 27 76 8 28 79 8 28
82 8 29 85 8 27 87 6 27 89 6 28 92 6 28 95 6 29 99 6 29 101 6 30 104 6
29 101 7 30 104 7 30 106 7 31 108 7 31 111 7 31 113 7 32 116 7 32 118
7 33 120 7 33 123 8 34 125 8 34 127 8 34 130 8 35 132 8 35 134 8 36
137 8 36 139 8 36 141 8 37 144 8 37 146 9 38 148 9 38 150 9 38 153 9
39 155 9 39 157 9 40 159 9 40 162 9 40 164 9 41 166 9 41 168 10 41 170
10 42 172 10 42 174 10 43 176 10 43 178 10 43 180 10 44 182 10 44 184
10 44 186 10 45 188 10 45 189 11 45 191 11 48 227 25 49 240 31 53 207
21 53 208 20 52 207 19 52 208 18 52 208 18 53 205 24 52 203 24 51 203
23 51 206 23 52 205 24 52 205 24 58 233 25 58 231 24 57 228 25 31 52
29 45 129 34 47 140 37 48 142 38 43 129 31 40 125 28 40 122 28 41 122
30 41 122 30 41 122 30 43 125 31 43 124 32 43 123 32 43 121 32 43 117
33 56 124 37 49 25 48 49 25 49 49 25 49 49 25 49 49 26 49 48 26 49 48
26 49 48 26 49 48 26 49 48 27 49 48 27 50 48 27 50 47 27 50 47 27 50
47 27 50 47 27 49 47 27 49 47 27 49 47 27 49 47 27 49 47 27 49 47 27
49 47 27 49 47 27 49 46 27 49 46 27 49 46 27 48 47 27 48 47 27 48 47
27 48 47 26 48 47 26 48 47 26 47 47 26 47 47 26 47 47 25 47 48 25 46
48 25 46 48 25 46 49 25 46 50 24 46 51 24 46 52 24 46 52 24 46 53 24
46 54 24 46 55 24 46 57 24 46 58 24 47 59 25 48 61 25 48 62 25 49 64
26 50 65 26 50 66 27 51 67 27 52 56 25 40
28 7 26 28 7 26 28 7 26 28 7 26 28 7 26 28 7 27 28 7 27 28 7 27 29 7
27 29 7 27 29 7 27 29 7 27 29 7 27 29 7 27 29 7 27 29 7 27 29 7 27 29
7 27 29 7 28 29 7 28 29 7 28 50 9 34 50 9 34 50 9 34 51 9 34 51 9 34
51 9 34 51 9 34 51 9 34 51 9 35 52 9 35 52 9 35 52 9 35 52 9 35 52 9
35 52 9 35 53 9 35 53 9 35 53 9 35 53 9 36 53 9 36 53 9 36 54 9 36 54
9 36 54 9 36 54 9 36 39 64 17 33 63 13 30 63 10 25 62 7 25 62 7 25 62
7 25 62 7 25 63 7 25 66 7 26 68 7 26 71 8 27 74 8 27 77 8 28 80 8 28
82 8 29 85 8 27 87 6 27 90 6 28 94 6 29 96 6 29 99 6 29 101 6 29 99 6
29 101 7 30 104 7 30 106 7 31 108 7 31 111 7 31 113 7 32 115 7 32 118
7 33 120 7 33 122 8 33 125 8 34 127 8 34 129 8 35 132 8 35 134 8 36
136 8 36 139 8 36 141 8 37 143 8 37 145 9 38 148 9 38 150 9 38 152 9
39 154 9 39 156 9 39 159 9 40 161 9 40 163 9 41 165 9 41 167 10 41 169
10 42 172 10 42 174 10 42 176 10 43 178 10 43 180 10 44 181 10 44 183
10 44 185 10 44 187 10 45 189 11 45 190 11 45 192 11 46 198 11 53 207
21 53 208 20 53 208 20 53 209 19 53 208 19 52 208 18 53 206 24 52 203
24 51 206 23 52 206 24 52 205 24 51 204 23 57 233 24 56 230 24 56 227
24 30 51 28 57 161 51 64 183 61 51 149 42 42 126 30 41 124 28 40 124
28 42 124 30 42 124 30 42 124 30 43 123 31 43 123 31 43 121 32 43 118
32 44 114 34 57 117 39 51 25 49 51 25 50 51 25 50 51 26 50 50 26 50 50
26 50 50 26 50 50 26 50 50 26 50 50 27 50 50 27 50 50 27 51 50 27 51
50 27 51 50 27 50 49 27 50 49 27 50 49 27 50 49 27 50 49 27 50 49 27
50 49 27 50 49 27 50 49 27 50 49 27 50 49 27 49 49 27 49 49 26 49 49
26 49 49 26 49 50 26 49 50 26 48 50 26 48 50 25 48 50 25 48 50 25 47
51 25 47 51 24 47 52 24 47 52 24 47 53 24 47 54 24 47 55 24 47 56 24
47 57 24 46 58 24 47 59 24 48 61 25 48 62 25 49 63 25 50 65 26 50 66
26 51 67 26 51 67 27 52 68 27 52 56 25 40
28 7 26 28 7 26 28 7 27 28 7 27 28 7 27 29 7 27 29 7 27 29 7 27 29 7
27 29 7 27 29 7 27 29 7 27 29 7 27 29 7 27 29 7 28 29 7 28 29 7 28 29
7 28 29 7 28 30 7 28 30 7 28 30 7 28 30 7 28 30 7 28 30 7 28 51 9 34
51 9 35 52 9 35 52 9 35 52 9 35 52 9 35 52 9 35 52 9 35 53 9 35 53 9
35 53 9 36 53 9 36 53 9 36 53 9 36 54 9 36 54 9 36 54 9 36 54 9 36 54
9 36 55 9 37 41 65 18 34 64 13 30 63 11 25 62 7 25 62 7 25 62 7 25 62
7 25 62 7 25 64 7 25 66 7 26 69 7 26 72 8 27 75 8 27 77 8 28 80 8 28
83 8 29 85 8 28 89 6 28 91 6 28 94 6 28 96 6 28 94 6 28 96 6 29 99 6
29 101 7 30 103 7 30 106 7 31 108 7 31 110 7 31 113 7 32 115 7 32 117
7 33 120 7 33 122 8 33 124 8 34 127 8 34 129 8 35 131 8 35 133 8 35
136 8 36 138 8 36 140 8 37 142 8 37 145 9 37 147 9 38 149 9 38 151 9
39 154 9 39 156 9 39 158 9 40 160 9 40 162 9 41 164 9 41 166 10 41 169
10 42 171 10 42 173 10 42 175 10 43 177 10 43 179 10 43 180 10 44 182
10 44 184 10 44 186 10 45 188 11 45 189 11 45 191 11 45 192 11 46 194
11 53 208 21 53 208 20 53 209 20 53 209 19 53 209 18 53 206 24 53 203
24 51 206 23 52 206 24 52 205 23 51 204 23 50 203 23 57 232 24 56 229
24 53 206 23 30 51 28 66 191 65 58 168 53 43 131 32 41 123 28 41 123
28 40 123 28 42 123 30 41 123 30 41 122 30 43 121 31 43 120 31 43 118
31 42 115 32 57 127 36 53 25 50 52 25 50 52 25 50 52 25 51 52 25 51 52
26 51 52 26 51 52 26 51 52 26 51 52 26 51 52 26 51 52 27 51 52 27 51
52 27 51 52 27 51 52 27 51 52 27 51 52 27 51 52 27 51 52 27 51 52 27
51 52 27 51 52 27 51 52 27 51 52 27 51 52 26 50 52 26 50 52 26 50 52
26 50 52 26 50 52 26 49 52 26 49 52 25 49 53 25 49 53 25 48 53 25 48
53 24 48 54 24 48 54 24 47 55 24 47 56 24 47 57 24 47 57 24 47 58 23
47 60 24 48 61 24 48 62 24 49 63 25 50 64 25 50 66 26 51 67 26 51 68
26 52 68 27 52 69 27 53 57 24 40 48 5 17
28 7 27 28 7 27 29 7 27 29 7 27 29 7 27 29 7 27 29 7 27 29 7 27 29 7
27 29 7 27 29 7 27 29 7 28 29 7 28 29 7 28 29 7 28 29 7 28 30 7 28 30
7 28 30 7 28 30 7 28 30 7 28 30 7 28 30 7 28 30 7 29 30 7 29 30 7 29
30 7 29 30 7 29 30 7 29 52 9 35 53 9 35 53 9 35 53 9 36 53 9 36 53 9
36 53 9 36 54 9 36 54 9 36 54 9 36 54 9 36 54 9 36 54 9 37 55 9 37 55
9 37 55 9 37 35 64 14 31 63 11 28 62 9 25 62 7 25 62 7 25 62 7 25 62 7
25 62 7 25 63 7 26 66 7 26 69 8 27 72 8 27 75 8 28 78 8 28 80 8 29 84
8 30 87 9 27 89 6 28 91 6 28 94 6 28 91 6 28 94 6 28 96 6 29 98 6 29
101 7 30 103 7 30 106 7 31 108 7 31 110 7 31 112 7 32 115 7 32 117 7
33 119 7 33 122 8 33 124 8 34 126 8 34 128 8 35 131 8 35 133 8 35 135
8 36 137 8 36 140 8 37 142 8 37 144 9 37 146 9 38 148 9 38 151 9 38
153 9 39 155 9 39 157 9 40 159 9 40 161 9 40 163 9 41 165 10 41 168 10
41 170 10 42 172 10 42 174 10 43 176 10 43 178 10 43 179 10 44 181 10
44 183 10 44 185 10 45 187 10 45 188 11 45 190 11 45 191 11 46 193 11
53 203 23 53 208 21 53 208 20 53 209 20 53 209 19 53 209 18 53 203 24
51 206 23 52 206 24 51 205 23 51 205 23 50 204 23 57 233 24 56 231 24
56 228 24 30 71 17 30 51 28 51 150 43 43 129 32 40 122 28 40 122 28 40
122 28 40 122 28 40 121 28 41 121 30 43 120 30 43 119 30 43 118 31 42
115 31 45 112 34 58 121 38 54 25 51 54 25 51 54 25 51 54 25 51 54 25
52 54 26 52 54 26 52 54 26 52 54 26 52 54 26 52 54 26 52 54 26 52 54
26 52 54 27 52 54 27 52 54 27 52 54 27 52 54 27 52 54 27 52 54 27 52
54 27 52 54 26 52 54 26 52 54 26 51 54 26 51 54 26 51 54 26 51 54 26
51 54 26 50 55 26 50 55 25 50 55 25 50 55 25 50 55 25 49 56 24 49 56
24 49 56 24 48 57 24 48 57 24 48 58 23 48 59 23 48 60 24 48 61 24 49
62 24 49 63 24 50 64 25 50 66 25 51 67 25 51 68 26 52 68 26 52 69 26
53 69 27 53 69 27 53 56 24 40 48 5 18
29 7 27 29 7 27 29 7 27 29 7 27 29 7 27 29 7 27 29 7 27 29 7 27 29 7
28 29 7 28 29 7 28 29 7 28 30 7 28 30 7 28 30 7 28 30 7 28 30 7 28 30
7 28 30 7 28 30 7 29 30 7 29 30 7 29 30 7 29 30 7 29 30 7 29 31 7 29
31 7 29 31 7 29 31 7 29 31 7 29 31 7 29 31 7 30 31 7 30 54 9 36 54 9
36 54 9 36 54 9 36 54 9 37 54 9 37 55 9 37 55 9 37 55 9 37 55 10 37 55
10 37 36 64 14 32 63 12 29 63 10 25 62 7 25 62 7 25 62 7 25 62 7 25 62
7 25 61 7 25 64 7 26 67 7 26 70 8 27 73 8 27 75 8 28 78 8 29 82 8 29
85 9 29 87 8 27 89 6 28 91 6 27 89 6 28 91 6 28 94 6 28 96 6 29 98 6
29 101 7 30 103 7 30 105 7 31 108 7 31 110 7 31 112 7 32 114 7 32 117
7 33 119 7 33 121 8 33 123 8 34 126 8 34 128 8 35 130 8 35 132 8 35
134 8 36 137 8 36 139 8 36 141 8 37 143 9 37 145 9 38 147 9 38 150 9
38 152 9 39 154 9 39 156 9 39 158 9 40 160 9 40 162 9 41 164 9 41 166
10 41 169 10 42 171 10 42 173 10 42 174 10 43 176 10 43 178 10 43 180
10 44 182 10 44 184 10 44 185 10 45 187 11 45 189 11 45 190 11 45 192
11 46 193 11 53 203 23 53 208 21 53 208 20 53 208 19 53 209 19 53 205
25 53 205 24 51 205 23 51 205 23 51 205 23 50 204 23 50 203 23 57 232
24 56 230 24 57 226 26 31 70 19 30 52 28 40 124 29 39 121 28 39 121 28
40 121 28 40 121 28 40 120 28 39 120 28 41 120 30 43 118 30 42 117 30
42 115 30 44 112 32 59 126 35 59 112 39 56 24 52 56 25 52 56 25 52 56
25 52 56 25 52 56 25 52 56 26 53 56 26 53 56 26 53 56 26 53 56 26 53
56 26 53 56 26 53 56 26 53 56 26 53 56 26 53 56 26 53 56 26 53 56 26
53 56 26 53 56 26 52 56 26 52 56 26 52 56 26 52 56 26 52 56 26 52 57
26 51 57 25 51 57 25 51 57 25 51 57 25 50 57 25 50 58 24 50 58 24 50
58 24 49 58 24 49 59 23 49 59 23 48 60 23 49 61 24 49 62 24 49 64 24
50 65 24 50 66 25 51 67 25 51 68 25 52 69 26 52 69 26 53 70 26 53 70
27 53 70 27 53 57 24 39 49 5 18 49 5 18
29 7 27 29 7 27 29 7 27 29 7 27 29 7 27 29 7 28 29 7 28 29 7 28 29 7
28 30 7 28 30 7 28 30 7 28 30 7 28 30 7 28 30 7 28 30 7 28 30 7 29 30
7 29 30 7 29 30 7 29 30 7 29 30 7 29 31 7 29 31 7 29 31 7 29 31 7 29
31 7 29 31 7 30 31 7 30 31 7 30 31 8 30 31 8 30 31 8 30 31 8 30 31 8
30 32 8 30 32 8 30 55 9 37 55 9 37 55 10 37 55 10 37 55 10 37 56 10 37
37 64 15 33 63 13 30 63 10 25 62 7 25 62 7 25 62 7 25 62 7 25 62 7 25
61 7 25 62 7 25 65 7 26 67 8 26 70 8 27 73 8 28 77 8 29 80 8 29 82 8
29 85 8 29 87 8 27 89 6 27 86 6 27 89 6 28 91 6 28 93 6 28 96 6 29 98
6 29 100 7 30 103 7 30 105 7 30 107 7 31 109 7 31 112 7 32 114 7 32
116 7 32 118 7 33 121 7 33 123 8 34 125 8 34 127 8 34 129 8 35 131 8
35 134 8 36 136 8 36 138 8 36 140 8 37 142 8 37 144 9 37 147 9 38 149
9 38 151 9 39 153 9 39 155 9 39 157 9 40 159 9 40 161 9 40 163 9 41
165 10 41 167 10 42 169 10 42 171 10 42 173 10 43 175 10 43 177 10 43
179 10 44 181 10 44 182 10 44 184 10 44 186 10 45 187 11 45 189 11 45
190 11 46 192 11 54 203 25 53 202 22 53 208 21 53 208 20 53 208 19 53
208 19 53 202 24 51 205 23 51 204 23 51 204 23 50 204 23 50 203 23 50
202 23 57 230 24 57 227 25 56 223 25 30 51 29 30 52 28 39 120 28 39
120 28 39 120 28 39 120 28 40 119 28 40 119 28 39 118 28 41 118 30 42
116 30 42 114 30 43 112 31 46 108 33 60 120 36 57 24 52 57 24 52 57 25
52 57 25 53 57 25 53 57 25 53 57 25 53 57 25 53 57 26 53 57 26 53 57
26 53 57 26 53 57 26 53 57 26 53 57 26 53 58 26 53 58 26 53 58 26 53
58 26 53 58 26 53 58 26 53 58 26 53 58 26 53 58 26 53 58 26 52 58 25
52 59 25 52 59 25 52 59 25 52 59 25 51 59 25 51 59 24 51 60 24 50 60
24 50 60 24 50 60 23 49 61 23 49 62 23 49 63 24 50 64 24 50 65 24 51
66 24 51 67 25 52 68 25 52 69 25 52 69 26 53 70 26 53 71 26 53 71 26
54 71 27 54 58 23 39 50 5 18 50 5 18 50 5 18
29 7 27 29 7 27 29 7 28 29 7 28 29 7 28 29 7 28 30 7 28 30 7 28 30 7
28 30 7 28 30 7 28 30 7 28 30 7 28 30 7 29 30 7 29 30 7 29 30 7 29 30
7 29 30 7 29 31 7 29 31 7 29 31 7 29 31 7 29 31 7 29 31 7 30 31 7 30
31 7 30 31 8 30 31 8 30 31 8 30 31 8 30 31 8 30 32 8 30 32 8 30 32 8
30 32 8 31 32 8 31 32 8 31 32 8 31 32 8 31 32 8 31 56 10 38 38 64 16
35 64 13 31 63 11 28 62 9 25 62 7 25 62 7 25 62 7 25 62 7 25 61 7 25
61 7 25 62 7 25 65 7 26 68 8 27 72 8 28 75 8 28 77 8 28 80 8 28 82 8
29 85 8 29 87 8 26 84 6 27 86 6 27 88 6 28 91 6 28 93 6 28 95 6 29 98
6 29 100 7 30 102 7 30 104 7 30 107 7 31 109 7 31 111 7 32 113 7 32
116 7 32 118 7 33 120 7 33 122 8 34 124 8 34 126 8 34 129 8 35 131 8
35 133 8 35 135 8 36 137 8 36 139 8 37 141 8 37 143 9 37 146 9 38 148
9 38 150 9 38 152 9 39 154 9 39 156 9 40 158 9 40 160 9 40 162 9 41
164 9 41 166 10 41 168 10 42 170 10 42 172 10 42 174 10 43 176 10 43
178 10 44 180 10 44 182 10 44 183 11 44 185 11 45 186 11 45 188 11 45
189 11 45 190 11 46 192 11 53 202 24 53 202 22 53 207 21 53 207 20 53
208 19 53 204 25 53 204 24 52 204 24 50 203 23 50 203 23 50 202 23 50
202 23 50 200 22 56 228 24 57 225 25 53 203 24 30 51 29 42 121 31 39
119 28 39 119 28 39 119 28 39 118 28 39 118 28 39 117 28 39 116 28 42
115 30 42 114 30 42 111 30 46 109 33 60 124 36 60 113 37 58 24 52 58
24 53 58 24 53 58 25 53 58 25 53 59 25 53 59 25 54 59 25 54 59 25 54
59 25 54 59 26 54 59 26 54 59 26 54 59 26 54 59 26 54 59 26 54 59 26
54 59 26 54 59 26 54 60 26 53 60 26 53 60 25 53 60 25 53 60 25 53 60
25 53 60 25 52 60 25 52 61 25 52 61 24 52 61 24 51 61 24 51 61 24 51
62 24 50 62 23 50 62 23 50 63 23 50 64 24 51 65 24 51 66 24 51 67 24
52 68 25 52 69 25 53 69 25 53 70 25 53 71 26 54 71 26 54 72 26 54 72
27 54 71 27 54 56 23 39 50 5 18 50 5 18 50 5 18
29 7 28 29 7 28 29 7 28 30 7 28 30 7 28 30 7 28 30 7 28 30 7 28 30 7
28 30 7 28 30 7 29 30 7 29 30 7 29 30 7 29 30 7 29 30 7 29 31 7 29 31
7 29 31 7 29 31 7 29 31 7 29 31 7 30 31 7 30 31 7 30 31 8 30 31 8 30
31 8 30 31 8 30 32 8 30 32 8 30 32 8 30 32 8 30 32 8 31 32 8 31 32 8
31 32 8 31 32 8 31 32 8 31 32 8 31 32 8 31 33 8 31 33 8 31 33 64 14 30
63 11 29 63 10 25 62 7 25 62 7 25 62 7 25 62 7 25 62 7 25 61 7 25 61 7
25 62 7 26 65 7 27 69 8 27 72 8 28 75 8 28 77 8 28 80 8 28 82 8 29 85
8 28 82 9 26 83 6 27 86 6 27 88 6 28 90 6 28 93 6 28 95 6 29 97 6 29
100 7 30 102 7 30 104 7 30 106 7 31 108 7 31 111 7 32 113 7 32 115 7
32 117 7 33 119 7 33 121 8 33 123 8 34 126 8 34 128 8 35 130 8 35 132
8 35 134 8 36 136 8 36 138 8 36 140 8 37 142 9 37 145 9 38 147 9 38
149 9 38 151 9 39 153 9 39 155 9 39 157 9 40 159 9 40 161 9 40 163 9
41 165 10 41 167 10 42 169 10 42 171 10 42 173 10 43 175 10 43 177 11
44 180 11 44 182 11 45 184 12 45 185 11 45 186 11 45 187 11 45 188 11
45 189 11 45 190 11 46 191 11 53 201 23 54 207 22 53 206 20 53 207 20
53 207 19 52 200 25 51 203 23 50 203 23 50 202 23 50 202 23 50 201 23
50 200 22 56 228 24 54 216 25 56 223 25 30 71 19 30 53 29 39 118 28 39
118 28 39 118 28 39 117 27 39 116 28 39 116 28 39 115 28 38 114 28 42
113 30 42 111 30 46 109 33 48 105 35 61 119 37 59 99 39 59 24 53 59 24
53 60 24 53 60 24 54 60 25 54 60 25 54 60 25 54 60 25 54 60 25 54 60
25 54 60 25 54 60 25 54 61 25 54 61 25 54 61 25 54 61 25 54 61 25 54
61 25 54 61 25 54 61 25 54 61 25 54 61 25 53 62 25 53 62 25 53 62 25
53 62 24 53 62 24 52 62 24 52 63 24 52 63 24 51 63 24 51 64 24 51 64
24 52 65 24 52 65 24 52 66 24 52 67 24 52 68 24 52 68 25 53 69 25 53
70 25 53 71 25 54 72 26 54 72 26 54 72 26 54 72 26 54 72 27 54 57 23
39 51 5 18 51 5 18 51 5 18 51 5 18
30 7 28 30 7 28 30 7 28 30 7 28 30 7 28 30 7 28 30 7 28 30 7 29 30 7
29 30 7 29 30 7 29 30 7 29 30 7 29 31 7 29 31 7 29 31 7 29 31 7 29 31
7 29 31 7 30 31 7 30 31 7 30 31 8 30 31 8 30 31 8 30 31 8 30 32 8 30
32 8 30 32 8 30 32 8 30 32 8 31 32 8 31 32 8 31 32 8 31 32 8 31 32 8
31 32 8 31 32 8 31 33 8 31 33 8 31 33 8 32 33 8 32 34 64 15 31 63 12
28 63 10 22 62 6 22 62 6 22 62 6 25 62 7 25 62 7 25 62 7 25 61 7 25 61
7 26 64 7 26 67 8 27 70 8 27 72 8 27 75 8 28 77 8 28 80 8 28 82 8 28
79 9 28 82 9 26 83 6 27 86 6 27 88 6 28 90 6 28 92 6 28 95 6 29 97 6
29 99 7 30 101 7 30 103 7 30 106 7 31 108 7 31 110 7 31 112 7 32 114 7
32 116 7 33 118 7 33 121 8 33 123 8 34 125 8 34 127 8 34 129 8 35 131
8 35 133 8 36 135 8 36 137 8 36 139 8 37 141 8 37 143 9 37 146 9 38
148 9 38 150 9 38 152 9 39 154 9 39 156 9 40 158 9 40 160 9 40 162 9
41 164 9 41 165 10 41 167 10 42 169 10 42 172 10 43 174 11 44 178 12
45 182 13 46 186 15 47 189 15 47 189 15 46 188 13 46 187 12 45 187 11
45 188 11 45 189 11 45 190 11 54 201 25 54 204 24 54 209 23 53 206 20
53 206 19 53 202 25 53 202 24 51 202 24 50 201 23 50 201 23 50 200 23
50 200 22 50 189 24 54 216 24 54 213 24 54 210 24 28 61 18 28 41 28 39
117 28 39 116 27 39 116 27 39 115 28 38 115 28 38 114 27 38 113 28 40
111 28 44 110 32 46 108 33 48 105 35 63 122 37 62 111 38 61 24 54 61
24 54 61 24 54 61 24 54 61 24 54 61 24 54 61 24 54 61 25 54 61 25 54
61 25 54 62 25 54 62 25 54 62 25 54 62 25 54 62 25 54 62 25 54 62 25
54 62 25 54 62 25 54 63 25 54 63 25 54 63 25 54 63 24 53 63 24 53 63
24 53 64 24 53 64 24 53 64 24 53 64 24 53 65 24 53 65 24 53 66 24 53
66 24 53 66 24 53 67 24 53 67 24 53 68 24 53 69 25 53 70 25 54 71 25
54 72 25 54 72 26 54 73 26 55 73 26 55 73 26 55 73 26 55 58 23 39 54
23 38 52 5 19 52 5 19 52 5 19 52 5 19
30 7 28 30 7 28 30 7 28 30 7 28 30 7 29 30 7 29 30 7 29 30 7 29 30 7
29 30 7 29 31 7 29 31 7 29 31 7 29 31 7 29 31 7 29 31 7 30 31 7 30 31
7 30 31 8 30 31 8 30 31 8 30 31 8 30 32 8 30 32 8 30 32 8 30 32 8 30
32 8 31 32 8 31 32 8 31 32 8 31 32 8 31 32 8 31 32 8 31 32 8 31 33 8
31 33 8 31 33 8 32 33 8 32 33 8 32 33 8 32 36 64 16 33 64 13 30 63 11
27 63 9 22 62 6 22 62 6 22 62 7 22 62 6 22 62 6 22 62 6 22 62 6 25 62
7 26 64 8 27 67 8 27 70 8 27 72 8 27 75 8 28 77 8 28 79 8 29 82 8 28
79 9 29 81 9 29 84 9 27 85 6 27 87 6 28 90 6 28 92 6 28 94 6 29 96 6
29 99 7 29 101 7 30 103 7 30 105 7 31 107 7 31 109 7 31 111 7 32 113 7
32 116 7 32 118 7 33 120 7 33 122 8 34 124 8 34 126 8 34 128 8 35 130
8 35 132 8 35 134 8 36 136 8 36 138 8 37 140 8 37 142 9 37 144 9 38
146 9 38 148 9 38 150 9 39 152 9 39 154 9 39 156 9 40 158 9 40 160 9
40 162 9 41 164 10 41 166 10 42 168 10 42 171 10 43 175 12 46 181 14
48 190 18 51 198 22 53 204 24 53 204 23 51 200 20 48 194 16 46 189 13
45 187 11 45 188 11 45 188 11 45 190 11 53 200 24 62 224 35 53 205 21
53 205 20 52 205 19 53 201 25 52 201 24 50 200 23 50 200 23 50 199 22
48 189 23 50 188 24 52 187 26 54 213 25 54 211 24 53 207 24 28 61 18
28 41 28 37 105 28 38 115 27 38 114 27 38 113 28 38 113 27 38 112 28
38 110 28 42 109 29 46 105 34 48 105 35 50 101 36 63 116 38 61 99 39
62 25 55 62 25 55 62 25 55 62 25 55 62 24 55 62 24 55 62 24 55 62 24
55 63 24 55 63 24 55 63 24 55 63 24 55 63 25 55 63 25 54 63 25 54 63
24 54 63 24 54 64 24 54 64 24 54 64 24 54 64 24 54 64 24 54 65 24 54
65 24 54 65 24 54 65 24 54 66 24 54 66 24 54 66 24 54 67 24 54 67 24
54 68 24 54 68 24 54 68 24 54 69 24 54 70 25 54 70 25 54 71 25 54 72
25 55 73 25 55 73 26 55 73 26 55 73 26 55 73 26 55 58 22 39 56 23 38
52 5 19 52 5 19 52 5 19 52 5 19 52 5 19
30 7 28 30 7 29 30 7 29 30 7 29 30 7 29 30 7 29 30 7 29 31 7 29 31 7
29 31 7 29 31 7 29 31 7 29 31 7 30 31 7 30 31 7 30 31 8 30 31 8 30 31
8 30 31 8 30 32 8 30 32 8 30 32 8 30 32 8 30 32 8 31 32 8 31 32 8 31
32 8 31 32 8 31 32 8 31 32 8 31 32 8 31 33 8 31 33 8 31 33 8 32 33 8
32 11 2 7 11 2 7 11 2 7 11 2 7 11 2 7 32 63 11 29 63 9 26 62 7 20 61 4
20 61 4 20 61 4 20 61 4 20 61 4 20 61 4 20 61 4 20 61 4 20 61 4 21 64
4 21 66 4 26 69 8 27 72 8 27 74 8 28 77 8 28 79 8 28 76 8 28 79 9 29
81 9 29 83 9 27 85 6 27 87 6 27 89 6 28 91 6 28 94 6 29 96 6 29 98 7
29 100 7 30 102 7 30 104 7 31 106 7 31 109 7 31 111 7 32 113 7 32 115
7 32 117 7 33 119 7 33 121 8 33 123 8 34 125 8 34 127 8 35 129 8 35
131 8 35 133 8 36 135 8 36 137 8 36 139 8 37 141 8 37 143 9 37 145 9
38 147 9 38 149 9 38 151 9 39 153 9 39 155 9 40 157 9 40 159 9 40 161
9 41 163 9 41 165 10 41 167 10 42 170 11 44 176 13 48 186 18 53 201 25
60 218 33 64 232 40 65 234 40 61 225 34 55 210 26 50 197 18 46 189 13
45 187 11 45 187 11 45 188 11 45 189 11 53 199 23 54 207 23 53 203 20
52 203 19 52 203 19 52 200 24 50 199 24 50 199 23 50 198 23 50 198 22
48 187 23 51 186 25 53 185 27 54 210 25 53 207 24 50 186 24 28 41 28
28 41 28 36 104 28 36 103 28 38 112 28 38 111 28 38 111 27 38 110 28
42 108 30 44 104 31 48 102 35 50 102 37 64 118 39 63 108 39 63 25 56
63 25 56 63 25 56 63 25 56 64 25 56 64 25 56 64 25 56 64 25 56 64 25
56 64 25 55 64 25 55 64 25 55 64 25 55 64 25 55 65 25 55 65 25 55 65
25 55 65 25 55 65 25 55 65 25 55 66 25 55 66 25 55 66 25 55 66 25 55
67 25 55 67 24 55 67 24 55 68 24 55 68 24 55 68 24 55 69 24 55 69 24
54 69 24 54 70 24 54 70 24 54 71 25 55 71 25 55 72 25 55 73 25 55 73
26 55 74 26 55 74 26 55 73 26 55 58 22 38 56 22 38 53 5 19 53 5 19 53
5 19 53 5 19 53 5 19 53 5 19
30 7 29 30 7 29 30 7 29 30 7 29 30 7 29 31 7 29 31 7 29 31 7 29 31 7
29 31 7 29 31 7 30 31 7 30 31 8 30 31 8 30 31 8 30 31 8 30 31 8 30 32
8 30 32 8 30 32 8 30 32 8 31 32 8 31 32 8 31 32 8 31 11 2 7 11 2 7 11
2 7 11 2 7 11 2 7 11 2 7 11 2 7 11 2 7 11 2 7 11 2 7 11 2 7 11 2 7 11
2 7 11 2 7 11 2 7 33 63 13 30 63 10 27 62 9 24 62 7 20 61 4 20 61 4 20
61 4 20 61 4 20 61 4 20 61 4 20 61 4 20 61 4 21 61 4 21 63 4 21 66 4
21 68 4 21 71 4 22 73 4 25 76 5 26 78 5 25 75 5 25 78 6 26 80 6 26 82
6 27 84 6 27 87 6 27 89 6 28 91 6 28 93 6 29 95 6 29 97 6 29 99 7 30
102 7 30 104 7 30 106 7 31 108 7 31 110 7 32 112 7 32 114 7 32 116 7
33 118 7 33 120 8 33 122 8 34 124 8 34 126 8 34 128 8 35 130 8 35 132
8 35 134 8 36 136 8 36 138 8 37 140 8 37 142 9 37 144 9 38 146 9 38
148 9 38 150 9 39 152 9 39 154 9 39 155 9 40 157 9 40 159 9 40 161 9
41 163 10 41 166 10 42 169 11 45 177 14 50 190 21 58 213 32 69 240 46
78 255 58 81 255 62 76 255 55 66 237 41 56 211 27 49 195 17 46 188 13
45 186 11 45 186 11 45 187 11 53 199 25 53 203 22 53 202 21 52 202 20
52 202 19 52 202 18 52 198 24 50 198 23 49 197 22 49 196 23 47 186 23
51 185 25 53 184 26 54 183 28 54 207 25 53 204 24 29 61 18 28 41 28 25
39 25 36 102 28 36 101 28 38 110 27 37 109 27 37 109 27 41 107 30 45
106 32 46 101 33 50 99 37 51 96 38 64 111 39 61 92 40 64 25 57 64 25
57 65 25 57 65 25 57 65 25 56 65 25 56 65 25 56 65 25 56 65 25 56 65
25 56 65 25 56 66 25 56 66 25 56 66 25 56 66 25 56 66 25 56 66 25 56
67 25 56 67 25 56 67 25 56 67 25 56 67 25 56 68 25 56 68 25 56 68 25
56 69 25 55 69 25 55 69 25 55 69 25 55 70 25 55 70 25 55 70 25 55 71
25 55 71 25 55 72 25 55 72 25 55 73 25 56 73 25 56 74 26 56 74 26 56
74 26 56 58 22 38 56 22 38 54 5 19 54 5 19 54 5 19 54 5 19 54 5 19 54
5 19 54 5 19
30 7 29 30 7 29 31 7 29 31 7 29 31 7 29 31 7 29 31 7 29 31 7 30 31 7
30 31 8 30 31 8 30 31 8 30 31 8 30 31 8 30 32 8 30 32 8 30 32 8 30 32
8 31 11 2 7 11 2 7 11 2 7 11 2 7 11 2 7 11 2 7 11 2 7 11 2 7 11 2 7 11
2 7 11 2 7 11 2 7 11 2 7 11 2 7 11 2 7 11 2 7 11 2 7 11 2 7 11 2 7 11
2 7 23 62 6 31 63 11 29 63 10 26 62 8 23 62 6 20 61 4 20 61 4 20 61 4
20 61 4 20 61 4 20 61 4 20 61 4 21 61 4 20 61 4 20 63 4 20 66 4 21 68
4 21 71 4 22 73 4 22 75 4 22 73 5 22 75 5 25 77 6 26 80 6 26 82 6 27
84 6 27 86 6 27 88 6 28 90 6 28 92 6 28 95 6 29 97 6 29 99 7 30 101 7
30 103 7 30 105 7 31 107 7 31 109 7 31 111 7 32 113 7 32 115 7 32 117
7 33 119 7 33 121 8 34 123 8 37 129 8 37 132 8 38 135 8 39 137 8 40
140 8 41 143 9 41 145 9 42 148 9 43 151 9 44 153 9 45 156 9 45 159 9
46 161 9 47 164 9 39 152 9 39 154 9 39 156 9 40 158 9 40 160 9 40 162
10 41 164 10 42 168 11 45 176 15 50 191 22 60 217 35 74 252 53 87 255
71 93 255 80 89 255 74 77 255 57 63 230 37 53 203 22 47 190 15 45 185
11 45 185 11 45 185 11 45 186 11 53 202 24 53 201 22 52 201 20 52 201
19 52 201 19 52 197 24 52 196 24 49 196 22 49 195 22 49 194 23 50 184
25 52 183 26 54 182 28 55 181 29 54 204 25 52 200 24 29 61 18 28 41 28
25 39 25 36 100 28 36 99 28 35 98 28 39 107 28 41 106 30 46 105 32 47
100 33 48 97 35 51 94 38 65 113 39 63 102 40 65 25 57 65 25 57 65 25
57 66 25 57 66 25 57 66 25 57 66 25 57 66 25 57 66 25 57 66 25 57 66
25 57 67 25 57 67 25 57 67 25 57 67 25 57 67 25 57 67 25 57 68 25 57
68 25 57 68 25 57 68 25 56 69 25 56 69 25 56 69 25 56 69 25 56 70 25
56 70 25 56 70 25 56 71 25 56 71 25 56 71 25 56 71 25 56 72 25 56 72
25 56 72 25 56 73 25 56 73 25 56 74 25 56 74 26 56 74 26 56 57 22 38
56 22 38 54 5 19 54 5 19 54 5 19 54 5 19 54 5 19 54 5 19 54 5 19 54 5
19
31 7 29 31 7 29 31 7 29 31 7 29 31 7 30 31 7 30 31 7 30 31 8 30 31 8
30 31 8 30 31 8 30 32 8 30 11 2 7 11 2 7 11 2 7 11 2 7 11 2 7 11 2 7
11 2 7 11 2 7 11 2 7 11 2 7 11 2 7 11 2 7 11 2 7 11 2 7 11 2 7 11 2 7
11 2 7 11 2 7 11 2 7 11 2 7 11 2 7 11 2 7 11 2 7 11 2 7 11 2 7 11 2 7
28 63 11 30 63 11 28 62 9 25 62 7 20 61 4 20 61 4 20 61 4 20 61 4 20
61 4 20 61 4 20 61 4 21 61 4 20 61 4 20 61 4 20 63 4 20 66 4 21 68 4
21 70 4 22 73 4 22 75 4 22 72 5 22 74 5 22 77 5 23 79 5 23 81 5 27 83
6 27 86 6 27 88 6 28 90 6 28 92 6 28 94 6 29 96 6 29 98 7 29 100 7 30
102 7 30 104 7 31 106 7 31 108 7 31 110 7 32 112 7 32 114 7 33 118 7
34 120 8 35 123 8 36 125 8 36 128 8 37 131 8 38 133 8 39 136 8 40 139
8 40 141 8 42 149 8 43 152 8 44 154 9 44 157 9 45 159 9 46 162 9 47
165 9 47 167 9 48 170 9 48 167 10 49 170 10 50 172 10 51 175 10 40 160
9 41 162 10 42 166 11 44 173 14 49 187 20 59 211 33 72 247 51 86 255
71 95 255 83 94 255 81 83 255 66 68 241 45 56 210 27 48 192 17 45 185
12 45 183 11 45 184 11 45 185 11 46 191 10 53 200 23 52 200 21 52 199
20 52 199 19 51 199 18 52 195 24 51 194 23 49 194 22 49 193 22 49 183
24 52 182 26 54 181 27 55 180 29 55 202 26 54 200 25 50 179 24 29 61
19 28 41 28 25 39 25 35 98 28 35 97 27 38 96 30 42 105 30 44 103 32 48
99 34 49 97 35 49 93 36 52 91 39 65 105 40 66 25 58 66 25 58 66 25 58
66 25 58 67 25 58 67 25 58 67 25 58 67 25 58 67 25 58 67 25 58 67 25
58 68 25 58 68 25 58 68 25 58 68 25 57 68 25 57 68 25 57 69 25 57 69
25 57 69 25 57 69 25 57 70 25 57 70 25 57 70 25 57 70 25 57 71 25 57
71 25 57 71 25 57 71 25 57 72 25 56 72 25 56 72 25 56 72 25 56 72 25
56 73 25 56 73 25 56 74 25 56 74 25 56 74 26 56 57 21 37 56 21 37 55 5
20 55 5 20 55 5 20 55 5 20 55 5 20 55 5 20 55 5 20 55 5 19 55 5 19
31 7 29 31 7 29 31 7 30 31 7 30 31 8 30 31 8 30 31 8 30 31 8 30 11 2 7
11 2 7 11 2 7 11 2 7 11 2 7 11 2 7 11 2 7 11 2 7 11 2 7 11 2 7 11 2 7
11 2 7 11 2 7 11 2 7 11 2 7 11 2 7 11 2 7 11 2 7 11 2 7 11 2 7 11 2 7
11 2 7 11 2 7 11 2 7 11 2 7 11 2 7 11 2 7 11 2 7 11 2 7 29 63 12 32 63
12 29 63 10 27 62 8 24 62 6 20 61 4 20 61 4 20 61 4 20 61 4 20 61 4 20
61 4 20 61 4 20 61 4 20 61 4 20 61 4 20 63 4 20 65 4 21 68 4 21 70 4
22 72 4 22 75 4 22 72 5 22 74 5 22 76 5 23 78 5 23 80 5 23 83 5 24 85
5 27 87 6 28 89 6 28 91 6 28 93 6 29 95 6 29 97 7 29 99 7 30 101 7 30
103 7 30 105 7 31 107 7 31 109 7 32 116 7 33 119 7 34 121 7 35 124 7
37 127 8 37 129 8 38 132 8 39 135 8 39 137 8 39 140 8 40 142 8 41 145
8 42 148 8 42 150 8 43 153 9 44 155 9 45 158 9 46 160 9 46 163 9 47
166 9 48 168 9 49 171 9 49 173 9 50 176 10 51 178 10 52 181 10 53 184
10 54 187 11 56 193 13 48 184 17 55 204 27 66 232 41 78 255 59 88 255
71 88 255 73 80 255 62 68 239 44 56 210 28 49 191 17 45 184 12 44 182
11 44 182 10 45 188 10 45 189 10 46 190 10 52 198 22 52 198 20 52 198
19 51 197 18 51 197 18 51 193 23 51 192 23 48 192 22 50 191 23 51 181
26 53 180 27 55 179 28 56 177 29 55 199 26 54 196 25 30 61 19 30 42 30
25 39 25 25 39 25 38 96 29 39 95 30 41 94 31 45 102 32 48 98 34 49 96
35 50 93 36 52 89 39 66 107 40 62 92 40 67 25 58 67 25 58 67 25 58 67
25 58 68 25 58 68 25 58 68 25 58 68 25 58 68 25 58 68 25 58 68 25 58
69 25 58 69 25 58 69 25 58 69 25 58 69 25 58 70 25 58 70 25 58 70 25
58 70 25 58 70 25 58 71 25 58 71 25 58 71 25 57 71 25 57 72 25 57 72
25 57 72 25 57 72 25 57 73 25 57 73 25 57 73 25 56 73 25 56 73 25 56
73 25 56 74 25 56 57 21 37 56 21 37 56 21 37 56 5 20 56 5 20 56 5 20
56 5 20 56 5 20 56 5 20 56 5 20 56 5 20 55 5 20 55 5 20
31 7 30 31 7 30 31 8 30 31 8 30 11 2 7 11 2 7 11 2 7 11 2 7 11 2 7 11
2 7 11 2 7 11 2 7 11 2 7 11 2 7 11 2 7 11 2 7 11 2 7 11 2 7 11 2 7 11
2 7 11 2 7 11 2 7 11 2 7 11 2 7 11 2 7 11 2 7 11 2 7 11 2 7 11 2 7 11
2 7 11 2 7 11 2 7 11 2 7 11 2 7 11 2 7 11 2 7 11 2 7 28 63 11 31 63 11
28 63 9 26 62 8 23 62 6 20 61 4 20 61 4 20 61 4 20 61 4 20 61 4 20 61
4 21 61 4 20 61 4 20 61 4 20 61 4 20 63 4 20 65 4 21 67 4 21 70 4 22
72 4 22 74 4 21 71 4 22 73 5 22 76 5 23 78 5 23 80 5 23 82 5 24 84 5
24 86 5 24 88 5 25 90 5 28 92 6 29 94 6 29 96 6 32 104 7 32 106 7 32
108 7 32 110 7 33 112 7 33 114 7 33 115 7 34 118 7 35 120 7 36 123 8
36 126 8 37 128 8 38 131 8 39 133 8 39 136 8 40 138 8 41 141 8 42 144
8 42 146 9 43 149 9 44 151 9 45 154 9 45 156 9 45 159 9 46 161 9 47
164 9 48 166 9 48 169 9 49 171 9 50 174 9 51 176 10 51 179 10 52 181
10 53 185 10 55 189 12 58 197 15 63 210 21 71 230 30 66 232 41 73 251
51 75 255 54 71 249 48 63 229 37 55 208 25 49 193 16 46 186 12 45 185
11 45 185 10 45 186 10 45 187 10 45 188 10 53 198 23 52 196 21 51 196
20 51 196 19 51 195 18 51 195 17 51 191 23 51 190 23 50 190 23 52 189
25 53 179 27 55 178 28 56 176 29 57 174 30 55 195 26 53 191 26 31 61
20 31 42 30 28 39 26 29 40 27 31 40 29 42 93 32 46 101 33 49 97 35 50
95 36 50 92 36 50 88 36 52 85 39 64 97 40 68 25 59 68 25 59 68 25 59
68 25 59 68 26 59 68 26 59 69 26 59 69 26 59 69 25 59 69 25 59 69 25
59 69 25 59 70 25 59 70 25 59 70 25 58 70 25 58 70 25 58 71 25 58 71
25 58 71 25 58 71 25 58 71 25 58 72 25 58 72 25 58 72 25 58 72 25 58
73 25 58 73 25 57 73 25 57 73 25 57 73 25 57 73 25 57 73 25 56 73 25
56 73 25 56 56 20 36 56 21 37 55 21 37 56 5 20 56 5 20 56 5 20 56 5 20
56 5 20 56 5 20 56 5 20 56 5 20 56 5 20 56 5 20 56 5 20
11 2 7 11 2 7 11 2 7 11 2 7 11 2 7 11 2 7 11 2 7 11 2 7 11 2 7 11 2 7
11 2 7 11 2 7 11 2 7 11 2 7 11 2 7 11 2 7 11 2 7 11 2 7 11 2 7 11 2 7
11 2 7 11 2 7 11 2 7 11 2 7 11 2 7 11 2 7 11 2 7 11 2 7 11 2 7 11 2 7
11 2 7 11 2 7 11 2 7 11 2 7 11 2 7 11 2 7 23 62 6 27 63 11 30 63 10 27
62 9 25 62 7 20 61 4 20 61 4 20 61 4 20 61 4 20 61 4 20 61 4 21 61 4
20 61 4 20 61 4 20 61 4 20 61 4 20 62 4 20 65 4 21 67 4 21 69 4 21 72
4 22 74 4 22 76 4 23 78 4 22 75 5 22 77 5 23 79 5 23 81 5 24 89 5 26
91 5 26 93 5 27 95 6 27 97 6 28 99 6 28 101 6 31 103 7 32 105 7 32 107
7 32 109 7 33 111 7 33 113 7 35 115 9 35 117 9 36 119 9 37 122 9 37
125 9 38 127 9 39 130 9 40 132 9 40 135 9 41 137 10 42 139 10 42 142
10 43 145 10 44 147 10 45 150 10 45 152 10 46 155 10 47 157 10 48 160
10 47 162 9 48 165 9 48 167 9 49 169 9 49 172 9 50 174 10 51 177 10 52
179 10 53 182 10 54 185 11 56 190 12 59 198 15 63 210 20 69 224 27 74
238 33 61 221 35 60 218 33 56 208 27 51 197 20 47 188 15 45 184 12 45
183 11 45 183 10 45 184 10 45 185 10 45 186 10 45 186 10 52 195 22 51
194 20 51 194 19 51 194 18 50 193 17 50 193 17 50 189 23 50 188 23 54
188 25 54 187 26 54 176 28 55 175 29 56 173 30 57 171 31 54 190 26 51
172 25 31 61 20 32 42 31 31 40 28 33 40 29 35 41 31 45 90 34 50 96 35
50 93 36 50 91 36 50 87 37 52 82 40 66 99 40 68 26 59 68 26 59 69 26
59 69 26 59 69 26 59 69 26 59 69 26 59 69 26 59 70 26 59 70 26 59 70
26 59 70 26 59 70 26 59 70 26 59 71 26 59 71 26 59 71 26 59 71 26 59
71 26 59 72 25 59 72 25 58 72 25 58 72 25 58 72 25 58 73 25 58 73 25
58 73 25 58 73 25 58 73 25 58 73 25 57 73 25 57 73 25 57 73 25 56 55
20 36 55 20 36 55 20 36 54 21 36 57 5 20 57 5 20 57 5 20 57 5 20 57 5
20 57 5 20 57 5 20 57 5 20 57 5 20 57 5 20 57 5 20 57 5 20
11 2 7 11 2 7 11 2 7 11 2 7 11 2 7 11 2 7 11 2 7 11 2 7 11 2 7 11 2 7
11 2 7 11 2 7 11 2 7 11 2 7 11 2 7 11 2 7 11 2 7 11 2 7 11 2 7 11 2 7
11 2 7 11 2 7 11 2 7 11 2 7 11 2 7 11 2 7 11 2 7 11 2 7 11 2 7 11 2 7
11 2 7 11 2 7 11 2 7 11 2 7 11 2 7 11 2 7 28 63 12 27 63 10 29 63 10
27 62 8 24 62 7 20 61 4 20 61 4 20 61 4 20 61 4 20 61 4 21 61 4 20 61
4 20 61 4 20 61 4 20 61 4 20 61 4 20 62 4 20 64 4 21 67 4 21 69 4 23
71 4 23 73 4 23 75 5 24 78 5 24 80 5 24 82 5 25 84 5 25 86 5 26 88 5
26 90 5 26 92 5 27 94 5 27 96 6 27 98 6 28 100 6 28 102 6 30 104 7 33
106 8 34 108 8 34 110 8 34 112 9 34 114 9 35 116 9 36 118 9 36 121 9
37 123 9 38 126 9 38 128 9 39 130 9 40 133 9 41 135 9 41 138 10 42 140
10 43 143 10 43 145 10 44 148 10 45 150 10 46 153 10 46 155 10 47 158
10 48 160 10 49 163 11 49 166 11 50 168 11 51 170 11 50 172 9 51 175
10 51 177 10 52 180 10 53 182 10 54 186 11 56 190 12 58 197 14 61 205
18 64 212 21 66 218 22 66 219 22 65 216 19 47 186 15 45 182 13 44 180
11 44 180 10 44 181 10 44 182 10 45 183 10 45 184 10 45 184 10 45 185
10 51 193 21 51 192 19 51 192 18 50 192 18 50 191 17 50 191 16 50 186
23 53 186 25 56 186 27 58 185 28 57 184 28 56 172 30 57 170 31 57 167
31 54 186 26 32 62 21 32 61 20 33 40 29 35 40 30 36 41 32 38 41 32 51
95 36 51 92 36 51 89 37 50 86 37 50 81 37 66 99 41 69 26 59 69 26 59
69 26 59 69 26 59 69 26 59 70 26 59 70 26 59 70 26 59 70 26 59 70 26
59 70 26 59 71 26 59 71 26 59 71 26 59 71 26 59 71 26 59 72 26 59 72
26 59 72 26 59 72 26 59 72 26 59 73 26 59 73 26 59 73 25 58 73 25 58
73 25 58 73 25 58 74 25 58 74 25 58 74 25 57 73 25 57 73 25 57 55 20
36 54 20 36 54 20 36 53 20 36 57 5 20 57 5 20 57 5 20 57 5 20 57 5 20
57 5 20 57 5 20 57 5 20 57 5 20 57 5 20 57 5 20 57 5 20 57 5 20
11 2 7 11 2 7 11 2 7 11 2 7 11 2 7 11 2 7 11 2 7 11 2 7 11 2 7 11 2 7
11 2 7 11 2 7 11 2 7 11 2 7 11 2 7 11 2 7 11 2 7 11 2 7 11 2 7 11 2 7
11 2 7 11 2 7 11 2 7 11 2 7 11 2 7 11 2 7 11 2 7 11 2 7 11 2 7 11 2 7
11 2 7 11 2 7 11 2 7 11 2 7 11 2 7 11 2 7 28 63 11 26 63 10 29 63 9 26
62 8 24 62 6 20 61 4 20 61 4 20 61 4 20 61 4 20 61 4 20 61 4 20 61 4
20 61 4 20 61 4 20 61 4 20 61 4 20 62 4 20 64 4 22 66 4 22 68 4 23 71
4 23 73 4 23 75 5 24 77 5 24 79 5 24 81 5 25 83 5 25 85 5 26 87 5 26
89 5 26 91 5 27 93 5 27 95 6 28 97 7 29 99 7 29 101 7 29 103 7 30 105
7 30 107 7 34 109 8 34 111 9 34 113 9 35 115 9 35 117 9 36 119 9 37
122 9 37 124 9 38 127 9 39 129 9 39 131 9 40 134 9 41 136 9 42 139 9
42 141 10 43 144 10 44 146 10 44 149 10 45 151 10 46 154 10 47 156 10
47 159 11 48 162 11 49 164 11 50 166 11 51 169 11 51 171 11 52 173 11
53 176 11 53 178 11 52 180 10 53 183 10 54 186 11 56 189 12 57 194 13
59 198 14 60 202 15 61 204 15 61 204 14 61 204 13 61 204 12 44 177 10
44 178 10 44 179 10 44 180 10 44 181 10 44 181 10 45 182 10 45 183 10
45 183 10 51 191 20 50 190 19 50 190 18 50 189 17 50 189 16 49 188 16
52 188 18 55 184 26 58 184 28 59 182 29 60 181 30 57 169 30 57 167 31
57 164 31 53 181 26 32 61 21 35 43 33 36 41 31 38 41 32 39 41 33 44 49
34 44 49 35 51 88 37 50 84 37 50 80 37 52 76 40 69 26 59 69 26 60 70
26 60 70 26 60 70 26 60 70 26 60 70 26 60 70 26 60 71 26 60 71 26 60
71 26 60 71 26 60 71 26 60 71 26 60 72 26 59 72 26 59 72 26 59 72 26
59 72 26 59 73 26 59 73 26 59 73 26 59 73 26 59 73 26 59 73 25 58 74
25 58 74 25 58 74 25 58 74 25 58 73 25 57 54 20 35 54 20 35 54 20 35
53 20 35 51 20 35 58 5 20 58 5 20 58 5 20 58 5 20 58 5 20 58 5 20 58 5
20 58 5 20 58 5 20 58 5 20 58 5 20 58 5 20 58 5 20 58 5 20
11 2 7 11 2 7 11 2 7 11 2 7 11 2 7 11 2 7 11 2 7 11 2 7 11 2 7 11 2 7
11 2 7 11 2 7 11 2 7 11 2 7 11 2 7 11 2 7 11 2 7 11 2 7 11 2 7 11 2 7
11 2 7 11 2 7 11 2 7 11 2 7 11 2 7 11 2 7 11 2 7 11 2 7 11 2 7 11 2 7
11 2 7 11 2 7 11 2 7 11 2 7 11 2 7 28 63 12 27 63 11 26 63 9 28 62 9
26 62 8 23 62 6 20 61 4 20 61 4 20 61 4 20 61 4 21 61 4 20 61 4 20 61
4 20 61 4 20 61 4 20 61 4 20 61 4 20 61 4 21 64 4 22 66 4 22 68 4 22
70 4 23 72 4 23 74 5 24 76 5 24 78 5 24 80 5 25 82 5 25 84 5 25 86 5
26 88 5 27 91 7 28 93 7 28 95 7 28 96 7 29 98 7 29 100 7 29 102 7 30
104 7 30 106 7 30 108 7 30 110 7 31 111 8 34 114 9 35 115 9 35 118 9
36 120 9 37 123 9 37 125 9 38 128 9 39 130 9 40 132 9 40 135 9 41 137
9 42 140 9 42 142 9 43 145 9 44 147 10 45 149 10 45 152 10 46 154 10
47 157 10 48 160 11 48 162 10 49 164 11 50 166 11 51 169 11 51 171 11
52 174 11 53 176 11 54 178 11 54 180 11 54 183 11 55 185 10 56 188 11
57 191 11 57 194 12 58 196 12 59 198 12 59 199 11 60 200 11 60 202 11
61 203 11 44 177 10 44 178 10 44 178 10 44 179 10 44 180 10 44 181 10
44 181 10 45 182 10 50 189 19 50 188 18 50 187 17 49 187 17 49 186 16
52 186 18 54 186 20 57 182 27 59 181 29 60 180 30 61 178 31 61 176 31
59 173 31 57 159 31 33 62 21 33 61 21 36 43 33 39 41 33 44 49 34 44 49
35 45 49 35 45 49 35 50 83 37 50 78 37 52 74 40 70 26 60 70 26 60 70
26 60 70 26 60 70 26 60 70 26 60 71 26 60 71 26 60 71 26 60 71 26 60
71 26 60 72 26 60 72 26 60 72 26 60 72 26 60 72 26 60 72 26 60 73 26
59 73 26 59 73 26 59 73 26 59 73 26 59 73 26 59 73 26 59 74 25 59 74
25 58 74 25 58 54 20 35 54 20 35 54 20 35 54 20 35 53 20 35 52 20 35
58 5 20 58 5 20 58 5 20 58 5 20 58 5 20 58 5 20 58 5 20 58 5 20 58 5
20 58 5 20 58 5 20 58 5 20 58 5 21 58 5 21 58 5 20 58 5 20
11 2 7 11 2 7 11 2 7 11 2 7 11 2 7 11 2 7 11 2 7 11 2 7 11 2 7 11 2 7
11 2 7 11 2 7 11 2 7 11 2 7 11 2 7 11 2 7 11 2 7 11 2 7 11 2 7 11 2 7
11 2 7 11 2 7 11 2 7 11 2 7 11 2 7 11 2 7 11 2 7 11 2 7 11 2 7 11 2 7
11 2 7 11 2 7 11 2 7 11 2 7 11 2 7 28 63 12 27 63 10 26 62 9 28 62 9
25 62 7 20 61 4 20 61 4 20 61 4 20 61 4 21 61 4 20 61 4 20 61 4 20 61
4 20 61 4 20 61 4 20 61 4 20 61 4 21 61 4 21 63 4 22 65 4 22 67 4 22
70 4 23 72 4 23 74 5 23 76 5 24 78 5 24 80 5 25 82 5 25 84 5 25 86 5
27 88 7 27 90 7 28 92 7 28 94 7 28 96 7 29 97 7 29 99 7 29 101 7 29
103 7 30 105 7 30 107 7 30 108 7 30 110 7 31 112 7 31 114 7 35 116 8
35 119 8 36 121 8 37 124 9 37 126 9 38 128 9 39 131 9 39 133 9 40 136
9 41 138 9 42 140 9 42 143 9 43 145 9 44 148 9 44 150 9 45 152 10 46
155 10 47 158 10 48 160 10 49 162 11 49 164 11 50 166 11 51 169 11 52
171 11 52 174 11 53 176 11 54 178 11 55 181 11 55 183 11 55 185 11 55
187 10 56 190 11 57 192 11 58 194 11 58 195 11 59 197 11 60 199 11 60
201 11 61 203 11 62 204 11 44 176 10 44 177 10 44 178 10 44 179 10 44
179 10 44 180 10 44 180 10 50 186 18 49 185 17 49 185 17 49 184 16 51
184 17 54 184 19 56 184 21 58 183 23 60 178 30 60 174 31 61 172 31 61
172 32 61 169 32 56 181 27 38 72 22 37 69 22 44 49 34 45 49 34 45 49
35 45 49 35 45 49 35 45 49 36 45 49 36 52 72 40 70 26 60 70 26 60 70
26 60 70 26 60 71 26 60 71 26 60 71 26 60 71 26 60 71 26 60 72 26 60
72 26 60 72 26 60 72 26 60 72 26 60 72 26 60 73 26 60 73 26 60 73 26
59 73 26 59 73 26 59 73 26 59 73 26 59 73 26 59 74 26 59 74 25 58 53
20 35 54 20 35 54 20 35 54 20 35 53 20 35 53 20 35 50 19 34 59 6 21 59
6 21 59 6 21 59 6 21 59 6 21 59 6 21 59 6 21 59 6 21 59 6 21 59 6 21
59 6 21 59 6 21 59 6 21 59 6 21 59 6 21 59 6 21 59 6 21
11 2 7 11 2 7 11 2 7 11 2 7 11 2 7 11 2 7 11 2 7 11 2 7 11 2 7 11 2 7
11 2 7 11 2 7 11 2 7 11 2 7 11 2 7 11 2 7 11 2 7 11 2 7 11 2 7 11 2 7
11 2 7 11 2 7 11 2 7 11 2 7 11 2 7 11 2 7 11 2 7 11 2 7 11 2 7 11 2 7
11 2 7 11 2 7 11 2 7 11 2 7 23 62 6 28 63 11 27 63 10 26 62 9 27 62 8
25 62 7 20 61 4 20 61 4 20 61 4 20 61 4 20 61 4 20 61 4 20 61 4 20 61
4 20 61 4 20 61 4 20 61 4 21 61 4 21 61 4 21 63 4 22 65 4 22 67 4 22
69 4 23 71 4 23 73 4 23 75 5 24 77 5 24 79 5 25 81 5 25 83 5 27 85 7
27 87 7 27 89 7 27 91 7 28 93 7 28 95 7 28 97 7 29 98 7 29 100 7 29
102 7 29 104 7 30 106 7 30 107 7 30 109 7 30 111 7 30 112 7 31 115 7
31 117 7 35 120 8 36 122 8 37 124 8 37 127 8 38 129 8 38 132 8 39 134
8 40 136 8 41 139 9 41 141 9 42 143 9 43 146 9 44 148 9 44 150 9 45
153 9 46 156 10 47 158 10 48 160 10 48 162 10 49 164 10 50 167 11 51
169 11 52 171 11 52 173 11 53 176 11 54 178 11 55 181 11 55 183 11 56
185 11 56 187 11 56 189 10 57 191 10 58 193 10 58 195 11 59 197 11 60
198 11 60 200 11 61 202 11 62 204 11 43 175 10 44 176 10 44 177 10 44
177 10 44 178 10 44 178 10 44 178 10 49 184 17 49 183 17 49 182 16 49
182 16 53 182 19 55 182 21 58 181 22 60 180 24 60 175 30 61 170 31 61
168 32 61 165 32 60 161 32 54 164 26 37 69 22 40 50 34 45 49 35 45 49
35 45 49 35 45 49 36 45 49 36 45 49 36 48 52 39 70 26 60 70 26 60 71
26 60 71 26 60 71 26 60 71 26 60 71 26 60 71 26 60 72 26 60 72 26 60
72 26 60 72 26 60 72 26 60 72 26 60 73 26 60 73 26 60 73 26 60 73 26
59 73 26 59 73 26 59 73 26 59 52 20 35 53 20 35 53 20 35 53 20 35 53
20 35 53 20 35 53 20 35 53 20 35 51 19 35 59 6 21 59 6 21 59 6 21 59 6
21 59 6 21 59 6 21 59 6 21 59 6 21 59 6 21 59 6 21 59 6 21 59 6 21 59
6 21 59 6 21 60 6 21 60 6 21 60 6 21 60 6 21 60 6 21
11 2 7 11 2 7 11 2 7 11 2 7 11 2 7 11 2 7 11 2 7 11 2 7 11 2 7 11 2 7
11 2 7 11 2 7 11 2 7 11 2 7 11 2 7 11 2 7 11 2 7 11 2 7 11 2 7 11 2 7
11 2 7 11 2 7 11 2 7 11 2 7 11 2 7 11 2 7 14 3 3 14 3 3 14 3 3 14 3 3
14 3 3 14 3 3 14 3 3 11 2 7 23 62 6 27 63 11 27 63 10 26 62 9 27 62 8
25 62 7 20 61 4 20 61 4 20 61 4 21 61 4 20 61 4 20 61 4 20 61 4 20 61
4 20 61 4 20 61 4 21 61 4 21 61 4 21 61 4 21 62 4 21 64 4 22 66 4 22
68 4 23 70 4 23 72 4 23 74 5 24 76 5 24 78 5 24 80 5 25 82 5 26 84 6
27 86 7 27 88 7 27 90 7 28 92 7 28 94 7 28 96 7 28 97 7 28 99 7 29 101
7 29 103 7 29 104 7 29 106 7 29 108 7 29 109 7 29 111 6 30 113 6 30
115 6 31 118 7 31 120 7 35 123 8 36 125 8 37 127 8 37 130 8 38 132 8
39 134 8 40 137 8 40 139 8 41 142 8 42 144 8 42 146 8 43 148 9 44 151
9 45 153 9 46 156 9 47 158 10 47 160 10 48 162 10 49 165 10 50 167 10
51 169 10 52 171 11 52 173 11 53 176 11 54 178 11 55 180 11 55 182 11
56 184 11 56 186 11 57 189 11 57 190 10 58 192 10 58 194 10 59 196 11
60 198 11 60 199 11 61 201 11 62 203 11 64 205 11 43 174 10 43 175 10
44 176 10 44 176 10 44 176 10 44 176 10 49 181 17 48 180 16 48 180 16
52 180 18 54 180 20 57 179 22 59 178 23 60 177 24 61 175 25 61 169 31
61 167 32 60 161 32 60 156 32 37 70 22 37 69 22 40 48 29 40 48 29 39
47 29 39 47 29 39 47 29 40 49 29 40 50 29 47 19 34 48 19 34 48 19 34
71 26 60 71 26 60 71 26 60 71 26 60 72 26 60 72 26 60 72 26 60 72 26
60 72 26 60 72 26 60 73 26 60 73 26 60 73 26 60 51 19 35 51 19 35 52
20 35 52 20 35 52 20 35 52 20 35 53 20 35 53 20 35 53 20 35 53 20 35
52 20 35 51 19 35 59 6 21 59 6 21 59 6 21 59 6 21 59 6 21 60 6 21 60 6
21 60 6 21 60 6 21 60 6 21 60 6 21 60 6 21 60 6 21 60 6 21 60 6 21 60
6 21 60 6 21 60 6 21 60 6 21 60 6 21 60 6 21
11 2 7 11 2 7 11 2 7 11 2 7 11 2 7 11 2 7 11 2 7 11 2 7 11 2 7 11 2 7
11 2 7 11 2 7 11 2 7 11 2 7 11 2 7 11 2 7 11 2 7 11 2 7 11 2 7 11 2 7
11 2 7 11 2 7 11 2 7 11 2 7 14 3 3 14 3 3 14 3 3 14 3 3 14 3 3 14 3 3
14 3 3 14 3 3 14 3 3 14 3 3 29 63 11 28 63 10 26 63 10 26 62 9 27 62 8
25 62 7 20 61 4 20 61 4 20 61 4 20 61 4 20 61 4 20 61 4 20 61 4 20 61
4 20 61 4 21 61 4 21 61 4 21 61 4 21 61 4 21 61 4 21 63 4 22 66 4 22
68 4 22 70 4 23 72 4 23 74 5 24 76 5 24 77 5 24 79 5 26 82 6 26 84 6
27 85 7 27 87 7 27 89 7 27 91 7 28 93 7 28 94 7 28 96 6 28 98 6 28 100
6 28 101 6 28 103 6 28 105 6 28 106 6 28 108 6 28 110 6 28 111 6 29
114 6 29 116 6 30 118 6 31 121 6 31 123 6 36 126 7 37 128 7 37 130 7
38 133 8 39 135 8 39 137 8 40 140 8 41 142 8 42 144 8 42 147 8 43 149
8 44 151 8 45 154 9 45 156 9 46 158 9 47 160 9 48 162 10 49 165 10 50
167 10 51 169 10 51 171 10 52 173 11 53 176 10 54 178 11 55 180 11 56
182 11 56 184 11 56 186 11 57 188 11 58 190 11 58 192 10 59 193 10 59
195 11 60 197 11 61 199 11 61 200 11 63 202 11 65 205 12 69 209 13 43
173 10 43 174 10 43 174 10 43 174 10 43 174 10 48 178 16 48 178 16 50
178 17 53 178 19 56 177 21 58 177 23 60 175 24 61 174 25 61 172 25 61
169 25 61 162 32 60 158 32 59 153 31 35 69 19 35 69 19 39 47 29 39 47
29 40 50 29 40 50 29 40 50 29 48 19 34 48 19 34 48 19 34 48 19 34 48
19 34 48 19 34 49 19 34 49 19 34 49 19 34 49 19 34 50 19 34 50 19 34
50 19 34 50 19 34 50 19 34 51 19 34 51 19 35 51 19 35 52 20 35 52 20
35 52 20 35 52 20 35 52 20 35 52 20 35 52 20 35 52 20 35 51 19 35 59 6
21 59 6 21 60 6 21 60 6 21 60 6 21 60 6 21 60 6 21 60 6 21 60 6 21 60
6 21 60 6 21 60 6 21 60 6 21 60 6 21 60 6 21 60 6 21 60 6 21 60 6 21
61 6 21 61 6 21 61 6 21 61 6 21 61 6 21
11 2 7 11 2 7 11 2 7 11 2 7 11 2 7 11 2 7 11 2 7 11 2 7 11 2 7 11 2 7
11 2 7 11 2 7 11 2 7 11 2 7 11 2 7 11 2 7 11 2 7 11 2 7 11 2 7 11 2 7
11 2 7 11 2 7 14 3 3 14 3 3 14 3 3 14 3 3 14 3 3 14 3 3 14 3 3 14 3 3
14 3 3 14 3 3 14 3 3 24 62 4 28 63 11 27 63 10 27 63 9 26 62 9 27 62 8
25 62 7 20 61 4 20 61 4 21 61 4 20 61 4 20 61 4 20 61 4 20 61 4 20 61
4 20 61 4 21 61 4 21 61 4 21 61 4 21 61 4 21 61 4 21 63 4 22 65 4 22
67 4 22 69 4 23 71 4 23 73 5 24 75 5 24 77 5 26 79 6 26 81 6 26 83 6
26 85 6 27 86 6 27 88 6 27 90 6 27 92 6 27 93 6 27 95 6 27 97 6 27 99
6 27 100 6 27 102 6 27 103 6 27 105 5 27 107 5 27 108 5 28 110 6 28
112 6 29 115 6 30 117 6 30 119 6 31 122 6 32 124 6 33 126 6 37 129 7
38 131 7 38 133 8 39 136 8 40 138 8 40 140 8 41 142 8 42 145 8 43 147
8 43 149 8 44 151 8 45 154 9 46 156 9 47 158 9 47 160 9 48 162 9 49
165 10 49 167 10 51 169 10 51 171 10 52 173 10 53 176 10 54 178 10 55
180 10 56 182 11 56 184 11 57 186 11 57 188 11 58 189 11 58 191 10 59
193 10 59 194 11 60 196 11 61 198 11 62 199 11 63 201 11 66 204 12 71
209 14 43 172 10 43 172 10 43 172 10 43 172 10 43 172 10 48 176 16 48
176 16 52 176 19 55 175 21 58 175 22 59 174 24 61 172 25 61 170 25 61
168 25 61 165 25 61 161 26 60 157 26 39 63 21 39 63 21 40 50 29 40 50
29 40 50 29 40 50 29 48 19 34 48 19 34 48 19 34 48 19 34 48 19 34 49
19 34 49 19 34 49 19 34 49 19 34 49 19 34 50 19 34 50 19 34 50 19 34
50 19 34 50 19 34 51 19 34 51 19 35 51 19 35 51 19 35 52 20 35 52 20
35 52 20 35 52 20 35 52 20 35 51 19 35 59 6 21 60 6 21 60 6 21 60 6 21
60 6 21 60 6 21 60 6 21 60 6 21 60 6 21 60 6 21 60 6 21 60 6 21 61 6
21 61 6 21 61 6 21 61 6 21 61 6 21 61 6 21 61 6 21 61 6 21 61 6 21 61
6 21 61 6 21 61 6 21 61 6 21 61 6 21
11 2 7 11 2 7 11 2 7 11 2 7 11 2 7 11 2 7 11 2 7 11 2 7 11 2 7 11 2 7
11 2 7 11 2 7 11 2 7 11 2 7 11 2 7 11 2 7 11 2 7 11 2 7 11 2 7 11 2 7
11 2 7 14 3 3 14 3 3 14 3 3 14 3 3 14 3 3 14 3 3 14 3 3 14 3 3 14 3 3
14 3 3 14 3 3 14 3 3 23 62 5 28 63 11 27 63 10 27 63 9 26 62 8 27 62 8
25 62 7 20 61 4 20 61 4 20 61 4 20 61 4 20 61 4 20 61 4 20 61 4 20 61
4 21 61 4 21 61 4 21 61 4 21 61 4 21 61 4 21 61 4 21 62 4 22 64 4 22
66 4 22 68 4 23 70 4 23 72 5 23 74 5 25 76 6 25 78 6 26 80 6 26 82 6
26 84 6 26 85 6 26 87 6 26 89 6 26 91 6 26 92 6 26 94 5 26 96 5 26 97
5 26 99 5 26 100 5 26 102 5 27 104 5 27 106 5 27 107 5 28 109 6 28 111
6 29 113 6 29 115 6 30 118 6 31 120 6 31 122 6 32 125 6 33 127 6 34
129 6 38 132 8 39 134 8 39 136 8 40 138 8 41 141 8 41 143 8 42 145 8
43 147 8 44 149 8 45 152 9 45 154 9 46 156 9 47 158 9 47 160 9 48 163
9 49 165 10 50 167 10 50 169 10 51 171 10 52 173 10 53 175 10 54 177
10 55 179 10 56 181 11 56 183 11 57 185 11 57 187 11 58 189 11 59 190
11 59 192 10 59 194 11 60 195 11 61 197 11 62 198 11 64 201 11 67 204
12 72 208 14 78 213 16 43 170 10 43 170 10 43 170 10 43 169 10 47 173
16 49 173 17 53 173 20 57 172 22 59 172 23 60 170 24 61 168 25 61 166
25 61 163 25 61 160 26 61 156 26 39 67 15 40 67 15 39 68 16 47 19 34
48 19 34 48 19 34 48 19 34 48 19 34 48 19 34 48 19 34 49 19 34 49 19
34 49 19 34 49 19 34 49 19 34 50 19 34 50 19 34 50 19 34 50 19 34 50
19 34 51 19 34 51 19 34 51 19 35 51 19 35 51 19 35 51 19 35 51 19 35
51 19 34 59 6 21 60 6 21 60 6 21 60 6 21 60 6 21 60 6 21 60 6 21 60 6
21 60 6 21 60 6 21 61 6 21 61 6 21 61 6 21 61 6 21 61 6 21 61 6 21 61
6 21 61 6 21 61 6 21 61 6 21 61 6 21 61 6 21 61 6 21 61 6 21 61 6 21
61 6 21 62 6 21 62 6 21 62 6 21
11 2 7 11 2 7 11 2 7 11 2 7 11 2 7 11 2 7 11 2 7 11 2 7 11 2 7 11 2 7
11 2 7 11 2 7 11 2 7 11 2 7 11 2 7 11 2 7 11 2 7 11 2 7 11 2 7 11 2 7
14 3 3 14 3 3 14 3 3 14 3 3 14 3 3 14 3 3 14 3 3 14 3 3 14 3 3 14 3 3
14 3 3 14 3 3 14 3 3 23 62 5 28 63 11 27 63 10 27 63 9 26 62 8 25 62 7
25 62 7 20 61 4 21 61 4 20 61 4 20 61 4 20 61 4 20 61 4 20 61 4 21 61
4 21 61 4 21 61 4 21 61 4 21 61 4 21 61 4 21 61 4 21 61 4 21 63 4 22
65 4 22 67 4 23 69 4 23 71 5 25 73 6 25 75 6 25 77 6 25 79 6 25 81 6
25 83 6 25 84 6 25 86 5 25 88 5 25 89 5 25 91 5 25 93 5 25 94 5 25 96
5 26 98 5 26 99 5 26 101 5 26 103 5 27 104 5 27 106 5 27 108 5 28 109
6 28 112 6 29 114 6 30 116 6 30 118 6 31 121 6 32 123 6 32 126 6 33
128 6 34 130 6 38 133 8 39 135 8 40 137 8 40 139 8 41 141 8 42 144 8
43 146 8 43 148 8 44 150 8 45 152 9 46 154 9 46 156 9 47 158 9 48 160
9 48 162 9 49 165 10 50 167 10 51 169 10 51 171 10 52 173 10 52 175 10
53 177 10 54 179 10 55 181 10 56 183 11 57 184 11 57 186 11 58 188 11
59 190 11 59 191 10 60 193 11 60 194 11 61 196 11 62 197 11 64 200 11
67 202 12 71 206 13 74 209 14 42 168 9 42 167 9 42 167 10 42 167 9 42
166 9 50 171 18 54 170 20 58 169 22 60 168 24 61 167 25 61 165 25 60
162 25 61 159 26 61 155 25 54 148 18 40 67 15 40 67 15 56 5 20 56 5 20
56 5 20 56 5 20 48 19 34 48 19 34 48 19 34 49 19 34 49 19 34 49 19 34
49 19 34 49 19 34 50 19 34 50 19 34 50 19 34 50 19 34 50 19 34 50 19
34 50 19 34 50 19 34 50 19 34 59 6 21 59 6 21 59 6 21 60 6 21 60 6 21
60 6 21 60 6 21 60 6 21 60 6 21 60 6 21 60 6 21 61 6 21 61 6 21 61 6
21 61 6 21 61 6 21 61 6 21 61 6 21 61 6 21 61 6 21 61 6 21 61 6 21 62
6 21 62 6 21 62 6 21 62 6 21 62 6 21 62 6 21 62 6 21 62 6 21 62 6 21
62 6 21 62 6 22
11 2 7 11 2 7 11 2 7 11 2 7 11 2 7 11 2 7 11 2 7 11 2 7 11 2 7 11 2 7
11 2 7 11 2 7 11 2 7 11 2 7 11 2 7 11 2 7 11 2 7 11 2 7 11 2 7 14 3 3
14 3 3 14 3 3 14 3 3 14 3 3 14 3 3 14 3 3 14 3 3 14 3 3 14 3 3 14 3 3
14 3 3 14 3 3 14 3 3 23 62 5 28 63 11 27 63 10 27 63 9 26 62 8 25 62 7
25 62 6 20 61 4 20 61 4 20 61 4 20 61 4 20 61 4 20 61 4 20 61 4 21 61
4 21 61 4 21 61 4 21 61 4 21 61 4 21 61 4 21 61 4 21 61 4 21 63 4 22
65 4 22 67 4 23 69 4 24 71 6 24 73 6 25 74 6 25 76 6 25 78 6 25 80 5
24 81 5 24 83 5 24 85 5 24 87 5 24 88 5 24 90 5 25 92 5 25 93 5 25 95
5 25 97 5 26 98 5 26 100 5 26 101 5 27 103 5 27 105 5 27 107 5 28 108
5 28 110 6 29 113 6 29 115 6 30 117 6 31 119 6 31 122 6 32 124 6 33
126 6 34 128 6 34 130 6 35 133 6 39 135 8 40 137 8 41 139 8 41 142 8
42 144 8 43 146 8 43 148 8 44 150 9 45 152 9 46 154 9 46 156 9 47 158
9 48 160 9 49 162 9 50 164 10 50 166 10 51 168 10 51 171 9 52 173 10
52 174 9 53 176 10 54 178 10 55 180 10 56 182 10 57 184 11 58 185 11
58 187 11 59 189 11 59 190 10 60 191 11 60 193 11 61 194 11 62 196 11
64 198 11 66 200 12 68 202 12 70 204 13 70 205 13 42 165 9 42 165 9 42
164 9 42 163 9 50 168 18 55 167 21 58 166 23 60 165 24 60 163 25 60
160 25 61 157 25 60 154 25 54 147 18 40 67 15 42 63 11 56 5 20 56 5 20
56 5 20 56 5 20 57 5 20 57 5 20 57 5 20 57 5 20 57 5 20 58 5 20 58 5
20 58 5 20 58 5 20 58 5 20 58 5 20 59 6 21 59 6 21 59 6 21 59 6 21 59
6 21 59 6 21 59 6 21 60 6 21 60 6 21 60 6 21 60 6 21 60 6 21 60 6 21
60 6 21 61 6 21 61 6 21 61 6 21 61 6 21 61 6 21 61 6 21 61 6 21 61 6
21 61 6 21 62 6 21 62 6 21 62 6 21 62 6 21 62 6 21 62 6 21 62 6 22 62
6 22 62 6 22 62 6 22 62 6 22 62 6 22 62 6 22 62 6 22 62 6 22 62 6 22
11 2 7 11 2 7 11 2 7 11 2 7 11 2 7 11 2 7 11 2 7 11 2 7 11 2 7 11 2 7
11 2 7 11 2 7 11 2 7 11 2 7 11 2 7 11 2 7 11 2 7 11 2 7 11 2 7 14 3 3
14 3 3 14 3 3 14 3 3 14 3 3 14 3 3 14 3 3 14 3 3 14 3 3 14 3 3 14 3 3
14 3 3 14 3 3 24 62 4 23 62 5 28 63 11 27 63 10 26 63 9 26 62 8 25 62
7 26 62 7 21 61 4 20 61 4 20 61 4 20 61 4 20 61 4 20 61 4 21 61 4 21
61 4 21 61 4 21 61 4 21 61 4 21 61 4 21 61 4 21 61 4 21 61 4 21 62 4
22 64 4 22 66 4 23 68 4 24 70 6 24 72 6 24 73 6 24 75 5 24 77 5 24 79
5 23 80 5 23 82 5 23 84 4 24 85 4 24 87 5 24 89 5 24 91 5 25 92 5 25
94 5 25 96 5 26 97 5 26 99 5 26 101 5 26 102 5 27 104 5 27 105 5 27
107 5 28 109 6 28 111 6 29 113 6 30 116 6 31 118 6 31 120 6 32 122 6
33 124 6 33 127 6 34 129 6 35 131 7 35 133 7 40 135 8 40 138 8 41 140
8 42 142 8 42 144 8 43 146 8 44 148 8 45 150 9 45 152 9 46 154 9 47
155 9 47 157 9 48 159 9 49 162 9 50 164 10 50 166 10 51 168 9 51 170 9
52 172 9 53 174 9 53 176 10 54 178 10 55 179 10 56 181 10 57 183 11 58
185 11 58 186 11 59 188 11 60 189 11 60 190 11 60 192 11 61 193 11 62
195 11 63 196 11 65 198 11 66 199 12 67 200 12 66 200 11 42 163 9 41
162 9 41 161 9 41 160 9 41 159 9 55 164 21 59 163 23 60 161 24 60 159
25 60 156 25 55 151 19 54 146 18 53 140 18 43 63 11 56 5 20 56 5 20 56
5 20 57 5 20 57 5 20 57 5 20 57 5 20 57 5 20 58 5 20 58 5 20 58 5 20
58 5 20 58 5 20 58 5 21 59 6 21 59 6 21 59 6 21 59 6 21 59 6 21 59 6
21 60 6 21 60 6 21 60 6 21 60 6 21 60 6 21 60 6 21 60 6 21 61 6 21 61
6 21 61 6 21 61 6 21 61 6 21 61 6 21 61 6 21 61 6 21 62 6 21 62 6 21
62 6 21 62 6 21 62 6 22 62 6 22 62 6 22 62 6 22 62 6 22 62 6 22 63 6
22 63 6 22 63 6 22 63 6 22 63 6 22 63 6 22 63 6 22 63 6 22 63 6 22
11 2 7 11 2 7 11 2 7 11 2 7 11 2 7 11 2 7 11 2 7 11 2 7 11 2 7 11 2 7
11 2 7 11 2 7 11 2 7 11 2 7 11 2 7 11 2 7 11 2 7 11 2 7 14 3 3 14 3 3
14 3 3 14 3 3 14 3 3 14 3 3 14 3 3 14 3 3 14 3 3 14 3 3 14 3 3 14 3 3
14 3 3 14 3 3 23 62 5 23 62 5 28 63 11 27 63 10 26 63 9 26 63 8 25 62
7 26 62 7 24 62 6 20 61 4 20 61 4 20 61 4 20 61 4 21 61 4 21 61 4 21
61 4 21 61 4 21 61 4 21 61 4 21 61 4 21 61 4 21 61 4 21 61 4 21 61 4
22 63 4 22 65 4 24 67 6 24 69 5 24 71 5 23 72 5 23 74 5 23 76 5 23 78
4 22 79 4 23 81 4 23 83 4 23 84 4 24 86 4 24 88 5 24 89 5 25 91 5 25
93 5 25 94 5 25 96 5 26 98 5 26 99 5 26 101 5 27 103 5 27 104 5 27 106
5 27 107 6 28 110 6 29 112 6 29 114 6 30 116 6 31 118 6 31 120 6 32
123 6 33 125 6 34 127 6 34 129 7 35 131 7 35 133 7 36 135 7 41 138 8
41 140 8 42 142 8 43 144 8 43 146 8 44 148 8 45 150 9 46 152 9 46 154
9 47 155 9 47 157 9 48 160 9 49 162 10 50 164 10 50 166 9 51 168 9 51
170 9 52 172 9 53 173 9 53 175 9 54 177 10 55 179 10 56 180 10 57 182
10 58 184 11 58 185 11 59 187 11 60 188 11 60 189 10 60 190 10 61 192
11 62 193 11 63 194 11 64 195 11 64 196 11 65 197 11 65 197 11 41 160
9 41 159 9 41 158 9 41 157 9 45 157 12 47 155 13 57 159 22 59 157 23
59 154 24 55 149 19 54 145 18 55 136 14 43 63 11 56 5 20 57 5 20 57 5
20 57 5 20 57 5 20 57 5 20 57 5 20 58 5 20 58 5 20 58 5 20 58 5 20 58
5 20 59 6 21 59 6 21 59 6 21 59 6 21 59 6 21 59 6 21 60 6 21 60 6 21
60 6 21 60 6 21 60 6 21 60 6 21 60 6 21 61 6 21 61 6 21 61 6 21 61 6
21 61 6 21 61 6 21 61 6 21 62 6 21 62 6 21 62 6 21 62 6 21 62 6 22 62
6 22 62 6 22 62 6 22 62 6 22 63 6 22 63 6 22 63 6 22 63 6 22 63 6 22
63 6 22 63 6 22 63 6 22 63 6 22 63 6 22 63 6 22 63 6 22 63 6 22
11 2 7 11 2 7 11 2 7 11 2 7 11 2 7 11 2 7 11 2 7 11 2 7 11 2 7 11 2 7
11 2 7 11 2 7 11 2 7 11 2 7 11 2 7 11 2 7 11 2 7 11 2 7 14 3 3 14 3 3
14 3 3 14 3 3 14 3 3 14 3 3 14 3 3 14 3 3 14 3 3 14 3 3 14 3 3 14 3 3
14 3 3 14 3 3 23 62 5 29 63 11 28 63 11 27 63 10 27 63 9 26 63 8 25 62
7 25 62 7 24 62 6 20 61 4 20 61 4 20 61 4 20 61 4 21 61 4 21 61 4 21
61 4 21 61 4 21 61 4 21 61 4 21 61 4 21 61 4 21 61 4 21 61 4 21 61 4
22 62 4 23 64 5 23 66 5 23 68 5 23 70 5 22 71 5 22 73 4 22 75 4 22 77
4 22 78 4 23 80 4 23 82 4 23 83 4 23 85 4 24 87 5 24 88 5 24 90 5 25
92 5 25 93 5 25 95 5 26 97 5 26 98 5 26 100 5 26 101 5 27 103 5 27 105
5 27 106 5 28 108 6 29 110 6 29 112 6 30 115 6 31 117 6 31 119 6 32
121 6 32 123 6 33 125 6 34 127 6 34 129 7 35 132 7 36 134 7 36 136 7
41 138 8 42 140 8 42 142 8 43 144 8 43 146 8 44 148 8 45 150 9 46 152
9 47 154 9 47 156 9 48 158 9 49 160 10 49 162 10 50 164 9 50 166 9 51
167 9 52 169 9 52 171 9 53 173 9 54 174 9 54 176 10 55 178 10 56 179
10 57 181 10 58 182 11 58 184 11 59 185 11 60 187 11 60 188 10 60 189
10 61 190 10 62 191 11 62 192 11 63 193 11 63 194 11 64 194 11 64 195
11 65 195 11 41 156 9 40 155 9 45 155 12 47 153 13 50 152 15 52 150 17
55 148 18 59 145 20 55 140 14 55 135 14 43 63 11 43 63 11 57 5 20 57 5
20 57 5 20 57 5 20 57 5 20 58 5 20 58 5 20 58 5 20 58 5 20 58 5 20 59
6 21 59 6 21 59 6 21 59 6 21 59 6 21 59 6 21 60 6 21 60 6 21 60 6 21
60 6 21 60 6 21 60 6 21 61 6 21 61 6 21 61 6 21 61 6 21 61 6 21 61 6
21 61 6 21 62 6 21 62 6 21 62 6 21 62 6 21 62 6 22 62 6 22 62 6 22 62
6 22 63 6 22 63 6 22 63 6 22 63 6 22 63 6 22 63 6 22 63 6 22 63 6 22
63 6 22 63 6 22 63 6 22 64 6 22 64 6 22 64 6 22 64 6 22 64 6 22
11 2 7 11 2 7 11 2 7 11 2 7 11 2 7 11 2 7 11 2 7 11 2 7 11 2 7 11 2 7
11 2 7 11 2 7 11 2 7 11 2 7 11 2 7 11 2 7 11 2 7 14 3 3 14 3 3 14 3 3
14 3 3 14 3 3 14 3 3 14 3 3 14 3 3 14 3 3 14 3 3 14 3 3 14 3 3 14 3 3
14 3 3 14 3 3 23 62 5 29 63 11 28 63 11 27 63 10 27 63 9 26 63 8 26 62
8 25 62 7 24 62 6 20 61 4 20 61 4 20 61 4 20 61 4 21 61 4 21 61 4 21
61 4 21 61 4 21 61 4 21 61 4 21 61 4 21 61 4 21 61 4 21 61 4 21 61 4
23 62 5 23 64 5 22 65 5 22 67 5 22 69 4 21 70 4 21 72 4 22 74 4 22 76
4 22 77 4 22 79 4 23 81 4 23 82 4 23 84 4 24 86 4 24 87 5 24 89 5 24
91 5 25 92 5 25 94 5 25 95 5 26 97 5 26 99 5 26 100 5 27 102 5 27 103
5 27 105 6 28 106 6 28 109 6 29 111 6 30 113 6 30 115 6 31 117 6 31
119 6 32 121 6 33 123 6 33 125 6 34 128 6 34 130 6 35 132 7 36 134 7
37 136 7 37 138 7 42 140 8 43 142 8 43 144 8 44 146 8 45 148 9 45 150
9 46 152 9 47 153 9 48 155 9 48 157 10 49 159 10 49 162 9 50 163 9 50
165 9 51 167 9 52 169 9 52 170 9 53 172 9 54 174 9 54 175 10 55 177 10
56 178 10 57 180 10 58 181 10 58 183 11 59 184 11 59 185 10 60 186 10
60 187 10 61 188 10 61 189 10 62 190 10 63 191 10 63 191 10 63 192 10
64 192 10 64 192 10 43 154 11 45 153 12 48 152 14 50 150 15 53 148 17
56 146 18 59 144 20 55 138 14 55 134 14 54 127 14 43 63 11 57 5 20 57
5 20 57 5 20 57 5 20 58 5 20 58 5 20 58 5 20 58 5 20 58 5 20 59 6 21
59 6 21 59 6 21 59 6 21 59 6 21 59 6 21 60 6 21 60 6 21 60 6 21 60 6
21 60 6 21 61 6 21 61 6 21 61 6 21 61 6 21 61 6 21 61 6 21 61 6 21 62
6 21 62 6 21 62 6 21 62 6 22 62 6 22 62 6 22 62 6 22 63 6 22 63 6 22
63 6 22 63 6 22 63 6 22 63 6 22 63 6 22 63 6 22 63 6 22 63 6 22 64 6
22 64 6 22 64 6 22 64 6 22 64 6 22 64 6 22 64 6 22 64 6 22 64 6 22
11 2 7 11 2 7 11 2 7 11 2 7 11 2 7 11 2 7 11 2 7 11 2 7 11 2 7 11 2 7
11 2 7 11 2 7 11 2 7 11 2 7 11 2 7 11 2 7 11 2 7 14 3 3 14 3 3 14 3 3
14 3 3 14 3 3 14 3 3 14 3 3 14 3 3 14 3 3 14 3 3 14 3 3 14 3 3 14 3 3
14 3 3 14 3 3 23 62 5 29 63 11 28 63 11 27 63 10 27 63 9 26 63 8 26 62
8 25 62 7 25 62 6 20 61 4 20 61 4 20 61 4 21 61 4 21 61 4 21 61 4 21
61 4 21 61 4 21 61 4 21 61 4 21 61 4 21 61 4 21 61 4 21 61 4 22 62 5
22 61 5 22 63 5 21 64 4 21 66 4 21 68 4 21 69 4 21 71 4 21 73 4 22 75
4 22 76 4 22 78 4 23 80 4 23 81 4 23 83 4 23 85 4 24 86 5 24 88 5 24
89 5 25 91 5 25 93 5 25 94 5 25 96 5 26 97 5 26 99 5 27 100 5 27 102 5
27 103 6 27 105 6 28 107 6 29 109 6 29 111 6 30 113 6 30 115 6 31 117
6 32 120 6 32 122 6 33 124 6 34 126 6 34 128 6 35 130 6 36 132 7 36
134 7 37 136 7 38 138 7 42 140 8 43 142 8 43 144 8 44 146 8 44 148 8
46 149 9 46 151 9 47 153 9 48 155 9 48 157 10 49 159 9 49 161 9 50 163
9 50 164 9 51 166 9 52 168 9 52 169 9 53 171 9 54 173 9 54 174 9 55
176 10 56 177 10 57 179 10 58 180 10 58 181 11 59 183 11 59 184 10 59
185 10 60 186 10 61 187 10 61 187 10 62 188 10 62 189 10 63 189 10 63
189 10 64 190 10 68 190 13 46 151 13 48 150 14 50 148 16 53 147 17 56
145 19 60 142 21 55 137 14 55 132 14 54 126 14 43 63 11 57 5 20 57 5
20 57 5 20 58 5 20 58 5 20 58 5 20 58 5 20 58 5 20 59 6 21 59 6 21 59
6 21 59 6 21 59 6 21 60 6 21 60 6 21 60 6 21 60 6 21 60 6 21 60 6 21
61 6 21 61 6 21 61 6 21 61 6 21 61 6 21 61 6 21 62 6 21 62 6 21 62 6
21 62 6 21 62 6 22 62 6 22 62 6 22 63 6 22 63 6 22 63 6 22 63 6 22 63
6 22 63 6 22 63 6 22 63 6 22 64 6 22 64 6 22 64 6 22 64 6 22 64 6 22
64 6 22 64 6 22 64 6 22 64 6 22 64 6 22 64 6 22 64 6 22 64 6 22
11 2 7 11 2 7 11 2 7 11 2 7 11 2 7 11 2 7 11 2 7 11 2 7 11 2 7 11 2 7
11 2 7 11 2 7 11 2 7 11 2 7 11 2 7 11 2 7 11 2 7 14 3 3 14 3 3 14 3 3
14 3 3 14 3 3 14 3 3 14 3 3 14 3 3 14 3 3 14 3 3 14 3 3 14 3 3 14 3 3
14 3 3 24 62 4 23 62 5 29 63 11 28 63 11 27 63 10 27 63 9 27 63 9 26
62 8 25 62 7 24 62 6 23 62 6 20 61 4 20 61 4 21 61 4 21 61 4 21 61 4
21 61 4 21 61 4 21 61 4 21 61 4 21 61 4 21 61 4 21 61 4 22 61 4 22 61
5 22 61 5 21 62 4 20 63 4 20 65 4 20 67 4 21 68 4 21 70 4 21 72 4 21
73 4 22 75 4 22 77 4 22 78 4 23 80 4 23 82 4 23 83 4 24 85 4 24 87 5
24 88 5 24 90 5 25 91 5 25 93 5 25 94 5 26 96 5 26 98 5 26 99 5 26 101
5 27 102 5 27 104 6 27 105 6 28 107 6 29 109 6 29 112 6 30 114 6 31
116 6 31 118 6 32 120 6 33 122 6 33 124 6 34 126 6 34 128 6 35 130 6
36 132 7 36 134 7 37 136 7 38 138 7 42 140 8 43 142 8 44 144 8 44 146
8 45 148 8 46 150 9 46 151 9 47 153 9 48 155 9 48 157 9 49 159 9 49
160 9 50 162 9 50 164 9 51 165 9 52 167 9 53 169 9 53 170 9 54 172 9
54 173 9 55 175 10 56 176 10 57 177 10 57 179 10 58 180 11 59 181 11
59 182 10 59 183 10 60 184 10 61 185 10 61 185 10 62 186 10 62 186 10
63 187 10 63 187 10 68 188 13 71 188 15 48 148 14 51 146 16 54 145 18
57 143 19 59 140 21 55 135 14 55 131 14 54 125 14 43 63 11 57 5 20 57
5 20 58 5 20 58 5 20 58 5 20 58 5 20 58 5 20 59 6 21 59 6 21 59 6 21
59 6 21 59 6 21 60 6 21 60 6 21 60 6 21 60 6 21 60 6 21 60 6 21 61 6
21 61 6 21 61 6 21 61 6 21 61 6 21 61 6 21 62 6 21 62 6 21 62 6 21 62
6 22 62 6 22 62 6 22 63 6 22 63 6 22 63 6 22 63 6 22 63 6 22 63 6 22
63 6 22 63 6 22 64 6 22 64 6 22 64 6 22 64 6 22 64 6 22 64 6 22 64 6
22 64 6 22 64 6 22 64 6 22 65 6 22 65 6 22 65 6 22 65 6 22 65 6 22
11 2 7 11 2 7 11 2 7 11 2 7 11 2 7 11 2 7 11 2 7 11 2 7 11 2 7 11 2 7
11 2 7 11 2 7 11 2 7 11 2 7 11 2 7 11 2 7 11 2 7 14 3 3 14 3 3 14 3 3
14 3 3 14 3 3 14 3 3 14 3 3 14 3 3 14 3 3 14 3 3 14 3 3 14 3 3 14 3 3
14 3 3 24 62 4 23 62 5 29 63 11 28 63 11 28 63 10 27 63 9 27 63 9 26
63 8 25 62 7 24 62 7 24 62 6 20 61 4 21 61 4 21 61 4 21 61 4 21 61 4
21 61 4 21 61 4 21 61 4 21 61 4 21 61 4 21 61 4 21 61 4 22 61 5 22 61
5 21 61 4 20 61 4 20 62 3 20 64 4 20 66 4 20 67 4 21 69 4 21 71 4 21
72 4 22 74 4 22 76 4 22 77 4 22 79 4 23 81 4 23 82 4 23 84 4 24 85 4
24 87 5 24 89 5 25 90 5 25 92 5 25 93 5 25 95 5 26 96 5 26 98 5 26 99
5 26 101 5 26 102 5 27 104 5 27 106 5 28 108 5 29 110 6 30 112 6 30
114 6 31 116 6 31 118 6 32 120 6 33 122 6 33 124 6 34 126 6 35 128 6
35 130 7 36 132 7 37 134 7 37 136 7 38 138 7 43 140 8 43 142 8 44 144
8 44 146 8 45 147 8 46 149 8 47 151 9 47 153 9 48 155 9 48 156 9 49
158 9 49 160 9 50 161 9 51 163 9 51 165 9 52 166 9 53 168 9 53 169 9
54 171 9 54 172 9 55 173 9 56 175 10 57 176 10 57 177 10 58 178 10 58
179 10 59 180 10 59 181 10 60 182 10 60 183 10 61 183 10 61 184 10 62
184 10 66 185 13 69 185 14 71 185 15 74 185 16 77 185 18 55 143 18 57
141 19 59 139 21 55 134 14 55 129 14 54 124 14 52 115 14 57 5 20 58 5
20 58 5 20 58 5 20 58 5 20 58 5 20 59 6 21 59 6 21 59 6 21 59 6 21 59
6 21 60 6 21 60 6 21 60 6 21 60 6 21 60 6 21 60 6 21 61 6 21 61 6 21
61 6 21 61 6 21 61 6 21 61 6 21 62 6 21 62 6 21 62 6 21 62 6 22 62 6
22 62 6 22 63 6 22 63 6 22 63 6 22 63 6 22 63 6 22 63 6 22 63 6 22 64
6 22 64 6 22 64 6 22 64 6 22 64 6 22 64 6 22 64 6 22 64 6 22 64 6 22
65 6 22 65 6 22 65 6 22 65 6 22 65 6 22 65 6 22 65 6 22 65 6 22
11 2 7 11 2 7 11 2 7 11 2 7 11 2 7 11 2 7 11 2 7 11 2 7 11 2 7 11 2 7
11 2 7 11 2 7 11 2 7 11 2 7 11 2 7 11 2 7 11 2 7 14 3 3 14 3 3 14 3 3
14 3 3 14 3 3 14 3 3 14 3 3 14 3 3 14 3 3 14 3 3 14 3 3 14 3 3 14 3 3
14 3 3 24 62 4 23 62 5 23 62 5 28 63 11 28 63 10 27 63 10 27 63 9 26
63 8 25 62 7 24 62 7 24 62 7 20 61 4 21 61 4 21 61 4 21 61 4 21 61 4
21 61 4 21 61 4 21 61 4 21 61 4 21 61 4 21 61 4 22 61 5 22 61 5 21 61
4 20 61 4 19 61 3 19 61 3 20 63 3 20 65 4 20 66 4 21 68 4 21 70 4 21
71 4 21 73 4 22 75 4 22 76 4 22 78 4 23 80 4 23 81 4 23 83 4 23 84 4
24 86 5 24 87 5 24 89 5 25 90 5 25 92 5 25 93 5 25 95 5 25 96 5 26 98
5 26 99 5 26 101 5 26 102 5 27 104 5 28 106 5 28 108 5 29 110 6 29 112
6 30 114 6 31 116 6 32 118 6 32 120 6 33 122 6 34 124 6 34 126 6 35
128 6 36 130 7 36 132 7 37 134 7 37 136 7 38 138 7 43 140 8 43 142 8
44 143 8 45 145 8 45 147 8 46 149 8 46 151 8 47 152 8 47 154 9 48 156
9 49 157 9 49 159 9 50 161 9 51 162 9 51 164 9 52 165 9 53 167 9 53
168 9 54 169 9 54 171 9 55 172 9 56 173 9 57 175 10 57 176 10 58 177
10 58 178 10 59 178 10 59 179 10 60 180 10 60 181 10 61 181 10 61 181
10 66 182 13 69 183 14 72 183 16 75 183 17 78 182 18 81 182 20 58 139
20 60 137 21 55 132 14 55 128 14 54 122 14 52 114 14 58 5 20 58 5 20
58 5 20 58 5 20 58 5 20 59 6 21 59 6 21 59 6 21 59 6 21 59 6 21 59 6
21 60 6 21 60 6 21 60 6 21 60 6 21 60 6 21 61 6 21 61 6 21 61 6 21 61
6 21 61 6 21 62 6 21 62 6 21 62 6 21 62 6 22 62 6 22 62 6 22 63 6 22
63 6 22 63 6 22 63 6 22 63 6 22 63 6 22 63 6 22 64 6 22 64 6 22 64 6
22 64 6 22 64 6 22 64 6 22 64 6 22 64 6 22 65 6 22 65 6 22 65 6 22 65
6 22 65 6 22 65 6 22 65 6 22 65 6 22 65 6 22 65 6 22 65 6 22
11 2 7 11 2 7 11 2 7 11 2 7 11 2 7 11 2 7 11 2 7 11 2 7 11 2 7 11 2 7
11 2 7 11 2 7 11 2 7 11 2 7 11 2 7 11 2 7 11 2 7 11 2 7 14 3 3 14 3 3
14 3 3 14 3 3 14 3 3 14 3 3 14 3 3 14 3 3 14 3 3 14 3 3 14 3 3 14 3 3
14 3 3 23 62 5 23 62 5 23 62 5 28 63 11 28 63 10 28 63 10 27 63 9 26
63 8 25 62 8 24 62 7 25 62 7 23 62 6 21 61 4 21 61 4 21 61 4 21 61 4
21 61 4 21 61 4 21 61 4 21 61 4 21 61 4 21 61 4 22 61 5 21 61 4 20 61
4 19 61 3 19 61 3 19 61 3 20 62 3 20 64 4 20 65 4 20 67 4 21 69 4 21
70 4 21 72 4 22 74 4 22 75 4 22 77 4 22 78 4 23 80 4 23 81 4 23 83 4
24 85 5 24 86 5 24 88 5 25 89 5 25 91 5 25 92 5 25 94 5 25 95 5 25 96
5 26 98 5 26 99 5 26 101 5 27 102 5 27 104 5 28 106 5 28 108 5 29 110
6 30 112 6 30 114 6 31 116 6 32 118 6 33 120 6 33 122 6 34 124 6 34
126 6 35 128 6 36 130 7 36 132 7 37 134 7 38 135 7 38 137 7 43 139 8
44 141 8 44 143 8 45 145 8 45 147 8 46 148 8 46 150 8 47 152 8 48 153
9 48 155 9 49 157 9 49 158 9 50 160 9 51 161 9 51 163 9 52 164 9 53
166 9 53 167 9 54 168 9 54 170 9 55 171 9 56 172 10 57 173 10 57 174
10 58 175 10 58 176 10 59 177 10 59 177 10 60 178 10 60 178 10 64 179
12 67 180 13 69 180 15 72 180 16 75 180 17 78 180 19 82 179 20 85 179
22 60 135 22 55 130 14 55 126 14 54 121 14 52 113 14 58 5 20 58 5 20
58 5 20 58 5 20 58 5 21 59 6 21 59 6 21 59 6 21 59 6 21 59 6 21 60 6
21 60 6 21 60 6 21 60 6 21 60 6 21 61 6 21 61 6 21 61 6 21 61 6 21 61
6 21 62 6 21 62 6 21 62 6 21 62 6 22 62 6 22 62 6 22 63 6 22 63 6 22
63 6 22 63 6 22 63 6 22 63 6 22 63 6 22 64 6 22 64 6 22 64 6 22 64 6
22 64 6 22 64 6 22 64 6 22 65 6 22 65 6 22 65 6 22 65 6 22 65 6 22 65
6 22 65 6 22 65 6 22 65 6 22 66 6 22 66 6 23 66 6 23 66 6 23
11 2 7 11 2 7 11 2 7 11 2 7 11 2 7 11 2 7 11 2 7 11 2 7 11 2 7 11 2 7
11 2 7 11 2 7 11 2 7 11 2 7 11 2 7 11 2 7 11 2 7 11 2 7 14 3 3 14 3 3
14 3 3 14 3 3 14 3 3 14 3 3 14 3 3 14 3 3 14 3 3 14 3 3 14 3 3 14 3 3
14 3 3 23 62 5 23 62 5 23 62 5 28 63 11 28 63 11 28 63 10 27 63 9 26
63 9 25 62 8 25 62 8 24 62 7 24 62 6 21 61 4 21 61 4 21 61 4 21 61 4
21 61 4 21 61 4 21 61 4 21 61 4 21 61 4 22 61 5 21 61 4 20 61 4 19 61
3 19 61 3 19 61 3 19 61 3 19 61 3 20 63 3 20 64 4 20 66 4 20 68 4 21
69 4 21 71 4 21 72 4 22 74 4 22 76 4 22 77 4 22 79 4 23 80 4 23 82 4
23 83 5 24 85 5 24 86 5 24 88 5 24 89 5 25 91 5 25 92 5 25 94 5 25 95
5 25 97 5 26 98 5 26 99 5 26 101 5 27 103 5 27 105 5 28 107 5 29 109 6
29 111 6 30 113 6 30 114 6 31 116 6 32 118 6 33 120 6 33 122 6 34 124
6 35 126 6 35 128 6 36 130 7 36 132 7 37 133 7 38 135 7 38 137 7 43
139 8 44 141 8 44 143 8 45 144 8 45 146 8 46 148 8 46 149 8 47 151 8
48 153 9 48 154 9 49 156 9 50 157 9 50 159 9 51 160 9 51 162 9 52 163
9 53 164 9 53 166 9 54 167 9 54 168 9 55 169 9 56 170 9 57 171 10 57
172 10 58 173 10 58 174 10 58 175 10 59 175 10 59 176 10 65 177 13 67
177 14 70 177 15 72 178 17 76 178 18 79 177 20 82 177 21 85 176 22 87
175 24 55 128 14 55 124 14 54 119 14 52 112 14 58 5 20 58 5 20 58 5 20
58 5 20 59 6 21 59 6 21 59 6 21 59 6 21 59 6 21 60 6 21 60 6 21 60 6
21 60 6 21 60 6 21 61 6 21 61 6 21 61 6 21 61 6 21 61 6 21 61 6 21 62
6 21 62 6 21 62 6 22 62 6 22 62 6 22 63 6 22 63 6 22 63 6 22 63 6 22
63 6 22 63 6 22 64 6 22 64 6 22 64 6 22 64 6 22 64 6 22 64 6 22 64 6
22 65 6 22 65 6 22 65 6 22 65 6 22 65 6 22 65 6 22 65 6 22 65 6 22 65
6 22 66 6 23 66 6 23 66 6 23 66 6 23 66 6 23 66 6 23
11 2 7 11 2 7 11 2 7 11 2 7 11 2 7 11 2 7 11 2 7 11 2 7 11 2 7 11 2 7
11 2 7 11 2 7 11 2 7 11 2 7 11 2 7 11 2 7 11 2 7 11 2 7 14 3 3 14 3 3
14 3 3 14 3 3 14 3 3 14 3 3 14 3 3 14 3 3 14 3 3 14 3 3 14 3 3 14 3 3
14 3 3 23 62 5 23 62 5 23 62 5 28 63 11 28 63 11 28 63 10 27 63 10 26
63 9 26 62 9 25 62 8 24 62 7 26 62 7 25 62 6 21 61 4 21 61 4 21 61 4
21 61 4 21 61 4 21 61 4 21 61 4 22 61 5 21 61 5 20 61 4 19 61 3 19 61
3 19 61 3 19 61 3 19 61 3 19 61 3 19 62 3 20 63 4 20 65 4 20 67 4 21
68 4 21 70 4 21 71 4 21 73 4 22 75 4 22 76 4 22 78 4 23 79 4 23 81 4
23 82 5 24 84 5 24 85 5 24 87 5 24 88 5 24 89 5 25 91 5 25 92 5 25 94
5 25 95 5 25 97 5 26 98 5 26 99 5 26 101 5 27 103 5 28 105 5 28 107 5
29 109 6 29 111 6 30 113 6 31 115 6 32 116 6 32 118 6 33 120 6 33 122
6 34 124 6 35 126 6 35 128 6 36 129 7 37 131 7 37 133 7 38 135 7 39
137 7 44 139 8 44 140 8 45 142 8 45 144 8 45 145 8 46 147 8 46 149 8
47 150 8 48 152 9 48 153 9 49 155 9 50 156 9 50 158 9 51 159 9 51 161
9 52 162 9 53 163 9 53 164 9 54 166 9 55 167 9 55 168 9 56 169 9 56
170 9 57 170 9 57 171 10 58 172 10 58 172 10 63 173 12 65 174 13 68
175 15 70 175 16 73 175 17 76 175 19 79 175 20 83 174 21 85 174 23 87
172 24 82 168 16 55 122 14 53 117 14 52 110 14 58 5 20 58 5 20 58 5 20
59 6 21 59 6 21 59 6 21 59 6 21 59 6 21 60 6 21 60 6 21 60 6 21 60 6
21 60 6 21 60 6 21 61 6 21 61 6 21 61 6 21 61 6 21 61 6 21 62 6 21 62
6 21 62 6 21 62 6 22 62 6 22 63 6 22 63 6 22 63 6 22 63 6 22 63 6 22
63 6 22 64 6 22 64 6 22 64 6 22 64 6 22 64 6 22 64 6 22 64 6 22 65 6
22 65 6 22 65 6 22 65 6 22 65 6 22 65 6 22 65 6 22 65 6 22 66 6 23 66
6 23 66 6 23 66 6 23 66 6 23 66 6 23 66 6 23 66 6 23
11 2 7 11 2 7 11 2 7 11 2 7 11 2 7 11 2 7 11 2 7 11 2 7 11 2 7 11 2 7
11 2 7 11 2 7 11 2 7 11 2 7 11 2 7 11 2 7 11 2 7 11 2 7 11 2 7 14 3 3
14 3 3 14 3 3 14 3 3 14 3 3 14 3 3 14 3 3 14 3 3 14 3 3 14 3 3 14 3 3
14 3 3 23 62 5 23 62 5 23 62 5 29 63 11 28 63 11 28 63 10 27 63 10 26
63 10 26 62 9 25 62 8 25 62 8 27 62 8 25 62 7 21 61 4 21 61 4 21 61 4
21 61 4 21 61 4 21 61 4 21 61 4 22 61 5 21 61 4 20 61 4 19 61 3 19 61
3 19 61 3 19 61 3 19 61 3 19 61 3 19 61 3 20 62 3 20 64 4 20 65 4 20
67 4 21 69 4 21 70 4 21 72 4 22 73 4 22 75 4 22 76 4 23 78 4 23 79 4
23 81 5 23 82 5 23 84 4 24 85 5 24 87 5 24 88 5 24 90 5 25 91 5 25 92
5 25 94 5 25 95 5 25 97 5 26 98 5 26 99 5 27 101 5 27 103 5 28 105 5
28 107 5 29 109 6 30 111 6 30 113 6 31 115 6 32 116 6 32 118 6 33 120
6 34 122 6 34 124 6 35 126 6 35 127 6 36 129 6 37 131 7 37 133 7 38
134 7 39 136 7 44 138 8 44 140 8 45 142 8 45 143 8 45 145 8 46 146 8
47 148 8 47 149 8 48 151 8 48 152 9 49 154 9 50 155 9 50 157 9 51 158
9 51 159 9 52 161 9 53 162 9 53 163 9 54 164 9 55 165 9 55 166 9 56
167 9 56 168 9 57 169 10 57 169 10 61 170 12 63 171 13 66 172 14 68
172 15 71 172 16 74 173 18 77 173 19 80 172 21 83 172 22 85 171 23 87
170 24 81 166 16 81 163 16 53 115 14 52 108 14 43 63 11 58 5 20 58 5
20 59 6 21 59 6 21 59 6 21 59 6 21 59 6 21 60 6 21 60 6 21 60 6 21 60
6 21 60 6 21 61 6 21 61 6 21 61 6 21 61 6 21 61 6 21 62 6 21 62 6 21
62 6 21 62 6 22 62 6 22 62 6 22 63 6 22 63 6 22 63 6 22 63 6 22 63 6
22 64 6 22 64 6 22 64 6 22 64 6 22 64 6 22 64 6 22 64 6 22 65 6 22 65
6 22 65 6 22 65 6 22 65 6 22 65 6 22 65 6 22 66 6 22 66 6 23 66 6 23
66 6 23 66 6 23 66 6 23 66 6 23 66 6 23 66 6 23 67 6 23
11 2 7 11 2 7 11 2 7 11 2 7 11 2 7 11 2 7 11 2 7 11 2 7 11 2 7 11 2 7
11 2 7 11 2 7 11 2 7 11 2 7 11 2 7 11 2 7 11 2 7 11 2 7 11 2 7 11 2 7
14 3 3 14 3 3 14 3 3 14 3 3 14 3 3 14 3 3 14 3 3 14 3 3 14 3 3 14 3 3
14 3 3 23 62 5 23 62 5 23 62 5 29 63 11 29 63 11 28 63 11 27 63 10 26
63 10 26 63 9 25 62 9 25 62 8 26 62 8 26 62 7 25 62 7 21 61 4 21 61 4
21 61 4 21 61 4 21 61 4 22 61 5 21 61 4 20 61 4 19 61 3 19 61 3 19 61
3 19 61 3 19 61 3 19 61 3 19 61 3 19 61 3 19 61 3 20 63 3 20 64 4 20
66 4 20 68 4 21 69 4 21 71 4 21 72 4 22 74 4 22 75 4 22 77 4 23 78 4
23 80 4 23 81 4 23 83 4 23 84 4 24 85 5 24 87 5 24 88 5 24 90 5 25 91
5 25 92 5 25 94 5 25 95 5 25 96 5 26 98 5 26 99 5 27 100 5 27 102 5 28
104 5 28 106 6 29 108 6 30 109 6 30 113 6 31 115 6 32 116 6 33 118 6
33 120 6 34 122 6 34 124 6 35 125 6 36 127 6 36 129 6 37 131 7 37 132
7 38 134 7 39 136 7 44 138 8 44 139 8 45 141 8 45 142 8 46 144 8 46
146 8 47 147 8 47 149 8 48 150 8 48 151 9 49 153 9 50 154 9 50 156 9
51 157 9 51 158 9 52 159 9 53 160 9 54 162 9 54 163 9 55 163 9 55 164
9 56 165 9 56 166 10 56 166 9 62 168 12 64 168 13 66 169 15 69 169 16
72 170 17 75 170 19 78 170 20 81 170 21 83 169 23 86 168 24 87 167 24
81 163 16 81 160 16 80 156 16 51 106 14 43 63 11 58 5 20 59 6 21 59 6
21 59 6 21 59 6 21 59 6 21 60 6 21 60 6 21 60 6 21 60 6 21 60 6 21 61
6 21 61 6 21 61 6 21 61 6 21 61 6 21 61 6 21 62 6 21 62 6 21 62 6 22
62 6 22 62 6 22 63 6 22 63 6 22 63 6 22 63 6 22 63 6 22 63 6 22 64 6
22 64 6 22 64 6 22 64 6 22 64 6 22 64 6 22 65 6 22 65 6 22 65 6 22 65
6 22 65 6 22 65 6 22 65 6 22 66 6 23 66 6 23 66 6 23 66 6 23 66 6 23
66 6 23 66 6 23 66 6 23 67 6 23 67 6 23 67 6 23
11 2 7 11 2 7 11 2 7 11 2 7 11 2 7 11 2 7 11 2 7 11 2 7 11 2 7 11 2 7
11 2 7 11 2 7 11 2 7 11 2 7 11 2 7 11 2 7 11 2 7 11 2 7 11 2 7 11 2 7
11 2 7 14 3 3 14 3 3 14 3 3 14 3 3 14 3 3 14 3 3 14 3 3 14 3 3 14 3 3
14 3 3 23 62 5 23 62 5 23 62 5 29 63 12 29 63 11 28 63 11 27 63 11 27
63 10 26 63 10 26 62 9 25 62 8 26 62 8 27 62 8 26 62 7 25 62 6 21 61 4
21 61 4 21 61 4 21 61 4 21 61 5 20 61 4 19 61 3 19 61 3 19 61 3 19 61
3 19 61 3 19 61 3 19 61 3 19 61 3 19 61 3 19 61 3 19 62 3 20 63 4 20
65 4 21 67 4 22 69 5 22 70 5 22 72 5 22 73 5 22 75 5 23 76 5 22 77 4
23 78 4 23 80 4 23 81 4 23 83 4 23 84 5 24 86 5 24 87 5 24 88 5 24 90
5 25 91 5 25 92 5 25 94 5 25 94 5 25 95 5 25 96 5 26 98 5 27 100 5 27
102 5 28 104 5 28 106 6 29 108 6 30 109 6 30 111 6 31 114 6 32 116 6
33 118 6 33 120 6 34 122 6 34 123 6 35 125 6 36 127 6 36 128 6 37 130
7 38 132 7 38 134 7 43 136 8 44 137 8 44 139 8 45 140 8 45 142 8 45
143 8 46 145 8 47 146 8 47 148 8 48 149 8 48 150 8 49 152 9 50 153 9
50 154 9 51 155 9 51 157 9 52 158 9 53 159 9 53 160 9 54 161 9 54 162
9 55 162 9 56 163 10 61 165 13 62 165 13 65 166 14 67 166 15 70 167 17
73 167 18 76 167 19 79 167 21 81 167 22 84 167 23 86 166 24 87 164 25
80 160 16 80 157 16 79 154 15 79 148 15 43 63 11 58 5 20 59 6 21 59 6
21 59 6 21 59 6 21 59 6 21 60 6 21 60 6 21 60 6 21 60 6 21 60 6 21 61
6 21 61 6 21 61 6 21 61 6 21 61 6 21 62 6 21 62 6 21 62 6 21 62 6 22
62 6 22 63 6 22 63 6 22 63 6 22 63 6 22 63 6 22 63 6 22 64 6 22 64 6
22 64 6 22 64 6 22 64 6 22 64 6 22 65 6 22 65 6 22 65 6 22 65 6 22 65
6 22 65 6 22 66 6 22 66 6 23 66 6 23 66 6 23 66 6 23 66 6 23 66 6 23
66 6 23 67 6 23 67 6 23 67 6 23 67 6 23 67 6 23
11 2 7 11 2 7 11 2 7 11 2 7 11 2 7 11 2 7 11 2 7 11 2 7 11 2 7 11 2 7
11 2 7 11 2 7 11 2 7 11 2 7 11 2 7 11 2 7 11 2 7 11 2 7 11 2 7 11 2 7
11 2 7 11 2 7 14 3 3 14 3 3 14 3 3 14 3 3 14 3 3 14 3 3 14 3 3 14 3 3
14 3 3 23 62 5 23 62 5 23 62 5 23 62 6 29 63 12 28 63 11 27 63 11 27
63 10 26 63 10 26 63 9 26 62 9 26 62 8 28 62 9 27 62 8 26 62 7 24 62 6
21 61 4 21 61 4 21 61 4 21 61 4 20 61 4 19 61 3 19 61 3 19 61 3 19 61
3 19 61 3 19 61 3 19 61 3 19 61 3 19 61 3 19 61 3 19 61 3 20 63 4 22
64 5 22 66 5 22 68 5 23 69 5 23 69 7 23 71 7 23 72 7 23 73 6 23 76 5
23 78 5 22 79 4 23 80 4 23 81 4 23 83 4 23 84 5 24 85 5 24 87 5 24 88
5 24 89 5 25 91 5 25 91 5 25 92 5 25 93 5 25 95 5 26 96 5 26 98 5 27
100 5 27 102 5 28 104 5 29 106 5 29 107 6 30 109 6 30 111 6 32 114 6
32 116 6 33 118 6 33 120 6 34 121 6 35 123 6 35 125 6 36 126 6 36 128
6 37 130 7 38 131 7 39 133 7 43 135 8 44 136 8 44 138 8 45 139 8 45
141 8 45 142 8 46 144 8 47 145 8 47 147 8 48 148 8 48 149 8 49 151 9
50 152 9 50 153 9 51 154 9 51 155 9 52 156 9 53 157 9 53 158 9 54 159
9 54 160 9 59 161 12 61 162 13 63 163 14 65 163 15 68 164 16 71 164 17
74 165 19 76 165 20 79 165 21 82 165 22 84 164 23 86 163 24 87 162 25
80 157 16 79 155 16 79 151 15 78 145 15 43 63 11 58 5 21 59 6 21 59 6
21 59 6 21 59 6 21 60 6 21 60 6 21 60 6 21 60 6 21 60 6 21 61 6 21 61
6 21 61 6 21 61 6 21 61 6 21 61 6 21 62 6 21 62 6 21 62 6 22 62 6 22
62 6 22 63 6 22 63 6 22 63 6 22 63 6 22 63 6 22 64 6 22 64 6 22 64 6
22 64 6 22 64 6 22 64 6 22 65 6 22 65 6 22 65 6 22 65 6 22 65 6 22 65
6 22 66 6 22 66 6 23 66 6 23 66 6 23 66 6 23 66 6 23 66 6 23 66 6 23
67 6 23 67 6 23 67 6 23 67 6 23 67 6 23 67 6 23
11 2 7 11 2 7 11 2 7 11 2 7 11 2 7 11 2 7 11 2 7 11 2 7 11 2 7 11 2 7
11 2 7 11 2 7 11 2 7 11 2 7 11 2 7 11 2 7 11 2 7 11 2 7 11 2 7 11 2 7
11 2 7 11 2 7 11 2 7 11 2 7 14 3 3 14 3 3 14 3 3 14 3 3 14 3 3 14 3 3
14 3 3 23 62 5 23 62 6 23 62 6 23 62 6 29 63 12 28 63 12 28 63 11 27
63 11 27 63 10 26 63 10 26 62 9 27 62 9 29 62 9 28 62 8 27 62 8 25 62
7 21 61 4 21 61 4 21 61 4 20 61 4 19 61 3 19 61 3 19 61 3 19 61 3 19
61 3 19 61 3 19 61 3 19 61 3 19 61 3 19 61 3 19 61 3 20 62 4 21 62 5
22 63 5 22 65 5 23 65 7 23 67 7 23 68 7 24 69 7 24 71 7 23 72 7 23 74
6 23 75 6 23 78 5 22 79 4 23 80 4 23 81 4 23 83 5 23 84 5 24 85 5 24
87 5 24 88 5 24 88 5 24 89 5 24 91 5 25 92 5 25 93 5 25 95 5 26 96 5
26 98 5 27 100 5 28 102 5 28 104 5 29 106 5 29 107 6 30 109 6 31 111 6
32 114 6 32 116 6 33 117 6 33 119 6 34 121 6 35 123 6 35 124 6 36 126
6 37 128 7 37 129 7 38 131 7 38 132 7 43 134 8 44 136 8 44 137 8 44
139 8 45 140 8 46 141 8 46 143 8 47 144 8 47 146 8 48 147 8 48 148 8
49 149 8 50 150 9 50 152 9 51 153 9 52 154 9 52 155 9 53 156 9 53 156
9 58 158 11 60 159 13 62 160 14 64 160 15 66 161 16 69 161 17 72 162
18 75 162 19 77 162 21 80 162 22 82 162 23 84 161 24 86 160 25 87 159
25 79 155 16 79 152 16 78 148 15 77 142 15 58 5 20 59 6 21 59 6 21 59
6 21 59 6 21 59 6 21 60 6 21 60 6 21 60 6 21 60 6 21 60 6 21 61 6 21
61 6 21 61 6 21 61 6 21 61 6 21 62 6 21 62 6 21 62 6 21 62 6 22 62 6
22 63 6 22 63 6 22 63 6 22 63 6 22 63 6 22 63 6 22 64 6 22 64 6 22 64
6 22 64 6 22 64 6 22 65 6 22 65 6 22 65 6 22 65 6 22 65 6 22 65 6 22
65 6 22 66 6 23 66 6 23 66 6 23 66 6 23 66 6 23 66 6 23 66 6 23 67 6
23 67 6 23 67 6 23 67 6 23 67 6 23 67 6 23 67 6 23
11 2 7 11 2 7 11 2 7 11 2 7 11 2 7 11 2 7 11 2 7 11 2 7 11 2 7 11 2 7
11 2 7 11 2 7 11 2 7 11 2 7 11 2 7 11 2 7 11 2 7 11 2 7 11 2 7 11 2 7
11 2 7 11 2 7 11 2 7 11 2 7 11 2 7 11 2 7 11 2 7 11 2 7 11 2 7 11 2 7
11 2 7 23 62 6 23 62 6 23 62 6 23 62 6 29 63 12 29 63 12 28 63 11 27
63 11 27 63 10 27 63 10 26 63 9 27 63 9 29 63 10 29 63 9 28 62 8 27 62
8 25 62 7 21 61 4 21 61 4 20 61 4 19 61 3 19 61 3 19 61 3 19 61 3 19
61 3 19 61 3 19 61 3 19 61 3 19 61 3 19 61 3 19 61 3 21 62 5 22 62 5
22 62 5 22 64 5 23 64 7 23 65 7 23 67 7 23 68 7 23 70 7 23 71 7 23 72
7 23 74 6 23 75 6 23 76 6 22 79 4 23 80 4 23 82 4 23 83 5 23 84 5 24
85 5 24 87 5 24 87 5 24 88 5 24 89 5 24 90 5 25 92 5 25 93 5 25 95 5
26 96 5 27 98 5 27 100 5 28 102 5 28 104 5 29 105 5 29 107 6 30 109 6
31 111 6 32 114 6 32 115 6 33 117 6 34 119 6 34 120 6 35 122 6 36 124
7 36 125 7 37 127 7 37 129 7 38 130 7 43 132 8 43 133 8 44 135 8 44
136 8 44 138 8 45 139 8 46 140 8 46 142 8 47 143 8 47 144 8 48 146 8
48 147 8 49 148 8 50 149 8 50 150 9 51 151 9 52 152 9 52 153 9 56 154
11 58 155 12 60 156 13 63 157 15 65 158 16 67 158 17 70 159 18 73 159
19 75 160 20 78 160 21 81 160 22 83 159 23 84 159 24 85 158 25 77 154
16 78 152 16 78 149 15 77 145 15 76 139 15 58 5 20 59 6 21 59 6 21 59
6 21 59 6 21 59 6 21 60 6 21 60 6 21 60 6 21 60 6 21 60 6 21 61 6 21
61 6 21 61 6 21 61 6 21 61 6 21 62 6 21 62 6 21 62 6 22 62 6 22 62 6
22 63 6 22 63 6 22 63 6 22 63 6 22 63 6 22 64 6 22 64 6 22 64 6 22 64
6 22 64 6 22 64 6 22 65 6 22 65 6 22 65 6 22 65 6 22 65 6 22 65 6 22
66 6 23 66 6 23 66 6 23 66 6 23 66 6 23 66 6 23 66 6 23 67 6 23 67 6
23 67 6 23 67 6 23 67 6 23 67 6 23 67 6 23 67 6 23
11 2 7 11 2 7 11 2 7 11 2 7 11 2 7 11 2 7 11 2 7 11 2 7 11 2 7 11 2 7
11 2 7 11 2 7 11 2 7 11 2 7 11 2 7 11 2 7 11 2 7 11 2 7 11 2 7 11 2 7
11 2 7 11 2 7 11 2 7 11 2 7 11 2 7 11 2 7 11 2 7 11 2 7 11 2 7 11 2 7
11 2 7 23 62 6 23 62 6 23 62 6 23 62 6 29 63 12 29 63 12 28 63 11 28
63 11 27 63 11 27 63 10 26 63 10 27 63 10 27 62 9 30 63 10 29 63 9 28
62 8 27 62 8 25 62 7 20 61 4 19 61 3 19 61 3 19 61 3 19 61 3 19 61 3
19 61 3 19 61 3 19 61 3 19 61 3 19 61 3 19 61 3 20 62 4 21 62 4 21 62
4 21 62 4 21 61 6 22 62 7 22 63 7 23 65 7 23 67 7 23 68 7 23 70 7 23
71 7 23 72 6 23 74 6 23 75 6 23 76 6 22 79 4 23 80 4 23 81 4 23 83 5
23 84 5 23 84 5 24 85 5 24 87 5 24 88 5 24 89 5 24 90 5 25 91 5 25 93
5 26 95 5 26 96 5 27 98 5 27 100 5 28 102 5 28 103 5 29 105 5 30 107 6
30 109 6 31 112 6 32 113 6 32 115 6 33 117 6 34 118 6 35 120 6 35 122
7 36 123 7 36 125 7 37 126 7 37 128 7 42 130 8 43 131 8 43 133 8 43
134 8 44 135 8 44 137 8 45 138 8 46 139 8 46 141 8 47 142 8 47 143 8
48 144 8 48 145 8 49 146 8 49 147 8 50 149 9 51 149 9 56 151 11 57 152
12 59 153 13 61 154 14 64 155 15 66 155 17 68 156 17 71 156 19 74 157
20 76 157 21 79 157 22 81 157 23 83 157 24 84 156 25 85 155 25 77 151
15 78 149 16 77 146 15 76 142 15 75 136 15 58 5 21 59 6 21 59 6 21 59
6 21 59 6 21 59 6 21 60 6 21 60 6 21 60 6 21 60 6 21 61 6 21 61 6 21
61 6 21 61 6 21 61 6 21 62 6 21 62 6 21 62 6 21 62 6 22 62 6 22 62 6
22 63 6 22 63 6 22 63 6 22 63 6 22 63 6 22 64 6 22 64 6 22 64 6 22 64
6 22 64 6 22 65 6 22 65 6 22 65 6 22 65 6 22 65 6 22 65 6 22 66 6 22
66 6 23 66 6 23 66 6 23 66 6 23 66 6 23 66 6 23 67 6 23 67 6 23 67 6
23 67 6 23 67 6 23 67 6 23 67 6 23 67 6 23 68 6 23
11 2 7 11 2 7 11 2 7 11 2 7 11 2 7 11 2 7 11 2 7 11 2 7 11 2 7 11 2 7
11 2 7 11 2 7 11 2 7 11 2 7 11 2 7 11 2 7 11 2 7 11 2 7 11 2 7 11 2 7
11 2 7 11 2 7 11 2 7 11 2 7 11 2 7 11 2 7 11 2 7 11 2 7 11 2 7 11 2 7
11 2 7 23 62 6 23 62 6 23 62 6 23 62 6 23 62 6 29 63 12 28 63 12 28 63
11 28 63 11 27 63 11 27 63 10 28 63 10 27 63 10 30 63 10 30 63 10 29
63 9 28 62 8 26 62 8 24 62 6 19 61 3 19 61 3 19 61 3 19 61 3 19 61 3
19 61 3 19 61 3 19 61 3 19 61 3 19 61 3 19 61 3 21 62 5 21 62 4 21 62
4 21 62 4 21 60 6 21 60 6 21 62 6 22 64 6 22 66 6 23 67 7 23 69 7 23
70 7 23 71 6 23 72 6 23 74 6 23 75 6 23 78 5 22 79 4 23 80 4 23 81 4
23 83 5 23 83 5 23 84 5 24 85 5 24 86 5 24 88 5 24 89 5 24 90 5 25 91
5 25 93 5 26 95 5 26 96 5 27 98 5 27 100 5 28 102 5 29 103 5 29 105 5
30 107 6 31 110 6 31 111 6 32 113 6 33 115 6 34 116 6 34 118 6 35 120
6 35 121 7 36 123 7 36 124 7 37 126 7 37 127 7 42 129 8 43 130 8 43
132 8 43 133 8 44 134 8 44 136 8 45 137 8 46 138 8 46 139 8 47 141 8
47 142 8 48 143 8 48 144 8 49 145 8 49 146 8 55 148 11 56 149 12 58
149 13 60 150 14 62 151 15 65 152 16 67 153 18 70 153 18 72 154 19 75
154 21 77 154 22 79 155 23 81 154 24 83 154 24 84 153 25 85 152 25 76
148 15 77 146 15 76 143 15 75 139 15 74 132 14 59 6 21 59 6 21 59 6 21
59 6 21 59 6 21 60 6 21 60 6 21 60 6 21 60 6 21 60 6 21 61 6 21 61 6
21 61 6 21 61 6 21 61 6 21 62 6 21 62 6 21 62 6 21 62 6 22 62 6 22 63
6 22 63 6 22 63 6 22 63 6 22 63 6 22 63 6 22 64 6 22 64 6 22 64 6 22
64 6 22 64 6 22 65 6 22 65 6 22 65 6 22 65 6 22 65 6 22 65 6 22 66 6
23 66 6 23 66 6 23 66 6 23 66 6 23 66 6 23 67 6 23 67 6 23 67 6 23 67
6 23 67 6 23 67 6 23 67 6 23 67 6 23 68 6 23 68 6 23
11 2 7 11 2 7 11 2 7 11 2 7 11 2 7 11 2 7 11 2 7 11 2 7 11 2 7 11 2 7
11 2 7 11 2 7 11 2 7 11 2 7 11 2 7 11 2 7 11 2 7 11 2 7 11 2 7 11 2 7
11 2 7 11 2 7 11 2 7 11 2 7 11 2 7 11 2 7 11 2 7 11 2 7 11 2 7 11 2 7
11 2 7 23 62 6 23 62 6 23 62 6 23 62 6 23 62 6 29 63 12 28 63 12 28 63
12 28 63 11 27 63 11 27 63 10 28 63 10 28 63 10 31 63 11 31 63 10 30
63 10 29 62 9 27 62 9 25 62 7 24 62 6 23 62 6 19 61 3 19 61 3 19 61 3
19 61 3 19 61 3 19 61 3 19 61 3 19 61 3 19 61 3 21 62 4 21 62 4 21 62
4 21 60 6 21 60 6 21 59 6 21 61 6 20 60 6 21 64 6 22 66 6 23 67 7 23
69 7 23 70 6 23 71 6 22 72 6 23 74 6 23 75 6 23 78 5 22 79 4 23 80 4
23 81 4 23 81 4 23 82 4 23 84 5 23 85 5 24 86 5 24 87 5 24 88 5 24 90
5 25 91 5 25 93 5 26 94 5 26 96 5 27 98 5 28 100 5 28 101 5 29 103 5
29 105 5 30 108 6 31 109 6 32 111 6 32 113 6 33 114 6 34 116 6 34 117
6 35 119 6 35 120 7 36 122 7 36 123 7 37 125 7 42 127 8 42 128 8 42
129 8 43 131 8 43 132 8 44 133 8 44 135 8 45 136 8 46 137 8 46 138 8
47 139 8 47 140 8 48 141 8 52 143 10 53 144 11 55 145 12 57 146 13 59
147 14 61 148 15 63 149 16 66 150 17 69 150 18 71 151 19 73 151 20 76
152 21 78 152 22 80 152 23 81 152 24 83 151 25 84 150 25 84 149 26 75
145 15 76 143 15 75 140 15 74 136 15 73 129 14 59 6 21 59 6 21 59 6 21
59 6 21 59 6 21 60 6 21 60 6 21 60 6 21 60 6 21 60 6 21 61 6 21 61 6
21 61 6 21 61 6 21 61 6 21 62 6 21 62 6 21 62 6 21 62 6 22 62 6 22 63
6 22 63 6 22 63 6 22 63 6 22 63 6 22 64 6 22 64 6 22 64 6 22 64 6 22
64 6 22 64 6 22 65 6 22 65 6 22 65 6 22 65 6 22 65 6 22 66 6 22 66 6
23 66 6 23 66 6 23 66 6 23 66 6 23 66 6 23 67 6 23 67 6 23 67 6 23 67
6 23 67 6 23 67 6 23 67 6 23 68 6 23 68 6 23 68 6 23
11 2 7 11 2 7 11 2 7 11 2 7 11 2 7 11 2 7 11 2 7 11 2 7 11 2 7 11 2 7
11 2 7 11 2 7 11 2 7 11 2 7 11 2 7 11 2 7 11 2 7 11 2 7 11 2 7 11 2 7
11 2 7 11 2 7 11 2 7 11 2 7 11 2 7 11 2 7 11 2 7 11 2 7 11 2 7 11 2 7
11 2 7 23 62 6 23 62 6 23 62 6 23 62 6 23 62 6 29 63 13 29 63 12 28 63
12 28 63 11 28 63 11 27 63 11 28 63 11 28 63 11 32 63 11 31 63 11 31
63 10 29 62 10 28 62 9 26 62 8 25 62 7 24 62 6 23 62 6 19 61 3 19 61 3
19 61 3 19 61 3 19 61 3 19 61 3 19 61 3 20 62 4 21 62 4 21 62 4 21 62
4 21 60 6 21 59 6 21 59 6 20 57 6 20 59 6 20 60 6 21 62 6 21 66 6 23
67 7 23 69 7 22 70 6 22 71 6 22 72 6 23 74 6 23 75 6 22 77 4 22 79 4
23 80 4 23 80 4 20 64 5 20 65 5 20 66 5 20 67 5 21 68 5 21 70 5 21 71
5 21 72 5 22 74 6 22 75 6 23 77 6 23 79 6 24 80 6 25 82 6 25 84 6 26
85 6 26 87 6 27 89 6 31 109 6 32 111 6 32 112 6 33 114 6 34 115 6 34
117 6 35 118 6 35 120 6 36 121 6 36 123 6 41 124 8 41 126 8 42 127 8
42 128 8 43 130 8 43 131 8 44 132 8 44 133 8 45 135 8 46 136 8 46 137
8 47 138 8 51 139 10 53 141 11 54 142 12 56 143 13 58 144 14 60 145 15
62 146 16 64 146 17 67 147 18 70 148 19 72 149 21 74 149 21 76 149 22
78 149 23 80 149 24 81 149 24 83 148 25 83 148 25 84 146 26 75 142 15
75 140 15 74 137 15 73 132 14 72 125 14 59 6 21 59 6 21 59 6 21 59 6
21 59 6 21 60 6 21 60 6 21 60 6 21 60 6 21 60 6 21 61 6 21 61 6 21 61
6 21 61 6 21 61 6 21 62 6 21 62 6 21 62 6 22 62 6 22 62 6 22 63 6 22
63 6 22 63 6 22 63 6 22 63 6 22 64 6 22 64 6 22 64 6 22 64 6 22 64 6
22 65 6 22 65 6 22 65 6 22 65 6 22 65 6 22 65 6 22 66 6 22 66 6 23 66
6 23 66 6 23 66 6 23 66 6 23 67 6 23 67 6 23 67 6 23 67 6 23 67 6 23
67 6 23 67 6 23 68 6 23 68 6 23 68 6 23 68 6 23
11 2 7 11 2 7 11 2 7 11 2 7 11 2 7 11 2 7 11 2 7 11 2 7 11 2 7 11 2 7
11 2 7 11 2 7 11 2 7 11 2 7 11 2 7 11 2 7 11 2 7 11 2 7 11 2 7 11 2 7
11 2 7 11 2 7 11 2 7 11 2 7 11 2 7 11 2 7 11 2 7 11 2 7 11 2 7 11 2 7
11 2 7 23 62 6 23 62 6 23 62 6 23 62 6 23 62 6 23 62 6 29 63 12 28 63
12 28 63 12 28 63 12 28 63 11 28 63 11 29 63 11 33 63 12 32 63 11 31
63 11 30 62 11 29 62 10 27 62 9 26 62 8 25 62 7 24 62 7 23 62 6 19 61
3 19 61 3 19 61 3 19 61 3 19 61 3 19 61 3 20 62 4 21 62 4 21 62 4 21
62 4 21 60 6 21 59 6 21 59 6 20 57 6 20 58 6 20 59 6 20 60 6 21 64 6
22 66 6 23 67 6 22 69 6 22 70 6 22 71 6 22 72 6 23 74 6 22 76 5 19 58
5 19 60 5 19 61 5 20 62 5 20 63 5 20 65 5 20 66 5 20 67 5 21 68 5 21
69 5 21 70 5 21 72 5 22 73 6 22 75 6 23 77 6 24 78 6 24 80 6 25 82 6
25 83 6 26 85 6 26 87 6 27 88 6 27 90 6 28 91 6 29 93 6 33 113 6 34
115 6 34 116 6 35 118 6 35 119 6 36 120 6 36 122 6 41 123 8 41 125 7
42 126 7 42 127 8 43 129 8 43 130 8 44 131 8 44 132 8 45 133 8 49 135
10 50 136 11 52 137 11 54 138 12 55 139 13 57 140 14 59 141 15 61 142
16 63 143 17 66 144 18 68 145 19 71 145 20 73 146 21 75 146 22 77 147
23 79 147 23 80 146 24 81 146 25 82 146 25 83 145 26 83 143 26 74 139
15 74 137 15 73 134 15 73 129 14 71 121 14 59 6 21 59 6 21 59 6 21 59
6 21 59 6 21 60 6 21 60 6 21 60 6 21 60 6 21 60 6 21 61 6 21 61 6 21
61 6 21 61 6 21 61 6 21 62 6 21 62 6 21 62 6 22 62 6 22 62 6 22 63 6
22 63 6 22 63 6 22 63 6 22 63 6 22 64 6 22 64 6 22 64 6 22 64 6 22 64
6 22 65 6 22 65 6 22 65 6 22 65 6 22 65 6 22 65 6 22 66 6 23 66 6 23
66 6 23 66 6 23 66 6 23 66 6 23 67 6 23 67 6 23 67 6 23 67 6 23 67 6
23 67 6 23 67 6 23 68 6 23 68 6 23 68 6 23 68 6 23
11 2 7 11 2 7 11 2 7 11 2 7 11 2 7 11 2 7 11 2 7 11 2 7 11 2 7 11 2 7
11 2 7 11 2 7 11 2 7 11 2 7 11 2 7 11 2 7 11 2 7 11 2 7 11 2 7 11 2 7
11 2 7 11 2 7 11 2 7 11 2 7 11 2 7 11 2 7 11 2 7 11 2 7 11 2 7 11 2 7
11 2 7 23 62 6 23 62 6 23 62 6 23 62 6 23 62 6 23 62 6 29 63 13 29 63
12 28 63 12 28 63 12 28 63 11 29 63 11 29 63 11 29 63 11 33 63 12 32
63 12 31 63 12 29 62 10 28 62 9 27 62 8 26 62 8 26 62 7 25 62 7 24 62
6 23 62 6 19 61 3 19 61 3 19 61 3 19 61 3 20 62 4 21 62 4 21 62 4 21
62 4 21 62 4 21 59 6 21 59 6 20 57 6 20 57 6 20 58 6 20 59 6 21 63 6
21 64 6 22 66 6 22 67 6 22 68 6 22 70 6 18 53 5 18 55 5 18 56 5 19 57
5 19 58 5 19 59 5 19 61 5 20 62 5 20 63 5 20 64 5 20 65 5 20 67 5 21
68 5 21 69 5 21 70 5 21 72 5 22 73 6 23 75 6 23 76 6 24 78 6 24 80 6
25 81 6 25 83 6 26 85 6 26 86 6 27 88 6 28 89 6 28 91 6 29 92 6 29 94
6 30 95 6 34 115 6 35 117 6 35 118 6 35 119 6 40 121 7 41 122 7 41 124
7 42 125 7 42 126 7 43 127 8 43 129 8 44 130 8 48 131 10 50 133 11 51
134 12 53 135 12 55 136 13 57 137 14 59 138 15 61 139 16 63 140 17 65
141 18 67 142 19 69 142 19 72 143 21 74 143 22 76 144 22 77 144 23 79
144 24 80 144 24 81 143 25 82 143 25 82 142 26 82 141 26 73 136 15 73
134 15 72 130 14 72 126 14 70 116 14 59 6 21 59 6 21 59 6 21 59 6 21
59 6 21 60 6 21 60 6 21 60 6 21 60 6 21 60 6 21 61 6 21 61 6 21 61 6
21 61 6 21 61 6 21 62 6 21 62 6 21 62 6 22 62 6 22 62 6 22 63 6 22 63
6 22 63 6 22 63 6 22 63 6 22 64 6 22 64 6 22 64 6 22 64 6 22 64 6 22
65 6 22 65 6 22 65 6 22 65 6 22 65 6 22 65 6 22 66 6 23 66 6 23 66 6
23 66 6 23 66 6 23 66 6 23 67 6 23 67 6 23 67 6 23 67 6 23 67 6 23 67
6 23 68 6 23 68 6 23 68 6 23 68 6 23 68 6 23
11 2 7 11 2 7 11 2 7 11 2 7 11 2 7 11 2 7 11 2 7 11 2 7 11 2 7 11 2 7
11 2 7 11 2 7 11 2 7 11 2 7 11 2 7 11 2 7 11 2 7 11 2 7 11 2 7 11 2 7
11 2 7 11 2 7 11 2 7 11 2 7 11 2 7 11 2 7 11 2 7 11 2 7 11 2 7 11 2 7
11 2 7 23 62 6 23 62 6 23 62 6 23 62 6 23 62 6 23 62 6 29 63 13 29 63
13 29 63 12 28 63 12 28 63 12 29 63 12 29 63 12 29 63 11 33 63 12 33
63 12 32 63 12 30 63 11 29 62 10 28 62 10 27 62 9 27 62 8 26 62 8 25
62 7 24 62 7 23 62 6 23 62 5 19 61 3 19 61 3 20 62 4 21 62 4 21 62 4
21 62 4 21 62 4 21 60 6 21 59 6 20 57 6 20 57 6 20 57 6 20 58 6 21 62
6 21 63 6 22 65 6 17 48 4 17 49 5 18 51 5 18 52 5 18 53 5 18 54 5 18
56 5 19 57 5 19 58 5 19 59 5 19 60 5 19 62 5 20 63 5 20 64 5 20 65 5
20 66 5 20 67 5 21 68 5 21 70 5 22 71 5 22 73 6 23 75 6 23 76 6 24 78
6 24 79 6 25 81 6 25 82 6 26 84 6 26 86 6 27 87 6 28 89 6 28 90 6 29
91 6 29 93 6 30 94 6 30 96 6 35 116 6 35 117 6 35 118 6 40 120 7 41
121 7 41 123 7 42 124 7 42 125 7 46 127 10 48 128 10 49 129 11 51 130
12 53 132 13 54 133 13 56 134 14 58 135 15 60 136 16 62 137 17 64 138
18 66 138 19 68 139 19 70 140 20 73 140 22 75 141 23 76 141 23 77 141
24 79 141 24 80 141 25 80 141 25 81 140 26 81 139 26 81 138 26 73 133
15 72 130 15 71 127 14 71 122 14 68 110 13 59 6 21 59 6 21 59 6 21 59
6 21 59 6 21 60 6 21 60 6 21 60 6 21 60 6 21 60 6 21 61 6 21 61 6 21
61 6 21 61 6 21 61 6 21 62 6 21 62 6 21 62 6 22 62 6 22 62 6 22 63 6
22 63 6 22 63 6 22 63 6 22 63 6 22 64 6 22 64 6 22 64 6 22 64 6 22 64
6 22 65 6 22 65 6 22 65 6 22 65 6 22 65 6 22 65 6 22 66 6 23 66 6 23
66 6 23 66 6 23 66 6 23 66 6 23 67 6 23 67 6 23 67 6 23 67 6 23 67 6
23 67 6 23 68 6 23 68 6 23 68 6 23 68 6 23 68 6 23
