P3
400 200
255
1 0 12 1 0 12 1 0 12 1 0 12 1 0 12 1 0 12 1 0 12 1 0 12 1 0 12 1 0 12
1 0 12 1 0 12 1 0 12 1 0 12 1 0 12 1 0 12 1 0 12 1 0 12 1 0 12 1 0 12
1 0 12 1 0 12 1 0 12 1 0 12 1 0 12 1 0 12 1 0 12 1 0 12 1 0 12 1 0 12
1 0 12 1 0 12 1 0 12 1 0 12 1 0 12 1 0 12 1 0 12 1 0 12 1 0 12 1 0 12
1 0 12 1 0 12 1 0 12 1 0 12 1 0 12 1 0 12 1 0 12 1 0 12 1 0 12 1 0 12
1 0 12 1 0 12 1 0 12 1 0 12 1 0 12 1 0 12 1 0 12 1 0 12 1 0 12 1 0 12
1 0 12 1 0 12 1 0 12 1 0 12 1 0 12 1 0 12 1 0 12 1 0 12 1 0 12 1 0 12
1 0 12 1 0 12 1 0 12 1 0 12 1 0 12 1 0 12 1 0 12 1 0 12 1 0 12 1 0 12
1 0 12 1 0 12 1 0 12 1 0 12 1 0 12 1 0 12 1 0 12 1 0 12 1 0 12 1 0 12
1 0 12 1 0 12 1 0 12 1 0 12 1 0 12 1 0 12 1 0 12 1 0 12 1 0 12 1 0 12
1 0 12 1 0 12 1 0 12 1 0 12 1 0 10 1 0 10 1 0 10 1 0 10 1 0 10 1 0 10
1 0 10 1 0 10 1 0 10 1 0 10 1 0 10 1 0 10 1 0 10 1 0 10 1 0 10 1 0 10
1 0 10 1 0 10 1 0 10 1 0 10 1 0 10 1 0 10 1 0 10 1 0 10 1 0 10 1 0 10
1 0 10 7 7 35 8 9 42 9 9 45 9 10 48 10 10 49 10 11 51 10 11 52 10 11
53 11 11 54 11 11 54 11 11 55 11 11 55 11 12 55 11 12 55 11 12 55 11
12 55 11 11 55 11 11 55 11 11 54 11 11 54 11 11 53 10 11 53 10 11 52
10 11 51 10 10 50 10 10 49 9 10 48 9 10 46 9 9 45 9 9 43 8 9 41 8 8 39
7 8 37 7 7 33 6 6 29 1 0 10 1 0 10 1 0 10 1 0 10 1 0 10 1 0 10 1 0 10
1 0 10 1 0 10 1 0 10 1 0 10 1 0 10 1 0 10 1 0 10 1 0 10 1 0 10 1 0 10
1 0 10 1 0 10 1 0 10 1 0 10 1 0 10 1 0 10 1 0 10 1 0 10 1 0 10 1 0 10
1 0 10 1 0 10 1 0 10 1 0 10 1 0 10 1 0 10 1 0 10 1 0 10 1 0 10 1 0 10
1 0 12 1 0 12 1 0 12 1 0 12 1 0 12 1 0 12 1 0 12 1 0 12 1 0 12 1 0 12
1 0 12 1 0 12 1 0 12 1 0 12 1 0 12 1 0 12 1 0 12 1 0 12 1 0 12 1 0 12
1 0 12 1 0 12 1 0 12 1 0 12 1 0 12 1 0 12 1 0 12 1 0 10 1 0 10 1 0 10
1 0 10 1 0 10 1 0 10 1 0 10 1 0 10 1 0 10 1 0 10 1 0 10 1 0 10 1 0 10
1 0 10 1 0 10 1 0 10 1 0 10 1 0 10 1 0 10 1 0 10 1 0 10 1 0 10 1 0 10
1 0 10 1 0 10 1 0 10 1 0 10 1 0 10 1 0 10 1 0 10 1 0 10 1 0 10 1 0 10
1 0 10 1 0 10 1 0 10 1 0 10 1 0 10 1 0 10 1 0 10 1 0 10 1 0 10 1 0 10
1 0 10 1 0 10 1 0 10 1 0 10 1 0 10 1 0 10 1 0 10 1 0 10 1 0 10 1 0 10
1 0 10 1 0 10 1 0 10 1 0 10 1 0 10 1 0 10 1 0 10 1 0 10 1 0 10 1 0 10
1 0 10 1 0 10 1 0 10 1 0 10 1 0 10 1 0 10 1 0 10 1 0 10 1 0 10 1 0 10
1 0 10 1 0 10 1 0 10 1 0 10 1 0 10 1 0 10 7 13 22 8 14 23 8 14 24 8 15
25 8 15 25 8 15 26 8 15 26 8 15 26 8 16 26 8 16 26 8 16 26 8 16 26 8
16 26 8 16 26 8 15 26 8 15 26 8 15 26 8 15 26 8 15 26 8 15 25 8 15 25
8 15 25 8 15 25 8 15 25 8 14 24 8 14 24 8 14 24 8 14 24 7 14 23 7 14
23 7 14 23 7 13 23 7 13 22 7 13 22 7 13 22 7 13 21 7 13 21 7 12 21 7
12 21 6 12 20 6 12 20 6 12 20 6 11 19 6 11 19 6 11 19 6 11 18 6 11 18
6 10 18 6 10 17 5 10 17 5 10 17 5 10 16 7 17 108 8 19 113 4 10 107 4
10 104 4 10 104 4 10 104 4 10 103 4 10 107 4 10 107 4 10 106 4 10 106
4 10 106 4 10 105 4 10 105 4 10 105 4 10 104 4 10 104 4 10 103 4 10
103 4 10 102 4 10 101 4 9 101 4 9 100 4 9 100 4 9 99 4 9 99 4 9 99 4 9
99 4 9 98 4 9 98 4 9 96 4 9 95 4 9 94 4 9 94 4 9 93 4 9 92 4 9 91 4 8
91 4 8 90
1 0 12 1 0 12 1 0 12 1 0 12 1 0 12 1 0 12 1 0 12 1 0 12 1 0 12 1 0 12
1 0 12 1 0 12 1 0 12 1 0 12 1 0 12 1 0 12 1 0 12 1 0 12 1 0 12 1 0 12
1 0 12 1 0 12 1 0 12 1 0 12 1 0 12 1 0 12 1 0 12 1 0 12 1 0 12 1 0 12
1 0 12 1 0 12 1 0 12 1 0 12 1 0 12 1 0 12 1 0 12 1 0 12 1 0 12 1 0 12
1 0 12 1 0 12 1 0 12 1 0 12 1 0 12 1 0 12 1 0 12 1 0 12 1 0 12 1 0 12
1 0 12 1 0 12 1 0 12 1 0 12 1 0 12 1 0 12 1 0 12 1 0 12 1 0 12 1 0 12
1 0 12 1 0 12 1 0 12 1 0 12 1 0 12 1 0 12 1 0 12 1 0 12 1 0 12 1 0 12
1 0 12 1 0 12 1 0 12 1 0 12 1 0 12 1 0 12 1 0 12 1 0 12 1 0 12 1 0 12
1 0 12 1 0 12 1 0 12 1 0 12 1 0 12 1 0 12 1 0 12 1 0 12 1 0 12 1 0 12
1 0 12 1 0 12 1 0 12 1 0 12 1 0 12 1 0 12 1 0 12 1 0 12 2 0 12 2 0 12
2 0 12 2 0 12 2 0 12 2 0 12 1 0 10 1 0 10 1 0 10 1 0 10 1 0 10 1 0 10
1 0 10 1 0 10 1 0 10 1 0 10 1 0 10 1 0 10 1 0 10 1 0 10 1 0 10 1 0 10
1 0 10 1 0 10 1 0 10 1 0 10 1 0 10 1 0 10 1 0 10 1 0 10 1 0 10 1 0 10
1 0 10 1 0 10 1 0 10 8 8 41 9 9 44 9 10 47 10 10 48 10 10 50 10 11 51
10 11 52 10 11 52 10 11 53 11 11 53 11 11 54 11 11 54 11 11 54 11 11
54 11 11 54 11 11 53 10 11 53 10 11 52 10 11 52 10 11 51 10 11 50 10
10 50 10 10 49 9 10 47 9 10 46 9 9 45 8 9 43 8 9 41 8 8 39 7 8 37 7 7
33 6 6 28 1 0 10 1 0 10 1 0 10 1 0 10 1 0 10 1 0 10 1 0 10 1 0 10 1 0
10 1 0 10 1 0 10 1 0 10 1 0 10 1 0 10 1 0 10 1 0 10 1 0 10 1 0 10 1 0
10 1 0 10 1 0 10 1 0 10 1 0 10 1 0 10 1 0 10 1 0 10 1 0 10 1 0 10 1 0
10 1 0 10 1 0 10 1 0 10 1 0 10 1 0 10 1 0 10 1 0 10 1 0 10 2 0 12 2 0
12 2 0 12 2 0 12 2 0 12 2 0 12 2 0 12 2 0 12 2 0 12 2 0 12 2 0 12 2 0
12 2 0 12 2 0 12 2 0 12 2 0 12 2 0 12 2 0 12 2 0 12 2 0 12 2 0 12 2 0
12 2 0 12 2 0 12 2 0 12 2 0 12 2 0 12 1 0 10 1 0 10 1 0 10 1 0 10 1 0
10 1 0 10 1 0 10 1 0 10 1 0 10 1 0 10 1 0 10 1 0 10 1 0 10 1 0 10 1 0
10 1 0 10 1 0 10 1 0 10 1 0 10 1 0 10 1 0 10 1 0 10 1 0 10 1 0 10 1 0
10 1 0 10 1 0 10 1 0 10 1 0 10 1 0 10 1 0 10 1 0 10 1 0 10 1 0 10 1 0
10 1 0 10 1 0 10 1 0 10 1 0 10 1 0 10 1 0 10 1 0 10 1 0 10 1 0 10 1 0
10 1 0 10 1 0 10 1 0 10 1 0 10 1 0 10 1 0 10 1 0 10 1 0 10 1 0 10 1 0
10 1 0 10 1 0 10 1 0 10 1 0 10 1 0 10 1 0 10 1 0 10 1 0 10 1 0 10 1 0
10 1 0 10 1 0 10 1 0 10 1 0 10 1 0 10 1 0 10 1 0 10 1 0 10 1 0 10 1 0
10 1 0 10 1 0 10 1 0 10 1 0 10 1 0 10 7 13 23 8 14 24 8 15 25 8 15 25
8 15 26 8 15 26 8 16 26 8 16 26 8 16 26 8 16 26 8 16 26 8 16 26 8 16
26 8 16 26 8 16 26 8 16 26 8 15 26 8 15 26 8 15 26 8 15 26 8 15 25 8
15 25 8 15 25 8 15 25 8 15 25 8 14 24 8 14 24 8 14 24 8 14 24 7 14 23
7 14 23 7 14 23 7 13 22 7 13 22 7 13 22 7 13 22 7 13 21 7 12 21 7 12
21 7 12 20 6 12 20 6 12 20 6 12 19 6 11 19 6 11 19 6 11 18 6 11 18 6
11 18 6 10 17 5 10 17 5 10 17 5 10 16 7 17 109 8 19 114 4 10 107 4 10
104 4 10 104 4 10 104 4 10 104 4 10 108 4 10 108 4 10 107 4 10 107 4
10 107 4 10 106 3 10 119 3 10 131 4 10 105 4 10 105 4 10 104 4 10 104
4 10 103 4 10 103 4 10 102 4 9 102 4 9 101 4 9 101 4 9 101 4 9 102 4 9
102 4 9 102 4 9 101 4 9 99 4 9 98 4 9 96 4 9 95 4 9 94 4 9 93 4 9 93 4
8 92 4 8 91
1 0 12 1 0 12 1 0 12 1 0 12 1 0 12 1 0 12 1 0 12 1 0 12 1 0 12 1 0 12
1 0 12 1 0 12 1 0 12 1 0 12 1 0 12 1 0 12 1 0 12 1 0 12 1 0 12 1 0 12
1 0 12 1 0 12 1 0 12 1 0 12 1 0 12 1 0 12 1 0 12 1 0 12 1 0 12 1 0 12
1 0 12 1 0 12 1 0 12 1 0 12 1 0 12 1 0 12 1 0 12 1 0 12 1 0 12 1 0 12
1 0 12 1 0 12 1 0 12 1 0 12 1 0 12 1 0 12 1 0 12 2 0 12 2 0 12 2 0 12
2 0 12 2 0 12 2 0 12 2 0 12 2 0 12 2 0 12 2 0 12 2 0 12 2 0 12 2 0 12
2 0 12 2 0 12 2 0 12 2 0 12 2 0 12 2 0 12 2 0 12 2 0 12 2 0 12 2 0 12
2 0 12 2 0 12 2 0 12 2 0 12 2 0 12 2 0 12 2 0 12 2 0 12 2 0 12 2 0 12
2 0 12 2 0 12 2 0 12 2 0 12 2 0 12 2 0 12 2 0 12 2 0 12 2 0 12 2 0 12
2 0 12 2 0 12 2 0 12 2 0 12 2 0 12 2 0 12 2 0 12 2 0 13 2 0 13 2 0 13
2 0 13 2 0 13 2 0 13 2 0 13 1 0 10 1 0 10 1 0 10 1 0 10 1 0 10 1 0 10
1 0 10 1 0 10 1 0 10 1 0 10 1 0 10 1 0 10 1 0 10 1 0 10 1 0 10 1 0 10
1 0 10 1 0 10 1 0 10 1 0 10 1 0 10 1 0 10 1 0 10 1 0 10 1 0 10 1 0 10
1 0 10 1 0 10 1 0 10 1 0 10 8 8 38 8 9 43 9 9 45 9 10 47 10 10 48 10
10 49 10 10 50 10 11 51 10 11 51 10 11 52 10 11 52 10 11 52 10 11 52
10 11 52 10 11 52 10 11 51 10 11 51 10 10 50 10 10 50 10 10 49 9 10 48
9 10 47 9 9 45 9 9 44 8 9 42 8 8 41 8 8 39 7 7 36 6 7 32 1 0 10 1 0 10
1 0 10 1 0 10 1 0 10 1 0 10 1 0 10 1 0 10 1 0 10 1 0 10 1 0 10 1 0 10
1 0 10 1 0 10 1 0 10 1 0 10 1 0 10 1 0 10 1 0 10 1 0 10 1 0 10 1 0 10
1 0 10 1 0 10 1 0 10 1 0 10 1 0 10 1 0 10 1 0 10 1 0 10 1 0 10 1 0 10
1 0 10 1 0 10 1 0 10 1 0 10 1 0 10 1 0 10 1 0 10 2 0 13 2 0 13 2 0 13
2 0 13 2 0 13 2 0 13 2 0 13 2 0 13 2 0 13 2 0 13 2 0 13 2 0 13 2 0 13
2 0 13 2 0 13 2 0 13 2 0 13 2 0 13 2 0 13 2 0 13 2 0 13 2 0 13 2 0 13
2 0 13 2 0 13 2 0 13 2 0 13 1 0 10 1 0 10 1 0 10 1 0 10 1 0 10 1 0 10
1 0 10 1 0 10 1 0 10 1 0 10 1 0 10 1 0 10 1 0 10 1 0 10 1 0 10 1 0 10
1 0 10 1 0 10 1 0 10 1 0 10 1 0 10 1 0 10 1 0 10 1 0 10 1 0 10 1 0 10
1 0 10 1 0 10 1 0 10 1 0 10 1 0 10 1 0 10 1 0 10 1 0 10 1 0 10 1 0 10
1 0 10 1 0 10 1 0 10 1 0 10 1 0 10 1 0 10 1 0 10 1 0 10 1 0 10 1 0 10
1 0 10 1 0 10 1 0 10 1 0 10 1 0 10 1 0 10 1 0 10 1 0 10 1 0 10 1 0 10
1 0 10 1 0 10 1 0 10 1 0 10 1 0 10 1 0 10 1 0 10 1 0 10 1 0 10 1 0 10
1 0 10 1 0 10 1 0 10 1 0 10 1 0 10 1 0 10 1 0 10 1 0 10 1 0 10 1 0 10
1 0 10 1 0 10 1 0 10 1 0 10 7 14 23 8 14 24 8 15 25 8 15 25 8 15 26 8
16 26 8 16 26 8 16 26 8 16 27 9 16 27 9 16 27 9 16 27 8 16 27 8 16 27
8 16 26 8 16 26 8 16 26 8 15 26 8 15 26 8 15 26 8 15 26 8 15 25 8 15
25 8 15 25 8 15 25 8 15 24 8 14 24 8 14 24 8 14 24 7 14 23 7 14 23 7
14 23 7 13 23 7 13 22 7 13 22 7 13 22 7 13 21 7 13 21 7 12 21 7 12 21
6 12 20 6 12 20 6 12 20 6 11 19 6 11 19 6 11 19 6 11 18 6 11 18 6 10
18 5 10 17 5 10 17 5 10 16 7 17 109 8 19 114 4 10 108 4 10 105 4 10
104 4 10 104 4 10 104 5 12 108 4 10 108 4 10 108 4 10 108 4 10 108 3
10 120 3 10 132 3 10 149 4 10 106 4 10 106 4 10 105 4 10 105 4 10 104
4 10 104 4 10 103 4 10 103 4 9 103 4 9 103 4 10 104 5 10 106 5 10 108
5 10 109 5 10 108 5 10 104 4 9 101 4 9 98 4 9 97 4 9 96 4 9 95 4 9 94
4 9 94 4 8 93
1 0 12 1 0 12 1 0 12 1 0 12 1 0 12 1 0 12 1 0 12 1 0 12 2 0 12 2 0 12
2 0 12 2 0 12 2 0 12 2 0 12 2 0 12 2 0 12 2 0 12 2 0 12 2 0 12 2 0 12
2 0 12 2 0 12 2 0 12 2 0 12 2 0 12 2 0 12 2 0 12 2 0 12 2 0 12 2 0 12
2 0 12 2 0 12 2 0 12 2 0 12 2 0 12 2 0 12 2 0 12 2 0 12 2 0 12 2 0 12
2 0 12 2 0 12 2 0 12 2 0 12 2 0 12 2 0 12 2 0 12 2 0 12 2 0 13 2 0 13
2 0 13 2 0 13 2 0 13 2 0 13 2 0 13 2 0 13 2 0 13 2 0 13 2 0 13 2 0 13
2 0 13 2 0 13 2 0 13 2 0 13 2 0 13 2 0 13 2 0 13 2 0 13 2 0 13 2 0 13
2 0 13 2 0 13 2 0 13 2 0 13 2 0 13 2 0 13 2 0 13 2 0 13 2 0 13 2 0 13
2 0 13 2 0 13 2 0 13 2 0 13 2 0 13 2 0 13 2 0 13 2 0 13 2 0 13 2 0 13
2 0 13 2 0 13 2 0 13 2 0 13 2 0 13 2 0 13 2 0 13 2 0 13 2 0 13 2 0 13
2 0 13 2 0 13 2 0 13 2 0 13 1 0 10 1 0 10 1 0 10 1 0 10 1 0 10 1 0 10
1 0 10 1 0 10 1 0 10 1 0 10 1 0 10 1 0 10 1 0 10 1 0 10 1 0 10 1 0 10
1 0 10 1 0 10 1 0 10 1 0 10 1 0 10 1 0 10 1 0 10 1 0 10 1 0 10 1 0 10
1 0 10 1 0 10 1 0 10 1 0 10 1 0 10 1 0 10 8 8 40 8 9 43 9 9 45 9 10 46
9 10 48 10 10 48 10 10 49 10 10 50 10 10 50 10 10 50 10 10 50 10 10 50
10 10 50 10 10 49 10 10 49 10 10 48 9 10 47 9 10 47 9 9 46 9 9 44 8 9
43 8 9 41 8 8 40 7 8 37 7 7 35 6 6 30 1 0 10 1 0 10 1 0 10 1 0 10 1 0
10 1 0 10 1 0 10 1 0 10 1 0 10 1 0 10 1 0 10 1 0 10 1 0 10 1 0 10 1 0
10 1 0 10 1 0 10 1 0 10 1 0 10 1 0 10 1 0 10 1 0 10 1 0 10 1 0 10 1 0
10 1 0 10 1 0 10 1 0 10 1 0 10 1 0 10 1 0 10 1 0 10 1 0 10 1 0 10 1 0
10 1 0 10 1 0 10 1 0 10 1 0 10 2 0 13 2 0 13 2 0 13 2 0 13 2 0 13 2 0
13 2 0 13 2 0 13 2 0 13 2 0 13 2 0 13 2 0 13 2 0 13 2 0 13 2 0 13 2 0
13 2 0 13 2 0 13 2 0 13 2 0 13 2 0 13 2 0 13 2 0 13 2 0 13 2 0 13 2 0
13 2 0 13 1 0 10 1 0 10 1 0 10 1 0 10 1 0 10 1 0 10 1 0 10 1 0 10 1 0
10 1 0 10 1 0 10 1 0 10 1 0 10 1 0 10 1 0 10 1 0 10 1 0 10 1 0 10 1 0
10 1 0 10 1 0 10 1 0 10 1 0 10 1 0 10 1 0 10 1 0 10 1 0 10 1 0 10 1 0
10 1 0 10 1 0 10 1 0 10 1 0 10 1 0 10 1 0 10 1 0 10 1 0 10 1 0 10 1 0
10 1 0 10 1 0 10 1 0 10 1 0 10 1 0 10 1 0 10 1 0 10 1 0 10 1 0 10 1 0
10 1 0 10 1 0 10 1 0 10 1 0 10 1 0 10 1 0 10 1 0 10 1 0 10 1 0 10 1 0
10 1 0 10 1 0 10 1 0 10 1 0 10 1 0 10 1 0 10 1 0 10 1 0 10 1 0 10 1 0
10 1 0 10 1 0 10 1 0 10 1 0 10 1 0 10 1 0 10 1 0 10 1 0 10 1 0 10 1 0
10 1 0 10 7 12 21 7 14 23 8 15 25 8 15 25 8 15 26 8 16 26 8 16 26 8 16
27 9 16 27 9 16 27 9 16 27 9 16 27 9 16 27 9 16 27 9 16 27 9 16 27 8
16 27 8 16 26 8 16 26 8 15 26 8 15 26 8 15 26 8 15 26 8 15 25 8 15 25
8 15 25 8 15 25 8 14 24 8 14 24 8 14 24 8 14 24 7 14 23 7 14 23 7 14
23 7 13 22 7 13 22 7 13 22 7 13 22 7 13 21 7 12 21 7 12 21 6 12 20 6
12 20 6 12 20 6 12 19 6 11 19 6 11 19 6 11 18 6 11 18 6 10 18 6 10 17
5 10 17 5 10 17 7 17 109 8 19 114 4 10 105 4 10 109 4 10 105 4 10 104
4 12 107 7 14 120 4 10 109 4 10 109 4 10 109 4 10 108 3 10 120 3 10
140 3 10 158 3 10 157 4 10 107 4 10 106 4 10 106 4 10 106 4 10 105 4
10 105 4 10 104 4 10 104 5 10 105 5 10 108 5 10 113 5 11 118 6 11 120
5 11 118 5 10 112 5 10 106 5 9 102 4 9 99 4 9 97 4 9 97 4 9 96 4 9 95
4 9 94
2 0 12 2 0 12 2 0 12 2 0 12 2 0 12 2 0 12 2 0 12 2 0 12 2 0 12 2 0 12
2 0 12 2 0 13 2 0 13 2 0 13 2 0 13 2 0 13 2 0 13 2 0 13 2 0 13 2 0 13
2 0 13 2 0 13 2 0 13 2 0 13 2 0 13 2 0 13 2 0 13 2 0 13 2 0 13 2 0 13
2 0 13 2 0 13 2 0 13 2 0 13 2 0 13 2 0 13 2 0 13 2 0 13 2 0 13 2 0 13
2 0 13 2 0 13 2 0 13 2 0 13 2 0 13 2 0 13 2 0 13 2 0 13 2 0 13 2 0 13
2 0 13 2 0 13 2 0 13 2 0 13 2 0 13 2 0 13 2 0 13 2 0 13 2 0 13 2 0 13
2 0 13 2 0 13 2 0 13 2 0 13 2 0 13 2 0 13 2 0 13 2 0 13 2 0 13 2 0 13
2 0 13 2 0 13 2 0 13 2 0 13 2 0 13 2 0 13 2 0 13 2 0 13 2 0 13 2 0 13
2 0 13 2 0 13 2 0 13 2 0 13 2 0 13 2 0 13 2 0 13 2 0 13 2 0 13 2 0 13
2 0 13 2 0 13 2 0 13 2 0 13 2 0 13 2 0 13 2 0 13 2 0 13 2 0 13 2 0 13
2 0 13 2 0 13 2 0 13 2 0 13 1 0 10 1 0 10 1 0 10 1 0 10 1 0 10 1 0 10
1 0 10 1 0 10 1 0 10 1 0 10 1 0 10 1 0 10 1 0 10 1 0 10 1 0 10 1 0 10
1 0 10 1 0 10 1 0 10 1 0 10 1 0 10 1 0 10 1 0 10 1 0 10 1 0 10 1 0 10
1 0 10 1 0 10 1 0 10 1 0 10 1 0 10 1 0 10 1 0 10 1 0 10 8 8 39 8 9 42
9 9 44 9 9 45 9 10 46 9 10 47 9 10 47 9 10 47 9 10 47 9 10 47 9 10 47
9 10 47 9 10 46 9 10 46 9 9 45 9 9 44 8 9 43 8 9 41 8 8 40 7 8 38 7 7
35 6 6 31 1 0 10 1 0 10 1 0 10 1 0 10 1 0 10 1 0 10 1 0 10 1 0 10 1 0
10 1 0 10 1 0 10 1 0 10 1 0 10 1 0 10 1 0 10 1 0 10 1 0 10 1 0 10 1 0
10 1 0 10 1 0 10 1 0 10 1 0 10 1 0 10 1 0 10 1 0 10 1 0 10 1 0 10 1 0
10 1 0 10 1 0 10 1 0 10 1 0 10 1 0 10 1 0 10 1 0 10 1 0 10 1 0 10 1 0
10 1 0 10 1 0 10 2 0 13 2 0 13 2 0 13 2 0 13 2 0 13 2 0 13 2 0 13 2 0
13 2 0 13 2 0 13 2 0 13 2 0 13 2 0 13 2 0 13 2 0 13 2 0 13 2 0 13 2 0
13 2 0 13 2 0 13 2 0 13 2 0 13 2 0 13 2 0 13 2 0 13 2 0 13 1 0 10 1 0
10 1 0 10 1 0 10 1 0 10 1 0 10 1 0 10 1 0 10 1 0 10 1 0 10 1 0 10 1 0
10 1 0 10 1 0 10 1 0 10 1 0 10 1 0 10 1 0 10 1 0 10 1 0 10 1 0 10 1 0
10 1 0 10 1 0 10 1 0 10 1 0 10 1 0 10 1 0 10 1 0 10 1 0 10 1 0 10 1 0
10 1 0 10 1 0 10 1 0 10 1 0 10 1 0 10 1 0 10 1 0 10 1 0 10 1 0 10 1 0
10 1 0 10 1 0 10 1 0 10 1 0 10 1 0 10 1 0 10 1 0 10 1 0 10 1 0 10 1 0
10 1 0 10 1 0 10 1 0 10 1 0 10 1 0 10 1 0 10 1 0 10 1 0 10 1 0 10 1 0
10 1 0 10 1 0 10 1 0 10 1 0 10 1 0 10 1 0 10 1 0 10 1 0 10 1 0 10 1 0
10 1 0 10 1 0 10 1 0 10 1 0 10 1 0 10 1 0 10 1 0 10 1 0 10 1 0 10 7 13
22 8 14 24 8 15 25 8 15 26 8 15 26 8 16 26 8 16 27 9 16 27 9 16 27 9
16 27 9 16 27 9 16 27 9 16 27 9 16 27 9 16 27 9 16 27 9 16 27 8 16 27
8 16 26 8 16 26 8 15 26 8 15 26 8 15 26 8 15 25 8 15 25 8 15 25 8 15
25 8 15 25 8 14 24 8 14 24 8 14 24 8 14 24 7 14 23 7 14 23 7 13 23 7
13 22 7 13 22 7 13 22 7 13 21 7 13 21 7 12 21 7 12 20 6 12 20 6 12 20
6 12 19 6 11 19 6 11 19 6 11 18 6 11 18 6 11 18 6 10 17 5 10 17 5 10
17 7 17 109 8 19 115 4 10 105 4 10 109 4 10 105 4 10 105 5 12 109 6 14
117 5 11 124 6 11 144 4 10 110 4 10 109 3 10 120 3 10 144 3 10 163 3
10 167 5 10 108 5 10 108 5 10 107 5 10 107 5 10 106 5 10 106 5 10 106
5 10 106 5 10 108 5 10 113 6 11 122 6 12 132 7 12 136 6 12 132 6 11
123 5 10 113 5 10 106 5 9 102 5 9 99 4 9 98 4 9 97 4 9 97 4 9 96
2 0 13 2 0 13 2 0 13 2 0 13 2 0 13 2 0 13 2 0 13 2 0 13 2 0 13 2 0 13
2 0 13 2 0 13 2 0 13 2 0 13 2 0 13 2 0 13 2 0 13 2 0 13 2 0 13 2 0 13
2 0 13 2 0 13 2 0 13 2 0 13 2 0 13 2 0 13 2 0 13 2 0 13 2 0 13 2 0 13
2 0 13 2 0 13 2 0 13 2 0 13 2 0 13 2 0 13 2 0 13 2 0 13 2 0 13 2 0 13
2 0 13 2 0 13 2 0 13 2 0 13 2 0 13 2 0 13 2 0 13 2 0 13 2 0 13 2 0 13
2 0 13 2 0 13 2 0 13 2 0 13 2 0 13 2 0 13 2 0 13 2 0 13 2 0 13 2 0 13
2 0 13 2 0 13 2 0 13 2 0 13 2 0 13 2 0 13 2 0 13 2 0 13 2 0 13 2 0 13
2 0 13 2 0 13 2 0 13 2 0 13 2 0 13 2 0 13 2 0 13 2 0 13 2 0 13 2 0 13
2 0 13 2 0 13 2 0 13 2 0 13 2 0 13 2 0 13 2 0 13 2 0 13 2 0 13 2 0 13
2 0 13 2 0 13 2 0 13 2 0 13 2 0 13 2 0 13 2 0 13 2 0 13 2 0 13 2 0 13
2 0 13 2 0 13 2 0 13 2 0 13 1 0 10 1 0 10 1 0 10 1 0 10 1 0 10 1 0 10
1 0 10 1 0 10 1 0 10 1 0 10 1 0 10 1 0 10 1 0 10 1 0 10 1 0 10 1 0 10
1 0 10 1 0 10 1 0 10 1 0 10 1 0 10 1 0 10 1 0 10 1 0 10 1 0 10 1 0 10
1 0 10 1 0 10 1 0 10 1 0 10 1 0 10 1 0 10 1 0 10 1 0 10 1 0 10 1 0 10
7 7 35 8 8 39 8 9 41 8 9 42 9 9 43 9 9 44 9 9 44 9 9 44 9 9 44 9 9 43
8 9 43 8 9 42 8 9 41 8 8 40 8 8 39 7 8 37 7 7 34 6 6 29 1 0 10 1 0 10
1 0 10 1 0 10 1 0 10 1 0 10 1 0 10 1 0 10 1 0 10 1 0 10 1 0 10 1 0 10
1 0 10 1 0 10 1 0 10 1 0 10 1 0 10 1 0 10 1 0 10 1 0 10 1 0 10 1 0 10
1 0 10 1 0 10 1 0 10 1 0 10 1 0 10 1 0 10 1 0 10 1 0 10 1 0 10 1 0 10
1 0 10 1 0 10 1 0 10 1 0 10 1 0 10 1 0 10 1 0 10 1 0 10 1 0 10 1 0 10
2 0 13 2 0 13 2 0 13 2 0 13 2 0 13 2 0 13 2 0 13 2 0 13 2 0 13 2 0 13
2 0 13 2 0 13 2 0 13 2 0 13 2 0 13 2 0 13 2 0 13 2 0 13 2 0 13 2 0 13
2 0 13 2 0 13 2 0 13 2 0 13 2 0 13 2 0 13 1 0 10 1 0 10 1 0 10 1 0 10
1 0 10 1 0 10 1 0 10 1 0 10 1 0 10 1 0 10 1 0 10 1 0 10 1 0 10 1 0 10
1 0 10 1 0 10 1 0 10 1 0 10 1 0 10 1 0 10 1 0 10 1 0 10 1 0 10 1 0 10
1 0 10 1 0 10 1 0 10 1 0 10 1 0 10 1 0 10 1 0 10 1 0 10 1 0 10 1 0 10
1 0 10 1 0 10 1 0 10 1 0 10 1 0 10 1 0 10 1 0 10 1 0 10 1 0 10 1 0 10
1 0 10 1 0 10 1 0 10 1 0 10 1 0 10 1 0 10 1 0 10 1 0 10 1 0 10 1 0 10
1 0 10 1 0 10 1 0 10 1 0 10 1 0 10 1 0 10 1 0 10 1 0 10 1 0 10 1 0 10
1 0 10 1 0 10 1 0 10 1 0 10 1 0 10 1 0 10 1 0 10 1 0 10 1 0 10 1 0 10
1 0 10 1 0 10 1 0 10 1 0 10 1 0 10 1 0 10 1 0 10 1 0 10 7 13 22 8 14
24 8 15 25 8 15 26 8 16 26 8 16 27 9 16 27 9 16 27 9 16 27 9 16 27 9
16 27 9 16 27 9 16 27 9 16 27 9 16 27 9 16 27 9 16 27 9 16 27 8 16 27
8 16 26 8 16 26 8 15 26 8 15 26 8 15 26 8 15 25 8 15 25 8 15 25 8 15
25 8 15 25 8 14 25 8 14 24 8 14 24 7 14 23 7 14 23 7 14 23 7 13 22 7
13 22 7 13 22 7 13 22 7 13 21 7 12 21 7 12 21 6 12 20 6 12 20 6 12 20
6 11 19 6 11 19 6 11 19 6 11 18 6 11 18 6 10 18 5 10 17 5 10 17 7 17
109 8 19 115 4 10 105 4 10 110 4 10 105 5 12 109 5 12 110 7 14 119 8
15 124 6 12 152 7 12 154 5 10 110 3 10 120 3 10 145 3 10 168 3 10 171
5 10 109 5 10 109 5 10 109 5 10 108 5 10 108 5 10 108 5 10 107 5 10
108 5 10 111 6 11 119 6 12 133 7 13 147 8 14 154 7 13 149 7 12 136 6
11 121 5 10 110 5 9 104 5 9 102 5 9 100 5 9 99 5 9 99 5 9 98
2 0 13 2 0 13 2 0 13 2 0 13 2 0 13 2 0 13 2 0 13 2 0 13 2 0 13 2 0 13
2 0 13 2 0 13 2 0 13 2 0 13 2 0 13 2 0 13 2 0 13 2 0 13 2 0 13 2 0 13
2 0 13 2 0 13 2 0 13 2 0 13 2 0 13 2 0 13 2 0 13 2 0 13 2 0 13 2 0 13
2 0 13 2 0 13 2 0 13 2 0 13 2 0 13 2 0 13 2 0 13 2 0 13 2 0 13 2 0 13
2 0 13 2 0 13 2 0 13 2 0 13 2 0 13 2 0 13 2 0 13 2 0 13 2 0 13 2 0 13
2 0 13 2 0 13 2 0 13 2 0 13 2 0 13 2 0 13 2 0 13 2 0 13 2 0 13 2 0 13
2 0 13 2 0 13 2 0 13 2 0 13 2 0 13 2 0 13 2 0 13 2 0 13 2 0 13 2 0 13
2 0 13 2 0 13 2 0 13 2 0 13 2 0 13 2 0 13 2 0 13 2 0 13 2 0 13 2 0 13
2 0 13 2 0 13 2 0 13 2 0 13 2 0 13 2 0 13 2 0 13 2 0 13 2 0 13 2 0 13
2 0 13 2 0 13 2 0 13 2 0 13 2 0 13 2 0 13 2 0 13 2 0 13 2 0 13 2 0 13
2 0 13 2 0 13 2 0 13 2 0 13 1 0 10 1 0 10 1 0 10 1 0 10 1 0 10 1 0 10
1 0 10 1 0 10 1 0 10 1 0 10 1 0 10 1 0 10 1 0 10 1 0 10 1 0 10 1 0 10
1 0 10 1 0 10 1 0 10 1 0 10 1 0 10 1 0 10 1 0 10 1 0 10 1 0 10 1 0 10
1 0 10 1 0 10 1 0 10 1 0 10 1 0 10 1 0 10 1 0 10 1 0 10 1 0 10 1 0 10
1 0 10 1 0 10 1 0 10 1 0 10 7 7 35 7 8 37 8 8 38 8 8 39 8 8 39 8 8 38
7 8 38 7 8 37 7 7 35 6 7 32 1 0 10 1 0 10 1 0 10 1 0 10 1 0 10 1 0 10
1 0 10 1 0 10 1 0 10 1 0 10 1 0 10 1 0 10 1 0 10 1 0 10 1 0 10 1 0 10
1 0 10 1 0 10 1 0 10 1 0 10 1 0 10 1 0 10 1 0 10 1 0 10 1 0 10 1 0 10
1 0 10 1 0 10 1 0 10 1 0 10 1 0 10 1 0 10 1 0 10 1 0 10 1 0 10 1 0 10
1 0 10 1 0 10 1 0 10 1 0 10 1 0 10 1 0 10 1 0 10 1 0 10 1 0 10 2 0 13
2 0 13 2 0 13 2 0 13 2 0 13 2 0 13 2 0 13 2 0 13 2 0 13 2 0 13 2 0 13
2 0 13 2 0 13 2 0 13 2 0 13 2 0 13 2 0 13 2 0 13 2 0 13 2 0 13 2 0 13
2 0 13 2 0 13 2 0 13 2 0 13 2 0 13 1 0 10 1 0 10 1 0 10 1 0 10 1 0 10
1 0 10 1 0 10 1 0 10 1 0 10 1 0 10 1 0 10 1 0 10 1 0 10 1 0 10 1 0 10
1 0 10 1 0 10 1 0 10 1 0 10 1 0 10 1 0 10 1 0 10 1 0 10 1 0 10 1 0 10
1 0 10 1 0 10 1 0 10 1 0 10 1 0 10 1 0 10 1 0 10 1 0 10 1 0 10 1 0 10
1 0 10 1 0 10 1 0 10 1 0 10 1 0 10 1 0 10 1 0 10 1 0 10 1 0 10 1 0 10
1 0 10 1 0 10 1 0 10 1 0 10 1 0 10 1 0 10 1 0 10 1 0 10 1 0 10 1 0 10
1 0 10 1 0 10 1 0 10 1 0 10 1 0 10 1 0 10 1 0 10 1 0 10 1 0 10 1 0 10
1 0 10 1 0 10 1 0 10 1 0 10 1 0 10 1 0 10 1 0 10 1 0 10 1 0 10 1 0 10
1 0 10 1 0 10 1 0 10 1 0 10 1 0 10 1 0 10 1 0 10 1 0 10 7 13 22 8 14
24 8 15 25 8 15 26 8 16 26 9 16 27 9 16 27 9 16 27 9 16 27 9 16 27 9
16 27 9 16 27 9 16 27 9 16 27 9 16 27 9 16 27 9 16 27 9 16 27 9 16 27
8 16 27 8 16 26 8 16 26 8 15 26 8 15 26 8 15 26 8 15 26 8 15 26 8 15
27 8 15 27 8 15 26 8 14 25 8 14 24 8 14 24 7 14 23 7 14 23 7 13 23 7
13 22 7 13 22 7 13 22 7 13 21 7 12 21 7 12 21 7 12 20 6 12 20 6 12 20
6 12 19 6 11 19 6 11 19 6 11 18 6 11 18 6 10 18 6 10 17 5 10 17 6 16
108 8 19 115 4 10 105 4 10 110 4 10 111 4 12 108 5 13 112 7 14 121 8
16 126 7 12 151 7 12 166 5 10 111 3 10 120 3 10 144 3 10 164 3 10 170
5 10 110 5 10 110 5 10 110 5 10 110 5 10 110 5 10 109 5 10 109 5 10
110 5 10 114 6 11 125 7 13 142 8 14 161 9 15 170 8 15 164 7 13 147 6
11 129 6 10 115 5 9 108 5 9 104 5 9 102 5 9 101 5 9 101 5 9 100
2 0 13 2 0 13 2 0 13 2 0 13 2 0 13 2 0 13 2 0 13 2 0 13 2 0 13 2 0 13
2 0 13 2 0 13 2 0 13 2 0 13 2 0 13 2 0 13 2 0 13 2 0 13 2 0 13 2 0 13
2 0 13 2 0 13 2 0 13 2 0 13 2 0 13 2 0 13 2 0 13 2 0 13 2 0 13 2 0 13
2 0 13 2 0 13 2 0 13 2 0 13 2 0 13 2 0 13 2 0 13 2 0 13 2 0 13 2 0 13
2 0 13 2 0 13 2 0 13 2 0 13 2 0 13 2 0 13 2 0 13 2 0 13 2 0 13 2 0 13
2 0 13 2 0 13 2 0 13 2 0 13 2 0 13 2 0 13 2 0 13 2 0 13 2 0 13 2 0 13
2 0 13 2 0 13 2 0 13 2 0 13 2 0 13 2 0 13 2 0 13 2 0 13 2 0 13 2 0 13
2 0 13 2 0 13 2 0 13 2 0 13 2 0 13 2 0 13 2 0 13 2 0 13 2 0 13 2 0 13
2 0 13 2 0 13 2 0 13 2 0 13 2 0 13 2 0 13 2 0 13 2 0 13 2 0 13 2 0 13
2 0 13 2 0 13 2 0 13 2 0 13 2 0 13 2 0 13 2 0 13 2 0 13 2 0 13 2 0 13
2 0 13 2 0 13 2 0 13 2 0 13 1 0 10 1 0 10 1 0 10 1 0 10 1 0 10 1 0 10
1 0 10 1 0 10 1 0 10 1 0 10 1 0 10 1 0 10 1 0 10 1 0 10 1 0 10 1 0 10
1 0 10 1 0 10 1 0 10 1 0 10 1 0 10 1 0 10 1 0 10 1 0 10 1 0 10 1 0 10
1 0 10 1 0 10 1 0 10 1 0 10 1 0 10 1 0 10 1 0 10 1 0 10 1 0 10 1 0 10
1 0 10 1 0 10 1 0 10 1 0 10 1 0 10 1 0 10 1 0 10 1 0 10 1 0 10 1 0 10
1 0 10 1 0 10 1 0 10 1 0 10 1 0 10 1 0 10 1 0 10 1 0 10 1 0 10 1 0 10
1 0 10 1 0 10 1 0 10 1 0 10 1 0 10 1 0 10 1 0 10 1 0 10 1 0 10 1 0 10
1 0 10 1 0 10 1 0 10 1 0 10 1 0 10 1 0 10 1 0 10 1 0 10 1 0 10 1 0 10
1 0 10 1 0 10 1 0 10 1 0 10 1 0 10 1 0 10 1 0 10 1 0 10 1 0 10 1 0 10
1 0 10 1 0 10 1 0 10 1 0 10 1 0 10 1 0 10 1 0 10 1 0 10 1 0 10 2 0 13
2 0 13 2 0 13 2 0 13 2 0 13 2 0 13 2 0 13 2 0 13 2 0 13 2 0 13 2 0 13
2 0 13 2 0 13 2 0 13 2 0 13 2 0 13 2 0 13 2 0 13 2 0 13 2 0 13 2 0 13
2 0 13 2 0 13 2 0 13 2 0 13 1 0 10 1 0 10 1 0 10 1 0 10 1 0 10 1 0 10
1 0 10 1 0 10 1 0 10 1 0 10 1 0 10 1 0 10 1 0 10 1 0 10 1 0 10 1 0 10
1 0 10 1 0 10 1 0 10 1 0 10 1 0 10 1 0 10 1 0 10 1 0 10 1 0 10 1 0 10
1 0 10 1 0 10 1 0 10 1 0 10 1 0 10 1 0 10 1 0 10 1 0 10 1 0 10 1 0 10
1 0 10 1 0 10 1 0 10 1 0 10 1 0 10 1 0 10 1 0 10 1 0 10 1 0 10 1 0 10
1 0 10 1 0 10 1 0 10 1 0 10 1 0 10 1 0 10 1 0 10 1 0 10 1 0 10 1 0 10
1 0 10 1 0 10 1 0 10 1 0 10 1 0 10 1 0 10 1 0 10 1 0 10 1 0 10 1 0 10
1 0 10 1 0 10 1 0 10 1 0 10 1 0 10 1 0 10 1 0 10 1 0 10 1 0 10 1 0 10
1 0 10 1 0 10 1 0 10 1 0 10 1 0 10 1 0 10 1 0 10 1 0 10 7 14 23 8 15
25 8 15 26 8 16 26 8 16 27 9 16 27 9 16 27 9 16 27 9 16 27 9 16 28 9
16 28 9 16 28 9 16 28 9 16 27 9 16 27 9 16 27 9 16 27 9 16 27 9 16 27
9 16 27 8 16 26 8 16 26 8 16 26 8 15 26 8 15 27 8 15 28 8 15 30 8 15
31 8 15 31 8 15 30 8 15 28 8 14 26 8 14 24 7 14 24 7 14 23 7 13 23 7
13 22 7 13 22 7 13 22 7 13 21 7 13 21 7 12 21 7 12 20 6 12 20 6 12 20
6 12 19 6 11 19 6 11 19 6 11 18 6 11 18 6 11 18 6 10 17 5 10 17 5 10
17 8 19 115 4 10 105 4 10 106 4 10 111 5 12 108 5 13 112 7 15 121 8 16
128 7 12 153 8 12 171 5 10 112 5 10 112 3 10 139 3 10 159 3 10 164 5
10 112 5 10 112 5 10 112 5 10 111 5 10 111 5 10 111 5 10 111 5 10 112
6 10 117 6 11 128 7 13 147 9 15 167 9 16 178 9 15 173 8 14 154 7 12
134 6 10 119 6 10 110 5 9 107 5 9 105 5 9 104 5 9 103 5 9 102
2 0 13 2 0 13 2 0 13 2 0 13 2 0 13 2 0 13 2 0 13 2 0 13 2 0 13 2 0 13
2 0 13 2 0 13 2 0 13 2 0 13 2 0 13 2 0 13 2 0 13 2 0 13 2 0 13 2 0 13
2 0 13 2 0 13 2 0 13 2 0 13 2 0 13 2 0 13 2 0 13 2 0 13 2 0 13 2 0 13
2 0 13 2 0 13 2 0 13 2 0 13 2 0 13 2 0 13 2 0 13 2 0 13 2 0 13 2 0 13
2 0 13 2 0 13 2 0 13 2 0 13 2 0 13 2 0 13 2 0 13 2 0 13 2 0 13 2 0 13
2 0 13 2 0 13 2 0 13 2 0 13 2 0 13 2 0 13 2 0 13 2 0 13 2 0 13 2 0 13
2 0 13 2 0 13 2 0 13 2 0 13 2 0 13 2 0 13 2 0 13 2 0 13 2 0 13 2 0 13
2 0 13 2 0 13 2 0 13 2 0 13 2 0 13 2 0 13 2 0 13 2 0 13 2 0 13 2 0 13
2 0 13 2 0 13 2 0 13 2 0 13 2 0 13 2 0 13 2 0 13 2 0 13 2 0 13 2 0 13
2 0 13 2 0 13 2 0 13 2 0 13 2 0 13 2 0 13 2 0 13 2 0 13 2 0 13 2 0 13
2 0 13 2 0 13 2 0 13 2 0 13 1 0 10 1 0 10 1 0 10 1 0 10 1 0 10 1 0 10
1 0 10 1 0 10 1 0 10 1 0 10 1 0 10 1 0 10 1 0 10 1 0 10 1 0 10 1 0 10
1 0 10 1 0 10 1 0 10 1 0 10 1 0 10 1 0 10 1 0 10 1 0 10 1 0 10 1 0 10
1 0 10 1 0 10 1 0 10 1 0 10 1 0 10 1 0 10 1 0 10 1 0 10 1 0 10 1 0 10
1 0 10 1 0 10 1 0 10 1 0 10 1 0 10 1 0 10 1 0 10 1 0 10 1 0 10 1 0 10
1 0 10 1 0 10 1 0 10 1 0 10 1 0 10 1 0 10 1 0 10 1 0 10 1 0 10 1 0 10
1 0 10 1 0 10 1 0 10 1 0 10 1 0 10 1 0 10 1 0 10 1 0 10 1 0 10 1 0 10
1 0 10 1 0 10 1 0 10 1 0 10 1 0 10 1 0 10 1 0 10 1 0 10 1 0 10 1 0 10
1 0 10 1 0 10 1 0 10 1 0 10 1 0 10 1 0 10 1 0 10 1 0 10 1 0 10 1 0 10
1 0 10 1 0 10 1 0 10 1 0 10 1 0 10 1 0 10 1 0 10 1 0 10 2 0 13 2 0 13
2 0 13 2 0 13 2 0 13 2 0 13 2 0 13 2 0 13 2 0 13 2 0 13 2 0 13 2 0 13
2 0 13 2 0 13 2 0 13 2 0 13 2 0 13 2 0 13 2 0 13 2 0 13 2 0 13 2 0 13
2 0 13 2 0 13 2 0 13 1 0 10 1 0 10 1 0 10 1 0 10 1 0 10 1 0 10 1 0 10
1 0 10 1 0 10 1 0 10 1 0 10 1 0 10 1 0 10 1 0 10 1 0 10 1 0 10 1 0 10
1 0 10 1 0 10 1 0 10 1 0 10 1 0 10 1 0 10 1 0 10 1 0 10 1 0 10 1 0 10
1 0 10 1 0 10 1 0 10 1 0 10 1 0 10 1 0 10 1 0 10 1 0 10 1 0 10 1 0 10
1 0 10 1 0 10 1 0 10 1 0 10 1 0 10 1 0 10 1 0 10 1 0 10 1 0 10 1 0 10
1 0 10 1 0 10 1 0 10 1 0 10 1 0 10 1 0 10 1 0 10 1 0 10 1 0 10 1 0 10
1 0 10 1 0 10 1 0 10 1 0 10 1 0 10 1 0 10 1 0 10 1 0 10 1 0 10 1 0 10
1 0 10 1 0 10 1 0 10 1 0 10 1 0 10 1 0 10 1 0 10 1 0 10 1 0 10 1 0 10
1 0 10 1 0 10 1 0 10 1 0 10 1 0 10 1 0 10 1 0 10 1 0 10 7 14 23 8 15
25 8 15 26 8 16 26 9 16 27 9 16 27 9 16 27 9 16 27 9 16 28 9 16 28 9
16 28 9 16 28 9 16 28 9 16 28 9 16 28 9 16 27 9 16 27 9 16 27 9 16 27
9 16 27 9 16 27 8 16 26 8 16 26 8 16 27 8 16 29 9 16 32 9 16 37 9 16
40 9 16 41 9 16 38 8 15 33 8 15 28 8 14 26 8 14 24 7 14 23 7 14 23 7
13 22 7 13 22 7 13 22 7 13 22 7 13 21 7 12 21 7 12 21 6 12 20 6 12 20
6 12 20 6 11 19 6 11 19 6 11 18 6 11 18 6 11 18 6 10 17 5 10 17 5 10
17 8 19 115 4 10 106 4 10 106 4 11 112 5 12 108 5 13 112 7 15 122 8 16
129 7 12 156 8 12 173 5 10 113 5 10 113 3 10 128 3 10 150 5 10 113 5
10 113 5 10 113 5 10 113 5 10 113 5 10 113 5 10 113 5 10 113 6 10 114
6 10 118 6 11 128 8 13 146 9 15 166 9 16 177 9 15 172 8 14 155 7 12
136 6 10 121 6 10 113 6 9 109 5 9 107 5 9 106 5 9 105 5 9 104
2 0 13 2 0 13 2 0 13 2 0 13 2 0 13 2 0 13 2 0 13 2 0 13 2 0 13 2 0 13
2 0 13 2 0 13 2 0 13 2 0 13 2 0 13 2 0 13 2 0 13 2 0 13 2 0 13 2 0 13
2 0 13 2 0 13 2 0 13 2 0 13 2 0 13 2 0 13 2 0 13 2 0 13 2 0 13 2 0 13
2 0 13 2 0 13 2 0 13 2 0 13 2 0 13 2 0 13 2 0 13 2 0 13 2 0 13 2 0 13
2 0 13 2 0 13 2 0 13 2 0 13 2 0 13 2 0 13 2 0 13 2 0 13 2 0 13 2 0 13
2 0 13 2 0 13 2 0 13 2 0 13 2 0 13 2 0 13 2 0 13 2 0 13 2 0 13 2 0 13
2 0 13 2 0 13 2 0 13 2 0 13 2 0 13 2 0 13 2 0 13 2 0 13 2 0 13 2 0 13
2 0 13 2 0 13 2 0 13 2 0 13 2 0 13 2 0 13 2 0 13 2 0 13 2 0 13 2 0 13
2 0 13 2 0 13 2 0 13 2 0 13 2 0 13 2 0 13 2 0 13 2 0 13 2 0 13 2 0 13
2 0 13 2 0 13 2 0 13 2 0 13 2 0 13 2 0 13 2 0 13 2 0 13 2 0 13 2 0 13
2 0 14 2 0 14 2 0 14 2 0 14 1 0 10 1 0 10 1 0 10 1 0 10 1 0 10 1 0 10
1 0 10 1 0 10 1 0 10 1 0 10 1 0 10 1 0 10 1 0 10 1 0 10 1 0 10 1 0 10
1 0 10 1 0 10 1 0 10 1 0 10 1 0 10 1 0 10 1 0 10 1 0 10 1 0 10 1 0 10
1 0 10 1 0 10 1 0 10 1 0 10 1 0 10 1 0 10 1 0 10 1 0 10 1 0 10 1 0 10
1 0 10 1 0 10 1 0 10 1 0 10 1 0 10 1 0 10 1 0 10 1 0 10 1 0 10 1 0 10
1 0 10 1 0 10 1 0 10 1 0 10 1 0 10 1 0 10 1 0 10 1 0 10 1 0 10 1 0 10
1 0 10 1 0 10 1 0 10 1 0 10 1 0 10 1 0 10 1 0 10 1 0 10 1 0 10 1 0 10
1 0 10 1 0 10 1 0 10 1 0 10 1 0 10 1 0 10 1 0 10 1 0 10 1 0 10 1 0 10
1 0 10 1 0 10 1 0 10 1 0 10 1 0 10 1 0 10 1 0 10 1 0 10 1 0 10 1 0 10
1 0 10 1 0 10 1 0 10 1 0 10 1 0 10 1 0 10 1 0 10 2 0 14 2 0 14 2 0 14
2 0 14 2 0 14 2 0 14 2 0 14 2 0 14 2 0 14 2 0 14 2 0 14 2 0 14 2 0 14
2 0 14 2 0 14 2 0 14 2 0 14 2 0 14 2 0 14 2 0 14 2 0 14 2 0 14 2 0 14
2 0 14 2 0 14 2 0 14 1 0 10 1 0 10 1 0 10 1 0 10 1 0 10 1 0 10 1 0 10
1 0 10 1 0 10 1 0 10 1 0 10 1 0 10 1 0 10 1 0 10 1 0 10 1 0 10 1 0 10
1 0 10 1 0 10 1 0 10 1 0 10 1 0 10 1 0 10 1 0 10 1 0 10 1 0 10 1 0 10
1 0 10 1 0 10 1 0 10 1 0 10 1 0 10 1 0 10 1 0 10 1 0 10 1 0 10 1 0 10
1 0 10 1 0 10 1 0 10 1 0 10 1 0 10 1 0 10 1 0 10 1 0 10 1 0 10 1 0 10
1 0 10 1 0 10 1 0 10 1 0 10 1 0 10 1 0 10 1 0 10 1 0 10 1 0 10 1 0 10
1 0 10 1 0 10 1 0 10 1 0 10 1 0 10 1 0 10 1 0 10 1 0 10 1 0 10 1 0 10
1 0 10 1 0 10 1 0 10 1 0 10 1 0 10 1 0 10 1 0 10 1 0 10 1 0 10 1 0 10
1 0 10 1 0 10 1 0 10 1 0 10 1 0 10 1 0 10 1 0 10 1 0 10 7 14 23 8 15
25 8 15 26 8 16 26 9 16 27 9 16 27 9 16 27 9 16 28 9 16 28 9 17 28 9
17 28 9 17 28 9 17 28 9 16 28 9 16 28 9 16 28 9 16 27 9 16 27 9 16 27
9 16 27 9 16 27 8 16 27 8 16 27 8 16 28 9 16 32 9 17 40 10 17 51 10 18
59 10 18 59 10 17 53 9 16 43 8 15 34 8 14 28 8 14 25 7 14 24 7 14 23 7
13 23 7 13 22 7 13 22 7 13 22 7 13 21 7 12 21 7 12 21 6 12 20 6 12 20
6 12 20 6 11 19 6 11 19 6 11 19 6 11 18 6 11 18 6 10 17 5 10 17 5 10
17 8 19 114 4 10 106 4 10 106 4 11 112 5 12 108 5 12 112 7 14 121 8 16
129 5 11 124 7 13 122 8 12 176 5 10 114 5 10 114 3 10 125 5 10 114 5
10 115 5 10 115 5 10 115 5 10 115 6 10 115 6 10 115 6 10 115 6 10 116
6 10 119 7 11 127 7 12 141 8 14 157 9 14 167 9 14 164 8 13 150 7 12
135 7 10 122 6 10 115 6 9 112 6 9 110 6 9 109 6 9 108 6 9 107
2 0 13 2 0 13 2 0 13 2 0 13 2 0 13 2 0 13 2 0 13 2 0 13 2 0 13 2 0 13
2 0 13 2 0 13 2 0 13 2 0 13 2 0 13 2 0 13 2 0 13 2 0 13 2 0 13 2 0 13
2 0 13 2 0 13 2 0 13 2 0 13 2 0 13 2 0 13 2 0 13 2 0 13 2 0 13 2 0 13
2 0 13 2 0 13 2 0 13 2 0 13 2 0 13 2 0 13 2 0 13 2 0 13 2 0 13 2 0 13
2 0 13 2 0 13 2 0 13 2 0 13 2 0 13 2 0 13 2 0 13 2 0 13 2 0 13 2 0 13
2 0 13 2 0 13 2 0 13 2 0 13 2 0 13 2 0 13 2 0 13 2 0 13 2 0 13 2 0 13
2 0 13 2 0 14 2 0 14 2 0 14 2 0 14 2 0 14 2 0 14 2 0 14 2 0 14 2 0 14
2 0 14 2 0 14 2 0 14 2 0 14 2 0 14 2 0 14 2 0 14 2 0 14 2 0 14 2 0 14
2 0 14 2 0 14 2 0 14 2 0 14 2 0 14 2 0 14 2 0 14 2 0 14 2 0 14 2 0 14
2 0 14 2 0 14 2 0 14 2 0 14 2 0 14 2 0 14 2 0 14 2 0 14 2 0 14 2 0 14
2 0 14 2 0 14 2 0 14 2 0 14 1 0 10 1 0 10 1 0 10 1 0 10 1 0 10 1 0 10
1 0 10 1 0 10 1 0 10 1 0 10 1 0 10 1 0 10 1 0 10 1 0 10 1 0 10 1 0 10
1 0 10 1 0 10 1 0 10 1 0 10 1 0 10 1 0 10 1 0 10 1 0 10 1 0 10 1 0 10
1 0 10 1 0 10 1 0 10 1 0 10 1 0 10 1 0 10 1 0 10 1 0 10 1 0 10 1 0 10
1 0 10 1 0 10 1 0 10 1 0 10 1 0 10 1 0 10 1 0 10 1 0 10 1 0 10 1 0 10
1 0 10 1 0 10 1 0 10 1 0 10 1 0 10 1 0 10 1 0 10 1 0 10 1 0 10 1 0 10
1 0 10 1 0 10 1 0 10 1 0 10 1 0 10 1 0 10 1 0 10 1 0 10 1 0 10 1 0 10
1 0 10 1 0 10 1 0 10 1 0 10 1 0 10 1 0 10 1 0 10 1 0 10 1 0 10 1 0 10
1 0 10 1 0 10 1 0 10 1 0 10 1 0 10 1 0 10 1 0 10 1 0 10 1 0 10 1 0 10
1 0 10 1 0 10 1 0 10 1 0 10 1 0 10 1 0 10 1 0 10 2 1 14 2 1 14 2 1 14
2 1 14 2 1 14 2 1 14 2 1 14 2 1 14 2 1 14 2 1 14 2 1 14 2 1 14 2 1 14
2 1 14 2 1 14 2 0 14 2 0 14 2 0 14 2 0 14 2 0 14 2 0 14 2 0 14 2 0 14
2 0 14 2 0 14 1 0 10 1 0 10 1 0 10 1 0 10 1 0 10 1 0 10 1 0 10 1 0 10
1 0 10 1 0 10 1 0 10 1 0 10 1 0 10 1 0 10 1 0 10 1 0 10 1 0 10 1 0 10
1 0 10 1 0 10 1 0 10 1 0 10 1 0 10 1 0 10 1 0 10 1 0 10 1 0 10 1 0 10
1 0 10 1 0 10 1 0 10 1 0 10 1 0 10 1 0 10 1 0 10 1 0 10 1 0 10 1 0 10
1 0 10 1 0 10 1 0 10 1 0 10 1 0 10 1 0 10 1 0 10 1 0 10 1 0 10 1 0 10
1 0 10 1 0 10 1 0 10 1 0 10 1 0 10 1 0 10 1 0 10 1 0 10 1 0 10 1 0 10
1 0 10 1 0 10 1 0 10 1 0 10 1 0 10 1 0 10 1 0 10 1 0 10 1 0 10 1 0 10
1 0 10 1 0 10 1 0 10 1 0 10 1 0 10 1 0 10 1 0 10 1 0 10 1 0 10 1 0 10
1 0 10 1 0 10 1 0 10 1 0 10 1 0 10 1 0 10 1 0 10 1 0 10 7 14 23 8 15
25 8 15 26 8 16 27 9 16 27 9 16 27 9 16 28 9 16 28 9 17 28 9 17 28 9
17 28 9 17 28 9 17 28 9 17 28 9 16 28 9 16 28 9 16 28 9 16 27 9 16 27
9 16 27 9 16 27 9 16 27 9 16 27 9 16 30 9 17 38 10 18 53 11 19 72 12
20 86 12 20 87 11 19 75 10 17 57 9 16 41 8 15 31 8 14 26 7 14 24 7 14
23 7 13 23 7 13 22 7 13 22 7 13 22 7 13 21 7 13 21 7 12 21 7 12 20 6
12 20 6 12 20 6 11 19 6 11 19 6 11 19 6 11 18 6 11 18 6 10 18 5 10 17
5 10 17 8 19 115 4 10 106 4 10 106 4 10 106 5 12 112 5 12 110 7 14 121
8 16 128 5 11 124 5 11 109 7 11 151 5 10 115 5 10 115 5 10 115 5 10
116 5 10 116 5 10 116 6 10 116 6 10 117 6 10 117 6 10 117 6 10 117 6
10 118 6 10 120 7 11 125 7 12 135 8 12 146 8 13 153 8 13 152 8 12 143
7 11 132 7 10 123 6 10 118 6 10 115 6 9 113 6 9 112 6 9 111 6 9 110
2 0 13 2 0 13 2 0 13 2 0 13 2 0 13 2 0 13 2 0 13 2 0 13 2 0 13 2 0 13
2 0 13 2 0 13 2 0 13 2 0 13 2 0 13 2 0 13 2 0 13 2 0 13 2 0 13 2 0 13
2 0 13 2 0 13 2 0 13 2 0 13 2 0 13 2 0 13 2 0 13 2 0 13 2 0 13 2 0 13
2 0 13 2 0 14 2 0 14 2 0 14 2 0 14 2 0 14 2 0 14 2 0 14 2 0 14 2 0 14
2 0 14 2 0 14 2 0 14 2 0 14 2 0 14 2 0 14 2 0 14 2 0 14 2 0 14 2 0 14
2 0 14 2 0 14 2 0 14 2 0 14 2 0 14 2 0 14 2 0 14 2 0 14 2 0 14 2 0 14
2 0 14 2 0 14 2 0 14 2 0 14 2 0 14 2 0 14 2 0 14 2 0 14 2 0 14 2 0 14
2 0 14 2 0 14 2 0 14 2 0 14 2 0 14 2 0 14 2 0 14 2 0 14 2 0 14 2 0 14
2 0 14 2 0 14 2 0 14 2 0 14 2 0 14 2 0 14 2 0 14 2 0 14 2 0 14 2 0 14
2 0 14 2 0 14 2 0 14 2 0 14 2 0 14 2 1 14 2 1 14 2 1 14 2 1 14 2 1 14
2 1 14 2 1 14 2 1 14 2 1 14 1 0 10 1 0 10 1 0 10 1 0 10 1 0 10 1 0 10
1 0 10 1 0 10 1 0 10 1 0 10 1 0 10 1 0 10 1 0 10 1 0 10 1 0 10 1 0 10
1 0 10 1 0 10 1 0 10 1 0 10 1 0 10 1 0 10 1 0 10 1 0 10 1 0 10 1 0 10
1 0 10 1 0 10 1 0 10 1 0 10 1 0 10 1 0 10 1 0 10 1 0 10 1 0 10 1 0 10
1 0 10 1 0 10 1 0 10 1 0 10 1 0 10 1 0 10 1 0 10 1 0 10 1 0 10 1 0 10
1 0 10 1 0 10 1 0 10 1 0 10 1 0 10 1 0 10 1 0 10 1 0 10 1 0 10 1 0 10
1 0 10 1 0 10 1 0 10 1 0 10 1 0 10 1 0 10 1 0 10 1 0 10 1 0 10 1 0 10
1 0 10 1 0 10 1 0 10 1 0 10 1 0 10 1 0 10 1 0 10 1 0 10 1 0 10 1 0 10
1 0 10 1 0 10 1 0 10 1 0 10 1 0 10 1 0 10 1 0 10 1 0 10 1 0 10 1 0 10
1 0 10 1 0 10 1 0 10 1 0 10 1 0 10 1 0 10 2 1 14 2 1 14 2 1 14 2 1 14
2 1 14 2 1 14 2 1 14 2 1 14 2 1 14 2 1 14 2 1 14 2 1 14 2 1 14 2 1 14
2 1 14 2 1 14 2 1 14 2 1 14 2 1 14 2 1 14 2 1 14 2 1 14 2 1 14 2 1 14
2 1 14 1 0 10 1 0 10 1 0 10 1 0 10 1 0 10 1 0 10 1 0 10 1 0 10 1 0 10
1 0 10 1 0 10 1 0 10 1 0 10 1 0 10 1 0 10 1 0 10 1 0 10 1 0 10 1 0 10
1 0 10 1 0 10 1 0 10 1 0 10 1 0 10 1 0 10 1 0 10 1 0 10 1 0 10 1 0 10
1 0 10 1 0 10 1 0 10 1 0 10 1 0 10 1 0 10 1 0 10 1 0 10 1 0 10 1 0 10
1 0 10 1 0 10 1 0 10 1 0 10 1 0 10 1 0 10 1 0 10 1 0 10 1 0 10 1 0 10
1 0 10 1 0 10 1 0 10 1 0 10 1 0 10 1 0 10 1 0 10 1 0 10 1 0 10 1 0 10
1 0 10 1 0 10 1 0 10 1 0 10 1 0 10 1 0 10 1 0 10 1 0 10 1 0 10 1 0 10
1 0 10 1 0 10 1 0 10 1 0 10 1 0 10 1 0 10 1 0 10 1 0 10 1 0 10 1 0 10
1 0 10 1 0 10 1 0 10 1 0 10 1 0 10 1 0 10 1 0 10 1 0 10 7 14 23 8 15
25 8 15 26 9 16 27 9 16 27 9 16 27 9 16 28 9 17 28 9 17 28 9 17 28 9
17 28 9 17 28 9 17 28 9 17 28 9 17 28 9 16 28 9 16 28 9 16 27 9 16 27
9 16 27 9 16 27 9 16 27 9 16 28 9 16 32 9 17 44 11 19 67 12 21 95 14
23 117 14 23 119 12 22 100 11 19 73 9 17 49 8 15 34 8 14 27 8 14 24 7
14 23 7 14 23 7 13 22 7 13 22 7 13 22 7 13 21 7 13 21 7 12 21 7 12 20
6 12 20 6 12 20 6 12 19 6 11 19 6 11 19 6 11 18 6 11 18 6 10 18 6 10
17 5 10 17 8 19 125 8 20 116 4 10 106 4 10 106 5 11 113 5 12 109 8 16
123 8 16 128 5 12 113 4 10 107 7 12 124 5 10 116 5 10 116 5 10 117 5
10 117 6 10 117 6 10 118 6 10 118 6 10 118 6 10 119 6 10 119 6 10 120
6 10 120 6 10 122 7 11 125 7 11 130 8 12 137 8 12 142 8 12 141 8 11
136 7 11 130 7 10 124 7 10 120 7 10 118 7 10 117 7 9 115 6 9 114 6 9
113
2 0 13 2 0 13 2 0 13 2 0 13 2 0 13 2 0 14 2 0 14 2 0 14 2 0 14 2 0 14
2 0 14 2 0 14 2 0 14 2 0 14 2 0 14 2 0 14 2 0 14 2 0 14 2 0 14 2 0 14
2 0 14 2 0 14 2 0 14 2 0 14 2 0 14 2 0 14 2 0 14 2 0 14 2 0 14 2 0 14
2 0 14 2 0 14 2 0 14 2 0 14 2 0 14 2 0 14 2 0 14 2 0 14 2 0 14 2 0 14
2 0 14 2 0 14 2 0 14 2 0 14 2 0 14 2 0 14 2 0 14 2 0 14 2 0 14 2 0 14
2 0 14 2 0 14 2 0 14 2 0 14 2 0 14 2 0 14 2 0 14 2 0 14 2 0 14 2 1 14
2 1 14 2 1 14 2 1 14 2 1 14 2 1 14 2 1 14 2 1 14 2 1 14 2 1 14 2 1 14
2 1 14 2 1 14 2 1 14 2 1 14 2 1 14 2 1 14 2 1 14 2 1 14 2 1 14 2 1 14
2 1 14 2 1 14 2 1 14 2 1 14 2 1 14 2 1 14 2 1 14 2 1 14 2 1 14 2 1 14
2 1 14 2 1 14 2 1 14 2 1 14 2 1 14 2 1 14 2 1 14 2 1 14 2 1 14 2 1 14
2 1 14 2 1 14 2 1 14 2 1 14 1 0 10 1 0 10 1 0 10 1 0 10 1 0 10 1 0 10
1 0 10 1 0 10 1 0 10 1 0 10 1 0 10 1 0 10 1 0 10 1 0 10 1 0 10 1 0 10
1 0 10 1 0 10 1 0 10 1 0 10 1 0 10 1 0 10 1 0 10 1 0 10 1 0 10 1 0 10
1 0 10 1 0 10 1 0 10 1 0 10 1 0 10 1 0 10 1 0 10 1 0 10 1 0 10 1 0 10
1 0 10 1 0 10 1 0 10 1 0 10 1 0 10 1 0 10 1 0 10 1 0 10 1 0 10 1 0 10
1 0 10 1 0 10 1 0 10 1 0 10 1 0 10 1 0 10 1 0 10 1 0 10 1 0 10 1 0 10
1 0 10 1 0 10 1 0 10 1 0 10 1 0 10 1 0 10 1 0 10 1 0 10 1 0 10 1 0 10
1 0 10 1 0 10 1 0 10 1 0 10 1 0 10 1 0 10 1 0 10 1 0 10 1 0 10 1 0 10
1 0 10 1 0 10 1 0 10 1 0 10 1 0 10 1 0 10 1 0 10 1 0 10 1 0 10 1 0 10
1 0 10 1 0 10 1 0 10 1 0 10 1 0 10 2 1 14 2 1 14 2 1 14 2 1 14 2 1 14
2 1 14 2 1 14 2 1 14 2 1 14 2 1 14 2 1 14 2 1 14 2 1 14 2 1 14 2 1 14
2 1 14 2 1 14 2 1 14 2 1 14 2 1 14 2 1 14 2 1 14 2 1 14 2 1 14 2 1 14
1 0 10 1 0 10 1 0 10 1 0 10 1 0 10 1 0 10 1 0 10 1 0 10 1 0 10 1 0 10
1 0 10 1 0 10 1 0 10 1 0 10 1 0 10 1 0 10 1 0 10 1 0 10 1 0 10 1 0 10
1 0 10 1 0 10 1 0 10 1 0 10 1 0 10 1 0 10 1 0 10 1 0 10 1 0 10 1 0 10
1 0 10 1 0 10 1 0 10 1 0 10 1 0 10 1 0 10 1 0 10 1 0 10 1 0 10 1 0 10
1 0 10 1 0 10 1 0 10 1 0 10 1 0 10 1 0 10 1 0 10 1 0 10 1 0 10 1 0 10
1 0 10 1 0 10 1 0 10 1 0 10 1 0 10 1 0 10 1 0 10 1 0 10 1 0 10 1 0 10
1 0 10 1 0 10 1 0 10 1 0 10 1 0 10 1 0 10 1 0 10 1 0 10 1 0 10 1 0 10
1 0 10 1 0 10 1 0 10 1 0 10 1 0 10 1 0 10 1 0 10 1 0 10 1 0 10 1 0 10
1 0 10 1 0 10 1 0 10 1 0 10 1 0 10 1 0 10 1 0 10 1 0 10 7 14 23 8 15
25 8 16 26 9 16 27 9 16 27 9 16 28 9 17 28 9 17 28 9 17 28 9 17 28 9
17 28 9 17 28 9 17 28 9 17 28 9 17 28 9 17 28 9 16 28 9 16 28 9 16 27
9 16 27 9 16 27 9 16 27 9 16 28 9 16 34 10 18 49 11 20 77 13 23 113 15
25 140 15 26 142 14 23 120 12 20 86 10 17 56 8 15 37 8 15 28 8 14 25 7
14 23 7 14 23 7 13 22 7 13 22 7 13 22 7 13 22 7 13 21 7 12 21 7 12 21
6 12 20 6 12 20 6 12 19 6 11 19 6 11 19 6 11 18 6 11 18 6 11 18 6 10
17 5 10 17 7 18 113 8 20 116 4 10 106 4 10 106 4 10 106 5 12 108 7 15
120 8 15 126 5 12 112 5 11 114 9 12 142 5 11 117 5 11 117 5 10 118 6
10 118 6 10 119 6 10 119 6 10 120 6 10 120 6 10 121 6 10 121 6 10 122
7 10 123 7 10 124 7 10 126 7 11 129 8 11 132 8 11 135 8 11 135 8 11
133 8 10 129 7 10 126 7 10 123 7 10 122 7 10 120 7 10 119 7 10 117 7 9
116
2 0 14 2 0 14 2 0 14 2 0 14 2 0 14 2 0 14 2 0 14 2 0 14 2 0 14 2 0 14
2 0 14 2 0 14 2 0 14 2 0 14 2 0 14 2 0 14 2 0 14 2 0 14 2 0 14 2 0 14
2 0 14 2 0 14 2 0 14 2 0 14 2 0 14 2 0 14 2 0 14 2 0 14 2 0 14 2 0 14
2 0 14 2 1 14 2 1 14 2 1 14 2 1 14 2 1 14 2 1 14 2 1 14 2 1 14 2 1 14
2 1 14 2 1 14 2 1 14 2 1 14 2 1 14 2 1 14 2 1 14 2 1 14 2 1 14 2 1 14
2 1 14 2 1 14 2 1 14 2 1 14 2 1 14 2 1 14 2 1 14 2 1 14 2 1 14 2 1 14
2 1 14 2 1 14 2 1 14 2 1 14 2 1 14 2 1 14 2 1 14 2 1 14 2 1 14 2 1 14
2 1 14 2 1 14 2 1 14 2 1 14 2 1 14 2 1 14 2 1 14 2 1 14 2 1 14 2 1 14
2 1 14 2 1 14 2 1 14 2 1 14 2 1 14 2 1 14 2 1 14 2 1 14 2 1 14 2 1 14
2 1 14 2 1 14 2 1 14 2 1 14 2 1 14 2 1 14 2 1 14 2 1 14 2 1 14 2 1 14
2 1 14 2 1 14 2 1 14 2 1 14 1 0 10 1 0 10 1 0 10 1 0 10 1 0 10 1 0 10
1 0 10 1 0 10 1 0 10 1 0 10 1 0 10 1 0 10 1 0 10 1 0 10 1 0 10 1 0 10
1 0 10 1 0 10 1 0 10 1 0 10 1 0 10 1 0 10 1 0 10 1 0 10 1 0 10 1 0 10
1 0 10 1 0 10 1 0 10 1 0 10 1 0 10 1 0 10 1 0 10 1 0 10 1 0 10 1 0 10
1 0 10 1 0 10 1 0 10 1 0 10 1 0 10 1 0 10 1 0 10 1 0 10 1 0 10 1 0 10
1 0 10 1 0 10 1 0 10 1 0 10 1 0 10 1 0 10 1 0 10 1 0 10 1 0 10 1 0 10
1 0 10 1 0 10 1 0 10 1 0 10 1 0 10 1 0 10 1 0 10 1 0 10 1 0 10 1 0 10
1 0 10 1 0 10 1 0 10 1 0 10 1 0 10 1 0 10 1 0 10 1 0 10 1 0 10 1 0 10
1 0 10 1 0 10 1 0 10 1 0 10 1 0 10 1 0 10 1 0 10 1 0 10 1 0 10 1 0 10
1 0 10 1 0 10 1 0 10 1 0 10 1 0 10 2 1 14 2 1 14 2 1 14 2 1 14 2 1 14
2 1 14 2 1 14 2 1 14 2 1 14 2 1 14 2 1 14 2 1 14 2 1 14 2 1 14 2 1 14
2 1 14 2 1 14 2 1 14 2 1 14 2 1 14 2 1 14 2 1 14 2 1 14 2 1 14 1 0 10
1 0 10 1 0 10 1 0 10 1 0 10 1 0 10 1 0 10 1 0 10 1 0 10 1 0 10 1 0 10
1 0 10 1 0 10 1 0 10 1 0 10 1 0 10 1 0 10 1 0 10 1 0 10 1 0 10 1 0 10
1 0 10 1 0 10 1 0 10 1 0 10 1 0 10 1 0 10 1 0 10 1 0 10 1 0 10 1 0 10
1 0 10 1 0 10 1 0 10 1 0 10 1 0 10 1 0 10 1 0 10 1 0 10 1 0 10 1 0 10
1 0 10 1 0 10 1 0 10 1 0 10 1 0 10 1 0 10 1 0 10 1 0 10 1 0 10 1 0 10
1 0 10 1 0 10 1 0 10 1 0 10 1 0 10 1 0 10 1 0 10 1 0 10 1 0 10 1 0 10
1 0 10 1 0 10 1 0 10 1 0 10 1 0 10 1 0 10 1 0 10 1 0 10 1 0 10 1 0 10
1 0 10 1 0 10 1 0 10 1 0 10 1 0 10 1 0 10 1 0 10 1 0 10 1 0 10 1 0 10
1 0 10 1 0 10 1 0 10 1 0 10 1 0 10 1 0 10 1 0 10 1 0 10 7 14 23 8 15
25 8 16 26 9 16 27 9 16 27 9 16 28 9 17 28 9 17 28 9 17 28 9 17 28 9
17 28 9 17 28 9 17 28 9 17 28 9 17 28 9 17 28 9 17 28 9 16 28 9 16 27
9 16 27 9 16 27 9 16 27 9 16 29 9 16 34 10 18 50 11 20 79 14 23 116 15
26 145 15 26 148 14 24 125 12 20 89 10 17 58 9 16 38 8 15 29 8 14 25 7
14 23 7 14 23 7 13 23 7 13 22 7 13 22 7 13 22 7 13 21 7 12 21 7 12 21
6 12 20 6 12 20 6 12 20 6 11 19 6 11 19 6 11 18 6 11 18 6 11 18 6 10
17 5 10 17 7 17 110 8 20 116 4 10 106 4 10 106 4 10 106 5 12 110 6 13
116 8 16 132 6 12 120 5 12 126 7 11 128 5 11 118 5 11 118 6 11 119 6
11 119 6 10 120 6 10 120 6 10 121 6 10 122 6 10 123 7 10 124 7 10 125
7 10 125 7 10 127 7 10 128 8 11 130 8 11 131 8 11 133 8 11 133 8 11
132 8 10 131 8 10 129 8 10 127 8 10 125 7 10 124 7 10 122 7 10 121 7
10 119
2 0 14 2 0 14 2 0 14 2 0 14 2 0 14 2 0 14 2 0 14 2 1 14 2 1 14 2 1 14
2 1 14 2 1 14 2 1 14 2 1 14 2 1 14 2 1 14 2 1 14 2 1 14 2 1 14 2 1 14
2 1 14 2 1 14 2 1 14 2 1 14 2 1 14 2 1 14 2 1 14 2 1 14 2 1 14 2 1 14
2 1 14 2 1 14 2 1 14 2 1 14 2 1 14 2 1 14 2 1 14 2 1 14 2 1 14 2 1 14
2 1 14 2 1 14 2 1 14 2 1 14 2 1 14 2 1 14 2 1 14 2 1 14 2 1 14 2 1 14
2 1 14 2 1 14 2 1 14 2 1 14 2 1 14 2 1 14 2 1 14 2 1 14 2 1 14 2 1 14
2 1 14 2 1 14 2 1 14 2 1 14 2 1 14 2 1 14 2 1 14 2 1 14 2 1 14 2 1 14
2 1 14 2 1 14 2 1 14 2 1 14 2 1 14 2 1 14 2 1 14 2 1 14 2 1 14 2 1 14
2 1 14 2 1 14 2 1 14 2 1 14 2 1 14 2 1 14 2 1 14 2 1 14 2 1 14 2 1 14
2 1 14 2 1 14 2 1 14 2 1 14 2 1 14 2 1 14 2 1 14 2 1 14 2 1 14 2 1 14
2 1 14 2 1 14 2 1 14 2 1 14 1 0 10 1 0 10 1 0 10 1 0 10 1 0 10 1 0 10
1 0 10 1 0 10 1 0 10 1 0 10 1 0 10 1 0 10 1 0 10 1 0 10 1 0 10 1 0 10
1 0 10 1 0 10 1 0 10 1 0 10 1 0 10 1 0 10 1 0 10 1 0 10 1 0 10 1 0 10
1 0 10 1 0 10 1 0 10 1 0 10 1 0 10 1 0 10 1 0 10 1 0 10 1 0 10 1 0 10
1 0 10 1 0 10 1 0 10 1 0 10 1 0 10 1 0 10 1 0 10 1 0 10 1 0 10 1 0 10
1 0 10 1 0 10 1 0 10 1 0 10 1 0 10 1 0 10 1 0 10 1 0 10 1 0 10 1 0 10
1 0 10 1 0 10 1 0 10 1 0 10 1 0 10 1 0 10 1 0 10 1 0 10 1 0 10 1 0 10
1 0 10 1 0 10 1 0 10 1 0 10 1 0 10 1 0 10 1 0 10 1 0 10 1 0 10 1 0 10
1 0 10 1 0 10 1 0 10 1 0 10 1 0 10 1 0 10 1 0 10 1 0 10 1 0 10 1 0 10
1 0 10 1 0 10 1 0 10 1 0 10 2 1 14 2 1 14 2 1 14 2 1 14 2 1 14 2 1 14
2 1 14 2 1 14 2 1 14 2 1 14 2 1 14 2 1 14 2 1 14 2 1 14 2 1 14 2 1 14
2 1 14 2 1 14 2 1 14 2 1 14 2 1 14 2 1 14 2 1 14 2 1 14 1 0 10 1 0 10
1 0 10 1 0 10 1 0 10 1 0 10 1 0 10 1 0 10 1 0 10 1 0 10 1 0 10 1 0 10
1 0 10 1 0 10 1 0 10 1 0 10 1 0 10 1 0 10 1 0 10 1 0 10 1 0 10 1 0 10
1 0 10 1 0 10 1 0 10 1 0 10 1 0 10 1 0 10 1 0 10 1 0 10 1 0 10 1 0 10
1 0 10 1 0 10 1 0 10 1 0 10 1 0 10 1 0 10 1 0 10 1 0 10 1 0 10 1 0 10
1 0 10 1 0 10 1 0 10 1 0 10 1 0 10 1 0 10 1 0 10 1 0 10 1 0 10 1 0 10
1 0 10 1 0 10 1 0 10 1 0 10 1 0 10 1 0 10 1 0 10 1 0 10 1 0 10 1 0 10
1 0 10 1 0 10 1 0 10 1 0 10 1 0 10 1 0 10 1 0 10 1 0 10 1 0 10 1 0 10
1 0 10 1 0 10 1 0 10 1 0 10 1 0 10 1 0 10 1 0 10 1 0 10 1 0 10 1 0 10
1 0 10 1 0 10 1 0 10 1 0 10 1 0 10 1 0 10 1 0 10 1 0 10 7 13 23 8 15
25 8 16 26 9 16 27 9 16 27 9 16 28 9 17 28 9 17 28 9 17 28 9 17 28 9
17 28 9 17 28 9 17 28 9 17 28 9 17 28 9 17 28 9 17 28 9 16 28 9 16 28
9 16 27 9 16 27 9 16 27 9 16 28 9 16 33 10 17 46 11 20 71 13 22 103 14
24 129 14 25 132 13 23 112 11 20 81 10 17 54 8 15 36 8 15 28 8 14 25 7
14 24 7 14 23 7 13 23 7 13 22 7 13 22 7 13 22 7 13 21 7 12 21 7 12 21
6 12 20 6 12 20 6 12 20 6 11 19 6 11 19 6 11 18 6 11 18 6 11 18 6 10
17 5 10 17 5 10 17 8 19 115 4 10 106 4 10 106 4 10 106 5 12 112 6 13
114 8 15 127 10 16 140 10 17 141 7 12 163 5 11 118 6 11 119 6 11 120 6
11 120 6 11 121 6 11 122 6 11 123 6 11 124 7 11 125 7 11 126 7 11 127
7 11 128 7 11 129 8 11 131 8 11 132 8 11 133 8 11 134 8 11 135 8 11
134 8 10 133 8 10 132 8 10 131 8 10 129 8 10 128 8 10 126 8 10 124 7
10 122
2 1 14 2 1 14 2 1 14 2 1 14 2 1 14 2 1 14 2 1 14 2 1 14 2 1 14 2 1 14
2 1 14 2 1 14 2 1 14 2 1 14 2 1 14 2 1 14 2 1 14 2 1 14 2 1 14 2 1 14
2 1 14 2 1 14 2 1 14 2 1 14 2 1 14 2 1 14 2 1 14 2 1 14 2 1 14 2 1 14
2 1 14 2 1 14 2 1 14 2 1 14 2 1 14 2 1 14 2 1 14 2 1 14 2 1 14 2 1 14
2 1 14 2 1 14 2 1 14 2 1 14 2 1 14 2 1 14 2 1 14 2 1 14 2 1 14 2 1 14
2 1 14 2 1 14 2 1 14 2 1 14 2 1 14 2 1 14 2 1 14 2 1 14 2 1 14 2 1 14
2 1 14 2 1 14 2 1 14 2 1 14 2 1 14 2 1 14 2 1 14 2 1 14 2 1 14 2 1 14
2 1 14 2 1 14 2 1 14 2 1 14 2 1 14 2 1 14 2 1 14 2 1 14 2 1 14 2 1 14
2 1 14 2 1 14 2 1 14 2 1 14 2 1 14 2 1 14 2 1 14 2 1 14 2 1 14 2 1 14
2 1 14 2 1 14 2 1 14 2 1 14 2 1 14 2 1 14 2 1 14 2 1 14 2 1 14 2 1 14
2 1 14 2 1 14 2 1 14 2 1 14 1 0 10 1 0 10 1 0 10 1 0 10 1 0 10 1 0 10
1 0 10 1 0 10 1 0 10 1 0 10 1 0 10 1 0 10 1 0 10 1 0 10 1 0 10 1 0 10
1 0 10 1 0 10 1 0 10 1 0 10 1 0 10 1 0 10 1 0 10 1 0 10 1 0 10 1 0 10
1 0 10 1 0 10 1 0 10 1 0 10 1 0 10 1 0 10 1 0 10 1 0 10 1 0 10 1 0 10
1 0 10 1 0 10 1 0 10 1 0 10 1 0 10 1 0 10 1 0 10 1 0 10 1 0 10 1 0 10
1 0 10 1 0 10 1 0 10 1 0 10 1 0 10 1 0 10 1 0 10 1 0 10 1 0 10 1 0 10
1 0 10 1 0 10 1 0 10 1 0 10 1 0 10 1 0 10 1 0 10 1 0 10 1 0 10 1 0 10
1 0 10 1 0 10 1 0 10 1 0 10 1 0 10 1 0 10 1 0 10 1 0 10 1 0 10 1 0 10
1 0 10 1 0 10 1 0 10 1 0 10 1 0 10 1 0 10 1 0 10 1 0 10 1 0 10 1 0 10
1 0 10 1 0 10 1 0 10 2 1 15 2 1 15 2 1 15 2 1 15 2 1 15 2 1 15 2 1 15
2 1 15 2 1 15 2 1 15 2 1 15 2 1 15 2 1 15 2 1 15 2 1 15 2 1 15 2 1 15
2 1 15 2 1 15 2 1 15 2 1 15 2 1 15 2 1 15 2 1 15 2 1 15 1 0 10 1 0 10
1 0 10 1 0 10 1 0 10 1 0 10 1 0 10 1 0 10 1 0 10 1 0 10 1 0 10 1 0 10
1 0 10 1 0 10 1 0 10 1 0 10 1 0 10 1 0 10 1 0 10 1 0 10 1 0 10 1 0 10
1 0 10 1 0 10 1 0 10 1 0 10 1 0 10 1 0 10 1 0 10 1 0 10 1 0 10 1 0 10
1 0 10 1 0 10 1 0 10 1 0 10 1 0 10 1 0 10 1 0 10 1 0 10 1 0 10 1 0 10
1 0 10 1 0 10 1 0 10 1 0 10 1 0 10 1 0 10 1 0 10 1 0 10 1 0 10 1 0 10
1 0 10 1 0 10 1 0 10 1 0 10 1 0 10 1 0 10 1 0 10 1 0 10 1 0 10 1 0 10
1 0 10 1 0 10 1 0 10 1 0 10 1 0 10 1 0 10 1 0 10 1 0 10 1 0 10 1 0 10
1 0 10 1 0 10 1 0 10 1 0 10 1 0 10 1 0 10 1 0 10 1 0 10 1 0 10 1 0 10
1 0 10 1 0 10 1 0 10 1 0 10 1 0 10 1 0 10 1 0 10 1 0 10 1 0 10 8 15 25
8 16 26 9 16 27 9 16 27 9 16 28 9 17 28 9 17 28 9 17 28 9 17 28 9 17
28 9 17 28 9 17 28 9 17 28 9 17 28 9 17 28 9 17 28 9 17 28 9 16 28 9
16 27 9 16 27 9 16 27 9 16 28 9 16 31 9 17 40 10 18 57 12 20 81 13 22
99 13 22 102 12 21 88 10 18 66 9 17 46 8 15 33 8 14 27 8 14 24 7 14 23
7 14 23 7 13 23 7 13 22 7 13 22 7 13 22 7 13 21 7 12 21 7 12 21 6 12
20 6 12 20 6 12 20 6 11 19 6 11 19 6 11 19 6 11 18 6 11 18 6 10 17 5
10 17 5 10 17 8 19 114 4 10 106 4 10 106 4 10 106 4 10 106 5 12 114 7
14 125 9 16 135 10 17 139 6 12 152 6 11 119 6 11 120 6 11 120 6 11 121
6 11 122 6 11 123 6 11 124 7 11 125 7 11 126 7 11 128 7 11 129 8 11
130 8 11 132 8 11 133 8 11 135 8 11 136 9 11 137 9 11 138 9 11 137 9
11 137 9 10 136 9 10 134 8 10 133 8 10 131 8 10 129 8 10 127 8 10 124
2 1 14 2 1 14 2 1 14 2 1 14 2 1 14 2 1 14 2 1 14 2 1 14 2 1 14 2 1 14
2 1 14 2 1 14 2 1 14 2 1 14 2 1 14 2 1 14 2 1 14 2 1 14 2 1 14 2 1 14
2 1 14 2 1 14 2 1 14 2 1 14 2 1 14 2 1 14 2 1 14 2 1 14 2 1 14 2 1 14
2 1 14 2 1 14 2 1 14 2 1 14 2 1 14 2 1 14 2 1 14 2 1 14 2 1 14 2 1 14
2 1 14 2 1 14 2 1 14 2 1 14 2 1 14 2 1 14 2 1 14 2 1 14 2 1 14 2 1 14
2 1 14 2 1 14 2 1 14 2 1 14 2 1 14 2 1 14 2 1 14 2 1 14 2 1 14 2 1 14
2 1 14 2 1 14 2 1 14 2 1 14 2 1 14 2 1 14 2 1 14 2 1 14 2 1 14 2 1 14
2 1 14 2 1 14 2 1 14 2 1 14 2 1 14 2 1 14 2 1 14 2 1 14 2 1 14 2 1 14
2 1 14 2 1 14 2 1 14 2 1 14 2 1 15 2 1 15 2 1 15 2 1 15 2 1 15 2 1 15
2 1 15 2 1 15 2 1 15 2 1 15 2 1 15 2 1 15 2 1 15 2 1 15 2 1 15 2 1 15
2 1 15 2 1 15 2 1 15 2 1 15 1 0 10 1 0 10 1 0 10 1 0 10 1 0 10 1 0 10
1 0 10 1 0 10 1 0 10 1 0 10 1 0 10 1 0 10 1 0 10 1 0 10 1 0 10 1 0 10
1 0 10 1 0 10 1 0 10 1 0 10 1 0 10 1 0 10 1 0 10 1 0 10 1 0 10 1 0 10
1 0 10 1 0 10 1 0 10 1 0 10 1 0 10 1 0 10 1 0 10 1 0 10 1 0 10 1 0 10
1 0 10 1 0 10 1 0 10 1 0 10 1 0 10 1 0 10 1 0 10 1 0 10 1 0 10 1 0 10
1 0 10 1 0 10 1 0 10 1 0 10 1 0 10 1 0 10 1 0 10 1 0 10 1 0 10 1 0 10
1 0 10 1 0 10 1 0 10 1 0 10 1 0 10 1 0 10 1 0 10 1 0 10 1 0 10 1 0 10
1 0 10 1 0 10 1 0 10 1 0 10 1 0 10 1 0 10 1 0 10 1 0 10 1 0 10 1 0 10
1 0 10 1 0 10 1 0 10 1 0 10 1 0 10 1 0 10 1 0 10 1 0 10 1 0 10 1 0 10
1 0 10 1 0 10 1 0 10 2 1 15 2 1 15 2 1 15 2 1 15 2 1 15 2 1 15 2 1 15
2 1 15 2 1 15 2 1 15 2 1 15 2 1 15 2 1 15 2 1 15 2 1 15 2 1 15 2 1 15
2 1 15 2 1 15 2 1 15 2 1 15 2 1 15 2 1 15 2 1 15 1 0 10 1 0 10 1 0 10
1 0 10 1 0 10 1 0 10 1 0 10 1 0 10 1 0 10 1 0 10 1 0 10 1 0 10 1 0 10
1 0 10 1 0 10 1 0 10 1 0 10 1 0 10 1 0 10 1 0 10 1 0 10 1 0 10 1 0 10
1 0 10 1 0 10 1 0 10 1 0 10 1 0 10 1 0 10 1 0 10 1 0 10 1 0 10 1 0 10
1 0 10 1 0 10 1 0 10 1 0 10 1 0 10 1 0 10 1 0 10 1 0 10 1 0 10 1 0 10
1 0 10 1 0 10 1 0 10 1 0 10 1 0 10 1 0 10 1 0 10 1 0 10 1 0 10 1 0 10
1 0 10 1 0 10 1 0 10 1 0 10 1 0 10 1 0 10 1 0 10 1 0 10 1 0 10 1 0 10
1 0 10 1 0 10 1 0 10 1 0 10 1 0 10 1 0 10 1 0 10 1 0 10 1 0 10 1 0 10
1 0 10 1 0 10 1 0 10 1 0 10 1 0 10 1 0 10 1 0 10 1 0 10 1 0 10 1 0 10
1 0 10 1 0 10 1 0 10 1 0 10 1 0 10 1 0 10 1 0 10 1 0 10 1 0 10 8 15 25
8 15 26 9 16 27 9 16 27 9 16 28 9 17 28 9 17 28 9 17 28 9 17 28 9 17
28 9 17 28 9 17 28 9 17 28 9 17 28 9 17 28 9 17 28 9 17 28 9 16 28 9
16 27 9 16 27 9 16 27 9 16 27 9 16 29 9 16 34 9 17 44 10 18 57 11 19
69 11 19 71 10 18 63 9 17 50 9 16 38 8 15 30 8 14 26 8 14 24 7 14 23 7
14 23 7 13 23 7 13 22 7 13 22 7 13 22 7 13 21 7 13 21 7 12 21 6 12 20
6 12 20 6 12 20 6 11 19 6 11 19 6 11 19 6 11 18 6 11 18 6 10 17 5 10
17 5 10 17 7 18 113 8 19 115 4 10 106 4 10 106 4 10 106 5 12 113 7 14
122 8 15 131 9 16 136 5 11 119 6 11 120 6 11 120 6 11 121 6 11 122 6
11 123 6 11 124 7 11 125 7 11 126 7 11 128 7 11 129 7 11 131 8 11 132
8 11 134 8 11 136 9 11 137 9 11 139 9 11 140 9 11 140 9 11 140 9 11
140 9 11 139 9 10 137 9 10 135 9 10 133 8 10 131 8 10 129 8 10 126
2 1 14 2 1 14 2 1 14 2 1 14 2 1 14 2 1 14 2 1 14 2 1 14 2 1 14 2 1 14
2 1 14 2 1 14 2 1 14 2 1 14 2 1 14 2 1 14 2 1 14 2 1 14 2 1 14 2 1 14
2 1 14 2 1 14 2 1 14 2 1 14 2 1 14 2 1 14 2 1 14 2 1 14 2 1 14 2 1 14
2 1 14 2 1 14 2 1 14 2 1 14 2 1 14 2 1 14 2 1 14 2 1 14 2 1 14 2 1 14
2 1 14 2 1 14 2 1 14 2 1 14 2 1 14 2 1 14 2 1 14 2 1 14 2 1 14 2 1 14
2 1 14 2 1 14 2 1 14 2 1 14 2 1 14 2 1 15 2 1 15 2 1 15 2 1 15 2 1 15
2 1 15 2 1 15 2 1 15 2 1 15 2 1 15 2 1 15 2 1 15 2 1 15 2 1 15 2 1 15
2 1 15 2 1 15 2 1 15 2 1 15 2 1 15 2 1 15 2 1 15 2 1 15 2 1 15 2 1 15
2 1 15 2 1 15 2 1 15 2 1 15 2 1 15 2 1 15 2 1 15 2 1 15 2 1 15 2 1 15
2 1 15 2 1 15 2 1 15 2 1 15 2 1 15 2 1 15 2 1 15 2 1 15 2 1 15 2 1 15
2 1 15 2 1 15 2 1 15 2 1 15 1 0 10 1 0 10 1 0 10 1 0 10 1 0 10 1 0 10
1 0 10 1 0 10 1 0 10 1 0 10 1 0 10 1 0 10 1 0 10 1 0 10 1 0 10 1 0 10
1 0 10 1 0 10 1 0 10 1 0 10 1 0 10 1 0 10 1 0 10 1 0 10 1 0 10 1 0 10
1 0 10 1 0 10 1 0 10 1 0 10 1 0 10 1 0 10 1 0 10 1 0 10 1 0 10 1 0 10
1 0 10 1 0 10 1 0 10 1 0 10 1 0 10 1 0 10 1 0 10 1 0 10 1 0 10 1 0 10
1 0 10 1 0 10 1 0 10 1 0 10 1 0 10 1 0 10 1 0 10 1 0 10 1 0 10 1 0 10
1 0 10 1 0 10 1 0 10 1 0 10 1 0 10 1 0 10 1 0 10 1 0 10 1 0 10 1 0 10
1 0 10 1 0 10 1 0 10 1 0 10 1 0 10 1 0 10 1 0 10 1 0 10 1 0 10 1 0 10
1 0 10 1 0 10 1 0 10 1 0 10 1 0 10 1 0 10 1 0 10 1 0 10 1 0 10 1 0 10
1 0 10 1 0 10 2 1 15 2 1 15 2 1 15 2 1 15 2 1 15 2 1 15 2 1 15 2 1 15
2 1 15 2 1 15 2 1 15 2 1 15 2 1 15 2 1 15 2 1 15 2 1 15 2 1 15 2 1 15
2 1 15 2 1 15 2 1 15 2 1 15 2 1 15 2 1 15 1 0 10 1 0 10 1 0 10 1 0 10
1 0 10 1 0 10 1 0 10 1 0 10 1 0 10 1 0 10 1 0 10 1 0 10 1 0 10 1 0 10
1 0 10 1 0 10 1 0 10 1 0 10 1 0 10 1 0 10 1 0 10 1 0 10 1 0 10 1 0 10
1 0 10 1 0 10 1 0 10 1 0 10 1 0 10 1 0 10 1 0 10 1 0 10 1 0 10 1 0 10
1 0 10 1 0 10 1 0 10 1 0 10 1 0 10 1 0 10 1 0 10 1 0 10 1 0 10 1 0 10
1 0 10 1 0 10 1 0 10 1 0 10 1 0 10 1 0 10 1 0 10 1 0 10 1 0 10 1 0 10
1 0 10 1 0 10 1 0 10 1 0 10 1 0 10 1 0 10 1 0 10 1 0 10 1 0 10 1 0 10
1 0 10 1 0 10 1 0 10 1 0 10 1 0 10 1 0 10 1 0 10 1 0 10 1 0 10 1 0 10
1 0 10 1 0 10 1 0 10 1 0 10 1 0 10 1 0 10 1 0 10 1 0 10 1 0 10 1 0 10
1 0 10 1 0 10 1 0 10 1 0 10 1 0 10 1 0 10 1 0 10 1 0 10 1 0 10 8 15 25
8 15 26 9 16 27 9 16 27 9 16 28 9 17 28 9 17 28 9 17 28 9 17 28 9 17
28 9 17 28 9 17 28 9 17 28 9 17 28 9 17 28 9 17 28 9 17 28 9 16 28 9
16 28 9 16 27 9 16 27 9 16 27 9 16 28 9 16 30 9 16 34 9 17 41 9 17 46
9 17 48 9 17 44 9 16 37 8 15 31 8 15 27 8 14 25 8 14 24 7 14 23 7 14
23 7 14 23 7 13 22 7 13 22 7 13 22 7 13 21 7 13 21 7 12 21 7 12 20 6
12 20 6 12 20 6 11 19 6 11 19 6 11 19 6 11 18 6 11 18 6 10 17 5 10 17
5 10 17 7 17 111 8 19 116 4 10 106 4 10 106 4 10 106 5 12 113 6 13 117
8 14 127 9 16 132 8 15 129 6 11 120 6 11 121 6 11 122 6 11 122 6 11
123 6 11 125 7 11 126 7 11 127 7 11 129 7 11 130 8 11 132 8 11 134 8
11 136 8 11 137 9 11 139 9 11 141 9 11 142 9 11 142 9 11 142 9 11 142
9 11 141 9 11 139 9 10 137 9 10 135 9 10 132 8 10 130 8 10 128
2 1 14 2 1 14 2 1 14 2 1 14 2 1 14 2 1 14 2 1 14 2 1 14 2 1 14 2 1 14
2 1 14 2 1 14 2 1 14 2 1 14 2 1 14 2 1 14 2 1 14 2 1 14 2 1 14 2 1 14
2 1 14 2 1 14 2 1 14 2 1 14 2 1 14 2 1 14 2 1 14 2 1 14 2 1 14 2 1 14
2 1 14 2 1 15 2 1 15 2 1 15 2 1 15 2 1 15 2 1 15 2 1 15 2 1 15 2 1 15
2 1 15 2 1 15 2 1 15 2 1 15 2 1 15 2 1 15 2 1 15 2 1 15 2 1 15 2 1 15
2 1 15 2 1 15 2 1 15 2 1 15 2 1 15 2 1 15 2 1 15 2 1 15 2 1 15 2 1 15
2 1 15 2 1 15 2 1 15 2 1 15 2 1 15 2 1 15 2 1 15 2 1 15 2 1 15 2 1 15
2 1 15 2 1 15 2 1 15 2 1 15 2 1 15 2 1 15 2 1 15 2 1 15 2 1 15 2 1 15
2 1 15 2 1 15 2 1 15 2 1 15 2 1 15 2 1 15 2 1 15 2 1 15 2 1 15 2 1 15
2 1 15 2 1 15 2 1 15 2 1 15 2 1 15 2 1 15 2 1 15 2 1 15 2 1 15 2 1 15
2 1 15 2 1 15 2 1 15 2 1 15 1 0 10 1 0 10 1 0 10 1 0 10 1 0 10 1 0 10
1 0 10 1 0 10 1 0 10 1 0 10 1 0 10 1 0 10 1 0 10 1 0 10 1 0 10 1 0 10
1 0 10 1 0 10 1 0 10 1 0 10 1 0 10 1 0 10 1 0 10 1 0 10 1 0 10 1 0 10
1 0 10 1 0 10 1 0 10 1 0 10 1 0 10 1 0 10 1 0 10 1 0 10 1 0 10 1 0 10
1 0 10 1 0 10 1 0 10 1 0 10 1 0 10 1 0 10 1 0 10 1 0 10 1 0 10 1 0 10
1 0 10 1 0 10 1 0 10 1 0 10 1 0 10 1 0 10 1 0 10 1 0 10 1 0 10 1 0 10
1 0 10 1 0 10 1 0 10 1 0 10 1 0 10 1 0 10 1 0 10 1 0 10 1 0 10 1 0 10
1 0 10 1 0 10 1 0 10 1 0 10 1 0 10 1 0 10 1 0 10 1 0 10 1 0 10 1 0 10
1 0 10 1 0 10 1 0 10 1 0 10 1 0 10 1 0 10 1 0 10 1 0 10 1 0 10 1 0 10
1 0 10 2 1 15 2 1 15 2 1 15 2 1 15 2 1 15 2 1 15 2 1 15 2 1 15 2 1 15
2 1 15 2 1 15 2 1 15 2 1 15 2 1 15 2 1 15 2 1 15 2 1 15 2 1 15 2 1 15
2 1 15 2 1 15 2 1 15 2 1 15 2 1 15 1 0 10 1 0 10 1 0 10 1 0 10 1 0 10
1 0 10 1 0 10 1 0 10 1 0 10 1 0 10 1 0 10 1 0 10 1 0 10 1 0 10 1 0 10
1 0 10 1 0 10 1 0 10 1 0 10 1 0 10 1 0 10 1 0 10 1 0 10 1 0 10 1 0 10
1 0 10 1 0 10 1 0 10 1 0 10 1 0 10 1 0 10 1 0 10 1 0 10 1 0 10 1 0 10
1 0 10 1 0 10 1 0 10 1 0 10 1 0 10 1 0 10 1 0 10 1 0 10 1 0 10 1 0 10
1 0 10 1 0 10 1 0 10 1 0 10 1 0 10 1 0 10 1 0 10 1 0 10 1 0 10 1 0 10
1 0 10 1 0 10 1 0 10 1 0 10 1 0 10 1 0 10 1 0 10 1 0 10 1 0 10 1 0 10
1 0 10 1 0 10 1 0 10 1 0 10 1 0 10 1 0 10 1 0 10 1 0 10 1 0 10 1 0 10
1 0 10 1 0 10 1 0 10 1 0 10 1 0 10 1 0 10 1 0 10 1 0 10 1 0 10 1 0 10
1 0 10 1 0 10 1 0 10 1 0 10 1 0 10 1 0 10 1 0 10 1 0 10 1 0 10 8 14 24
8 15 26 9 16 27 9 16 27 9 16 28 9 17 28 9 17 28 9 17 28 9 17 28 9 17
28 9 17 28 9 17 28 9 17 28 9 17 28 9 17 28 9 17 28 9 17 28 9 16 28 9
16 28 9 16 27 9 16 27 9 16 27 9 16 27 9 16 28 9 16 29 9 16 32 9 16 34
9 16 34 8 16 33 8 15 30 8 15 27 8 15 26 8 14 24 8 14 24 7 14 23 7 14
23 7 14 23 7 13 22 7 13 22 7 13 22 7 13 21 7 13 21 7 12 21 7 12 20 6
12 20 6 12 20 6 11 19 6 11 19 6 11 19 6 11 18 6 11 18 6 10 17 5 10 17
5 10 17 5 10 16 8 19 115 4 10 106 4 10 106 4 10 106 4 10 106 5 12 113
7 14 122 8 15 128 8 14 125 6 11 120 6 11 121 6 11 122 6 11 123 6 11
124 6 11 125 7 11 126 7 11 128 7 11 129 7 11 131 8 11 133 8 11 134 8
11 136 9 11 138 9 11 140 9 11 141 9 11 142 9 11 143 9 11 143 9 11 143
9 11 141 9 11 140 9 10 138 9 10 136 9 10 133 8 10 131 8 10 128
2 1 14 2 1 14 2 1 14 2 1 14 2 1 14 2 1 14 2 1 14 2 1 14 2 1 14 2 1 14
2 1 15 2 1 15 2 1 15 2 1 15 2 1 15 2 1 15 2 1 15 2 1 15 2 1 15 2 1 15
2 1 15 2 1 15 2 1 15 2 1 15 2 1 15 2 1 15 2 1 15 2 1 15 2 1 15 2 1 15
2 1 15 2 1 15 2 1 15 2 1 15 2 1 15 2 1 15 2 1 15 2 1 15 2 1 15 2 1 15
2 1 15 2 1 15 2 1 15 2 1 15 2 1 15 2 1 15 2 1 15 2 1 15 2 1 15 2 1 15
2 1 15 2 1 15 2 1 15 2 1 15 2 1 15 2 1 15 2 1 15 2 1 15 2 1 15 2 1 15
2 1 15 2 1 15 2 1 15 2 1 15 2 1 15 2 1 15 2 1 15 2 1 15 2 1 15 2 1 15
2 1 15 2 1 15 2 1 15 2 1 15 2 1 15 2 1 15 2 1 15 2 1 15 2 1 15 2 1 15
2 1 15 2 1 15 2 1 15 2 1 15 2 1 15 2 1 15 2 1 15 2 1 15 2 1 15 2 1 15
2 1 15 2 1 15 2 1 15 2 1 15 2 1 15 2 1 15 2 1 15 2 1 15 2 1 15 2 1 15
2 1 15 2 1 15 2 1 15 2 1 15 1 0 10 1 0 10 1 0 10 1 0 10 1 0 10 1 0 10
1 0 10 1 0 10 1 0 10 1 0 10 1 0 10 1 0 10 1 0 10 1 0 10 1 0 10 1 0 10
1 0 10 1 0 10 1 0 10 1 0 10 1 0 10 1 0 10 1 0 10 1 0 10 1 0 10 1 0 10
1 0 10 1 0 10 1 0 10 1 0 10 1 0 10 1 0 10 1 0 10 1 0 10 1 0 10 1 0 10
1 0 10 1 0 10 1 0 10 1 0 10 1 0 10 1 0 10 1 0 10 1 0 10 1 0 10 1 0 10
1 0 10 1 0 10 1 0 10 1 0 10 1 0 10 1 0 10 1 0 10 1 0 10 1 0 10 1 0 10
1 0 10 1 0 10 1 0 10 1 0 10 1 0 10 1 0 10 1 0 10 1 0 10 1 0 10 1 0 10
1 0 10 1 0 10 1 0 10 1 0 10 1 0 10 1 0 10 1 0 10 1 0 10 1 0 10 1 0 10
1 0 10 1 0 10 1 0 10 1 0 10 1 0 10 1 0 10 1 0 10 1 0 10 1 0 10 1 0 10
2 1 15 2 1 15 2 1 15 2 1 15 2 1 15 2 1 15 2 1 15 2 1 15 2 1 15 2 1 15
2 1 15 2 1 15 2 1 15 2 1 15 2 1 15 2 1 15 2 1 15 2 1 15 2 1 15 2 1 15
2 1 15 2 1 15 2 1 15 2 1 15 1 0 10 1 0 10 1 0 10 1 0 10 1 0 10 1 0 10
1 0 10 1 0 10 1 0 10 1 0 10 1 0 10 1 0 10 1 0 10 1 0 10 1 0 10 1 0 10
1 0 10 1 0 10 1 0 10 1 0 10 1 0 10 1 0 10 1 0 10 1 0 10 1 0 10 1 0 10
1 0 10 1 0 10 1 0 10 1 0 10 1 0 10 1 0 10 1 0 10 1 0 10 1 0 10 1 0 10
1 0 10 1 0 10 1 0 10 1 0 10 1 0 10 1 0 10 1 0 10 1 0 10 1 0 10 1 0 10
1 0 10 1 0 10 1 0 10 1 0 10 1 0 10 1 0 10 1 0 10 1 0 10 1 0 10 1 0 10
1 0 10 1 0 10 1 0 10 1 0 10 1 0 10 1 0 10 1 0 10 1 0 10 1 0 10 1 0 10
1 0 10 1 0 10 1 0 10 1 0 10 1 0 10 1 0 10 1 0 10 1 0 10 1 0 10 1 0 10
1 0 10 1 0 10 1 0 10 1 0 10 1 0 10 1 0 10 1 0 10 1 0 10 1 0 10 1 0 10
1 0 10 1 0 10 1 0 10 1 0 10 1 0 10 1 0 10 1 0 10 1 0 10 1 0 10 8 14 24
8 15 26 8 16 27 9 16 27 9 16 28 9 17 28 9 17 28 9 17 28 9 17 28 9 17
28 9 17 28 9 17 28 9 17 28 9 17 28 9 17 28 9 17 28 9 17 28 9 17 28 9
16 28 9 16 27 9 16 27 9 16 27 9 16 27 8 16 27 8 16 27 8 16 28 8 16 28
8 15 28 8 15 28 8 15 27 8 15 26 8 15 25 8 14 24 8 14 24 7 14 23 7 14
23 7 14 23 7 13 22 7 13 22 7 13 22 7 13 21 7 13 21 7 12 21 7 12 20 6
12 20 6 12 20 6 11 19 6 11 19 6 11 19 6 11 18 6 11 18 6 10 17 5 10 17
5 10 17 5 10 16 7 18 113 4 10 106 4 10 106 4 10 106 4 10 106 5 12 110
6 12 116 7 14 123 6 11 120 6 11 120 6 11 121 6 11 122 6 11 123 6 11
124 7 11 125 7 11 127 7 11 128 7 11 130 7 11 131 8 11 133 8 11 135 8
11 136 9 11 138 9 11 140 9 11 141 9 11 142 9 11 143 9 11 143 9 11 142
9 11 141 9 11 139 9 10 137 9 10 135 9 10 133 8 10 130 8 10 128
2 1 15 2 1 15 2 1 15 2 1 15 2 1 15 2 1 15 2 1 15 2 1 15 2 1 15 2 1 15
2 1 15 2 1 15 2 1 15 2 1 15 2 1 15 2 1 15 2 1 15 2 1 15 2 1 15 2 1 15
2 1 15 2 1 15 2 1 15 2 1 15 2 1 15 2 1 15 2 1 15 2 1 15 2 1 15 2 1 15
2 1 15 2 1 15 2 1 15 2 1 15 2 1 15 2 1 15 2 1 15 2 1 15 2 1 15 2 1 15
2 1 15 2 1 15 2 1 15 2 1 15 2 1 15 2 1 15 2 1 15 2 1 15 2 1 15 2 1 15
2 1 15 2 1 15 2 1 15 2 1 15 2 1 15 2 1 15 2 1 15 2 1 15 2 1 15 2 1 15
2 1 15 2 1 15 2 1 15 2 1 15 2 1 15 2 1 15 2 1 15 2 1 15 2 1 15 2 1 15
2 1 15 2 1 15 2 1 15 2 1 15 2 1 15 2 1 15 2 1 15 2 1 15 2 1 15 2 1 15
2 1 15 2 1 15 2 1 15 2 1 15 2 1 15 2 1 15 2 1 15 2 1 15 2 1 15 2 1 15
2 1 15 2 1 15 2 1 15 2 1 15 2 1 15 2 1 15 2 1 15 2 1 15 2 1 15 2 1 15
2 1 15 2 1 15 2 1 15 2 1 15 1 0 10 1 0 10 1 0 10 1 0 10 1 0 10 1 0 10
1 0 10 1 0 10 1 0 10 1 0 10 1 0 10 1 0 10 1 0 10 1 0 10 1 0 10 1 0 10
1 0 10 1 0 10 1 0 10 1 0 10 1 0 10 1 0 10 1 0 10 1 0 10 1 0 10 1 0 10
1 0 10 1 0 10 1 0 10 1 0 10 1 0 10 1 0 10 1 0 10 1 0 10 1 0 10 1 0 10
1 0 10 1 0 10 1 0 10 1 0 10 1 0 10 1 0 10 1 0 10 1 0 10 1 0 10 1 0 10
1 0 10 1 0 10 1 0 10 1 0 10 1 0 10 1 0 10 1 0 10 1 0 10 1 0 10 1 0 10
1 0 10 1 0 10 1 0 10 1 0 10 1 0 10 1 0 10 1 0 10 1 0 10 1 0 10 1 0 10
1 0 10 1 0 10 1 0 10 1 0 10 1 0 10 1 0 10 1 0 10 1 0 10 1 0 10 1 0 10
1 0 10 1 0 10 1 0 10 1 0 10 1 0 10 1 0 10 1 0 10 1 0 10 1 0 10 1 0 10
2 1 15 2 1 15 2 1 15 2 1 15 2 1 15 2 1 15 2 1 15 2 1 15 2 1 15 2 1 15
2 1 15 2 1 15 2 1 15 2 1 15 2 1 15 2 1 15 2 1 15 2 1 15 2 1 15 2 1 15
2 1 15 2 1 15 2 1 15 2 1 15 1 0 10 1 0 10 1 0 10 1 0 10 1 0 10 1 0 10
1 0 10 1 0 10 1 0 10 1 0 10 1 0 10 1 0 10 1 0 10 1 0 10 1 0 10 1 0 10
1 0 10 1 0 10 1 0 10 1 0 10 1 0 10 1 0 10 1 0 10 1 0 10 1 0 10 1 0 10
1 0 10 1 0 10 1 0 10 1 0 10 1 0 10 1 0 10 1 0 10 1 0 10 1 0 10 1 0 10
1 0 10 1 0 10 1 0 10 1 0 10 1 0 10 1 0 10 1 0 10 1 0 10 1 0 10 1 0 10
1 0 10 1 0 10 1 0 10 1 0 10 1 0 10 1 0 10 1 0 10 1 0 10 1 0 10 1 0 10
1 0 10 1 0 10 1 0 10 1 0 10 1 0 10 1 0 10 1 0 10 1 0 10 1 0 10 1 0 10
1 0 10 1 0 10 1 0 10 1 0 10 1 0 10 1 0 10 1 0 10 1 0 10 1 0 10 1 0 10
1 0 10 1 0 10 1 0 10 1 0 10 1 0 10 1 0 10 1 0 10 1 0 10 1 0 10 1 0 10
1 0 10 1 0 10 1 0 10 1 0 10 1 0 10 1 0 10 1 0 10 1 0 10 1 0 10 7 13 22
8 15 25 8 16 26 9 16 27 9 16 27 9 17 28 9 17 28 9 17 28 9 17 28 9 17
28 9 17 28 9 17 28 9 17 28 9 17 28 9 17 28 9 17 28 9 17 28 9 17 28 9
16 28 9 16 27 9 16 27 9 16 27 9 16 27 8 16 27 8 16 26 8 16 26 8 15 26
8 15 26 8 15 26 8 15 25 8 15 25 8 14 24 8 14 24 8 14 24 7 14 23 7 14
23 7 14 23 7 13 22 7 13 22 7 13 22 7 13 21 7 13 21 7 12 21 7 12 20 6
12 20 6 12 20 6 11 19 6 11 19 6 11 19 6 11 18 6 11 18 6 10 17 5 10 17
5 10 17 5 10 16 7 17 111 8 19 115 4 10 106 4 10 106 4 10 106 4 10 105
5 12 113 6 13 116 6 11 120 6 11 121 6 11 121 6 11 122 6 11 123 6 11
124 7 11 126 7 11 127 7 11 128 7 11 130 7 11 131 8 11 133 8 11 134 8
11 136 8 11 138 9 11 139 9 11 140 9 11 141 9 11 141 9 11 141 9 11 141
9 11 139 9 10 138 9 10 136 9 10 134 8 10 132 8 10 130 8 10 127
2 1 15 2 1 15 2 1 15 2 1 15 2 1 15 2 1 15 2 1 15 2 1 15 2 1 15 2 1 15
2 1 15 2 1 15 2 1 15 2 1 15 2 1 15 2 1 15 2 1 15 2 1 15 2 1 15 2 1 15
2 1 15 2 1 15 2 1 15 2 1 15 2 1 15 2 1 15 2 1 15 2 1 15 2 1 15 2 1 15
2 1 15 2 1 15 2 1 15 2 1 15 2 1 15 2 1 15 2 1 15 2 1 15 2 1 15 2 1 15
2 1 15 2 1 15 2 1 15 2 1 15 2 1 15 2 1 15 2 1 15 2 1 15 2 1 15 2 1 15
2 1 15 2 1 15 2 1 15 2 1 15 2 1 15 2 1 15 2 1 15 2 1 15 2 1 15 2 1 15
2 1 15 2 1 15 2 1 15 2 1 15 2 1 15 2 1 15 2 1 15 2 1 15 2 1 15 2 1 15
2 1 15 2 1 15 2 1 15 2 1 15 2 1 15 2 1 15 2 1 15 2 1 15 2 1 15 2 1 15
2 1 15 2 1 15 2 1 15 2 1 15 2 1 15 2 1 15 2 1 15 2 1 15 2 1 15 2 1 15
2 1 15 2 1 15 2 1 15 2 1 15 2 1 15 2 1 15 2 1 15 2 1 15 2 1 15 2 1 15
2 1 15 2 1 15 2 1 15 2 1 15 1 0 10 1 0 10 1 0 10 1 0 10 1 0 10 1 0 10
1 0 10 1 0 10 1 0 10 1 0 10 1 0 10 1 0 10 1 0 10 1 0 10 1 0 10 1 0 10
1 0 10 1 0 10 1 0 10 1 0 10 1 0 10 1 0 10 1 0 10 1 0 10 1 0 10 1 0 10
1 0 10 1 0 10 1 0 10 1 0 10 1 0 10 1 0 10 1 0 10 1 0 10 1 0 10 1 0 10
1 0 10 1 0 10 1 0 10 1 0 10 1 0 10 1 0 10 1 0 10 1 0 10 1 0 10 1 0 10
1 0 10 1 0 10 1 0 10 1 0 10 1 0 10 1 0 10 1 0 10 1 0 10 1 0 10 1 0 10
1 0 10 1 0 10 1 0 10 1 0 10 1 0 10 1 0 10 1 0 10 1 0 10 1 0 10 1 0 10
1 0 10 1 0 10 1 0 10 1 0 10 1 0 10 1 0 10 1 0 10 1 0 10 1 0 10 1 0 10
1 0 10 1 0 10 1 0 10 1 0 10 1 0 10 1 0 10 1 0 10 1 0 10 1 0 10 2 1 16
2 1 16 2 1 16 2 1 16 2 1 16 2 1 16 2 1 16 2 1 16 2 1 16 2 1 16 2 1 16
2 1 16 2 1 16 2 1 16 2 1 16 2 1 16 2 1 16 2 1 16 2 1 16 2 1 16 2 1 16
2 1 16 2 1 16 2 1 16 1 0 10 1 0 10 1 0 10 1 0 10 1 0 10 1 0 10 1 0 10
1 0 10 1 0 10 1 0 10 1 0 10 1 0 10 1 0 10 1 0 10 1 0 10 1 0 10 1 0 10
1 0 10 1 0 10 1 0 10 1 0 10 1 0 10 1 0 10 1 0 10 1 0 10 1 0 10 1 0 10
1 0 10 1 0 10 1 0 10 1 0 10 1 0 10 1 0 10 1 0 10 1 0 10 1 0 10 1 0 10
1 0 10 1 0 10 1 0 10 1 0 10 1 0 10 1 0 10 1 0 10 1 0 10 1 0 10 1 0 10
1 0 10 1 0 10 1 0 10 1 0 10 1 0 10 1 0 10 1 0 10 1 0 10 1 0 10 1 0 10
1 0 10 1 0 10 1 0 10 1 0 10 1 0 10 1 0 10 1 0 10 1 0 10 1 0 10 1 0 10
1 0 10 1 0 10 1 0 10 1 0 10 1 0 10 1 0 10 1 0 10 1 0 10 1 0 10 1 0 10
1 0 10 1 0 10 1 0 10 1 0 10 1 0 10 1 0 10 1 0 10 1 0 10 1 0 10 1 0 10
1 0 10 1 0 10 1 0 10 1 0 10 1 0 10 1 0 10 1 0 10 1 0 10 1 0 10 1 0 10
8 15 25 8 16 26 9 16 27 9 16 27 9 16 28 9 17 28 9 17 28 9 17 28 9 17
28 9 17 28 9 17 28 9 17 28 9 17 28 9 17 28 9 17 28 9 17 28 9 17 28 9
16 28 9 16 27 9 16 27 9 16 27 9 16 27 8 16 27 8 16 26 8 15 26 8 15 26
8 15 26 8 15 25 8 15 25 8 15 25 8 14 24 8 14 24 8 14 24 7 14 23 7 14
23 7 14 23 7 13 22 7 13 22 7 13 22 7 13 21 7 13 21 7 12 21 7 12 20 6
12 20 6 12 20 6 11 19 6 11 19 6 11 19 6 11 18 6 11 18 6 10 17 5 10 17
5 10 17 5 10 16 5 9 16 8 19 114 4 10 106 4 10 106 4 10 105 4 10 105 4
10 105 5 11 119 6 11 120 6 11 121 6 11 121 6 11 122 6 11 123 6 11 124
7 11 125 7 11 127 7 11 128 7 11 129 7 11 131 8 11 132 8 11 134 8 11
135 8 11 136 9 11 138 9 11 138 9 11 139 9 11 139 9 11 139 9 11 139 9
11 138 9 10 136 9 10 135 8 10 133 8 10 131 8 10 129 8 10 127
2 1 15 2 1 15 2 1 15 2 1 15 2 1 15 2 1 15 2 1 15 2 1 15 2 1 15 2 1 15
2 1 15 2 1 15 2 1 15 2 1 15 2 1 15 2 1 15 2 1 15 2 1 15 2 1 15 2 1 15
2 1 15 2 1 15 2 1 15 2 1 15 2 1 15 2 1 15 2 1 15 2 1 15 2 1 15 2 1 15
2 1 15 2 1 15 2 1 15 2 1 15 2 1 15 2 1 15 2 1 15 2 1 15 2 1 15 2 1 15
2 1 15 2 1 15 2 1 15 2 1 15 2 1 15 2 1 15 2 1 15 2 1 15 2 1 15 2 1 15
2 1 15 2 1 15 2 1 15 2 1 15 2 1 15 2 1 15 2 1 15 2 1 15 2 1 15 2 1 15
2 1 15 2 1 15 2 1 15 2 1 15 2 1 15 2 1 15 2 1 15 2 1 15 2 1 15 2 1 15
2 1 15 2 1 15 2 1 15 2 1 15 2 1 15 2 1 15 2 1 15 2 1 15 2 1 15 2 1 15
2 1 15 2 1 15 2 1 15 2 1 15 2 1 15 2 1 15 2 1 15 2 1 15 2 1 16 2 1 16
2 1 16 2 1 16 2 1 16 2 1 16 2 1 16 2 1 16 2 1 16 2 1 16 2 1 16 2 1 16
2 1 16 2 1 16 2 1 16 2 1 16 1 0 10 1 0 10 1 0 10 1 0 10 1 0 10 1 0 10
1 0 10 1 0 10 1 0 10 1 0 10 1 0 10 1 0 10 1 0 10 1 0 10 1 0 10 1 0 10
1 0 10 1 0 10 1 0 10 1 0 10 1 0 10 1 0 10 1 0 10 1 0 10 1 0 10 1 0 10
1 0 10 1 0 10 1 0 10 1 0 10 1 0 10 1 0 10 1 0 10 1 0 10 1 0 10 1 0 10
1 0 10 1 0 10 1 0 10 1 0 10 1 0 10 1 0 10 1 0 10 1 0 10 1 0 10 1 0 10
1 0 10 1 0 10 1 0 10 1 0 10 1 0 10 1 0 10 1 0 10 1 0 10 1 0 10 1 0 10
1 0 10 1 0 10 1 0 10 1 0 10 1 0 10 1 0 10 1 0 10 1 0 10 1 0 10 1 0 10
1 0 10 1 0 10 1 0 10 1 0 10 1 0 10 1 0 10 1 0 10 1 0 10 1 0 10 1 0 10
1 0 10 1 0 10 1 0 10 1 0 10 1 0 10 1 0 10 1 0 10 1 0 10 2 1 16 2 1 16
2 1 16 2 1 16 2 1 16 2 1 16 2 1 16 2 1 16 2 1 16 2 1 16 2 1 16 2 1 16
2 1 16 2 1 16 2 1 16 2 1 16 2 1 16 2 1 16 2 1 16 2 1 16 2 1 16 2 1 16
2 1 16 2 1 16 1 0 10 1 0 10 1 0 10 1 0 10 1 0 10 1 0 10 1 0 10 1 0 10
1 0 10 1 0 10 1 0 10 1 0 10 1 0 10 1 0 10 1 0 10 1 0 10 1 0 10 1 0 10
1 0 10 1 0 10 1 0 10 1 0 10 1 0 10 1 0 10 1 0 10 1 0 10 1 0 10 1 0 10
1 0 10 1 0 10 1 0 10 1 0 10 1 0 10 1 0 10 1 0 10 1 0 10 1 0 10 1 0 10
1 0 10 1 0 10 1 0 10 1 0 10 1 0 10 1 0 10 1 0 10 1 0 10 1 0 10 1 0 10
1 0 10 1 0 10 1 0 10 1 0 10 1 0 10 1 0 10 1 0 10 1 0 10 1 0 10 1 0 10
1 0 10 1 0 10 1 0 10 1 0 10 1 0 10 1 0 10 1 0 10 1 0 10 1 0 10 1 0 10
1 0 10 1 0 10 1 0 10 1 0 10 1 0 10 1 0 10 1 0 10 1 0 10 1 0 10 1 0 10
1 0 10 1 0 10 1 0 10 1 0 10 1 0 10 1 0 10 1 0 10 1 0 10 1 0 10 1 0 10
1 0 10 1 0 10 1 0 10 1 0 10 1 0 10 1 0 10 1 0 10 1 0 10 1 0 10 1 0 10
8 14 24 8 15 26 9 16 27 9 16 27 9 16 28 9 17 28 9 17 28 9 17 28 9 17
28 9 17 28 9 17 28 9 17 28 9 17 28 9 17 28 9 17 28 9 17 28 9 16 28 9
16 28 9 16 27 9 16 27 9 16 27 9 16 27 8 16 27 8 16 26 8 15 26 8 15 26
8 15 26 8 15 25 8 15 25 8 15 25 8 14 24 8 14 24 8 14 24 7 14 23 7 14
23 7 14 23 7 13 22 7 13 22 7 13 22 7 13 21 7 13 21 7 12 21 7 12 20 6
12 20 6 12 20 6 11 19 6 11 19 6 11 19 6 11 18 6 11 18 6 10 17 5 10 17
5 10 17 5 10 16 5 9 16 7 18 112 4 10 105 4 10 105 4 10 105 4 10 105 4
10 105 5 11 119 6 11 120 6 11 120 6 11 121 6 11 122 6 11 123 6 11 124
6 11 125 7 11 126 7 11 127 7 11 129 7 11 130 8 11 131 8 11 133 8 11
134 8 11 135 8 11 136 8 11 137 9 11 137 9 11 137 9 11 137 9 11 136 9
10 135 9 10 134 8 10 133 8 10 131 8 10 129 8 10 127 8 10 125
2 1 15 2 1 15 2 1 15 2 1 15 2 1 15 2 1 15 2 1 15 2 1 15 2 1 15 2 1 15
2 1 15 2 1 15 2 1 15 2 1 15 2 1 15 2 1 15 2 1 15 2 1 15 2 1 15 2 1 15
2 1 15 2 1 15 2 1 15 2 1 15 2 1 15 2 1 15 2 1 15 2 1 15 2 1 15 2 1 15
2 1 15 2 1 15 2 1 15 2 1 15 2 1 15 2 1 15 2 1 15 2 1 15 2 1 15 2 1 15
2 1 15 2 1 15 2 1 15 2 1 15 2 1 15 2 1 15 2 1 15 2 1 15 2 1 15 2 1 15
2 1 15 2 1 15 2 1 15 2 1 15 2 1 15 2 1 15 2 1 15 2 1 15 2 1 15 2 1 15
2 1 15 2 1 15 2 1 16 2 1 16 2 1 16 2 1 16 2 1 16 2 1 16 2 1 16 2 1 16
2 1 16 2 1 16 2 1 16 2 1 16 2 1 16 2 1 16 2 1 16 2 1 16 2 1 16 2 1 16
2 1 16 2 1 16 2 1 16 2 1 16 2 1 16 2 1 16 2 1 16 2 1 16 2 1 16 2 1 16
2 1 16 2 1 16 2 1 16 2 1 16 2 1 16 2 1 16 2 1 16 2 1 16 2 1 16 2 1 16
2 1 16 2 1 16 2 1 16 2 1 16 1 0 10 1 0 10 1 0 10 1 0 10 1 0 10 1 0 10
1 0 10 1 0 10 1 0 10 1 0 10 1 0 10 1 0 10 1 0 10 1 0 10 1 0 10 1 0 10
1 0 10 1 0 10 1 0 10 1 0 10 1 0 10 1 0 10 1 0 10 1 0 10 1 0 10 1 0 10
1 0 10 1 0 10 1 0 10 1 0 10 1 0 10 1 0 10 1 0 10 1 0 10 1 0 10 1 0 10
1 0 10 1 0 10 1 0 10 1 0 10 1 0 10 1 0 10 1 0 10 1 0 10 1 0 10 1 0 10
1 0 10 1 0 10 1 0 10 1 0 10 1 0 10 1 0 10 1 0 10 1 0 10 1 0 10 1 0 10
1 0 10 1 0 10 1 0 10 1 0 10 1 0 10 1 0 10 1 0 10 1 0 10 1 0 10 1 0 10
1 0 10 1 0 10 1 0 10 1 0 10 1 0 10 1 0 10 1 0 10 1 0 10 1 0 10 1 0 10
1 0 10 1 0 10 1 0 10 1 0 10 1 0 10 1 0 10 1 0 10 2 1 16 2 1 16 2 1 16
2 1 16 2 1 16 2 1 16 2 1 16 2 1 16 2 1 16 2 1 16 2 1 16 2 1 16 2 1 16
2 1 16 2 1 16 2 1 16 2 1 16 2 1 16 2 1 16 2 1 16 2 1 16 2 1 16 2 1 16
2 1 16 1 0 10 1 0 10 1 0 10 1 0 10 1 0 10 1 0 10 1 0 10 1 0 10 1 0 10
1 0 10 1 0 10 1 0 10 1 0 10 1 0 10 1 0 10 1 0 10 1 0 10 1 0 10 1 0 10
1 0 10 1 0 10 1 0 10 1 0 10 1 0 10 1 0 10 1 0 10 1 0 10 1 0 10 1 0 10
1 0 10 1 0 10 1 0 10 1 0 10 1 0 10 1 0 10 1 0 10 1 0 10 1 0 10 1 0 10
1 0 10 1 0 10 1 0 10 1 0 10 1 0 10 1 0 10 1 0 10 1 0 10 1 0 10 1 0 10
1 0 10 1 0 10 1 0 10 1 0 10 1 0 10 1 0 10 1 0 10 1 0 10 1 0 10 1 0 10
1 0 10 1 0 10 1 0 10 1 0 10 1 0 10 1 0 10 1 0 10 1 0 10 1 0 10 1 0 10
1 0 10 1 0 10 1 0 10 1 0 10 1 0 10 1 0 10 1 0 10 1 0 10 1 0 10 1 0 10
1 0 10 1 0 10 1 0 10 1 0 10 1 0 10 1 0 10 1 0 10 1 0 10 1 0 10 1 0 10
1 0 10 1 0 10 1 0 10 1 0 10 1 0 10 1 0 10 1 0 10 1 0 10 1 0 10 1 0 10
7 14 23 8 15 25 8 16 26 9 16 27 9 16 27 9 17 28 9 17 28 9 17 28 9 17
28 9 17 28 9 17 28 9 17 28 9 17 28 9 17 28 9 17 28 9 17 28 9 16 28 9
16 28 9 16 27 9 16 27 9 16 27 9 16 27 8 16 27 8 16 26 8 15 26 8 15 26
8 15 25 8 15 25 8 15 25 8 15 25 8 14 24 8 14 24 8 14 24 7 14 23 7 14
23 7 14 23 7 13 22 7 13 22 7 13 22 7 13 21 7 13 21 7 12 21 7 12 20 6
12 20 6 12 20 6 11 19 6 11 19 6 11 19 6 11 18 6 11 18 6 10 17 5 10 17
5 10 17 5 10 16 5 9 16 7 17 110 7 18 113 4 10 105 4 10 105 4 10 105 5
11 118 5 11 119 5 11 119 6 11 120 6 11 121 6 11 122 6 11 123 6 11 124
6 11 125 7 11 126 7 11 127 7 11 128 7 11 129 7 11 130 8 11 131 8 11
132 8 11 133 8 11 134 8 11 135 8 11 135 8 11 135 8 10 135 8 10 134 8
10 133 8 10 132 8 10 131 8 10 129 8 10 128 8 10 126 8 10 124
2 1 15 2 1 15 2 1 15 2 1 15 2 1 15 2 1 15 2 1 15 2 1 15 2 1 15 2 1 15
2 1 15 2 1 15 2 1 15 2 1 15 2 1 15 2 1 15 2 1 15 2 1 15 2 1 15 2 1 15
2 1 15 2 1 15 2 1 15 2 1 15 2 1 15 2 1 15 2 1 15 2 1 15 2 1 15 2 1 15
2 1 15 2 1 15 2 1 15 2 1 15 2 1 15 2 1 15 2 1 15 2 1 15 2 1 15 2 1 15
2 1 15 2 1 16 2 1 16 2 1 16 2 1 16 2 1 16 2 1 16 2 1 16 2 1 16 2 1 16
2 1 16 2 1 16 2 1 16 2 1 16 2 1 16 2 1 16 2 1 16 2 1 16 2 1 16 2 1 16
2 1 16 2 1 16 2 1 16 2 1 16 2 1 16 2 1 16 2 1 16 2 1 16 2 1 16 2 1 16
2 1 16 2 1 16 2 1 16 2 1 16 2 1 16 2 1 16 2 1 16 2 1 16 2 1 16 2 1 16
2 1 16 2 1 16 2 1 16 2 1 16 2 1 16 2 1 16 2 1 16 2 1 16 2 1 16 2 1 16
2 1 16 2 1 16 2 1 16 2 1 16 2 1 16 2 1 16 2 1 16 2 1 16 2 1 16 2 1 16
2 1 16 2 1 16 2 1 16 2 1 16 1 0 10 1 0 10 1 0 10 1 0 10 1 0 10 1 0 10
1 0 10 1 0 10 1 0 10 1 0 10 1 0 10 1 0 10 1 0 10 1 0 10 1 0 10 1 0 10
1 0 10 1 0 10 1 0 10 1 0 10 1 0 10 1 0 10 1 0 10 1 0 10 1 0 10 1 0 10
1 0 10 1 0 10 1 0 10 1 0 10 1 0 10 1 0 10 1 0 10 1 0 10 1 0 10 1 0 10
1 0 10 1 0 10 1 0 10 1 0 10 1 0 10 1 0 10 1 0 10 1 0 10 1 0 10 1 0 10
1 0 10 1 0 10 1 0 10 1 0 10 1 0 10 1 0 10 1 0 10 1 0 10 1 0 10 1 0 10
1 0 10 1 0 10 1 0 10 1 0 10 1 0 10 1 0 10 1 0 10 1 0 10 1 0 10 1 0 10
1 0 10 1 0 10 1 0 10 1 0 10 1 0 10 1 0 10 1 0 10 1 0 10 1 0 10 1 0 10
1 0 10 1 0 10 1 0 10 1 0 10 1 0 10 1 0 10 1 0 10 2 1 16 2 1 16 2 1 16
2 1 16 2 1 16 2 1 16 2 1 16 2 1 16 2 1 16 2 1 16 2 1 16 2 1 16 2 1 16
2 1 16 2 1 16 2 1 16 2 1 16 2 1 16 2 1 16 2 1 16 2 1 16 2 1 16 2 1 16
2 1 16 1 0 10 1 0 10 1 0 10 1 0 10 1 0 10 1 0 10 1 0 10 1 0 10 1 0 10
1 0 10 1 0 10 1 0 10 1 0 10 1 0 10 1 0 10 1 0 10 1 0 10 1 0 10 1 0 10
1 0 10 1 0 10 1 0 10 1 0 10 1 0 10 1 0 10 1 0 10 1 0 10 1 0 10 1 0 10
1 0 10 1 0 10 1 0 10 1 0 10 1 0 10 1 0 10 1 0 10 1 0 10 1 0 10 1 0 10
1 0 10 1 0 10 1 0 10 1 0 10 1 0 10 1 0 10 1 0 10 1 0 10 1 0 10 1 0 10
1 0 10 1 0 10 1 0 10 1 0 10 1 0 10 1 0 10 1 0 10 1 0 10 1 0 10 1 0 10
1 0 10 1 0 10 1 0 10 1 0 10 1 0 10 1 0 10 1 0 10 1 0 10 1 0 10 1 0 10
1 0 10 1 0 10 1 0 10 1 0 10 1 0 10 1 0 10 1 0 10 1 0 10 1 0 10 1 0 10
1 0 10 1 0 10 1 0 10 1 0 10 1 0 10 1 0 10 1 0 10 1 0 10 1 0 10 1 0 10
1 0 10 1 0 10 1 0 10 1 0 10 1 0 10 1 0 10 1 0 10 1 0 10 1 0 10 1 0 10
1 0 10 8 15 25 8 16 26 9 16 27 9 16 27 9 16 28 9 17 28 9 17 28 9 17 28
9 17 28 9 17 28 9 17 28 9 17 28 9 17 28 9 17 28 9 17 28 9 16 28 9 16
28 9 16 27 9 16 27 9 16 27 9 16 27 8 16 26 8 16 26 8 15 26 8 15 26 8
15 25 8 15 25 8 15 25 8 15 25 8 14 24 8 14 24 8 14 24 7 14 23 7 14 23
7 14 23 7 13 22 7 13 22 7 13 22 7 13 21 7 13 21 7 12 21 6 12 20 6 12
20 6 12 20 6 11 19 6 11 19 6 11 19 6 11 18 6 11 18 6 10 17 5 10 17 5
10 17 5 10 16 5 9 16 5 9 15 7 18 112 4 10 105 4 10 105 4 10 105 5 11
117 5 11 118 5 11 119 6 11 120 6 11 121 6 11 122 6 11 123 6 11 123 6
11 124 7 11 125 7 11 126 7 11 127 7 11 128 7 11 129 7 11 130 8 11 131
8 11 132 8 11 132 8 11 133 8 11 133 8 10 133 8 10 132 8 10 132 8 10
131 8 10 130 8 10 129 8 10 128 8 10 126 8 10 125 7 10 123
2 1 15 2 1 15 2 1 15 2 1 15 2 1 15 2 1 15 2 1 15 2 1 15 2 1 15 2 1 15
2 1 15 2 1 15 2 1 15 2 1 15 2 1 15 2 1 15 2 1 15 2 1 15 2 1 15 2 1 15
2 1 15 2 1 15 2 1 16 2 1 16 2 1 16 2 1 16 2 1 16 2 1 16 2 1 16 2 1 16
2 1 16 2 1 16 2 1 16 2 1 16 2 1 16 2 1 16 2 1 16 2 1 16 2 1 16 2 1 16
2 1 16 2 1 16 2 1 16 2 1 16 2 1 16 2 1 16 2 1 16 2 1 16 2 1 16 2 1 16
2 1 16 2 1 16 2 1 16 2 1 16 2 1 16 2 1 16 2 1 16 2 1 16 2 1 16 2 1 16
2 1 16 2 1 16 2 1 16 2 1 16 2 1 16 2 1 16 2 1 16 2 1 16 2 1 16 2 1 16
2 1 16 2 1 16 2 1 16 2 1 16 2 1 16 2 1 16 2 1 16 2 1 16 2 1 16 2 1 16
2 1 16 2 1 16 2 1 16 2 1 16 2 1 16 2 1 16 2 1 16 2 1 16 2 1 16 2 1 16
2 1 16 2 1 16 2 1 16 2 1 16 2 1 16 2 1 16 2 1 16 2 1 16 2 1 16 2 1 16
2 1 16 2 1 16 2 1 16 2 1 16 2 1 16 1 0 10 1 0 10 1 0 10 1 0 10 1 0 10
1 0 10 1 0 10 1 0 10 1 0 10 1 0 10 1 0 10 1 0 10 1 0 10 1 0 10 1 0 10
1 0 10 1 0 10 1 0 10 1 0 10 1 0 10 1 0 10 1 0 10 1 0 10 1 0 10 1 0 10
1 0 10 1 0 10 1 0 10 1 0 10 1 0 10 1 0 10 1 0 10 1 0 10 1 0 10 1 0 10
1 0 10 1 0 10 1 0 10 1 0 10 1 0 10 1 0 10 1 0 10 1 0 10 1 0 10 1 0 10
1 0 10 1 0 10 1 0 10 1 0 10 1 0 10 1 0 10 1 0 10 1 0 10 1 0 10 1 0 10
1 0 10 1 0 10 1 0 10 1 0 10 1 0 10 1 0 10 1 0 10 1 0 10 1 0 10 1 0 10
1 0 10 1 0 10 1 0 10 1 0 10 1 0 10 1 0 10 1 0 10 1 0 10 1 0 10 1 0 10
1 0 10 1 0 10 1 0 10 1 0 10 1 0 10 1 0 10 2 1 16 2 1 16 3 3 14 3 3 14
3 3 14 3 3 14 3 3 14 3 3 14 3 3 14 3 3 14 3 3 14 3 3 14 3 3 14 3 3 14
3 3 14 3 3 14 3 3 14 2 1 16 2 1 16 2 1 16 2 1 16 2 1 16 2 1 16 2 1 16
1 0 10 1 0 10 1 0 10 1 0 10 1 0 10 1 0 10 1 0 10 1 0 10 1 0 10 1 0 10
1 0 10 1 0 10 1 0 10 1 0 10 1 0 10 1 0 10 1 0 10 1 0 10 1 0 10 1 0 10
1 0 10 1 0 10 1 0 10 1 0 10 1 0 10 1 0 10 1 0 10 1 0 10 1 0 10 1 0 10
1 0 10 1 0 10 1 0 10 1 0 10 1 0 10 1 0 10 1 0 10 1 0 10 1 0 10 1 0 10
1 0 10 1 0 10 1 0 10 1 0 10 1 0 10 1 0 10 1 0 10 1 0 10 1 0 10 1 0 10
1 0 10 1 0 10 1 0 10 1 0 10 1 0 10 1 0 10 1 0 10 1 0 10 1 0 10 1 0 10
1 0 10 1 0 10 1 0 10 1 0 10 1 0 10 1 0 10 1 0 10 1 0 10 1 0 10 1 0 10
1 0 10 1 0 10 1 0 10 1 0 10 1 0 10 1 0 10 1 0 10 1 0 10 1 0 10 1 0 10
1 0 10 1 0 10 1 0 10 1 0 10 1 0 10 1 0 10 1 0 10 1 0 10 1 0 10 1 0 10
1 0 10 1 0 10 1 0 10 1 0 10 1 0 10 1 0 10 1 0 10 1 0 10 1 0 10 1 0 10
1 0 10 8 14 24 8 15 26 8 16 26 9 16 27 9 16 27 9 16 28 9 17 28 9 17 28
9 17 28 9 17 28 9 17 28 9 17 28 9 17 28 9 17 28 9 16 28 9 16 28 9 16
27 9 16 27 9 16 27 9 16 27 9 16 27 8 16 26 8 16 26 8 15 26 8 15 26 8
15 25 8 15 25 8 15 25 8 15 25 8 14 24 8 14 24 8 14 24 7 14 23 7 14 23
7 14 23 7 13 22 7 13 22 7 13 22 7 13 21 7 12 21 7 12 21 6 12 20 6 12
20 6 12 20 6 11 19 6 11 19 6 11 18 6 11 18 6 11 18 6 10 17 5 10 17 5
10 17 5 10 16 5 9 16 5 9 15 7 17 110 5 10 112 5 11 114 5 11 116 5 11
117 5 11 118 5 11 119 6 11 120 6 11 120 6 11 121 6 11 122 6 11 123 6
11 124 6 11 125 7 11 126 7 11 126 7 11 127 7 11 128 7 11 129 7 11 130
8 11 130 8 11 131 8 10 131 8 10 131 8 10 131 8 10 130 8 10 130 8 10
129 8 10 128 8 10 127 8 10 126 8 10 124 7 10 123 7 10 122
2 1 15 2 1 15 2 1 15 2 1 15 2 1 15 2 1 16 2 1 16 2 1 16 2 1 16 2 1 16
2 1 16 2 1 16 2 1 16 2 1 16 2 1 16 2 1 16 2 1 16 2 1 16 2 1 16 2 1 16
2 1 16 2 1 16 2 1 16 2 1 16 2 1 16 2 1 16 2 1 16 2 1 16 2 1 16 2 1 16
2 1 16 2 1 16 2 1 16 2 1 16 2 1 16 2 1 16 2 1 16 2 1 16 2 1 16 2 1 16
2 1 16 2 1 16 2 1 16 2 1 16 2 1 16 2 1 16 2 1 16 2 1 16 2 1 16 2 1 16
2 1 16 2 1 16 2 1 16 2 1 16 2 1 16 2 1 16 2 1 16 2 1 16 2 1 16 2 1 16
2 1 16 2 1 16 2 1 16 2 1 16 2 1 16 2 1 16 2 1 16 2 1 16 2 1 16 2 1 16
2 1 16 2 1 16 2 1 16 2 1 16 2 1 16 2 1 16 2 1 16 2 1 16 2 1 16 2 1 16
2 1 16 2 1 16 2 1 16 2 1 16 2 1 16 2 1 16 2 1 16 2 1 16 2 1 16 2 1 16
2 1 16 2 1 16 2 1 16 2 1 16 2 1 16 2 1 16 2 1 16 2 1 16 2 1 16 2 1 16
2 1 16 2 1 16 2 1 16 2 1 16 2 1 16 1 0 10 1 0 10 1 0 10 1 0 10 1 0 10
1 0 10 1 0 10 1 0 10 1 0 10 1 0 10 1 0 10 1 0 10 1 0 10 1 0 10 1 0 10
1 0 10 1 0 10 1 0 10 1 0 10 1 0 10 1 0 10 1 0 10 1 0 10 1 0 10 1 0 10
1 0 10 1 0 10 1 0 10 1 0 10 1 0 10 1 0 10 1 0 10 1 0 10 1 0 10 1 0 10
1 0 10 1 0 10 1 0 10 1 0 10 1 0 10 1 0 10 1 0 10 1 0 10 1 0 10 1 0 10
1 0 10 1 0 10 1 0 10 1 0 10 1 0 10 1 0 10 1 0 10 1 0 10 1 0 10 1 0 10
1 0 10 1 0 10 1 0 10 1 0 10 1 0 10 1 0 10 1 0 10 1 0 10 1 0 10 1 0 10
1 0 10 1 0 10 1 0 10 1 0 10 1 0 10 1 0 10 1 0 10 1 0 10 1 0 10 1 0 10
1 0 10 1 0 10 1 0 10 1 0 10 1 0 10 3 3 15 3 3 16 3 4 18 3 4 18 3 4 19
3 4 19 3 4 19 3 4 19 3 4 19 3 4 18 3 4 18 3 3 17 3 3 16 3 3 16 3 3 15
3 3 14 3 3 14 3 3 14 3 3 14 3 3 14 3 3 14 2 1 16 2 1 16 2 1 16 1 0 10
1 0 10 1 0 10 1 0 10 1 0 10 1 0 10 1 0 10 1 0 10 1 0 10 1 0 10 1 0 10
1 0 10 1 0 10 1 0 10 1 0 10 1 0 10 1 0 10 1 0 10 1 0 10 1 0 10 1 0 10
1 0 10 1 0 10 1 0 10 1 0 10 1 0 10 1 0 10 1 0 10 1 0 10 1 0 10 1 0 10
1 0 10 1 0 10 1 0 10 1 0 10 1 0 10 1 0 10 1 0 10 1 0 10 1 0 10 1 0 10
1 0 10 1 0 10 1 0 10 1 0 10 1 0 10 1 0 10 1 0 10 1 0 10 1 0 10 1 0 10
1 0 10 1 0 10 1 0 10 1 0 10 1 0 10 1 0 10 1 0 10 1 0 10 1 0 10 1 0 10
1 0 10 1 0 10 1 0 10 1 0 10 1 0 10 1 0 10 1 0 10 1 0 10 1 0 10 1 0 10
1 0 10 1 0 10 1 0 10 1 0 10 1 0 10 1 0 10 1 0 10 1 0 10 1 0 10 1 0 10
1 0 10 1 0 10 1 0 10 1 0 10 1 0 10 1 0 10 1 0 10 1 0 10 1 0 10 1 0 10
1 0 10 1 0 10 1 0 10 1 0 10 1 0 10 1 0 10 1 0 10 1 0 10 1 0 10 1 0 10
1 0 10 7 14 23 8 15 25 8 16 26 9 16 27 9 16 27 9 16 28 9 16 28 9 17 28
9 17 28 9 17 28 9 17 28 9 17 28 9 17 28 9 17 28 9 16 28 9 16 28 9 16
27 9 16 27 9 16 27 9 16 27 9 16 27 8 16 26 8 16 26 8 15 26 8 15 26 8
15 25 8 15 25 8 15 25 8 15 25 8 14 24 8 14 24 8 14 24 7 14 23 7 14 23
7 13 23 7 13 22 7 13 22 7 13 22 7 13 21 7 12 21 7 12 21 6 12 20 6 12
20 6 12 20 6 11 19 6 11 19 6 11 18 6 11 18 6 11 18 6 10 17 5 10 17 5
10 16 5 10 16 5 9 16 5 9 15 5 9 15 7 18 111 5 10 113 5 11 115 5 11 116
5 11 117 5 11 118 6 11 119 6 11 120 6 11 121 6 11 122 6 11 122 6 11
123 6 11 124 7 11 125 7 11 126 7 11 126 7 11 127 7 11 128 7 11 128 7
10 129 7 10 129 8 10 129 8 10 129 8 10 129 8 10 128 8 10 128 8 10 127
8 10 126 8 10 125 7 10 124 7 10 123 7 10 122 7 10 120
2 1 16 2 1 16 2 1 16 2 1 16 2 1 16 2 1 16 2 1 16 2 1 16 2 1 16 2 1 16
2 1 16 2 1 16 2 1 16 2 1 16 2 1 16 2 1 16 2 1 16 2 1 16 2 1 16 2 1 16
2 1 16 2 1 16 2 1 16 2 1 16 2 1 16 2 1 16 2 1 16 2 1 16 2 1 16 2 1 16
2 1 16 2 1 16 2 1 16 2 1 16 2 1 16 2 1 16 2 1 16 2 1 16 2 1 16 2 1 16
2 1 16 2 1 16 2 1 16 2 1 16 2 1 16 2 1 16 2 1 16 2 1 16 2 1 16 2 1 16
2 1 16 2 1 16 2 1 16 2 1 16 2 1 16 2 1 16 2 1 16 2 1 16 2 1 16 2 1 16
2 1 16 2 1 16 2 1 16 2 1 16 2 1 16 2 1 16 2 1 16 2 1 16 2 1 16 2 1 16
2 1 16 2 1 16 2 1 16 2 1 16 2 1 16 2 1 16 2 1 16 2 1 16 2 1 16 2 1 16
2 1 16 2 1 16 2 1 16 2 1 16 2 1 16 2 1 16 2 1 16 2 1 16 2 1 16 2 1 16
2 1 16 2 1 16 2 1 16 2 1 16 2 1 16 2 1 16 2 1 16 2 1 16 2 1 16 2 1 16
2 1 16 2 1 16 2 1 16 2 1 16 2 1 16 1 0 10 1 0 10 1 0 10 1 0 10 1 0 10
1 0 10 1 0 10 1 0 10 1 0 10 1 0 10 1 0 10 1 0 10 1 0 10 1 0 10 1 0 10
1 0 10 1 0 10 1 0 10 1 0 10 1 0 10 1 0 10 1 0 10 1 0 10 1 0 10 1 0 10
1 0 10 1 0 10 1 0 10 1 0 10 1 0 10 1 0 10 1 0 10 1 0 10 1 0 10 1 0 10
1 0 10 1 0 10 1 0 10 1 0 10 1 0 10 1 0 10 1 0 10 1 0 10 1 0 10 1 0 10
1 0 10 1 0 10 1 0 10 1 0 10 1 0 10 1 0 10 1 0 10 1 0 10 1 0 10 1 0 10
1 0 10 1 0 10 1 0 10 1 0 10 1 0 10 1 0 10 1 0 10 1 0 10 1 0 10 1 0 10
1 0 10 1 0 10 1 0 10 1 0 10 1 0 10 1 0 10 1 0 10 1 0 10 1 0 10 1 0 10
1 0 10 1 0 10 3 3 15 3 4 18 4 4 20 4 4 21 4 4 22 4 4 22 4 5 23 4 5 23
4 5 23 4 5 23 4 5 22 4 4 22 4 4 22 4 4 21 4 4 21 4 4 20 4 4 19 3 4 18
3 3 17 3 3 16 3 3 15 3 3 14 3 3 14 3 3 14 3 3 14 3 3 14 3 3 14 1 0 10
1 0 10 1 0 10 1 0 10 1 0 10 1 0 10 1 0 10 1 0 10 1 0 10 1 0 10 1 0 10
1 0 10 1 0 10 1 0 10 1 0 10 1 0 10 1 0 10 1 0 10 1 0 10 1 0 10 1 0 10
1 0 10 1 0 10 1 0 10 1 0 10 1 0 10 1 0 10 1 0 10 1 0 10 1 0 10 1 0 10
1 0 10 1 0 10 1 0 10 1 0 10 1 0 10 1 0 10 1 0 10 1 0 10 1 0 10 1 0 10
1 0 10 1 0 10 1 0 10 1 0 10 1 0 10 1 0 10 1 0 10 1 0 10 1 0 10 1 0 10
1 0 10 1 0 10 1 0 10 1 0 10 1 0 10 1 0 10 1 0 10 1 0 10 1 0 10 1 0 10
1 0 10 1 0 10 1 0 10 1 0 10 1 0 10 1 0 10 1 0 10 1 0 10 1 0 10 1 0 10
1 0 10 1 0 10 1 0 10 1 0 10 1 0 10 1 0 10 1 0 10 1 0 10 1 0 10 1 0 10
1 0 10 1 0 10 1 0 10 1 0 10 1 0 10 1 0 10 1 0 10 1 0 10 1 0 10 1 0 10
1 0 10 1 0 10 1 0 10 1 0 10 1 0 10 1 0 10 1 0 10 1 0 10 1 0 10 1 0 10
1 0 10 1 0 10 8 15 24 8 15 26 8 16 26 9 16 27 9 16 27 9 16 28 9 16 28
9 17 28 9 17 28 9 17 28 9 17 28 9 17 28 9 16 28 9 16 28 9 16 27 9 16
27 9 16 27 9 16 27 9 16 27 8 16 27 8 16 26 8 16 26 8 15 26 8 15 26 8
15 25 8 15 25 8 15 25 8 15 24 8 14 24 8 14 24 8 14 24 7 14 23 7 14 23
7 13 23 7 13 22 7 13 22 7 13 22 7 13 21 7 12 21 7 12 21 6 12 20 6 12
20 6 12 19 6 11 19 6 11 19 6 11 18 6 11 18 6 10 18 5 10 17 5 10 17 5
10 16 5 10 16 5 9 16 5 9 15 5 9 15 7 17 109 5 10 112 5 11 114 5 11 116
5 11 117 5 11 118 5 11 119 6 11 119 6 11 120 6 11 121 6 11 122 6 11
123 6 11 123 6 11 124 7 11 125 7 11 125 7 11 126 7 10 126 7 10 127 7
10 127 7 10 127 7 10 127 7 10 127 7 10 127 7 10 127 7 10 126 7 10 126
7 10 125 7 10 124 7 10 123 7 10 122 7 10 120 7 10 119
2 1 16 2 1 16 2 1 16 2 1 16 2 1 16 2 1 16 2 1 16 2 1 16 2 1 16 2 1 16
2 1 16 2 1 16 2 1 16 2 1 16 2 1 16 2 1 16 2 1 16 2 1 16 2 1 16 2 1 16
2 1 16 2 1 16 2 1 16 2 1 16 2 1 16 2 1 16 2 1 16 2 1 16 2 1 16 2 1 16
2 1 16 2 1 16 2 1 16 2 1 16 2 1 16 2 1 16 2 1 16 2 1 16 2 1 16 2 1 16
2 1 16 2 1 16 2 1 16 2 1 16 2 1 16 2 1 16 2 1 16 2 1 16 2 1 16 2 1 16
2 1 16 2 1 16 2 1 16 2 1 16 2 1 16 2 1 16 2 1 16 2 1 16 2 1 16 2 1 16
2 1 16 2 1 16 2 1 16 2 1 16 2 1 16 2 1 16 2 1 16 2 1 16 2 1 16 2 1 16
2 1 16 2 1 16 2 1 16 2 1 16 2 1 16 2 1 16 2 1 16 2 1 16 2 1 16 2 1 16
2 1 17 2 1 17 2 1 17 2 1 17 2 1 17 2 1 17 2 1 17 2 1 17 2 1 17 2 1 17
2 1 17 2 1 17 2 1 17 2 1 17 2 1 17 2 1 17 2 1 17 2 1 17 2 1 17 2 1 17
2 1 17 2 1 17 2 1 17 2 1 17 2 1 17 1 0 10 1 0 10 1 0 10 1 0 10 1 0 10
1 0 10 1 0 10 1 0 10 1 0 10 1 0 10 1 0 10 1 0 10 1 0 10 1 0 10 1 0 10
1 0 10 1 0 10 1 0 10 1 0 10 1 0 10 1 0 10 1 0 10 1 0 10 1 0 10 1 0 10
1 0 10 1 0 10 1 0 10 1 0 10 1 0 10 1 0 10 1 0 10 1 0 10 1 0 10 1 0 10
1 0 10 1 0 10 1 0 10 1 0 10 1 0 10 1 0 10 1 0 10 1 0 10 1 0 10 1 0 10
1 0 10 1 0 10 1 0 10 1 0 10 1 0 10 1 0 10 1 0 10 1 0 10 1 0 10 1 0 10
1 0 10 1 0 10 1 0 10 1 0 10 1 0 10 1 0 10 1 0 10 1 0 10 1 0 10 1 0 10
1 0 10 1 0 10 1 0 10 1 0 10 1 0 10 1 0 10 1 0 10 1 0 10 1 0 10 1 0 10
3 3 17 4 4 20 4 4 22 4 5 23 4 5 24 5 5 25 5 5 25 5 5 26 5 5 26 5 5 26
5 5 26 5 5 26 5 5 26 5 5 25 5 5 25 4 5 24 4 5 24 4 5 23 4 4 22 4 4 21
4 4 20 4 4 19 3 4 18 3 3 17 3 3 15 3 3 14 3 3 14 3 3 14 3 3 14 3 3 14
3 3 14 1 0 10 1 0 10 1 0 10 1 0 10 1 0 10 1 0 10 1 0 10 1 0 10 1 0 10
1 0 10 1 0 10 1 0 10 1 0 10 1 0 10 1 0 10 1 0 10 1 0 10 1 0 10 1 0 10
1 0 10 1 0 10 1 0 10 1 0 10 1 0 10 1 0 10 1 0 10 1 0 10 1 0 10 1 0 10
1 0 10 1 0 10 1 0 10 1 0 10 1 0 10 1 0 10 1 0 10 1 0 10 1 0 10 1 0 10
1 0 10 1 0 10 1 0 10 1 0 10 1 0 10 1 0 10 1 0 10 1 0 10 1 0 10 1 0 10
1 0 10 1 0 10 1 0 10 1 0 10 1 0 10 1 0 10 1 0 10 1 0 10 1 0 10 1 0 10
1 0 10 1 0 10 1 0 10 1 0 10 1 0 10 1 0 10 1 0 10 1 0 10 1 0 10 1 0 10
1 0 10 1 0 10 1 0 10 1 0 10 1 0 10 1 0 10 1 0 10 1 0 10 1 0 10 1 0 10
1 0 10 1 0 10 1 0 10 1 0 10 1 0 10 1 0 10 1 0 10 1 0 10 1 0 10 1 0 10
1 0 10 1 0 10 1 0 10 1 0 10 1 0 10 1 0 10 1 0 10 1 0 10 1 0 10 1 0 10
1 0 10 1 0 10 7 14 23 8 15 25 8 15 26 8 16 27 9 16 27 9 16 27 9 16 27
9 16 28 9 16 28 9 16 28 9 16 28 9 16 28 9 16 28 9 16 27 9 16 27 9 16
27 9 16 27 9 16 27 9 16 27 8 16 26 8 16 26 8 15 26 8 15 26 8 15 26 8
15 25 8 15 25 8 15 25 8 15 24 8 14 24 8 14 24 8 14 24 7 14 23 7 14 23
7 13 23 7 13 22 7 13 22 7 13 22 7 13 21 7 12 21 7 12 21 6 12 20 6 12
20 6 12 19 6 11 19 6 11 19 6 11 18 6 11 18 6 10 18 5 10 17 5 10 17 5
10 16 5 9 16 5 9 16 5 9 15 5 9 15 5 9 14 7 17 110 5 10 113 5 11 115 5
11 116 5 11 117 5 11 118 6 11 119 6 11 120 6 11 120 6 11 121 6 11 122
6 11 122 6 11 123 6 11 124 7 10 124 7 10 125 7 10 125 7 10 126 7 10
126 7 10 126 7 10 126 7 10 126 7 10 126 7 10 125 7 10 125 7 10 124 7
10 123 7 10 122 7 10 121 7 10 120 7 10 119 7 10 118
2 1 16 2 1 16 2 1 16 2 1 16 2 1 16 2 1 16 2 1 16 2 1 16 2 1 16 2 1 16
2 1 16 2 1 16 2 1 16 2 1 16 2 1 16 2 1 16 2 1 16 2 1 16 2 1 16 2 1 16
2 1 16 2 1 16 2 1 16 2 1 16 2 1 16 2 1 16 2 1 16 2 1 16 2 1 16 2 1 16
2 1 16 2 1 16 2 1 16 2 1 16 2 1 16 2 1 16 2 1 16 2 1 16 2 1 16 2 1 16
2 1 16 2 1 16 2 1 16 2 1 16 2 1 16 2 1 16 2 1 16 2 1 16 2 1 16 2 1 16
2 1 16 2 1 16 2 1 16 2 1 16 2 1 16 2 1 16 2 1 16 2 1 16 2 1 16 2 1 17
2 1 17 2 1 17 2 1 17 2 1 17 2 1 17 2 1 17 2 1 17 2 1 17 2 1 17 2 1 17
2 1 17 2 1 17 2 1 17 2 1 17 2 1 17 2 1 17 2 1 17 2 1 17 2 1 17 2 1 17
2 1 17 2 1 17 2 1 17 2 1 17 2 1 17 2 1 17 2 1 17 2 1 17 2 1 17 2 1 17
2 1 17 2 1 17 2 1 17 2 1 17 2 1 17 2 1 17 2 1 17 2 1 17 2 1 17 2 1 17
2 1 17 2 1 17 2 1 17 2 1 17 2 1 17 1 0 10 1 0 10 1 0 10 1 0 10 1 0 10
1 0 10 1 0 10 1 0 10 1 0 10 1 0 10 1 0 10 1 0 10 1 0 10 1 0 10 1 0 10
1 0 10 1 0 10 1 0 10 1 0 10 1 0 10 1 0 10 1 0 10 1 0 10 1 0 10 1 0 10
1 0 10 1 0 10 1 0 10 1 0 10 1 0 10 1 0 10 1 0 10 1 0 10 1 0 10 1 0 10
1 0 10 1 0 10 1 0 10 1 0 10 1 0 10 1 0 10 1 0 10 1 0 10 1 0 10 1 0 10
1 0 10 1 0 10 1 0 10 1 0 10 1 0 10 1 0 10 1 0 10 1 0 10 1 0 10 1 0 10
1 0 10 1 0 10 1 0 10 1 0 10 1 0 10 1 0 10 1 0 10 1 0 10 1 0 10 1 0 10
1 0 10 1 0 10 1 0 10 1 0 10 1 0 10 1 0 10 1 0 10 1 0 10 3 3 17 4 4 21
4 5 23 5 5 25 5 5 26 6 7 33 6 7 33 6 7 34 6 7 34 6 7 34 5 6 29 5 6 29
5 6 29 5 6 28 5 6 28 5 6 28 5 6 27 5 5 27 5 5 26 5 5 26 5 5 25 4 5 24
4 5 23 4 4 22 4 4 21 4 4 20 3 4 18 3 3 17 3 3 15 3 3 14 3 3 14 3 3 14
3 3 14 3 3 14 3 3 17 1 0 10 1 0 10 1 0 10 1 0 10 1 0 10 1 0 10 1 0 10
1 0 10 1 0 10 1 0 10 1 0 10 1 0 10 1 0 10 1 0 10 1 0 10 1 0 10 1 0 10
1 0 10 1 0 10 1 0 10 1 0 10 1 0 10 1 0 10 1 0 10 1 0 10 1 0 10 1 0 10
1 0 10 1 0 10 1 0 10 1 0 10 1 0 10 1 0 10 1 0 10 1 0 10 1 0 10 1 0 10
1 0 10 1 0 10 1 0 10 1 0 10 1 0 10 1 0 10 1 0 10 1 0 10 1 0 10 1 0 10
1 0 10 1 0 10 1 0 10 1 0 10 1 0 10 1 0 10 1 0 10 1 0 10 1 0 10 1 0 10
1 0 10 1 0 10 1 0 10 1 0 10 1 0 10 1 0 10 1 0 10 1 0 10 1 0 10 1 0 10
1 0 10 1 0 10 1 0 10 1 0 10 1 0 10 1 0 10 1 0 10 1 0 10 1 0 10 1 0 10
1 0 10 1 0 10 1 0 10 1 0 10 1 0 10 1 0 10 1 0 10 1 0 10 1 0 10 1 0 10
1 0 10 1 0 10 1 0 10 1 0 10 1 0 10 1 0 10 1 0 10 1 0 10 1 0 10 1 0 10
1 0 10 1 0 10 1 0 10 8 14 24 8 15 26 8 16 26 9 16 27 9 16 27 9 16 27 9
16 27 9 16 27 9 16 28 9 16 28 9 16 27 9 16 27 9 16 27 9 16 27 9 16 27
9 16 27 9 16 27 8 16 27 8 16 26 8 16 26 8 15 26 8 15 26 8 15 25 8 15
25 8 15 25 8 15 25 8 14 24 8 14 24 8 14 24 7 14 23 7 14 23 7 14 23 7
13 22 7 13 22 7 13 22 7 13 21 7 13 21 7 12 21 7 12 20 6 12 20 6 12 20
6 11 19 6 11 19 6 11 19 6 11 18 6 11 18 6 10 17 5 10 17 5 10 17 5 10
16 5 9 16 5 9 15 5 9 15 5 9 15 5 8 14 6 16 108 5 10 112 5 10 114 5 10
115 5 11 116 5 11 117 5 11 118 6 11 119 6 11 120 6 11 120 6 11 121 6
11 122 6 11 122 6 10 123 6 10 123 7 10 124 7 10 124 7 10 124 7 10 124
7 10 125 7 10 124 7 10 124 7 10 124 7 10 124 7 10 123 7 10 122 7 10
122 7 10 121 7 10 120 7 10 119 7 10 118 7 9 117
2 1 16 2 1 16 2 1 16 2 1 16 2 1 16 2 1 16 2 1 16 2 1 16 2 1 16 2 1 16
2 1 16 2 1 16 2 1 16 2 1 16 2 1 16 2 1 16 2 1 16 2 1 16 2 1 16 2 1 16
2 1 16 2 1 16 2 1 16 2 1 16 2 1 16 2 1 16 2 1 16 2 1 16 2 1 16 2 1 16
2 1 16 2 1 16 2 1 16 2 1 16 2 1 16 2 1 16 2 1 16 2 1 16 2 1 16 2 1 16
2 1 16 2 1 17 2 1 17 2 1 17 2 1 17 2 1 17 2 1 17 2 1 17 2 1 17 2 1 17
2 1 17 2 1 17 2 1 17 2 1 17 2 1 17 2 1 17 2 1 17 2 1 17 2 1 17 2 1 17
2 1 17 2 1 17 2 1 17 2 1 17 2 1 17 2 1 17 2 1 17 2 1 17 2 1 17 2 1 17
2 1 17 2 1 17 2 1 17 2 1 17 2 1 17 2 1 17 2 1 17 2 1 17 2 1 17 2 1 17
2 1 17 2 1 17 2 1 17 2 1 17 2 1 17 2 1 17 2 1 17 2 1 17 2 1 17 2 1 17
2 1 17 2 1 17 2 1 17 2 1 17 2 1 17 2 1 17 2 1 17 2 1 17 2 1 17 2 1 17
2 1 17 2 1 17 2 1 17 2 1 17 2 1 17 1 0 10 1 0 10 1 0 10 1 0 10 1 0 10
1 0 10 1 0 10 1 0 10 1 0 10 1 0 10 1 0 10 1 0 10 1 0 10 1 0 10 1 0 10
1 0 10 1 0 10 1 0 10 1 0 10 1 0 10 1 0 10 1 0 10 1 0 10 1 0 10 1 0 10
1 0 10 1 0 10 1 0 10 1 0 10 1 0 10 1 0 10 1 0 10 1 0 10 1 0 10 1 0 10
1 0 10 1 0 10 1 0 10 1 0 10 1 0 10 1 0 10 1 0 10 1 0 10 1 0 10 1 0 10
1 0 10 1 0 10 1 0 10 1 0 10 1 0 10 1 0 10 1 0 10 1 0 10 1 0 10 1 0 10
1 0 10 1 0 10 1 0 10 1 0 10 1 0 10 1 0 10 1 0 10 1 0 10 1 0 10 1 0 10
1 0 10 1 0 10 1 0 10 1 0 10 1 0 10 1 0 10 1 0 10 4 4 21 4 5 24 5 5 26
6 7 33 6 7 34 7 7 37 7 8 38 7 8 39 7 8 39 7 8 39 7 8 38 6 6 31 6 6 31
6 6 31 6 6 31 6 6 31 6 6 30 5 6 30 5 6 29 5 6 29 5 6 28 5 5 27 5 5 26
5 5 25 4 5 24 4 5 23 4 4 22 4 4 21 4 4 20 3 4 18 3 3 17 3 3 15 3 3 14
3 3 14 3 3 14 3 3 14 3 3 14 1 0 10 1 0 10 1 0 10 1 0 10 1 0 10 1 0 10
1 0 10 1 0 10 1 0 10 1 0 10 1 0 10 1 0 10 1 0 10 1 0 10 1 0 10 1 0 10
1 0 10 1 0 10 1 0 10 1 0 10 1 0 10 1 0 10 1 0 10 1 0 10 1 0 10 1 0 10
1 0 10 1 0 10 1 0 10 1 0 10 1 0 10 1 0 10 1 0 10 1 0 10 1 0 10 1 0 10
1 0 10 1 0 10 1 0 10 1 0 10 1 0 10 1 0 10 1 0 10 1 0 10 1 0 10 1 0 10
1 0 10 1 0 10 1 0 10 1 0 10 1 0 10 1 0 10 1 0 10 1 0 10 1 0 10 1 0 10
1 0 10 1 0 10 1 0 10 1 0 10 1 0 10 1 0 10 1 0 10 1 0 10 1 0 10 1 0 10
1 0 10 1 0 10 1 0 10 1 0 10 1 0 10 1 0 10 1 0 10 1 0 10 1 0 10 1 0 10
1 0 10 1 0 10 1 0 10 1 0 10 1 0 10 1 0 10 1 0 10 1 0 10 1 0 10 1 0 10
1 0 10 1 0 10 1 0 10 1 0 10 1 0 10 1 0 10 1 0 10 1 0 10 1 0 10 1 0 10
1 0 10 1 0 10 1 0 10 7 14 23 8 15 25 8 15 26 8 16 26 9 16 27 9 16 27 9
16 27 9 16 27 9 16 27 9 16 27 9 16 27 9 16 27 9 16 27 9 16 27 9 16 27
9 16 27 9 16 27 8 16 26 8 16 26 8 15 26 8 15 26 8 15 26 8 15 25 8 15
25 8 15 25 8 15 25 8 14 24 8 14 24 8 14 24 7 14 23 7 14 23 7 14 23 7
13 22 7 13 22 7 13 22 7 13 21 7 13 21 7 12 21 6 12 20 6 12 20 6 12 20
6 11 19 6 11 19 6 11 19 6 11 18 6 11 18 6 10 17 5 10 17 5 10 17 5 10
16 5 9 16 5 9 15 5 9 15 5 9 15 5 8 14 4 8 14 7 17 108 5 10 112 5 10
114 5 10 115 5 11 117 5 11 117 6 11 118 6 11 119 6 11 120 6 10 120 6
10 121 6 10 121 6 10 122 6 10 122 6 10 123 4 12 114 4 12 113 4 11 112
4 11 111 4 11 110 4 11 110 4 11 109 4 11 109 4 11 109 4 11 108 4 11
108 4 11 108 7 10 119 7 10 118 7 10 117 7 9 116
2 1 16 2 1 16 2 1 16 2 1 16 2 1 16 2 1 16 2 1 16 2 1 16 2 1 16 2 1 16
2 1 16 2 1 16 2 1 16 2 1 16 2 1 16 2 1 16 2 1 16 2 1 16 2 1 16 2 1 16
2 1 16 2 1 16 2 1 16 2 1 16 2 1 17 2 1 17 2 1 17 2 1 17 2 1 17 2 1 17
2 1 17 2 1 17 2 1 17 2 1 17 2 1 17 2 1 17 2 1 17 2 1 17 2 1 17 2 1 17
2 1 17 2 1 17 2 1 17 2 1 17 2 1 17 2 1 17 2 1 17 2 1 17 2 1 17 2 1 17
2 1 17 2 1 17 2 1 17 2 1 17 2 1 17 2 1 17 2 1 17 2 1 17 2 1 17 2 1 17
2 1 17 2 1 17 2 1 17 2 1 17 2 1 17 2 1 17 2 1 17 2 1 17 2 1 17 2 1 17
2 1 17 2 1 17 2 1 17 2 1 17 2 1 17 2 1 17 2 1 17 2 1 17 2 1 17 2 1 17
2 1 17 2 1 17 2 1 17 2 1 17 2 1 17 2 1 17 2 1 17 2 1 17 2 1 17 2 1 17
2 1 17 2 1 17 2 1 17 2 1 17 2 1 17 2 1 17 2 1 17 2 1 17 2 1 17 2 1 17
2 1 17 2 1 17 2 1 17 2 1 17 2 1 17 1 0 10 1 0 10 1 0 10 1 0 10 1 0 10
1 0 10 1 0 10 1 0 10 1 0 10 1 0 10 1 0 10 1 0 10 1 0 10 1 0 10 1 0 10
1 0 10 1 0 10 1 0 10 1 0 10 1 0 10 1 0 10 1 0 10 1 0 10 1 0 10 1 0 10
1 0 10 1 0 10 1 0 10 1 0 10 1 0 10 1 0 10 1 0 10 1 0 10 1 0 10 1 0 10
1 0 10 1 0 10 1 0 10 1 0 10 1 0 10 1 0 10 1 0 10 1 0 10 1 0 10 1 0 10
1 0 10 1 0 10 1 0 10 1 0 10 1 0 10 1 0 10 1 0 10 1 0 10 1 0 10 1 0 10
1 0 10 1 0 10 1 0 10 1 0 10 1 0 10 1 0 10 1 0 10 1 0 10 1 0 10 1 0 10
1 0 10 1 0 10 1 0 10 1 0 10 1 0 10 3 3 17 3 3 14 5 5 26 5 6 28 7 7 36
7 8 39 8 8 41 8 9 42 8 9 43 8 9 44 8 9 44 8 9 43 8 8 41 6 7 34 6 7 34
6 7 33 6 7 33 6 7 33 6 7 32 6 6 32 6 6 31 6 6 31 6 6 30 5 6 29 5 6 28
5 6 27 5 5 27 5 5 26 4 5 24 4 5 23 4 4 22 4 4 21 4 4 19 3 4 18 3 3 16
3 3 14 3 3 14 3 3 14 3 3 14 3 3 14 3 3 17 1 0 10 1 0 10 1 0 10 1 0 10
1 0 10 1 0 10 1 0 10 1 0 10 1 0 10 1 0 10 1 0 10 1 0 10 1 0 10 1 0 10
1 0 10 1 0 10 1 0 10 1 0 10 1 0 10 1 0 10 1 0 10 1 0 10 1 0 10 1 0 10
1 0 10 1 0 10 1 0 10 1 0 10 1 0 10 1 0 10 1 0 10 1 0 10 1 0 10 1 0 10
1 0 10 1 0 10 1 0 10 1 0 10 1 0 10 1 0 10 1 0 10 1 0 10 1 0 10 1 0 10
1 0 10 1 0 10 1 0 10 1 0 10 1 0 10 1 0 10 1 0 10 1 0 10 1 0 10 1 0 10
1 0 10 1 0 10 1 0 10 1 0 10 1 0 10 1 0 10 1 0 10 1 0 10 1 0 10 1 0 10
1 0 10 1 0 10 1 0 10 1 0 10 1 0 10 1 0 10 1 0 10 1 0 10 1 0 10 1 0 10
1 0 10 1 0 10 1 0 10 1 0 10 1 0 10 1 0 10 1 0 10 1 0 10 1 0 10 1 0 10
1 0 10 1 0 10 1 0 10 1 0 10 1 0 10 1 0 10 1 0 10 1 0 10 1 0 10 1 0 10
1 0 10 1 0 10 1 0 10 1 0 10 8 14 24 8 15 25 8 15 26 8 16 26 9 16 27 9
16 27 9 16 27 9 16 27 9 16 27 9 16 27 9 16 27 9 16 27 9 16 27 9 16 27
9 16 27 8 16 26 8 16 26 8 16 26 8 15 26 8 15 26 8 15 25 8 15 25 8 15
25 8 15 25 8 15 24 8 14 24 8 14 24 8 14 24 7 14 23 7 14 23 7 13 23 7
13 22 7 13 22 7 13 22 7 13 21 7 12 21 7 12 21 6 12 20 6 12 20 6 12 20
6 11 19 6 11 19 6 11 18 6 11 18 6 10 18 6 10 17 5 10 17 5 10 16 5 10
16 5 9 16 5 9 15 5 9 15 5 9 14 4 8 14 4 8 14 6 16 105 5 10 111 5 10
113 5 10 114 5 10 116 5 10 117 5 10 117 6 10 118 6 10 119 6 10 119 6
10 120 6 10 121 4 12 112 4 11 111 4 11 110 4 11 109 4 11 109 4 11 108
4 11 107 4 11 107 4 11 106 4 11 107 4 11 108 4 11 108 4 11 106 4 11
104 3 11 103 3 10 102 3 10 102 3 10 101 3 10 101
2 1 16 2 1 16 2 1 16 2 1 16 2 1 16 2 1 16 2 1 16 2 1 16 2 1 16 2 1 17
2 1 17 2 1 17 2 1 17 2 1 17 2 1 17 2 1 17 2 1 17 2 1 17 2 1 17 2 1 17
2 1 17 2 1 17 2 1 17 2 1 17 2 1 17 2 1 17 2 1 17 2 1 17 2 1 17 2 1 17
2 1 17 2 1 17 2 1 17 2 1 17 2 1 17 2 1 17 2 1 17 2 1 17 2 1 17 2 1 17
2 1 17 2 1 17 2 1 17 2 1 17 2 1 17 2 1 17 2 1 17 2 1 17 2 1 17 2 1 17
2 1 17 2 1 17 2 1 17 2 1 17 2 1 17 2 1 17 2 1 17 2 1 17 2 1 17 2 1 17
2 1 17 2 1 17 2 1 17 2 1 17 2 1 17 2 1 17 2 1 17 2 1 17 2 1 17 2 1 17
2 1 17 2 1 17 2 1 17 2 1 17 2 1 17 2 1 17 2 1 17 2 1 17 2 1 17 2 1 17
2 1 17 2 1 17 2 1 17 2 1 17 2 1 17 2 1 17 2 1 17 2 1 17 2 1 17 2 1 17
2 1 17 2 1 17 2 1 17 2 1 17 2 1 17 2 1 17 2 1 17 2 1 17 2 1 17 2 1 17
2 1 17 2 1 17 2 1 17 2 1 17 2 1 17 2 1 17 1 0 10 1 0 10 1 0 10 1 0 10
1 0 10 1 0 10 1 0 10 1 0 10 1 0 10 1 0 10 1 0 10 1 0 10 1 0 10 1 0 10
1 0 10 1 0 10 1 0 10 1 0 10 1 0 10 1 0 10 1 0 10 1 0 10 1 0 10 1 0 10
1 0 10 1 0 10 1 0 10 1 0 10 1 0 10 1 0 10 1 0 10 1 0 10 1 0 10 1 0 10
1 0 10 1 0 10 1 0 10 1 0 10 1 0 10 1 0 10 1 0 10 1 0 10 1 0 10 1 0 10
1 0 10 1 0 10 1 0 10 1 0 10 1 0 10 1 0 10 1 0 10 1 0 10 1 0 10 1 0 10
1 0 10 1 0 10 1 0 10 1 0 10 1 0 10 1 0 10 1 0 10 1 0 10 1 0 10 1 0 10
1 0 10 1 0 10 1 0 10 1 0 10 3 3 14 3 3 14 3 3 14 4 4 20 7 8 40 8 9 43
8 9 45 9 9 46 9 10 47 9 10 47 9 10 48 9 10 47 9 9 46 7 7 36 7 7 36 7 7
36 7 7 35 6 7 35 6 7 35 6 7 34 6 7 34 6 7 33 6 7 33 6 6 32 6 6 31 6 6
30 5 6 29 5 6 29 5 6 27 5 5 26 5 5 25 4 5 24 4 5 23 4 4 21 4 4 20 3 4
18 3 3 16 3 3 15 3 3 14 3 3 14 3 3 14 3 3 14 3 3 14 1 0 10 1 0 10 1 0
10 1 0 10 1 0 10 1 0 10 1 0 10 1 0 10 1 0 10 1 0 10 1 0 10 1 0 10 1 0
10 1 0 10 1 0 10 1 0 10 1 0 10 1 0 10 1 0 10 1 0 10 1 0 10 1 0 10 1 0
10 1 0 10 1 0 10 1 0 10 1 0 10 1 0 10 1 0 10 1 0 10 1 0 10 1 0 10 1 0
10 1 0 10 1 0 10 1 0 10 1 0 10 1 0 10 1 0 10 1 0 10 1 0 10 1 0 10 1 0
10 1 0 10 1 0 10 1 0 10 1 0 10 1 0 10 1 0 10 1 0 10 1 0 10 1 0 10 1 0
10 1 0 10 1 0 10 1 0 10 1 0 10 1 0 10 1 0 10 1 0 10 1 0 10 1 0 10 1 0
10 1 0 10 1 0 10 1 0 10 1 0 10 1 0 10 1 0 10 1 0 10 1 0 10 1 0 10 1 0
10 1 0 10 1 0 10 1 0 10 1 0 10 1 0 10 1 0 10 1 0 10 1 0 10 1 0 10 1 0
10 1 0 10 1 0 10 1 0 10 1 0 10 1 0 10 1 0 10 1 0 10 1 0 10 1 0 10 1 0
10 1 0 10 1 0 10 1 0 10 1 0 10 7 13 22 8 14 24 8 15 25 8 15 26 8 16 26
8 16 27 9 16 27 9 16 27 9 16 27 9 16 27 9 16 27 9 16 27 9 16 27 9 16
27 8 16 26 8 16 26 8 16 26 8 15 26 8 15 26 8 15 26 8 15 25 8 15 25 8
15 25 8 15 25 8 14 24 8 14 24 8 14 24 7 14 23 7 14 23 7 14 23 7 13 23
7 13 22 7 13 22 7 13 22 7 13 21 7 12 21 7 12 20 6 12 20 6 12 20 6 12
19 6 11 19 6 11 19 6 11 18 6 11 18 6 10 18 5 10 17 5 10 17 5 10 16 5 9
16 5 9 16 5 9 15 5 9 15 5 9 14 4 8 14 4 8 13 4 8 13 6 16 106 5 10 111
5 10 113 5 10 115 5 10 116 5 10 117 6 10 117 6 10 118 6 10 119 6 10
119 4 11 109 4 11 108 4 11 108 4 11 107 4 11 107 4 11 106 3 11 105 3
11 105 3 11 104 3 11 104 3 11 103 3 11 103 3 11 103 3 10 102 3 10 101
3 10 100 3 10 99 3 10 98 3 10 98 3 10 97
2 1 17 2 1 17 2 1 17 2 1 17 2 1 17 2 1 17 2 1 17 2 1 17 2 1 17 2 1 17
2 1 17 2 1 17 2 1 17 2 1 17 2 1 17 2 1 17 2 1 17 2 1 17 2 1 17 2 1 17
2 1 17 2 1 17 2 1 17 2 1 17 2 1 17 2 1 17 2 1 17 2 1 17 2 1 17 2 1 17
2 1 17 2 1 17 2 1 17 2 1 17 2 1 17 2 1 17 2 1 17 2 1 17 2 1 17 2 1 17
2 1 17 2 1 17 2 1 17 2 1 17 2 1 17 2 1 17 2 1 17 2 1 17 2 1 17 2 1 17
2 1 17 2 1 17 2 1 17 2 1 17 2 1 17 2 1 17 2 1 17 2 1 17 2 1 17 2 1 17
2 1 17 2 1 17 2 1 17 2 1 17 2 1 17 2 1 17 2 1 17 2 1 17 2 1 17 2 1 17
2 1 17 2 1 17 2 1 17 2 1 17 2 1 17 2 1 17 2 1 17 2 1 17 2 1 17 2 1 17
2 1 17 2 1 17 2 1 17 2 1 17 2 1 17 2 1 17 2 1 17 2 1 17 2 1 18 2 1 18
2 1 18 2 1 18 2 1 18 2 1 18 2 1 18 2 1 18 2 1 18 2 1 18 2 1 18 2 1 18
2 1 18 2 1 18 2 1 18 2 1 18 2 1 18 2 1 18 1 0 10 0 0 42 0 0 42 0 0 42
0 0 42 0 0 42 0 0 42 0 0 42 0 0 42 0 0 42 0 0 42 0 0 42 0 0 42 1 0 10
1 0 10 1 0 10 1 0 10 1 0 10 1 0 10 1 0 10 1 0 10 1 0 10 1 0 10 1 0 10
1 0 10 1 0 10 1 0 10 1 0 10 1 0 10 1 0 10 1 0 10 1 0 10 1 0 10 1 0 10
1 0 10 1 0 10 1 0 10 1 0 10 1 0 10 1 0 10 1 0 10 1 0 10 1 0 10 1 0 10
1 0 10 1 0 10 1 0 10 1 0 10 1 0 10 1 0 10 1 0 10 1 0 10 1 0 10 1 0 10
1 0 10 1 0 10 1 0 10 1 0 10 1 0 10 1 0 10 1 0 10 1 0 10 1 0 10 1 0 10
1 0 10 1 0 10 1 0 10 3 3 14 3 3 14 4 2 53 4 3 47 4 3 47 5 5 26 5 5 27
9 10 49 9 10 50 10 10 51 10 10 51 10 10 51 9 10 50 7 8 38 7 8 38 7 8
38 7 8 38 7 8 37 7 7 37 7 7 37 7 7 36 7 7 36 6 7 35 6 7 34 6 7 34 6 7
33 6 6 32 6 6 31 6 6 30 5 6 29 5 6 28 5 5 27 5 5 26 5 5 25 4 5 23 4 4
22 4 4 20 3 4 19 3 3 17 3 3 15 3 3 14 3 3 14 3 3 14 3 3 14 3 3 14 1 0
10 1 0 10 1 0 10 1 0 10 1 0 10 1 0 10 1 0 10 1 0 10 1 0 10 1 0 10 1 0
10 1 0 10 1 0 10 1 0 10 1 0 10 1 0 10 1 0 10 1 0 10 1 0 10 1 0 10 1 0
10 1 0 10 1 0 10 1 0 10 1 0 10 1 0 10 1 0 10 1 0 10 1 0 10 1 0 10 1 0
10 1 0 10 1 0 10 1 0 10 1 0 10 1 0 10 1 0 10 1 0 10 1 0 10 1 0 10 1 0
10 1 0 10 1 0 10 1 0 10 1 0 10 1 0 10 1 0 10 1 0 10 1 0 10 1 0 10 1 0
10 1 0 10 1 0 10 1 0 10 1 0 10 1 0 10 1 0 10 1 0 10 1 0 10 1 0 10 1 0
10 1 0 10 1 0 10 1 0 10 1 0 10 1 0 10 1 0 10 1 0 10 1 0 10 1 0 10 1 0
10 1 0 10 1 0 10 1 0 10 1 0 10 1 0 10 1 0 10 1 0 10 1 0 10 1 0 10 1 0
10 1 0 10 1 0 10 1 0 10 1 0 10 1 0 10 1 0 10 1 0 10 1 0 10 1 0 10 1 0
10 1 0 10 1 0 10 1 0 10 1 0 10 1 0 10 1 0 10 7 14 23 8 15 25 8 15 25 8
15 26 8 16 26 8 16 26 8 16 27 8 16 27 9 16 27 9 16 27 8 16 27 8 16 27
8 16 26 8 16 26 8 16 26 8 15 26 8 15 26 8 15 26 8 15 25 8 15 25 8 15
25 8 15 25 8 15 24 8 14 24 8 14 24 8 14 24 7 14 23 7 14 23 7 13 23 7
13 22 7 13 22 7 13 22 7 13 21 7 13 21 7 12 21 7 12 20 6 12 20 6 12 20
6 11 19 6 11 19 6 11 19 6 11 18 6 11 18 6 10 17 5 10 17 5 10 17 5 10
16 5 9 16 5 9 15 5 9 15 5 9 15 5 8 14 4 8 14 4 8 13 4 8 13 4 7 12 5 10
109 5 10 112 5 10 113 5 10 115 5 10 116 5 10 116 6 10 117 6 10 118 4
11 108 3 11 107 3 11 106 3 11 106 3 11 105 3 11 104 3 11 104 3 11 103
3 10 103 3 10 102 3 10 102 3 10 101 3 10 100 3 10 100 3 10 99 3 10 98
3 10 98 3 10 97 3 10 96 3 10 95 3 10 95
2 1 17 2 1 17 2 1 17 2 1 17 2 1 17 2 1 17 2 1 17 2 1 17 2 1 17 2 1 17
2 1 17 2 1 17 2 1 17 2 1 17 2 1 17 2 1 17 2 1 17 2 1 17 2 1 17 2 1 17
2 1 17 2 1 17 2 1 17 2 1 17 2 1 17 2 1 17 2 1 17 2 1 17 2 1 17 2 1 17
2 1 17 2 1 17 2 1 17 2 1 17 2 1 17 2 1 17 2 1 17 2 1 17 2 1 17 2 1 17
2 1 17 2 1 17 2 1 17 2 1 17 2 1 17 2 1 17 2 1 17 2 1 17 2 1 17 2 1 17
2 1 17 2 1 17 2 1 17 2 1 17 2 1 17 2 1 17 2 1 17 2 1 17 2 1 17 2 1 17
2 1 17 2 1 17 2 1 17 2 1 17 2 1 17 2 1 17 2 1 17 2 1 17 2 1 18 2 1 18
2 1 18 2 1 18 2 1 18 2 1 18 2 1 18 2 1 18 2 1 18 2 1 18 2 1 18 2 1 18
2 1 18 2 1 18 2 1 18 2 1 18 2 1 18 2 1 18 2 1 18 2 1 18 2 1 18 2 1 18
2 1 18 2 1 18 2 1 18 2 1 18 2 1 18 2 1 18 2 1 18 2 1 18 2 1 18 2 1 18
2 1 18 2 1 18 2 1 18 2 1 18 0 0 42 0 0 42 0 0 45 0 0 48 0 0 50 0 0 52
0 0 53 0 0 53 0 0 53 0 0 53 0 0 51 0 0 50 0 0 48 0 0 45 0 0 42 0 0 42
0 0 42 0 0 42 1 0 10 1 0 10 1 0 10 1 0 10 1 0 10 1 0 10 1 0 10 1 0 10
1 0 10 1 0 10 1 0 10 1 0 10 1 0 10 1 0 10 1 0 10 1 0 10 1 0 10 1 0 10
1 0 10 1 0 10 1 0 10 1 0 10 1 0 10 1 0 10 1 0 10 1 0 10 1 0 10 1 0 10
1 0 10 1 0 10 1 0 10 1 0 10 1 0 10 1 0 10 1 0 10 1 0 10 1 0 10 1 0 10
1 0 10 1 0 10 1 0 10 1 0 10 1 0 10 1 0 10 1 0 10 1 0 10 1 0 10 3 2 52
3 2 53 3 2 55 4 2 58 4 3 50 4 3 50 4 3 51 4 3 50 4 3 49 4 3 48 4 3 48
4 3 49 10 11 54 10 11 54 10 11 54 10 11 53 7 8 40 7 8 40 7 8 40 7 8 40
7 8 39 7 8 39 7 8 39 7 8 38 7 8 38 7 8 37 7 7 37 7 7 36 7 7 35 6 7 35
6 7 34 6 7 33 6 6 32 6 6 31 6 6 30 5 6 29 5 6 28 5 5 26 5 5 25 4 5 24
4 4 22 4 4 21 3 4 19 3 3 17 3 3 15 3 3 14 3 3 14 3 3 14 3 3 14 3 3 14
1 0 10 1 0 10 1 0 10 1 0 10 1 0 10 1 0 10 1 0 10 1 0 10 1 0 10 1 0 10
1 0 10 1 0 10 1 0 10 1 0 10 1 0 10 1 0 10 1 0 10 1 0 10 1 0 10 1 0 10
1 0 10 1 0 10 1 0 10 1 0 10 1 0 10 1 0 10 1 0 10 1 0 10 1 0 10 1 0 10
1 0 10 1 0 10 1 0 10 1 0 10 1 0 10 1 0 10 1 0 10 1 0 10 1 0 10 1 0 10
1 0 10 1 0 10 1 0 10 1 0 10 1 0 10 1 0 10 1 0 10 1 0 10 1 0 10 1 0 10
1 0 10 1 0 10 1 0 10 1 0 10 1 0 10 1 0 10 1 0 10 1 0 10 1 0 10 1 0 10
1 0 10 1 0 10 1 0 10 1 0 10 1 0 10 1 0 10 1 0 10 1 0 10 1 0 10 1 0 10
1 0 10 1 0 10 1 0 10 1 0 10 1 0 10 1 0 10 1 0 10 1 0 10 1 0 10 1 0 10
1 0 10 1 0 10 1 0 10 1 0 10 1 0 10 1 0 10 1 0 10 1 0 10 1 0 10 1 0 10
1 0 10 1 0 10 1 0 10 1 0 10 1 0 10 1 0 10 1 0 10 8 14 24 8 15 25 8 15
25 8 15 26 8 15 26 8 16 26 8 16 26 8 16 26 8 16 26 8 16 26 8 16 26 8
16 26 8 16 26 8 15 26 8 15 26 8 15 26 8 15 25 8 15 25 8 15 25 8 15 25
8 15 25 8 14 24 8 14 24 8 14 24 7 14 23 7 14 23 7 14 23 7 13 23 7 13
22 7 13 22 7 13 22 7 13 21 7 12 21 7 12 21 6 12 20 6 12 20 6 12 20 6
11 19 6 11 19 6 11 18 6 11 18 6 10 18 6 10 17 5 10 17 5 10 16 5 10 16
5 9 16 5 9 15 5 9 15 5 9 14 4 8 14 4 8 14 4 8 13 4 8 13 4 7 12 6 15
103 5 10 110 5 10 112 5 10 113 5 10 115 5 10 115 5 10 116 6 10 117 3
11 105 3 11 105 3 11 104 3 11 104 3 11 103 3 10 103 3 10 102 3 10 102
3 10 101 3 10 100 3 10 100 3 10 99 3 10 98 3 10 98 3 10 97 3 10 96 3
10 96 3 10 95 3 10 94 3 10 93 3 9 93
2 1 17 2 1 17 2 1 17 2 1 17 2 1 17 2 1 17 2 1 17 2 1 17 2 1 17 2 1 17
2 1 17 2 1 17 2 1 17 2 1 17 2 1 17 2 1 17 2 1 17 2 1 17 2 1 17 2 1 17
2 1 17 2 1 17 2 1 17 2 1 17 2 1 17 2 1 17 2 1 17 2 1 17 2 1 17 2 1 17
2 1 17 2 1 17 2 1 17 2 1 17 2 1 17 2 1 17 2 1 17 2 1 17 2 1 17 2 1 17
2 1 17 2 1 17 2 1 17 2 1 17 2 1 17 2 1 17 2 1 17 2 1 17 2 1 17 2 1 17
2 1 18 2 1 18 2 1 18 2 1 18 2 1 18 2 1 18 2 1 18 2 1 18 2 1 18 2 1 18
2 1 18 2 1 18 2 1 18 2 1 18 2 1 18 2 1 18 2 1 18 2 1 18 2 1 18 2 1 18
2 1 18 2 1 18 2 1 18 2 1 18 2 1 18 2 1 18 2 1 18 2 1 18 2 1 18 2 1 18
2 1 18 2 1 18 2 1 18 2 1 18 2 1 18 2 1 18 2 1 18 2 1 18 2 1 18 2 1 18
2 1 18 2 1 18 2 1 18 2 1 18 2 1 18 2 1 18 2 1 18 2 1 18 2 1 18 2 1 18
2 1 18 2 1 18 0 0 42 0 0 45 0 0 50 0 0 54 0 0 57 0 0 59 0 0 61 0 0 62
0 0 62 0 0 63 0 0 62 0 0 62 0 0 61 0 0 60 0 0 58 0 0 56 0 0 53 0 0 50
0 0 46 0 0 42 0 0 42 0 0 42 1 0 10 1 0 10 1 0 10 1 0 10 1 0 10 1 0 10
1 0 10 1 0 10 1 0 10 1 0 10 1 0 10 1 0 10 1 0 10 1 0 10 1 0 10 1 0 10
1 0 10 1 0 10 1 0 10 1 0 10 1 0 10 1 0 10 1 0 10 1 0 10 1 0 10 1 0 10
1 0 10 1 0 10 1 0 10 1 0 10 1 0 10 1 0 10 1 0 10 1 0 10 1 0 10 1 0 10
1 0 10 1 0 10 1 0 10 1 0 10 1 0 10 1 0 10 3 2 52 4 2 58 4 2 62 4 2 64
4 2 65 4 3 59 4 3 59 4 3 59 5 3 60 5 4 60 5 4 60 5 4 59 5 4 57 5 4 57
5 4 53 4 4 50 6 6 30 8 8 41 8 8 41 8 8 41 8 8 41 8 8 41 8 8 41 8 8 41
7 8 41 7 8 40 7 8 40 7 8 39 7 8 39 7 8 38 7 8 38 7 7 37 7 7 36 7 7 35
6 7 35 6 7 34 6 7 33 6 6 32 6 6 31 5 6 29 5 6 28 5 5 27 5 5 25 4 5 24
4 5 22 4 4 21 4 4 19 3 3 17 3 3 15 3 3 14 3 3 14 3 3 14 3 3 14 3 3 14
1 0 10 1 0 10 1 0 10 1 0 10 1 0 10 1 0 10 1 0 10 1 0 10 1 0 10 1 0 10
1 0 10 1 0 10 1 0 10 1 0 10 1 0 10 1 0 10 1 0 10 1 0 10 1 0 10 1 0 10
1 0 10 1 0 10 1 0 10 1 0 10 1 0 10 1 0 10 1 0 10 1 0 10 1 0 10 1 0 10
1 0 10 1 0 10 1 0 10 1 0 10 1 0 10 1 0 10 1 0 10 1 0 10 1 0 10 1 0 10
1 0 10 1 0 10 1 0 10 1 0 10 1 0 10 1 0 10 1 0 10 1 0 10 1 0 10 1 0 10
1 0 10 1 0 10 1 0 10 1 0 10 1 0 10 1 0 10 1 0 10 1 0 10 1 0 10 1 0 10
1 0 10 1 0 10 1 0 10 1 0 10 1 0 10 1 0 10 1 0 10 1 0 10 1 0 10 1 0 10
1 0 10 1 0 10 1 0 10 1 0 10 1 0 10 1 0 10 1 0 10 1 0 10 1 0 10 1 0 10
1 0 10 1 0 10 1 0 10 1 0 10 1 0 10 1 0 10 1 0 10 1 0 10 1 0 10 1 0 10
1 0 10 1 0 10 1 0 10 1 0 10 1 0 10 1 0 10 7 13 22 8 14 24 8 15 25 8 15
25 8 15 26 8 15 26 8 15 26 8 15 26 8 15 26 8 15 26 8 15 26 8 15 26 8
15 26 8 15 26 8 15 26 8 15 25 8 15 25 8 15 25 8 15 25 8 15 25 8 14 24
8 14 24 8 14 24 8 14 24 7 14 23 7 14 23 7 13 23 7 13 22 7 13 22 7 13
22 7 13 21 7 13 21 7 12 21 7 12 20 6 12 20 6 12 20 6 12 19 6 11 19 6
11 19 6 11 18 6 11 18 6 10 18 5 10 17 5 10 17 5 10 16 5 9 16 5 9 16 5
9 15 5 9 15 5 9 14 4 8 14 4 8 13 4 8 13 4 7 13 4 7 12 4 7 12 6 15 103
5 10 110 5 10 112 5 10 113 5 10 114 5 10 115 5 10 116 3 10 103 3 10
103 3 10 102 3 10 102 3 10 102 3 10 101 3 10 101 3 10 100 3 10 99 3 10
99 3 10 98 3 10 98 3 10 97 3 10 96 3 10 95 3 10 95 3 10 94 3 9 93 3 9
92 3 9 92 3 9 91
2 1 17 2 1 17 2 1 17 2 1 17 2 1 17 2 1 17 2 1 17 2 1 17 2 1 17 2 1 17
2 1 17 2 1 17 2 1 17 2 1 17 2 1 17 2 1 17 2 1 17 2 1 17 2 1 17 2 1 17
2 1 17 2 1 17 2 1 17 2 1 17 2 1 17 2 1 17 2 1 17 2 1 17 2 1 17 2 1 17
2 1 17 2 1 17 2 1 17 2 1 17 2 1 17 2 1 18 2 1 18 2 1 18 2 1 18 2 1 18
2 1 18 2 1 18 2 1 18 2 1 18 2 1 18 2 1 18 2 1 18 2 1 18 2 1 18 2 1 18
2 1 18 2 1 18 2 1 18 2 1 18 2 1 18 2 1 18 2 1 18 2 1 18 2 1 18 2 1 18
2 1 18 2 1 18 2 1 18 2 1 18 2 1 18 2 1 18 2 1 18 2 1 18 2 1 18 2 1 18
2 1 18 2 1 18 2 1 18 2 1 18 2 1 18 2 1 18 2 1 18 2 1 18 2 1 18 2 1 18
2 1 18 2 1 18 2 1 18 2 1 18 2 1 18 2 1 18 2 1 18 2 1 18 2 1 18 2 1 18
2 1 18 2 1 18 2 1 18 2 1 18 2 1 18 2 1 18 2 1 18 2 1 18 2 1 18 2 1 18
2 1 18 0 0 45 0 0 52 0 0 57 0 0 61 0 0 64 0 0 66 0 0 68 0 0 69 0 0 70
0 0 70 0 0 70 0 0 70 0 0 70 0 0 69 0 0 67 0 0 66 0 0 64 0 0 62 0 0 59
0 0 55 0 0 51 0 0 47 0 0 42 0 0 42 0 0 42 1 0 10 1 0 10 1 0 10 1 0 10
1 0 10 1 0 10 1 0 10 1 0 10 1 0 10 1 0 10 1 0 10 1 0 10 1 0 10 1 0 10
1 0 10 1 0 10 1 0 10 1 0 10 1 0 10 1 0 10 1 0 10 1 0 10 1 0 10 1 0 10
1 0 10 1 0 10 1 0 10 1 0 10 1 0 10 1 0 10 1 0 10 1 0 10 1 0 10 1 0 10
1 0 10 1 0 10 1 0 10 1 0 10 3 2 53 4 2 62 4 2 67 4 2 70 4 2 71 5 2 73
5 3 66 5 3 67 5 3 67 5 3 67 5 4 68 5 4 68 5 4 67 5 4 66 5 4 65 5 4 63
5 4 61 5 4 58 4 3 51 4 3 48 8 9 43 8 9 43 8 9 43 8 9 43 8 9 43 8 9 43
8 9 42 8 8 42 8 8 41 8 8 41 7 8 40 7 8 40 7 8 39 7 8 38 7 8 38 7 7 37
7 7 36 6 7 35 6 7 34 6 7 33 6 6 32 6 6 31 5 6 30 5 6 28 5 5 27 5 5 26
4 5 24 4 5 23 4 4 21 4 4 19 3 3 17 3 3 15 3 3 14 3 3 14 3 3 14 3 3 14
3 3 14 1 0 10 1 0 10 1 0 10 1 0 10 1 0 10 1 0 10 1 0 10 1 0 10 1 0 10
1 0 10 1 0 10 1 0 10 1 0 10 1 0 10 1 0 10 1 0 10 1 0 10 1 0 10 1 0 10
1 0 10 1 0 10 1 0 10 1 0 10 1 0 10 1 0 10 1 0 10 1 0 10 1 0 10 1 0 10
1 0 10 1 0 10 1 0 10 1 0 10 1 0 10 1 0 10 1 0 10 1 0 10 1 0 10 1 0 10
1 0 10 1 0 10 1 0 10 1 0 10 1 0 10 1 0 10 1 0 10 1 0 10 1 0 10 1 0 10
1 0 10 1 0 10 1 0 10 1 0 10 1 0 10 1 0 10 1 0 10 1 0 10 1 0 10 1 0 10
1 0 10 1 0 10 1 0 10 1 0 10 1 0 10 1 0 10 1 0 10 1 0 10 1 0 10 1 0 10
1 0 10 1 0 10 1 0 10 1 0 10 1 0 10 1 0 10 1 0 10 1 0 10 1 0 10 1 0 10
1 0 10 1 0 10 1 0 10 1 0 10 1 0 10 1 0 10 1 0 10 1 0 10 1 0 10 1 0 10
1 0 10 1 0 10 1 0 10 1 0 10 1 0 10 1 0 10 1 0 10 7 13 22 8 14 24 8 15
25 8 15 25 8 15 25 8 15 26 8 15 26 8 15 26 8 15 26 8 15 26 8 15 26 8
15 26 8 15 25 8 15 25 8 15 25 8 15 25 8 15 25 8 15 25 8 14 24 8 14 24
8 14 24 8 14 24 7 14 23 7 14 23 7 14 23 7 13 23 7 13 22 7 13 22 7 13
22 7 13 21 7 12 21 7 12 21 6 12 20 6 12 20 6 12 20 6 11 19 6 11 19 6
11 18 6 11 18 6 11 18 6 10 17 5 10 17 5 10 17 5 10 16 5 9 16 5 9 15 5
9 15 5 9 15 5 8 14 4 8 14 4 8 13 4 8 13 4 7 12 4 7 12 4 7 12 4 7 11 4
10 108 5 10 110 5 10 112 5 10 113 5 10 114 5 10 115 3 10 101 3 10 101
3 10 101 3 10 100 3 10 100 3 10 100 3 10 99 3 10 99 3 10 98 3 10 97 3
10 97 3 10 96 3 10 95 3 10 95 3 10 94 3 9 93 3 9 93 3 9 92 3 9 91 3 9
90 3 9 89
2 1 17 2 1 17 2 1 17 2 1 17 2 1 17 2 1 17 2 1 17 2 1 17 2 1 17 2 1 17
2 1 17 2 1 17 2 1 17 2 1 17 2 1 17 2 1 17 2 1 17 2 1 17 2 1 17 2 1 17
2 1 17 2 1 18 2 1 18 2 1 18 2 1 18 2 1 18 2 1 18 2 1 18 2 1 18 2 1 18
2 1 18 2 1 18 2 1 18 2 1 18 2 1 18 2 1 18 2 1 18 2 1 18 2 1 18 2 1 18
2 1 18 2 1 18 2 1 18 2 1 18 2 1 18 2 1 18 2 1 18 2 1 18 2 1 18 2 1 18
2 1 18 2 1 18 2 1 18 2 1 18 2 1 18 2 1 18 2 1 18 2 1 18 2 1 18 2 1 18
2 1 18 2 1 18 2 1 18 2 1 18 2 1 18 2 1 18 2 1 18 2 1 18 2 1 18 2 1 18
2 1 18 2 1 18 2 1 18 2 1 18 2 1 18 2 1 18 2 1 18 2 1 18 2 1 18 2 1 18
2 1 18 2 1 18 2 1 18 2 1 18 2 1 18 2 1 18 2 1 18 2 1 18 2 1 18 2 1 18
2 1 18 2 1 18 2 1 18 2 1 18 2 1 18 2 1 18 2 1 18 2 1 18 2 1 18 0 0 42
0 0 50 0 0 57 0 0 62 0 0 66 0 0 69 0 0 71 0 0 73 0 0 75 0 0 76 0 0 77
0 0 77 0 0 77 0 0 77 0 0 76 0 0 75 0 0 74 0 0 73 0 0 71 0 0 69 0 0 66
0 0 63 0 0 60 0 0 56 0 0 51 0 0 45 0 0 42 0 0 42 1 0 10 1 0 10 1 0 10
1 0 10 1 0 10 1 0 10 1 0 10 1 0 10 1 0 10 1 0 10 1 0 10 1 0 10 1 0 10
1 0 10 1 0 10 1 0 10 1 0 10 1 0 10 1 0 10 1 0 10 1 0 10 1 0 10 1 0 10
1 0 10 1 0 10 1 0 10 1 0 10 1 0 10 1 0 10 1 0 10 1 0 10 1 0 10 1 0 10
1 0 10 1 0 10 1 0 10 4 2 63 4 2 69 5 2 73 5 3 76 5 3 78 5 3 79 5 4 73
5 4 73 5 4 73 5 4 73 6 4 74 6 4 75 6 4 74 6 4 73 6 4 72 6 4 71 6 4 69
5 3 63 5 3 60 4 3 58 4 3 55 4 3 51 8 9 45 8 9 45 8 9 45 8 9 44 8 9 44
8 9 44 8 9 43 8 9 43 8 9 42 8 8 42 8 8 41 7 8 41 7 8 40 7 8 39 7 8 38
7 8 37 7 7 37 7 7 36 6 7 35 6 7 33 6 7 32 6 6 31 5 6 30 5 6 29 5 5 27
5 5 26 4 5 24 4 5 22 4 4 21 3 4 19 3 3 17 3 3 15 3 3 14 3 3 14 3 3 14
3 3 14 3 3 17 1 0 10 1 0 10 1 0 10 1 0 10 1 0 10 1 0 10 1 0 10 1 0 10
1 0 10 1 0 10 1 0 10 1 0 10 1 0 10 1 0 10 1 0 10 1 0 10 1 0 10 1 0 10
1 0 10 1 0 10 1 0 10 1 0 10 1 0 10 1 0 10 1 0 10 1 0 10 1 0 10 1 0 10
1 0 10 1 0 10 1 0 10 1 0 10 1 0 10 1 0 10 1 0 10 1 0 10 1 0 10 1 0 10
1 0 10 1 0 10 1 0 10 1 0 10 1 0 10 1 0 10 1 0 10 1 0 10 1 0 10 1 0 10
1 0 10 1 0 10 1 0 10 1 0 10 1 0 10 1 0 10 1 0 10 1 0 10 1 0 10 1 0 10
1 0 10 1 0 10 1 0 10 1 0 10 1 0 10 1 0 10 1 0 10 1 0 10 1 0 10 1 0 10
1 0 10 1 0 10 1 0 10 1 0 10 1 0 10 1 0 10 1 0 10 1 0 10 1 0 10 1 0 10
1 0 10 1 0 10 1 0 10 1 0 10 1 0 10 1 0 10 1 0 10 1 0 10 1 0 10 1 0 10
1 0 10 1 0 10 1 0 10 1 0 10 1 0 10 1 0 10 1 0 10 1 0 10 7 13 23 8 14
24 8 14 24 8 15 25 8 15 25 8 15 25 8 15 25 8 15 25 8 15 25 8 15 25 8
15 25 8 15 25 8 15 25 8 15 25 8 15 25 8 15 25 8 14 24 8 14 24 8 14 24
8 14 24 7 14 23 7 14 23 7 14 23 7 13 23 7 13 22 7 13 22 7 13 22 7 13
21 7 13 21 7 12 21 7 12 20 6 12 20 6 12 20 6 12 19 6 11 19 6 11 19 6
11 18 6 11 18 6 10 18 5 10 17 5 10 17 5 10 16 5 10 16 5 9 16 5 9 15 5
9 15 5 9 14 4 8 14 4 8 14 4 8 13 4 8 13 4 7 12 4 7 12 4 7 11 3 6 11 5
13 99 5 10 108 5 10 110 5 10 112 5 10 113 5 10 114 3 10 99 3 10 99 3
10 99 3 10 99 3 10 99 3 10 98 3 10 98 3 10 97 3 10 97 3 10 96 3 10 95
3 10 95 3 10 94 3 9 93 3 9 93 3 9 92 3 9 91 3 9 90 3 9 90 3 9 89 3 9
88
2 1 17 2 1 17 2 1 17 2 1 17 2 1 17 2 1 17 2 1 17 2 1 17 2 1 18 2 1 18
2 1 18 2 1 18 2 1 18 2 1 18 2 1 18 2 1 18 2 1 18 2 1 18 2 1 18 2 1 18
2 1 18 2 1 18 2 1 18 2 1 18 2 1 18 2 1 18 2 1 18 2 1 18 2 1 18 2 1 18
2 1 18 2 1 18 2 1 18 2 1 18 2 1 18 2 1 18 2 1 18 2 1 18 2 1 18 2 1 18
2 1 18 2 1 18 2 1 18 2 1 18 2 1 18 2 1 18 2 1 18 2 1 18 2 1 18 2 1 18
2 1 18 2 1 18 2 1 18 2 1 18 2 1 18 2 1 18 2 1 18 2 1 18 2 1 18 2 1 18
2 1 18 2 1 18 2 1 18 2 1 18 2 1 18 2 1 18 2 1 18 2 1 18 2 1 18 2 1 18
2 1 18 2 1 18 2 1 18 2 1 18 2 1 18 2 1 18 2 1 18 2 1 18 2 1 18 2 1 18
2 1 18 2 1 18 2 1 18 2 1 18 2 1 18 2 1 18 2 1 18 2 1 18 2 1 19 2 1 19
2 1 19 2 1 19 2 1 19 2 1 19 2 1 19 2 1 19 2 1 19 2 1 19 0 0 43 0 0 54
0 0 61 0 0 66 0 0 70 0 0 73 0 0 76 0 0 78 0 0 80 0 0 81 0 0 82 0 0 83
0 0 83 0 0 83 0 0 83 0 0 82 0 0 81 0 0 80 0 0 79 0 0 77 0 0 75 0 0 73
0 0 70 0 0 67 0 0 63 0 0 59 0 0 54 0 0 48 0 0 42 0 0 42 1 0 10 1 0 10
1 0 10 1 0 10 1 0 10 1 0 10 1 0 10 1 0 10 1 0 10 1 0 10 1 0 10 1 0 10
1 0 10 1 0 10 1 0 10 1 0 10 1 0 10 1 0 10 1 0 10 1 0 10 1 0 10 1 0 10
1 0 10 1 0 10 1 0 10 1 0 10 1 0 10 1 0 10 1 0 10 1 0 10 1 0 10 1 0 10
1 0 10 4 2 59 4 2 69 5 2 75 5 3 78 5 3 81 5 3 83 5 3 84 5 3 85 6 4 78
6 4 79 6 4 79 6 4 78 6 4 78 6 4 80 6 4 80 6 4 79 6 4 77 5 4 72 5 4 70
5 3 68 5 3 66 5 3 63 5 3 60 4 3 57 8 9 46 8 9 46 8 9 46 8 9 46 8 9 45
8 9 45 8 9 45 8 9 44 8 9 44 8 9 43 8 9 43 8 8 42 8 8 41 7 8 40 7 8 40
7 8 39 7 8 38 7 7 37 7 7 36 6 7 35 6 7 34 6 7 32 6 6 31 5 6 30 5 6 29
5 5 27 5 5 26 4 5 24 4 4 22 4 4 20 3 4 19 3 3 17 3 3 14 3 3 14 3 3 14
3 3 14 3 3 14 1 0 10 1 0 10 1 0 10 1 0 10 1 0 10 1 0 10 1 0 10 1 0 10
1 0 10 1 0 10 1 0 10 1 0 10 1 0 10 1 0 10 1 0 10 1 0 10 1 0 10 1 0 10
1 0 10 1 0 10 1 0 10 1 0 10 1 0 10 1 0 10 1 0 10 1 0 10 1 0 10 1 0 10
1 0 10 1 0 10 1 0 10 1 0 10 1 0 10 1 0 10 1 0 10 1 0 10 1 0 10 1 0 10
1 0 10 1 0 10 1 0 10 1 0 10 1 0 10 1 0 10 1 0 10 1 0 10 1 0 10 1 0 10
1 0 10 1 0 10 1 0 10 1 0 10 1 0 10 1 0 10 1 0 10 1 0 10 1 0 10 1 0 10
1 0 10 1 0 10 1 0 10 1 0 10 1 0 10 1 0 10 1 0 10 1 0 10 1 0 10 1 0 10
1 0 10 1 0 10 1 0 10 1 0 10 1 0 10 1 0 10 1 0 10 1 0 10 1 0 10 1 0 10
1 0 10 1 0 10 1 0 10 1 0 10 1 0 10 1 0 10 1 0 10 1 0 10 1 0 10 1 0 10
1 0 10 1 0 10 1 0 10 1 0 10 1 0 10 1 0 10 1 0 10 1 0 10 1 0 10 7 13 23
8 14 24 8 14 24 8 15 24 8 15 25 8 15 25 8 15 25 8 15 25 8 15 25 8 15
25 8 15 25 8 15 25 8 15 25 8 15 24 8 14 24 8 14 24 8 14 24 8 14 24 7
14 23 7 14 23 7 14 23 7 13 23 7 13 22 7 13 22 7 13 22 7 13 22 7 13 21
7 12 21 7 12 21 6 12 20 6 12 20 6 12 20 6 11 19 6 11 19 6 11 18 6 11
18 6 11 18 6 10 17 5 10 17 5 10 17 5 10 16 5 9 16 5 9 15 5 9 15 5 9 15
5 8 14 4 8 14 4 8 13 4 8 13 4 7 12 4 7 12 4 7 12 4 7 11 3 6 11 3 6 10
5 14 99 5 10 108 5 10 110 5 10 111 5 10 112 3 10 98 3 10 98 3 10 98 3
10 97 3 10 97 3 10 97 3 10 96 3 10 96 3 10 95 3 10 95 3 10 94 3 9 94 3
9 93 3 9 92 3 9 91 3 9 91 3 9 90 3 9 89 3 9 88 3 9 88 3 9 87
2 1 18 2 1 18 2 1 18 2 1 18 2 1 18 2 1 18 2 1 18 2 1 18 2 1 18 2 1 18
2 1 18 2 1 18 2 1 18 2 1 18 2 1 18 2 1 18 2 1 18 2 1 18 2 1 18 2 1 18
2 1 18 2 1 18 2 1 18 2 1 18 2 1 18 2 1 18 2 1 18 2 1 18 2 1 18 2 1 18
2 1 18 2 1 18 2 1 18 2 1 18 2 1 18 2 1 18 2 1 18 2 1 18 2 1 18 2 1 18
2 1 18 2 1 18 2 1 18 2 1 18 2 1 18 2 1 18 2 1 18 2 1 18 2 1 18 2 1 18
2 1 18 2 1 18 2 1 18 2 1 18 2 1 18 2 1 18 2 1 18 2 1 18 2 1 18 2 1 18
2 1 18 2 1 18 2 1 18 2 1 18 2 1 18 2 1 18 2 1 18 2 1 18 2 1 18 2 1 19
2 1 19 2 1 19 2 1 19 2 1 19 2 1 19 2 1 19 2 1 19 2 1 19 2 1 19 2 1 19
2 1 19 2 1 19 2 1 19 2 1 19 2 1 19 2 1 19 2 1 19 2 1 19 2 1 19 2 1 19
2 1 19 2 1 19 2 1 19 2 1 19 2 1 19 2 1 19 2 1 19 0 0 45 0 0 56 0 0 64
0 0 69 0 0 73 0 0 77 0 0 80 0 0 82 0 0 84 0 0 86 0 0 87 0 0 88 0 0 88
0 0 89 0 0 89 0 0 88 0 0 88 0 0 87 0 0 86 0 0 84 0 0 83 0 0 81 0 0 79
0 0 76 0 0 73 0 0 70 0 0 66 0 0 61 0 0 56 0 0 50 0 0 43 0 0 42 1 0 10
1 0 10 1 0 10 1 0 10 1 0 10 1 0 10 1 0 10 1 0 10 1 0 10 1 0 10 1 0 10
1 0 10 1 0 10 1 0 10 1 0 10 1 0 10 1 0 10 1 0 10 1 0 10 1 0 10 1 0 10
1 0 10 1 0 10 1 0 10 1 0 10 1 0 10 1 0 10 1 0 10 1 0 10 1 0 10 1 0 10
4 2 65 5 2 74 5 3 79 5 3 82 5 3 85 5 3 87 6 3 88 6 3 90 6 4 83 6 4 83
6 4 84 6 4 84 6 4 83 6 4 83 6 4 82 6 4 81 6 4 80 6 4 78 6 4 77 5 4 75
5 4 73 5 4 71 5 3 68 5 3 65 5 3 62 4 3 59 9 10 47 9 10 47 9 9 47 9 9
47 9 9 46 8 9 46 8 9 46 8 9 45 8 9 44 8 9 44 8 9 43 8 9 42 8 8 42 8 8
41 7 8 40 7 8 39 7 8 38 7 7 37 7 7 36 6 7 35 6 7 34 6 7 33 6 6 31 5 6
30 5 6 28 5 5 27 5 5 25 4 5 24 4 4 22 4 4 20 3 4 18 3 3 16 3 3 14 3 3
14 3 3 14 3 3 14 3 3 14 1 0 10 1 0 10 1 0 10 1 0 10 1 0 10 1 0 10 1 0
10 1 0 10 1 0 10 1 0 10 1 0 10 1 0 10 1 0 10 1 0 10 1 0 10 1 0 10 1 0
10 1 0 10 1 0 10 1 0 10 1 0 10 1 0 10 1 0 10 1 0 10 1 0 10 1 0 10 1 0
10 1 0 10 1 0 10 1 0 10 1 0 10 1 0 10 1 0 10 1 0 10 1 0 10 1 0 10 1 0
10 1 0 10 1 0 10 1 0 10 1 0 10 1 0 10 1 0 10 1 0 10 1 0 10 1 0 10 1 0
10 1 0 10 1 0 10 1 0 10 1 0 10 1 0 10 1 0 10 1 0 10 1 0 10 1 0 10 1 0
10 1 0 10 1 0 10 1 0 10 1 0 10 1 0 10 1 0 10 1 0 10 1 0 10 1 0 10 1 0
10 1 0 10 1 0 10 1 0 10 1 0 10 1 0 10 1 0 10 1 0 10 1 0 10 1 0 10 1 0
10 1 0 10 1 0 10 1 0 10 1 0 10 1 0 10 1 0 10 1 0 10 1 0 10 1 0 10 1 0
10 1 0 10 1 0 10 1 0 10 1 0 10 1 0 10 1 0 10 1 0 10 1 0 10 1 0 10 1 0
10 7 13 22 7 14 23 8 14 24 8 14 24 8 14 24 8 15 24 8 15 25 8 15 25 8
15 25 8 15 25 8 15 24 8 14 24 8 14 24 8 14 24 8 14 24 8 14 24 7 14 23
7 14 23 7 14 23 7 13 23 7 13 22 7 13 22 7 13 22 7 13 22 7 13 21 7 12
21 7 12 21 6 12 20 6 12 20 6 12 20 6 11 19 6 11 19 6 11 19 6 11 18 6
11 18 6 10 18 5 10 17 5 10 17 5 10 16 5 10 16 5 9 16 5 9 15 5 9 15 5 9
14 4 8 14 4 8 14 4 8 13 4 8 13 4 7 12 4 7 12 4 7 11 3 6 11 3 6 10 3 6
10 3 6 10 5 13 98 5 10 108 5 10 109 5 10 111 5 10 112 3 10 97 3 10 97
3 10 96 3 10 96 3 10 95 3 10 95 3 10 95 3 10 94 3 9 94 3 9 93 3 9 92 3
9 92 3 9 91 3 9 90 3 9 90 3 9 89 3 9 88 3 9 87 3 9 86 3 9 86
2 1 18 2 1 18 2 1 18 2 1 18 2 1 18 2 1 18 2 1 18 2 1 18 2 1 18 2 1 18
2 1 18 2 1 18 2 1 18 2 1 18 2 1 18 2 1 18 2 1 18 2 1 18 2 1 18 2 1 18
2 1 18 2 1 18 2 1 18 2 1 18 2 1 18 2 1 18 2 1 18 2 1 18 2 1 18 2 1 18
2 1 18 2 1 18 2 1 18 2 1 18 2 1 18 2 1 18 2 1 18 2 1 18 2 1 18 2 1 18
2 1 18 2 1 18 2 1 18 2 1 18 2 1 18 2 1 18 2 1 18 2 1 18 2 1 18 2 1 18
2 1 18 2 1 18 2 1 18 2 1 19 2 1 19 2 1 19 2 1 19 2 1 19 2 1 19 2 1 19
2 1 19 2 1 19 2 1 19 2 1 19 2 1 19 2 1 19 2 1 19 2 1 19 2 1 19 2 1 19
2 1 19 2 1 19 2 1 19 2 1 19 2 1 19 2 1 19 2 1 19 2 1 19 2 1 19 2 1 19
2 1 19 2 1 19 2 1 19 2 1 19 2 1 19 2 1 19 2 1 19 2 1 19 2 1 19 2 1 19
2 1 19 2 1 19 2 1 19 2 1 19 2 1 19 2 1 19 0 0 44 0 0 57 0 0 65 0 0 71
0 0 76 0 0 79 0 0 83 0 0 85 0 0 87 0 0 89 0 0 91 0 0 92 0 0 93 0 0 93
0 1 94 0 1 93 0 0 93 0 0 93 0 0 92 0 0 91 0 0 89 0 0 88 0 0 86 0 0 84
0 0 81 0 0 78 0 0 75 0 0 72 0 0 68 0 0 63 0 0 58 0 0 51 0 0 44 0 0 42
1 0 10 1 0 10 1 0 10 1 0 10 1 0 10 1 0 10 1 0 10 1 0 10 1 0 10 1 0 10
1 0 10 1 0 10 1 0 10 1 0 10 1 0 10 1 0 10 1 0 10 1 0 10 1 0 10 1 0 10
1 0 10 1 0 10 1 0 10 1 0 10 1 0 10 1 0 10 1 0 10 1 0 10 1 0 10 4 2 68
5 3 77 5 3 82 5 3 86 6 3 88 6 3 91 6 3 92 6 3 94 6 4 88 6 4 88 6 4 88
6 4 88 6 4 88 6 4 87 6 4 87 6 4 86 6 4 85 6 4 84 6 4 82 6 4 81 6 4 79
6 4 77 5 4 75 5 4 72 5 4 70 5 3 67 5 3 64 5 3 61 9 10 49 9 10 48 9 10
48 9 10 48 9 10 47 9 9 47 9 9 46 8 9 46 8 9 45 8 9 44 8 9 44 8 9 43 8
8 42 8 8 41 7 8 40 7 8 39 7 8 38 7 8 37 7 7 36 6 7 35 6 7 34 6 7 32 6
6 31 5 6 30 5 6 28 5 5 27 5 5 25 4 5 23 4 4 21 4 4 20 3 4 17 3 3 15 3
3 14 3 3 14 3 3 14 3 3 14 3 3 17 1 0 10 1 0 10 1 0 10 1 0 10 1 0 10 1
0 10 1 0 10 1 0 10 1 0 10 1 0 10 1 0 10 1 0 10 1 0 10 1 0 10 1 0 10 1
0 10 1 0 10 1 0 10 1 0 10 1 0 10 1 0 10 1 0 10 1 0 10 1 0 10 1 0 10 1
0 10 1 0 10 1 0 10 1 0 10 1 0 10 1 0 10 1 0 10 1 0 10 1 0 10 1 0 10 1
0 10 1 0 10 1 0 10 1 0 10 1 0 10 1 0 10 1 0 10 1 0 10 1 0 10 1 0 10 1
0 10 1 0 10 1 0 10 1 0 10 1 0 10 1 0 10 1 0 10 1 0 10 1 0 10 1 0 10 1
0 10 1 0 10 1 0 10 1 0 10 1 0 10 1 0 10 1 0 10 1 0 10 1 0 10 1 0 10 1
0 10 1 0 10 1 0 10 1 0 10 1 0 10 1 0 10 1 0 10 1 0 10 1 0 10 1 0 10 1
0 10 1 0 10 1 0 10 1 0 10 1 0 10 1 0 10 1 0 10 1 0 10 1 0 10 1 0 10 1
0 10 1 0 10 1 0 10 1 0 10 1 0 10 1 0 10 1 0 10 1 0 10 1 0 10 1 0 10 1
0 10 6 12 20 7 13 22 7 14 23 7 14 23 8 14 24 8 14 24 8 14 24 8 14 24 8
14 24 8 14 24 8 14 24 8 14 24 8 14 24 8 14 24 8 14 24 7 14 23 7 14 23
7 14 23 7 13 23 7 13 22 7 13 22 7 13 22 7 13 22 7 13 21 7 13 21 7 12
21 7 12 20 6 12 20 6 12 20 6 12 19 6 11 19 6 11 19 6 11 18 6 11 18 6
11 18 6 10 17 5 10 17 5 10 17 5 10 16 5 9 16 5 9 15 5 9 15 5 9 15 5 8
14 4 8 14 4 8 13 4 8 13 4 7 12 4 7 12 4 7 12 4 7 11 3 6 11 3 6 10 3 6
10 3 6 9 3 5 9 4 10 104 5 10 107 5 10 109 5 10 110 3 10 96 3 10 96 3
10 96 3 10 95 3 10 95 3 10 94 3 10 94 3 9 93 3 9 93 3 9 92 3 9 91 3 9
91 3 9 90 3 9 90 3 9 89 3 9 88 3 9 88 3 9 87 3 9 86 3 9 86
2 1 18 2 1 18 2 1 18 2 1 18 2 1 18 2 1 18 2 1 18 2 1 18 2 1 18 2 1 18
2 1 18 2 1 18 2 1 18 2 1 18 2 1 18 2 1 18 2 1 18 2 1 18 2 1 18 2 1 18
2 1 18 2 1 18 2 1 18 2 1 18 2 1 18 2 1 18 2 1 18 2 1 18 2 1 18 2 1 18
2 1 18 2 1 18 2 1 18 2 1 18 2 1 18 2 1 18 2 1 18 2 1 18 2 1 18 2 1 19
2 1 19 2 1 19 2 1 19 2 1 19 2 1 19 2 1 19 2 1 19 2 1 19 2 1 19 2 1 19
2 1 19 2 1 19 2 1 19 2 1 19 2 1 19 2 1 19 2 1 19 2 1 19 2 1 19 2 1 19
2 1 19 2 1 19 2 1 19 2 1 19 2 1 19 2 1 19 2 1 19 2 1 19 2 1 19 2 1 19
2 1 19 2 1 19 2 1 19 2 1 19 2 1 19 2 1 19 2 1 19 2 1 19 2 1 19 2 1 19
2 1 19 2 1 19 2 1 19 2 1 19 2 1 19 2 1 19 2 1 19 2 1 19 2 1 19 2 1 19
2 1 19 2 1 19 2 1 19 2 1 19 2 1 19 0 0 42 0 0 57 0 0 66 0 0 72 0 0 77
0 0 81 0 0 85 0 0 88 0 0 90 0 0 92 0 1 94 0 1 96 0 1 97 0 1 97 0 1 98
0 1 98 0 1 98 0 1 98 0 1 97 0 1 96 0 1 95 0 1 94 0 0 92 0 0 91 0 0 89
0 0 86 0 0 83 0 0 80 0 0 77 0 0 73 0 0 69 0 0 64 0 0 58 0 0 51 0 0 43
0 0 42 1 0 10 1 0 10 1 0 10 1 0 10 1 0 10 1 0 10 1 0 10 1 0 10 1 0 10
1 0 10 1 0 10 1 0 10 1 0 10 1 0 10 1 0 10 1 0 10 1 0 10 1 0 10 1 0 10
1 0 10 1 0 10 1 0 10 1 0 10 1 0 10 1 0 10 1 0 10 1 0 10 4 2 70 5 3 79
5 3 84 5 3 88 6 3 91 6 3 94 6 3 96 6 3 97 6 3 98 6 4 92 6 4 92 6 4 92
6 4 92 6 4 92 6 4 91 6 4 91 6 4 90 6 4 89 6 4 88 6 4 86 6 4 85 6 4 83
6 4 81 6 4 79 5 4 76 5 4 74 5 4 71 5 3 68 5 3 65 9 10 50 9 10 50 9 10
49 9 10 49 9 10 48 9 10 48 9 10 47 9 9 47 8 9 46 8 9 46 8 9 45 8 9 44
8 9 43 8 9 42 8 8 41 7 8 40 7 8 39 7 8 38 7 8 37 7 7 36 6 7 35 6 7 34
6 7 32 6 6 31 5 6 29 5 6 28 5 5 26 5 5 25 4 5 23 4 4 21 3 4 19 3 3 17
3 3 14 3 3 14 3 3 14 3 3 14 3 3 14 1 0 10 1 0 10 1 0 10 1 0 10 1 0 10
1 0 10 1 0 10 1 0 10 1 0 10 1 0 10 1 0 10 1 0 10 1 0 10 1 0 10 1 0 10
1 0 10 1 0 10 1 0 10 1 0 10 1 0 10 1 0 10 1 0 10 1 0 10 1 0 10 1 0 10
1 0 10 1 0 10 1 0 10 1 0 10 1 0 10 1 0 10 1 0 10 1 0 10 1 0 10 1 0 10
1 0 10 1 0 10 1 0 10 1 0 10 1 0 10 1 0 10 1 0 10 1 0 10 1 0 10 1 0 10
1 0 10 1 0 10 1 0 10 1 0 10 1 0 10 1 0 10 1 0 10 1 0 10 1 0 10 1 0 10
1 0 10 1 0 10 1 0 10 1 0 10 1 0 10 1 0 10 1 0 10 1 0 10 1 0 10 1 0 10
1 0 10 1 0 10 1 0 10 1 0 10 1 0 10 1 0 10 1 0 10 1 0 10 1 0 10 1 0 10
1 0 10 1 0 10 1 0 10 1 0 10 1 0 10 1 0 10 1 0 10 1 0 10 1 0 10 1 0 10
1 0 10 1 0 10 1 0 10 1 0 10 1 0 10 1 0 10 1 0 10 1 0 10 1 0 10 1 0 10
1 0 10 1 0 10 6 12 20 7 13 22 7 13 22 7 14 23 7 14 23 8 14 23 8 14 24
8 14 24 8 14 24 8 14 24 8 14 24 7 14 23 7 14 23 7 14 23 7 14 23 7 14
23 7 13 23 7 13 22 7 13 22 7 13 22 7 13 22 7 13 21 7 13 21 7 12 21 7
12 20 6 12 20 6 12 20 6 12 20 6 11 19 6 11 19 6 11 19 6 11 18 6 11 18
6 10 17 5 10 17 5 10 17 5 10 16 5 9 16 5 9 16 5 9 15 5 9 15 5 9 14 4 8
14 4 8 13 4 8 13 4 7 13 4 7 12 4 7 12 4 7 11 3 6 11 3 6 10 3 6 10 3 6
9 3 5 9 3 5 8 3 5 8 4 10 104 5 10 106 5 10 108 5 10 109 3 10 96 3 10
95 3 10 95 3 10 94 3 10 94 3 9 93 3 9 93 3 9 92 3 9 92 3 9 91 3 9 91 3
9 90 3 9 89 3 9 89 3 9 88 3 9 87 3 9 87 3 9 86 3 9 85
2 1 18 2 1 18 2 1 18 2 1 18 2 1 18 2 1 18 2 1 18 2 1 18 2 1 18 2 1 18
2 1 18 2 1 18 2 1 18 2 1 18 2 1 18 2 1 18 2 1 18 2 1 18 2 1 18 2 1 18
2 1 18 2 1 18 2 1 18 2 1 18 2 1 18 2 1 18 2 1 19 2 1 19 2 1 19 2 1 19
2 1 19 2 1 19 2 1 19 2 1 19 2 1 19 2 1 19 2 1 19 2 1 19 2 1 19 2 1 19
2 1 19 2 1 19 2 1 19 2 1 19 2 1 19 2 1 19 2 1 19 2 1 19 2 1 19 2 1 19
2 1 19 2 1 19 2 1 19 2 1 19 2 1 19 2 1 19 2 1 19 2 1 19 2 1 19 2 1 19
2 1 19 2 1 19 2 1 19 2 1 19 2 1 19 2 1 19 2 1 19 2 1 19 2 1 19 2 1 19
2 1 19 2 1 19 2 1 19 2 1 19 2 1 19 2 1 19 2 1 19 2 1 19 2 1 19 2 1 19
2 1 19 2 1 19 2 1 19 2 1 19 2 1 19 2 1 19 2 1 19 2 1 19 2 1 19 2 1 19
2 1 19 2 1 19 2 1 19 2 1 19 2 1 19 0 0 55 0 0 65 0 0 72 0 0 78 0 0 83
0 0 86 0 0 90 0 0 93 0 1 95 0 1 97 0 1 99 0 1 100 0 1 101 0 1 102 0 1
102 0 1 102 0 1 102 0 1 102 0 1 101 0 1 101 0 1 100 0 1 98 0 1 97 0 1
95 0 0 93 0 0 91 0 0 88 0 0 85 0 0 82 0 0 78 0 0 74 0 0 69 0 0 64 0 0
58 0 0 51 0 0 42 0 0 42 1 0 10 1 0 10 1 0 10 1 0 10 1 0 10 1 0 10 1 0
10 1 0 10 1 0 10 1 0 10 1 0 10 1 0 10 1 0 10 1 0 10 1 0 10 1 0 10 1 0
10 1 0 10 1 0 10 1 0 10 1 0 10 1 0 10 1 0 10 1 0 10 1 0 10 4 2 69 5 3
80 5 3 86 6 3 91 6 3 94 6 3 96 6 3 98 6 3 100 6 3 101 7 4 96 7 4 96 7
4 96 7 4 96 7 4 96 7 4 96 7 4 95 7 4 94 7 4 93 6 4 92 6 4 91 6 4 90 6
4 88 6 4 86 6 4 84 6 4 82 6 4 80 6 4 77 5 4 75 5 4 72 5 3 69 5 3 65 9
10 51 9 10 50 9 10 50 9 10 50 9 10 49 9 10 48 9 10 48 9 10 47 9 9 47 8
9 46 8 9 45 8 9 44 8 9 43 8 9 42 8 8 41 7 8 40 7 8 39 7 8 38 7 7 37 7
7 36 6 7 35 6 7 33 6 6 32 6 6 31 5 6 29 5 6 27 5 5 26 4 5 24 4 4 22 4
4 20 3 4 18 3 3 16 3 3 14 3 3 14 3 3 14 3 3 14 3 3 17 1 0 10 1 0 10 1
0 10 1 0 10 1 0 10 1 0 10 1 0 10 1 0 10 1 0 10 1 0 10 1 0 10 1 0 10 1
0 10 1 0 10 1 0 10 1 0 10 1 0 10 1 0 10 1 0 10 1 0 10 1 0 10 1 0 10 1
0 10 1 0 10 1 0 10 1 0 10 1 0 10 1 0 10 1 0 10 1 0 10 1 0 10 1 0 10 1
0 10 1 0 10 1 0 10 1 0 10 1 0 10 1 0 10 1 0 10 1 0 10 1 0 10 1 0 10 1
0 10 1 0 10 1 0 10 1 0 10 1 0 10 1 0 10 1 0 10 1 0 10 1 0 10 1 0 10 1
0 10 1 0 10 1 0 10 1 0 10 1 0 10 1 0 10 1 0 10 1 0 10 1 0 10 1 0 10 1
0 10 1 0 10 1 0 10 1 0 10 1 0 10 1 0 10 1 0 10 1 0 10 1 0 10 1 0 10 1
0 10 1 0 10 1 0 10 1 0 10 1 0 10 1 0 10 1 0 10 1 0 10 1 0 10 1 0 10 1
0 10 1 0 10 1 0 10 1 0 10 1 0 10 1 0 10 1 0 10 1 0 10 1 0 10 1 0 10 1
0 10 1 0 10 1 0 10 1 0 10 2 1 18 6 11 19 7 13 21 7 13 22 7 13 22 7 14
23 7 14 23 7 14 23 7 14 23 7 14 23 7 14 23 7 14 23 7 14 23 7 14 23 7
13 23 7 13 22 7 13 22 7 13 22 7 13 22 7 13 22 7 13 21 7 13 21 7 12 21
7 12 20 6 12 20 6 12 20 6 12 20 6 11 19 6 11 19 6 11 19 6 11 18 6 11
18 6 10 18 5 10 17 5 10 17 5 10 16 5 10 16 5 9 16 5 9 15 5 9 15 5 9 14
4 8 14 4 8 14 4 8 13 4 8 13 4 7 12 4 7 12 4 7 11 4 7 11 3 6 11 3 6 10
3 6 10 3 5 9 3 5 9 3 5 8 2 5 8 2 4 7 4 9 103 5 10 106 5 10 107 3 10 95
3 10 95 3 10 94 3 10 94 3 9 94 3 9 93 3 9 93 3 9 92 3 9 91 3 9 91 3 9
90 3 9 90 3 9 89 3 9 88 3 9 88 3 9 87 3 9 87 3 9 86 3 9 85
2 1 18 2 1 18 2 1 18 2 1 18 2 1 18 2 1 18 2 1 18 2 1 18 2 1 18 2 1 18
2 1 18 2 1 18 2 1 18 2 1 18 2 1 19 2 1 19 2 1 19 2 1 19 2 1 19 2 1 19
2 1 19 2 1 19 2 1 19 2 1 19 2 1 19 2 1 19 2 1 19 2 1 19 2 1 19 2 1 19
2 1 19 2 1 19 2 1 19 2 1 19 2 1 19 2 1 19 2 1 19 2 1 19 2 1 19 2 1 19
2 1 19 2 1 19 2 1 19 2 1 19 2 1 19 2 1 19 2 1 19 2 1 19 2 1 19 2 1 19
2 1 19 2 1 19 2 1 19 2 1 19 2 1 19 2 1 19 2 1 19 2 1 19 2 1 19 2 1 19
2 1 19 2 1 19 2 1 19 2 1 19 2 1 19 2 1 19 2 1 19 2 1 19 2 1 19 2 1 19
2 1 19 2 1 19 2 1 19 2 1 19 2 1 19 2 1 19 2 1 19 2 1 19 2 1 19 2 1 19
2 1 19 2 1 19 2 1 20 2 1 20 2 1 20 2 1 20 2 1 20 2 1 20 2 1 20 2 1 20
2 1 20 2 1 20 2 1 20 2 1 20 0 0 49 0 0 63 0 0 72 0 0 78 0 0 83 0 0 87
0 0 91 0 1 94 0 1 97 0 1 99 0 1 101 0 1 103 0 1 104 0 1 105 0 1 106 0
1 106 0 1 106 0 1 106 0 1 106 0 1 105 0 1 104 0 1 103 0 1 102 0 1 101
0 1 99 0 1 97 0 1 95 0 0 92 0 0 89 0 0 86 0 0 82 0 0 78 0 0 74 0 0 69
0 0 63 0 0 57 0 0 49 0 0 42 1 0 10 1 0 10 1 0 10 1 0 10 1 0 10 1 0 10
1 0 10 1 0 10 1 0 10 1 0 10 1 0 10 1 0 10 1 0 10 1 0 10 1 0 10 1 0 10
1 0 10 1 0 10 1 0 10 1 0 10 1 0 10 1 0 10 1 0 10 1 0 10 4 2 64 5 3 80
5 3 87 6 3 92 6 3 96 6 3 99 6 3 101 6 3 103 6 3 104 7 4 105 7 4 99 7 4
99 7 4 99 7 5 100 7 4 99 7 4 99 7 4 98 7 4 98 7 4 97 7 4 96 7 4 94 6 4
93 6 4 91 6 4 90 6 4 88 6 4 85 6 4 83 6 4 81 6 4 78 5 4 75 5 4 72 5 3
69 10 10 52 9 10 51 9 10 51 9 10 51 9 10 50 9 10 50 9 10 49 9 10 48 9
10 48 9 9 47 8 9 46 8 9 45 8 9 44 8 9 43 8 9 42 8 8 41 7 8 40 7 8 39 7
8 38 7 7 37 7 7 36 6 7 34 6 7 33 6 6 32 6 6 30 5 6 28 5 5 27 5 5 25 4
5 23 4 4 21 4 4 19 3 3 17 3 3 15 3 3 14 3 3 14 3 3 14 3 3 14 1 0 10 1
0 10 1 0 10 1 0 10 1 0 10 1 0 10 1 0 10 1 0 10 1 0 10 1 0 10 1 0 10 1
0 10 1 0 10 1 0 10 1 0 10 1 0 10 1 0 10 1 0 10 1 0 10 1 0 10 1 0 10 1
0 10 1 0 10 1 0 10 1 0 10 1 0 10 1 0 10 1 0 10 1 0 10 1 0 10 1 0 10 1
0 10 1 0 10 1 0 10 1 0 10 1 0 10 1 0 10 1 0 10 1 0 10 1 0 10 1 0 10 1
0 10 1 0 10 1 0 10 1 0 10 1 0 10 1 0 10 1 0 10 1 0 10 1 0 10 1 0 10 1
0 10 1 0 10 1 0 10 1 0 10 1 0 10 1 0 10 1 0 10 1 0 10 1 0 10 1 0 10 1
0 10 1 0 10 1 0 10 1 0 10 1 0 10 1 0 10 1 0 10 1 0 10 1 0 10 1 0 10 1
0 10 1 0 10 1 0 10 1 0 10 1 0 10 1 0 10 1 0 10 1 0 10 1 0 10 1 0 10 1
0 10 1 0 10 1 0 10 1 0 10 1 0 10 1 0 10 1 0 10 1 0 10 1 0 10 1 0 10 1
0 10 1 0 10 1 0 10 2 1 19 2 1 18 2 1 18 2 1 18 2 1 18 7 12 21 7 13 21
7 13 22 7 13 22 7 13 22 7 13 23 7 13 23 7 13 23 7 13 23 7 13 22 7 13
22 7 13 22 7 13 22 7 13 22 7 13 22 7 13 21 7 13 21 7 12 21 7 12 21 7
12 20 6 12 20 6 12 20 6 12 20 6 11 19 6 11 19 6 11 19 6 11 18 6 11 18
6 10 18 6 10 17 5 10 17 5 10 16 5 10 16 5 9 16 5 9 15 5 9 15 5 9 15 5
8 14 4 8 14 4 8 13 4 8 13 4 7 12 4 7 12 4 7 12 4 7 11 3 6 11 3 6 10 3
6 10 3 6 9 3 5 9 3 5 8 2 5 8 2 4 7 2 4 7 2 4 6 4 9 102 5 10 105 5 10
106 3 10 94 3 10 94 3 9 94 3 9 93 3 9 93 3 9 92 3 9 92 3 9 91 3 9 91 3
9 90 3 9 89 3 9 89 3 9 88 3 9 88 3 9 87 3 9 86 3 9 86 3 9 85
2 1 18 2 1 18 2 1 19 2 1 19 2 1 19 2 1 19 2 1 19 2 1 19 2 1 19 2 1 19
2 1 19 2 1 19 2 1 19 2 1 19 2 1 19 2 1 19 2 1 19 2 1 19 2 1 19 2 1 19
2 1 19 2 1 19 2 1 19 2 1 19 2 1 19 2 1 19 2 1 19 2 1 19 2 1 19 2 1 19
2 1 19 2 1 19 2 1 19 2 1 19 2 1 19 2 1 19 2 1 19 2 1 19 2 1 19 2 1 19
2 1 19 2 1 19 2 1 19 2 1 19 2 1 19 2 1 19 2 1 19 2 1 19 2 1 19 2 1 19
2 1 19 2 1 19 2 1 19 2 1 19 2 1 19 2 1 19 2 1 19 2 1 19 2 1 19 2 1 19
2 1 19 2 1 19 2 1 19 2 1 19 2 1 19 2 1 20 2 1 20 2 1 20 2 1 20 2 1 20
2 1 20 2 1 20 2 1 20 2 1 20 2 1 20 2 1 20 2 1 20 2 1 20 2 1 20 2 1 20
2 1 20 2 1 20 2 1 20 2 1 20 2 1 20 2 1 20 2 1 20 2 1 20 2 1 20 2 1 20
2 1 20 2 1 20 2 1 20 2 1 20 0 0 59 0 0 70 0 0 77 0 0 83 0 0 88 0 0 92
0 1 95 0 1 98 0 1 101 0 1 103 0 1 105 0 1 106 0 1 107 0 1 108 0 1 109
0 1 110 0 1 110 0 1 110 0 1 109 0 1 109 0 1 108 0 1 107 0 1 106 0 1
104 0 1 103 0 1 101 0 1 98 0 1 96 0 0 93 0 0 90 0 0 86 0 0 83 0 0 78 0
0 74 0 0 68 0 0 62 0 0 55 0 0 46 0 0 42 1 0 10 1 0 10 1 0 10 1 0 10 1
0 10 1 0 10 1 0 10 1 0 10 1 0 10 1 0 10 1 0 10 1 0 10 1 0 10 1 0 10 1
0 10 1 0 10 1 0 10 1 0 10 1 0 10 1 0 10 1 0 10 1 0 10 1 0 10 5 3 79 5
3 87 6 3 93 6 3 97 6 3 100 6 3 103 6 3 105 7 4 106 7 4 108 7 5 102 7 5
102 7 5 103 7 5 103 7 5 103 7 5 103 7 5 102 7 5 101 7 5 101 7 5 100 7
4 99 7 4 97 7 4 96 7 4 94 6 4 93 6 4 91 6 4 88 6 4 86 6 4 84 6 4 81 6
4 78 5 4 75 5 4 72 5 3 69 10 11 52 10 10 52 9 10 52 9 10 51 9 10 50 9
10 50 9 10 49 9 10 49 9 10 48 9 9 47 8 9 46 8 9 45 8 9 44 8 9 43 8 9
42 8 8 41 7 8 40 7 8 39 7 8 38 7 7 37 6 7 35 6 7 34 6 7 33 6 6 31 5 6
29 5 6 28 5 5 26 4 5 24 4 5 22 4 4 20 3 4 18 3 3 16 3 3 14 3 3 14 3 3
14 3 3 14 3 3 17 1 0 10 1 0 10 1 0 10 1 0 10 1 0 10 1 0 10 1 0 10 1 0
10 1 0 10 1 0 10 1 0 10 1 0 10 1 0 10 1 0 10 1 0 10 1 0 10 1 0 10 1 0
10 1 0 10 1 0 10 1 0 10 1 0 10 1 0 10 1 0 10 1 0 10 1 0 10 1 0 10 1 0
10 1 0 10 1 0 10 1 0 10 1 0 10 1 0 10 1 0 10 1 0 10 1 0 10 1 0 10 1 0
10 1 0 10 1 0 10 1 0 10 1 0 10 1 0 10 1 0 10 1 0 10 1 0 10 1 0 10 1 0
10 1 0 10 1 0 10 1 0 10 1 0 10 1 0 10 1 0 10 1 0 10 1 0 10 1 0 10 1 0
10 1 0 10 1 0 10 1 0 10 1 0 10 1 0 10 1 0 10 1 0 10 1 0 10 1 0 10 1 0
10 1 0 10 1 0 10 1 0 10 1 0 10 1 0 10 1 0 10 1 0 10 1 0 10 1 0 10 1 0
10 1 0 10 1 0 10 1 0 10 1 0 10 1 0 10 1 0 10 1 0 10 1 0 10 1 0 10 1 0
10 1 0 10 1 0 10 1 0 10 2 1 19 2 1 19 2 1 19 2 1 19 2 1 19 2 1 19 2 1
19 2 1 19 6 12 20 7 12 21 7 13 21 7 13 22 7 13 22 7 13 22 7 13 22 7 13
22 7 13 22 7 13 22 7 13 22 7 13 22 7 13 21 7 13 21 7 13 21 7 12 21 7
12 21 6 12 20 6 12 20 6 12 20 6 12 20 6 11 19 6 11 19 6 11 19 6 11 18
6 11 18 6 10 18 6 10 17 5 10 17 5 10 17 5 10 16 5 9 16 5 9 15 5 9 15 5
9 15 5 8 14 4 8 14 4 8 13 4 8 13 4 7 13 4 7 12 4 7 12 4 7 11 3 6 11 3
6 10 3 6 10 3 6 9 3 5 9 3 5 8 3 5 8 2 4 7 2 4 7 2 4 6 2 3 6 2 3 5 4 9
101 5 9 104 5 10 105 3 9 93 3 9 93 3 9 93 3 9 92 3 9 92 3 9 91 3 9 91
3 9 90 3 9 90 3 9 89 3 9 89 3 9 88 3 9 87 3 9 87 3 9 86 3 9 85 3 9 85
2 1 19 2 1 19 2 1 19 2 1 19 2 1 19 2 1 19 2 1 19 2 1 19 2 1 19 2 1 19
2 1 19 2 1 19 2 1 19 2 1 19 2 1 19 2 1 19 2 1 19 2 1 19 2 1 19 2 1 19
2 1 19 2 1 19 2 1 19 2 1 19 2 1 19 2 1 19 2 1 19 2 1 19 2 1 19 2 1 19
2 1 19 2 1 19 2 1 19 2 1 19 2 1 19 2 1 19 2 1 19 2 1 19 2 1 19 2 1 19
2 1 19 2 1 19 2 1 19 2 1 19 2 1 19 2 1 19 2 1 19 2 1 19 2 1 19 2 1 19
2 1 19 2 1 20 2 1 20 2 1 20 2 1 20 2 1 20 2 1 20 2 1 20 2 1 20 2 1 20
2 1 20 2 1 20 2 1 20 2 1 20 2 1 20 2 1 20 2 1 20 2 1 20 2 1 20 2 1 20
2 1 20 2 1 20 2 1 20 2 1 20 2 1 20 2 1 20 2 1 20 2 1 20 2 1 20 2 1 20
2 1 20 2 1 20 2 1 20 2 1 20 2 1 20 2 1 20 2 1 20 2 1 20 2 1 20 2 1 20
2 1 20 2 1 20 2 1 20 0 0 52 0 0 66 0 0 75 0 0 82 0 0 87 0 0 92 0 1 95
0 1 99 0 1 102 0 1 104 0 1 106 0 1 108 0 1 110 0 1 111 0 1 112 0 1 112
0 1 113 0 1 113 0 1 113 0 1 113 0 1 112 0 1 111 0 1 110 0 1 109 0 1
108 0 1 106 0 1 104 0 1 102 0 1 99 0 1 97 0 1 93 0 0 90 0 0 86 0 0 82
0 0 78 0 0 73 0 0 67 0 0 60 0 0 52 0 0 42 0 0 42 1 0 10 1 0 10 1 0 10
1 0 10 1 0 10 1 0 10 1 0 10 1 0 10 1 0 10 1 0 10 1 0 10 1 0 10 1 0 10
1 0 10 1 0 10 1 0 10 1 0 10 1 0 10 1 0 10 1 0 10 1 0 10 5 3 76 5 3 86
6 3 93 6 3 98 6 3 101 6 3 104 7 4 106 7 4 108 7 4 110 7 4 111 7 5 105
7 5 105 7 5 106 7 5 106 7 5 106 7 5 105 7 5 105 7 5 104 7 5 104 7 5
103 7 5 101 7 5 100 7 4 99 7 4 97 7 4 95 7 4 93 6 4 91 6 4 89 6 4 87 6
4 84 6 4 81 6 4 78 5 4 75 5 4 72 10 11 53 10 11 53 10 11 52 10 10 52 9
10 51 9 10 51 9 10 50 9 10 49 9 10 49 9 10 48 9 9 47 8 9 46 8 9 45 8 9
44 8 9 43 8 9 42 8 8 41 7 8 40 7 8 39 7 8 38 7 7 36 6 7 35 6 7 33 6 6
32 6 6 30 5 6 29 5 5 27 5 5 25 4 5 23 4 4 21 4 4 19 3 3 17 3 3 15 3 3
14 3 3 14 3 3 14 3 3 17 1 0 10 1 0 10 1 0 10 1 0 10 1 0 10 1 0 10 1 0
10 1 0 10 1 0 10 1 0 10 1 0 10 1 0 10 1 0 10 1 0 10 1 0 10 1 0 10 1 0
10 1 0 10 1 0 10 1 0 10 1 0 10 1 0 10 1 0 10 1 0 10 1 0 10 1 0 10 1 0
10 1 0 10 1 0 10 1 0 10 1 0 10 1 0 10 1 0 10 1 0 10 1 0 10 1 0 10 1 0
10 1 0 10 1 0 10 1 0 10 1 0 10 1 0 10 1 0 10 1 0 10 1 0 10 1 0 10 1 0
10 1 0 10 1 0 10 1 0 10 1 0 10 1 0 10 1 0 10 1 0 10 1 0 10 1 0 10 1 0
10 1 0 10 1 0 10 1 0 10 1 0 10 1 0 10 1 0 10 1 0 10 1 0 10 1 0 10 1 0
10 1 0 10 1 0 10 1 0 10 1 0 10 1 0 10 1 0 10 1 0 10 1 0 10 1 0 10 1 0
10 1 0 10 1 0 10 1 0 10 1 0 10 1 0 10 1 0 10 1 0 10 1 0 10 1 0 10 1 0
10 1 0 10 1 0 10 1 0 10 2 1 19 2 1 19 2 1 19 2 1 19 2 1 19 2 1 19 2 1
19 2 1 19 2 1 19 2 1 19 6 11 19 6 12 20 7 12 21 7 12 21 7 13 21 7 13
21 7 13 21 7 13 21 7 13 21 7 13 21 7 13 21 7 12 21 7 12 21 7 12 21 7
12 20 6 12 20 6 12 20 6 12 20 6 12 19 6 11 19 6 11 19 6 11 19 6 11 18
6 11 18 6 10 18 6 10 17 5 10 17 5 10 17 5 10 16 5 9 16 5 9 15 5 9 15 5
9 15 5 8 14 4 8 14 4 8 13 4 8 13 4 8 13 4 7 12 4 7 12 4 7 11 3 6 11 3
6 10 3 6 10 3 6 9 3 5 9 3 5 9 3 5 8 2 4 8 2 4 7 2 4 6 2 4 6 2 3 5 2 3
5 1 3 4 4 9 99 4 9 102 5 9 104 3 9 92 3 9 92 3 9 92 3 9 91 3 9 91 3 9
90 3 9 90 3 9 89 3 9 89 3 9 88 3 9 88 3 9 87 3 9 86 3 9 86 3 9 85 3 9
84
2 1 19 2 1 19 2 1 19 2 1 19 2 1 19 2 1 19 2 1 19 2 1 19 2 1 19 2 1 19
2 1 19 2 1 19 2 1 19 2 1 19 2 1 19 2 1 19 2 1 19 2 1 19 2 1 19 2 1 19
2 1 19 2 1 19 2 1 19 2 1 19 2 1 19 2 1 19 2 1 19 2 1 19 2 1 19 2 1 19
2 1 19 2 1 19 2 1 19 2 1 19 2 1 19 2 1 19 2 1 19 2 1 19 2 1 20 2 1 20
2 1 20 2 1 20 2 1 20 2 1 20 2 1 20 2 1 20 2 1 20 2 1 20 2 1 20 2 1 20
2 1 20 2 1 20 2 1 20 2 1 20 2 1 20 2 1 20 2 1 20 2 1 20 2 1 20 2 1 20
2 1 20 2 1 20 2 1 20 2 1 20 2 1 20 2 1 20 2 1 20 2 1 20 2 1 20 2 1 20
2 1 20 2 1 20 2 1 20 2 1 20 2 1 20 2 1 20 2 1 20 2 1 20 2 1 20 2 1 20
2 1 20 2 1 20 2 1 20 2 1 20 2 1 20 2 1 20 2 1 20 2 1 20 2 1 20 2 1 20
2 1 20 2 1 20 2 1 20 0 0 60 0 0 71 0 0 79 0 0 86 0 0 91 0 1 95 0 1 99
0 1 102 0 1 105 0 1 107 0 1 110 0 1 111 0 1 113 0 1 114 0 1 115 0 1
115 0 1 116 0 1 116 0 1 116 0 1 116 0 1 115 0 1 114 0 1 113 0 1 112 0
1 111 0 1 109 0 1 107 0 1 105 0 1 102 0 1 100 0 1 97 0 0 93 0 0 90 0 0
86 0 0 81 0 0 76 0 0 71 0 0 65 0 0 57 0 0 48 0 0 42 1 0 10 1 0 10 1 0
10 1 0 10 1 0 10 1 0 10 1 0 10 1 0 10 1 0 10 1 0 10 1 0 10 1 0 10 1 0
10 1 0 10 1 0 10 1 0 10 1 0 10 1 0 10 1 0 10 1 0 10 1 0 10 5 3 84 6 3
92 6 3 97 6 3 102 7 3 105 7 4 108 7 4 110 7 4 112 7 4 113 7 5 108 7 5
108 7 5 108 7 5 109 7 5 109 7 5 109 7 5 108 7 5 108 7 5 107 7 5 106 7
5 105 7 5 104 7 5 103 7 5 101 7 5 100 7 4 98 7 4 96 7 4 94 6 4 92 6 4
89 6 4 87 6 4 84 6 4 81 6 4 78 5 4 75 10 11 54 10 11 54 10 11 53 10 11
53 10 11 52 9 10 52 9 10 51 9 10 50 9 10 50 9 10 49 9 10 48 9 9 47 8 9
46 8 9 45 8 9 44 8 9 43 8 8 42 8 8 41 7 8 40 7 8 38 7 7 37 7 7 36 6 7
34 6 7 33 6 6 31 5 6 30 5 6 28 5 5 26 4 5 24 4 5 22 4 4 20 3 4 18 3 3
16 3 3 14 3 3 14 3 3 14 3 3 14 3 3 17 1 0 10 1 0 10 1 0 10 1 0 10 1 0
10 1 0 10 1 0 10 1 0 10 1 0 10 1 0 10 1 0 10 1 0 10 1 0 10 1 0 10 1 0
10 1 0 10 1 0 10 1 0 10 1 0 10 1 0 10 1 0 10 1 0 10 1 0 10 1 0 10 1 0
10 1 0 10 1 0 10 1 0 10 1 0 10 1 0 10 1 0 10 1 0 10 1 0 10 1 0 10 1 0
10 1 0 10 1 0 10 1 0 10 1 0 10 1 0 10 1 0 10 1 0 10 1 0 10 1 0 10 1 0
10 1 0 10 1 0 10 1 0 10 1 0 10 1 0 10 1 0 10 1 0 10 1 0 10 1 0 10 1 0
10 1 0 10 1 0 10 1 0 10 1 0 10 1 0 10 1 0 10 1 0 10 1 0 10 1 0 10 1 0
10 1 0 10 1 0 10 1 0 10 1 0 10 1 0 10 1 0 10 1 0 10 1 0 10 1 0 10 1 0
10 1 0 10 1 0 10 1 0 10 1 0 10 1 0 10 1 0 10 1 0 10 1 0 10 1 0 10 1 0
10 1 0 10 1 0 10 2 1 19 2 1 19 2 1 19 2 1 19 2 1 19 2 1 19 2 1 19 2 1
19 2 1 19 2 1 19 2 1 19 2 1 19 2 1 19 6 10 17 6 11 19 6 12 20 6 12 20
7 12 20 7 12 21 7 12 21 7 12 21 7 12 21 7 12 20 7 12 20 6 12 20 6 12
20 6 12 20 6 12 20 6 12 19 6 11 19 6 11 19 6 11 19 6 11 18 6 11 18 6
11 18 6 10 18 5 10 17 5 10 17 5 10 17 5 10 16 5 9 16 5 9 15 5 9 15 5 9
15 5 8 14 4 8 14 4 8 13 4 8 13 4 8 13 4 7 12 4 7 12 4 7 11 3 6 11 3 6
10 3 6 10 3 6 10 3 5 9 3 5 9 3 5 8 2 5 8 2 4 7 2 4 7 2 4 6 2 3 5 2 3 5
1 3 4 1 2 4 1 2 3 4 9 96 4 9 101 5 9 103 3 9 91 3 9 91 3 9 91 3 9 90 3
9 90 3 9 89 3 9 89 3 9 88 3 9 88 3 9 87 3 9 87 3 9 86 3 9 85 3 9 85 3
9 84
2 1 19 2 1 19 2 1 19 2 1 19 2 1 19 2 1 19 2 1 19 2 1 19 2 1 19 2 1 19
2 1 19 2 1 19 2 1 19 2 1 19 2 1 19 2 1 19 2 1 19 2 1 19 2 1 19 2 1 19
2 1 19 2 1 19 2 1 19 2 1 19 2 1 19 2 1 19 2 1 20 2 1 20 2 1 20 2 1 20
2 1 20 2 1 20 2 1 20 2 1 20 2 1 20 2 1 20 2 1 20 2 1 20 2 1 20 2 1 20
2 1 20 2 1 20 2 1 20 2 1 20 2 1 20 2 1 20 2 1 20 2 1 20 2 1 20 2 1 20
2 1 20 2 1 20 2 1 20 2 1 20 2 1 20 2 1 20 2 1 20 2 1 20 2 1 20 2 1 20
2 1 20 2 1 20 2 1 20 2 1 20 2 1 20 2 1 20 2 1 20 2 1 20 2 1 20 2 1 20
2 1 20 2 1 20 2 1 20 2 1 20 2 1 20 2 1 20 2 1 20 2 1 20 2 1 20 2 1 20
2 1 20 2 1 20 2 1 20 2 1 20 2 1 20 2 1 20 2 1 20 2 1 20 2 1 20 2 1 21
2 1 21 2 1 21 0 0 44 0 0 66 0 0 76 0 0 83 0 0 89 0 1 94 0 1 98 0 1 102
0 1 105 0 1 108 0 1 110 0 1 112 0 1 114 0 1 116 0 1 117 0 1 118 0 1
118 0 1 119 0 1 119 0 1 119 0 1 118 0 1 118 0 1 117 0 1 116 0 1 115 0
1 114 0 1 112 0 1 110 0 1 108 0 1 105 0 1 103 0 1 100 0 1 96 0 0 93 0
0 89 0 0 85 0 0 80 0 0 74 0 0 68 0 0 61 0 0 53 0 0 42 1 0 10 1 0 10 1
0 10 1 0 10 1 0 10 1 0 10 1 0 10 1 0 10 1 0 10 1 0 10 1 0 10 1 0 10 1
0 10 1 0 10 1 0 10 1 0 10 1 0 10 1 0 10 1 0 10 1 0 10 5 3 79 6 3 90 6
3 97 6 3 102 7 4 105 7 4 108 7 4 111 7 4 113 7 4 115 7 4 116 8 5 111 8
5 110 8 5 111 8 5 111 8 5 111 8 5 111 8 5 111 8 5 110 8 5 110 7 5 109
7 5 108 7 5 106 7 5 105 7 5 104 7 5 102 7 5 100 7 4 98 7 4 96 7 4 94 6
4 92 6 4 89 6 4 86 6 4 84 6 4 80 6 4 77 5 4 74 10 11 55 10 11 54 10 11
54 10 11 53 10 11 52 10 10 52 9 10 51 9 10 50 9 10 50 9 10 49 9 10 48
9 9 47 8 9 46 8 9 45 8 9 44 8 9 43 8 8 42 7 8 40 7 8 39 7 8 38 7 7 36
6 7 35 6 7 34 6 6 32 6 6 30 5 6 29 5 5 27 5 5 25 4 5 23 4 4 21 4 4 19
3 3 17 3 3 14 3 3 14 3 3 14 3 3 14 3 3 17 1 0 10 1 0 10 1 0 10 1 0 10
1 0 10 1 0 10 1 0 10 1 0 10 1 0 10 1 0 10 1 0 10 1 0 10 1 0 10 1 0 10
1 0 10 1 0 10 1 0 10 1 0 10 1 0 10 1 0 10 1 0 10 1 0 10 1 0 10 1 0 10
1 0 10 1 0 10 1 0 10 1 0 10 1 0 10 1 0 10 1 0 10 1 0 10 1 0 10 1 0 10
1 0 10 1 0 10 1 0 10 1 0 10 1 0 10 1 0 10 1 0 10 1 0 10 1 0 10 1 0 10
1 0 10 1 0 10 1 0 10 1 0 10 1 0 10 1 0 10 1 0 10 1 0 10 1 0 10 1 0 10
1 0 10 1 0 10 1 0 10 1 0 10 1 0 10 1 0 10 1 0 10 1 0 10 1 0 10 1 0 10
1 0 10 1 0 10 1 0 10 1 0 10 1 0 10 1 0 10 1 0 10 1 0 10 1 0 10 1 0 10
1 0 10 1 0 10 1 0 10 1 0 10 1 0 10 1 0 10 1 0 10 1 0 10 1 0 10 1 0 10
1 0 10 2 1 19 2 1 19 2 1 19 2 1 19 2 1 19 2 1 19 2 1 19 2 1 19 2 1 19
2 1 19 2 1 19 2 1 19 2 1 19 2 1 19 2 1 19 2 1 19 2 1 19 6 11 18 6 11
19 6 11 19 6 12 20 6 12 20 6 12 20 6 12 20 6 12 20 6 12 20 6 12 20 6
12 20 6 11 19 6 11 19 6 11 19 6 11 19 6 11 18 6 11 18 6 11 18 6 11 18
6 10 17 5 10 17 5 10 17 5 10 16 5 10 16 5 9 16 5 9 15 5 9 15 5 9 15 5
8 14 4 8 14 4 8 13 4 8 13 4 8 13 4 7 12 4 7 12 4 7 11 3 7 11 3 6 10 3
6 10 3 6 10 3 5 9 3 5 9 3 5 8 2 5 8 2 4 7 2 4 7 2 4 6 2 3 5 2 3 5 1 3
4 1 2 4 1 2 3 1 1 2 1 1 2 1 1 2 4 9 99 5 9 101 3 9 90 3 9 90 3 9 90 3
9 89 3 9 89 3 9 88 3 9 88 3 9 87 3 9 87 3 9 86 3 9 86 3 9 85 3 9 84 3
9 84
2 1 19 2 1 19 2 1 19 2 1 19 2 1 19 2 1 19 2 1 19 2 1 19 2 1 19 2 1 19
2 1 19 2 1 19 2 1 19 2 1 19 2 1 19 2 1 20 2 1 20 2 1 20 2 1 20 2 1 20
2 1 20 2 1 20 2 1 20 2 1 20 2 1 20 2 1 20 2 1 20 2 1 20 2 1 20 2 1 20
2 1 20 2 1 20 2 1 20 2 1 20 2 1 20 2 1 20 2 1 20 2 1 20 2 1 20 2 1 20
2 1 20 2 1 20 2 1 20 2 1 20 2 1 20 2 1 20 2 1 20 2 1 20 2 1 20 2 1 20
2 1 20 2 1 20 2 1 20 2 1 20 2 1 20 2 1 20 2 1 20 2 1 20 2 1 20 2 1 20
2 1 20 2 1 20 2 1 20 2 1 20 2 1 20 2 1 20 2 1 20 2 1 20 2 1 20 2 1 20
2 1 20 2 1 20 2 1 20 2 1 21 2 1 21 2 1 21 2 1 21 2 1 21 2 1 21 2 1 21
3 1 21 3 1 21 3 1 21 3 1 21 3 1 21 3 1 21 3 1 21 3 1 21 3 1 21 3 1 21
3 1 21 3 1 21 0 0 55 0 0 70 0 0 79 0 0 86 0 0 92 0 1 97 0 1 101 0 1
105 0 1 108 0 1 111 0 1 113 0 1 115 0 1 117 0 1 118 0 1 119 0 1 120 0
1 121 0 1 121 0 1 121 0 1 121 0 1 121 0 1 120 0 1 120 0 1 119 0 1 118
0 1 116 0 1 114 0 1 113 0 1 110 0 1 108 0 1 105 0 1 102 0 1 99 0 1 96
0 0 92 0 0 88 0 0 83 0 0 78 0 0 72 0 0 65 0 0 57 0 0 47 0 0 42 1 0 10
1 0 10 1 0 10 1 0 10 1 0 10 1 0 10 1 0 10 1 0 10 1 0 10 1 0 10 1 0 10
1 0 10 1 0 10 1 0 10 1 0 10 1 0 10 1 0 10 1 0 10 1 0 10 5 3 86 6 3 95
6 3 101 7 3 105 7 4 109 7 4 111 7 4 114 7 4 116 7 4 117 7 4 118 8 5
113 8 5 113 8 5 113 8 5 114 8 5 114 8 5 113 8 5 113 8 5 113 8 5 112 8
5 111 8 5 110 7 5 109 7 5 107 7 5 106 7 5 104 7 5 103 7 5 101 7 4 99 7
4 96 7 4 94 6 4 91 6 4 89 6 4 86 6 4 83 6 4 80 5 4 76 10 11 55 10 11
55 10 11 54 10 11 54 10 11 53 10 11 53 10 10 52 9 10 51 9 10 50 9 10
49 9 10 49 9 10 48 9 9 47 8 9 46 8 9 45 8 9 43 8 9 42 8 8 41 7 8 40 7
8 39 7 8 37 7 7 36 6 7 34 6 7 33 6 6 31 5 6 30 5 6 28 5 5 26 4 5 24 4
4 22 4 4 20 3 4 18 3 3 15 3 3 14 3 3 14 3 3 14 3 3 17 1 0 10 1 0 10 1
0 10 1 0 10 1 0 10 1 0 10 1 0 10 1 0 10 1 0 10 1 0 10 1 0 10 1 0 10 1
0 10 1 0 10 1 0 10 1 0 10 1 0 10 1 0 10 1 0 10 1 0 10 1 0 10 1 0 10 1
0 10 1 0 10 1 0 10 1 0 10 1 0 10 1 0 10 1 0 10 1 0 10 1 0 10 1 0 10 1
0 10 1 0 10 1 0 10 1 0 10 1 0 10 1 0 10 1 0 10 1 0 10 1 0 10 1 0 10 1
0 10 1 0 10 1 0 10 1 0 10 1 0 10 1 0 10 1 0 10 1 0 10 1 0 10 1 0 10 1
0 10 1 0 10 1 0 10 1 0 10 1 0 10 1 0 10 1 0 10 1 0 10 1 0 10 1 0 10 1
0 10 1 0 10 1 0 10 1 0 10 1 0 10 1 0 10 1 0 10 1 0 10 1 0 10 1 0 10 1
0 10 1 0 10 1 0 10 1 0 10 1 0 10 1 0 10 1 0 10 1 0 10 1 0 10 1 0 10 1
0 10 2 1 20 2 1 20 2 1 20 2 1 19 2 1 19 2 1 19 2 1 19 2 1 19 2 1 19 2
1 19 2 1 19 2 1 19 2 1 19 2 1 19 2 1 19 2 1 19 2 1 19 2 1 19 2 1 19 2
1 19 2 1 19 6 10 18 6 11 18 6 11 19 6 11 19 6 11 19 6 11 19 6 11 19 6
11 19 6 11 19 6 11 19 6 11 19 6 11 18 6 11 18 6 11 18 6 11 18 6 10 17
5 10 17 5 10 17 5 10 17 5 10 16 5 9 16 5 9 16 5 9 15 5 9 15 5 9 15 5 8
14 4 8 14 4 8 13 4 8 13 4 7 13 4 7 12 4 7 12 4 7 11 3 6 11 3 6 10 3 6
10 3 6 10 3 5 9 3 5 9 3 5 8 2 4 8 2 4 7 2 4 7 2 4 6 2 3 5 2 3 5 1 3 4
1 2 4 1 2 3 1 1 2 1 1 2 1 1 2 1 1 2 1 1 2 4 9 97 4 9 100 3 9 89 3 9 89
3 9 88 3 9 88 3 9 88 3 9 87 3 9 87 3 9 86 3 9 86 3 9 85 3 9 85 3 9 84
3 8 83
2 1 19 2 1 19 2 1 19 2 1 19 2 1 19 2 1 20 2 1 20 2 1 20 2 1 20 2 1 20
2 1 20 2 1 20 2 1 20 2 1 20 2 1 20 2 1 20 2 1 20 2 1 20 2 1 20 2 1 20
2 1 20 2 1 20 2 1 20 2 1 20 2 1 20 2 1 20 2 1 20 2 1 20 2 1 20 2 1 20
2 1 20 2 1 20 2 1 20 2 1 20 2 1 20 2 1 20 2 1 20 2 1 20 2 1 20 2 1 20
2 1 20 2 1 20 2 1 20 2 1 20 2 1 20 2 1 20 2 1 20 2 1 20 2 1 20 2 1 20
2 1 20 2 1 20 2 1 20 2 1 20 2 1 20 2 1 20 2 1 20 2 1 20 2 1 21 2 1 21
2 1 21 2 1 21 2 1 21 2 1 21 2 1 21 3 1 21 3 1 21 3 1 21 3 1 21 3 1 21
3 1 21 3 1 21 3 1 21 3 1 21 3 1 21 3 1 21 3 1 21 3 1 21 3 1 21 3 1 21
3 1 21 3 1 21 3 1 21 3 1 21 3 1 21 3 1 21 3 1 21 3 1 21 3 1 21 3 1 21
3 1 21 3 1 21 0 0 61 0 0 74 0 0 82 0 0 89 0 1 95 0 1 100 0 1 104 0 1
107 0 1 110 0 1 113 0 1 115 0 1 117 0 1 119 0 1 120 0 1 122 0 1 122 0
1 123 0 1 123 0 1 124 0 1 124 0 1 123 0 1 123 0 1 122 0 1 121 0 1 120
0 1 118 0 1 117 0 1 115 0 1 113 0 1 110 0 1 108 0 1 105 0 1 102 0 1 98
0 1 94 0 0 90 0 0 86 0 0 80 0 0 75 0 0 68 0 0 60 0 0 51 0 0 42 1 0 10
1 0 10 1 0 10 1 0 10 1 0 10 1 0 10 1 0 10 1 0 10 1 0 10 1 0 10 1 0 10
1 0 10 1 0 10 1 0 10 1 0 10 1 0 10 1 0 10 1 0 10 5 3 79 6 3 92 6 3 99
6 3 104 7 4 108 7 4 111 7 4 114 7 4 116 7 4 118 7 4 120 8 5 114 8 5
115 8 5 115 8 5 116 8 5 116 8 5 116 8 5 116 8 5 115 8 5 115 8 5 114 8
5 113 8 5 112 8 5 111 8 5 109 7 5 108 7 5 106 7 5 105 7 5 103 7 5 101
7 4 98 7 4 96 7 4 93 6 4 91 6 4 88 6 4 85 6 4 82 6 4 78 10 11 56 10 11
56 10 11 55 10 11 55 10 11 54 10 11 53 10 11 53 10 10 52 9 10 51 9 10
50 9 10 49 9 10 48 9 10 47 9 9 46 8 9 45 8 9 44 8 9 43 8 8 42 7 8 41 7
8 40 7 8 38 7 7 36 6 7 35 6 7 34 6 6 32 6 6 30 5 6 29 5 5 27 5 5 25 4
5 23 4 4 21 3 4 19 3 3 16 3 3 14 3 3 14 3 3 14 3 3 17 3 3 17 1 0 10 1
0 10 1 0 10 1 0 10 1 0 10 1 0 10 1 0 10 1 0 10 1 0 10 1 0 10 1 0 10 1
0 10 1 0 10 1 0 10 1 0 10 1 0 10 1 0 10 1 0 10 1 0 10 1 0 10 1 0 10 1
0 10 1 0 10 1 0 10 1 0 10 1 0 10 1 0 10 1 0 10 1 0 10 1 0 10 1 0 10 1
0 10 1 0 10 1 0 10 1 0 10 1 0 10 1 0 10 1 0 10 1 0 10 1 0 10 1 0 10 1
0 10 1 0 10 1 0 10 1 0 10 1 0 10 1 0 10 1 0 10 1 0 10 1 0 10 1 0 10 1
0 10 1 0 10 1 0 10 1 0 10 1 0 10 1 0 10 1 0 10 1 0 10 1 0 10 1 0 10 1
0 10 1 0 10 1 0 10 1 0 10 1 0 10 1 0 10 1 0 10 1 0 10 1 0 10 1 0 10 1
0 10 1 0 10 1 0 10 1 0 10 1 0 10 1 0 10 1 0 10 1 0 10 1 0 10 1 0 10 2
1 20 2 1 20 2 1 20 2 1 20 2 1 20 2 1 20 2 1 20 2 1 20 2 1 20 2 1 20 2
1 20 2 1 20 2 1 20 2 1 20 2 1 19 2 1 19 2 1 19 2 1 19 2 1 19 2 1 19 2
1 19 2 1 19 2 1 19 5 9 16 5 10 17 6 10 18 6 11 18 6 11 18 6 11 18 6 11
18 6 11 18 6 11 18 6 11 18 6 11 18 6 10 17 6 10 17 5 10 17 5 10 17 5
10 17 5 10 16 5 10 16 5 9 16 5 9 15 5 9 15 5 9 15 5 9 14 4 8 14 4 8 14
4 8 13 4 8 13 4 7 12 4 7 12 4 7 12 4 7 11 3 6 11 3 6 10 3 6 10 3 6 9 3
5 9 3 5 8 3 5 8 2 4 7 2 4 7 2 4 6 2 3 6 2 3 5 1 3 5 1 2 4 1 2 3 1 2 3
1 1 2 1 1 2 1 1 2 1 1 2 1 1 2 1 1 2 2 1 18 4 9 93 4 9 97 3 9 88 3 9 87
3 9 87 3 9 87 3 9 87 3 9 86 3 9 86 3 9 85 3 9 85 3 9 84 3 8 84 3 8 83
2 1 20 2 1 20 2 1 20 2 1 20 2 1 20 2 1 20 2 1 20 2 1 20 2 1 20 2 1 20
2 1 20 2 1 20 2 1 20 2 1 20 2 1 20 2 1 20 2 1 20 2 1 20 2 1 20 2 1 20
2 1 20 2 1 20 2 1 20 2 1 20 2 1 20 2 1 20 2 1 20 2 1 20 2 1 20 2 1 20
2 1 20 2 1 20 2 1 20 2 1 20 2 1 20 2 1 20 2 1 20 2 1 20 2 1 20 2 1 20
2 1 20 2 1 20 2 1 20 2 1 20 2 1 20 2 1 20 2 1 21 2 1 21 2 1 21 2 1 21
2 1 21 2 1 21 3 1 21 3 1 21 3 1 21 3 1 21 3 1 21 3 1 21 3 1 21 3 1 21
3 1 21 3 1 21 3 1 21 3 1 21 3 1 21 3 1 21 3 1 21 3 1 21 3 1 21 3 1 21
3 1 21 3 1 21 3 1 21 3 1 21 3 1 21 3 1 21 3 1 21 3 1 21 3 1 21 3 1 21
3 1 21 3 1 21 3 1 21 3 1 21 3 1 21 3 1 21 3 1 21 3 1 21 3 1 21 3 1 21
3 1 21 3 1 21 0 0 65 0 0 77 0 0 85 0 0 92 0 1 97 0 1 102 0 1 106 0 1
109 0 1 112 0 1 115 0 1 117 0 1 119 0 1 121 0 1 123 0 1 124 0 1 125 1
1 125 1 1 126 1 1 126 1 1 126 1 1 125 0 1 125 0 1 124 0 1 123 0 1 122
0 1 121 0 1 119 0 1 117 0 1 115 0 1 113 0 1 110 0 1 107 0 1 104 0 1
100 0 1 97 0 0 92 0 0 88 0 0 83 0 0 77 0 0 71 0 0 63 0 0 55 0 0 43 1 0
10 1 0 10 1 0 10 1 0 10 1 0 10 1 0 10 1 0 10 1 0 10 1 0 10 1 0 10 1 0
10 1 0 10 1 0 10 1 0 10 1 0 10 1 0 10 1 0 10 1 0 10 5 3 86 6 3 96 6 3
102 7 4 107 7 4 111 7 4 114 7 4 117 7 4 119 7 4 121 8 4 125 8 5 117 8
5 118 8 5 117 8 5 118 8 5 118 8 5 118 8 5 118 8 5 117 8 5 117 8 5 116
8 5 115 8 5 114 8 5 113 8 5 111 8 5 110 7 5 108 7 5 106 7 5 105 7 5
102 7 5 100 7 4 98 7 4 95 6 4 93 6 4 90 6 4 87 6 4 84 6 4 80 10 11 57
10 11 56 10 11 56 10 11 55 10 11 55 10 11 54 10 11 53 10 11 52 9 10 52
9 10 51 9 10 50 9 10 49 9 10 48 9 9 47 8 9 46 8 9 45 8 9 44 9 11 46 9
10 45 8 10 42 7 9 40 7 8 38 7 8 36 6 7 34 6 7 33 6 6 31 5 6 29 5 6 27
5 5 26 4 5 24 4 4 22 4 4 19 3 3 17 3 3 14 3 3 14 3 3 14 3 3 18 3 3 17
1 0 10 1 0 10 1 0 10 1 0 10 1 0 10 1 0 10 1 0 10 1 0 10 1 0 10 1 0 10
1 0 10 1 0 10 1 0 10 1 0 10 1 0 10 1 0 10 1 0 10 1 0 10 1 0 10 1 0 10
1 0 10 1 0 10 1 0 10 1 0 10 1 0 10 1 0 10 1 0 10 1 0 10 1 0 10 1 0 10
1 0 10 1 0 10 1 0 10 1 0 10 1 0 10 1 0 10 1 0 10 1 0 10 1 0 10 1 0 10
1 0 10 1 0 10 1 0 10 1 0 10 1 0 10 1 0 10 1 0 10 1 0 10 1 0 10 1 0 10
1 0 10 1 0 10 1 0 10 1 0 10 1 0 10 1 0 10 1 0 10 1 0 10 1 0 10 1 0 10
1 0 10 1 0 10 1 0 10 1 0 10 1 0 10 1 0 10 1 0 10 1 0 10 1 0 10 1 0 10
1 0 10 1 0 10 1 0 10 1 0 10 1 0 10 1 0 10 1 0 10 1 0 10 1 0 10 2 1 20
2 1 20 2 1 20 2 1 20 2 1 20 2 1 20 2 1 20 2 1 20 2 1 20 2 1 20 2 1 20
2 1 20 2 1 20 2 1 20 2 1 20 2 1 20 2 1 20 2 1 20 2 1 20 2 1 20 2 1 20
2 1 20 2 1 20 2 1 20 2 1 20 2 1 19 2 1 19 5 9 15 5 10 16 5 10 17 5 10
17 5 10 17 5 10 17 5 10 17 5 10 17 5 10 17 5 10 17 5 10 17 5 10 16 5
10 16 5 9 16 5 9 16 5 9 15 5 9 15 5 9 15 5 9 14 5 8 14 4 8 14 4 8 13 4
8 13 4 8 13 4 7 12 4 7 12 4 7 11 4 7 11 3 6 11 3 6 10 3 6 10 3 6 9 3 5
9 3 5 8 3 5 8 2 4 7 2 4 7 2 4 6 2 3 6 2 3 5 1 3 4 1 2 4 1 2 3 1 1 2 1
1 2 1 1 2 1 1 2 1 1 2 2 1 19 2 1 19 2 1 18 2 1 18 2 1 18 2 1 18 4 9 95
3 9 86 3 9 86 3 9 86 3 9 86 3 9 85 3 9 85 3 9 85 3 9 84 3 8 84 3 8 83
3 8 82
2 1 20 2 1 20 2 1 20 2 1 20 2 1 20 2 1 20 2 1 20 2 1 20 2 1 20 2 1 20
2 1 20 2 1 20 2 1 20 2 1 20 2 1 20 2 1 20 2 1 20 2 1 20 2 1 20 2 1 20
2 1 20 2 1 20 2 1 20 2 1 20 2 1 20 2 1 20 2 1 20 2 1 20 2 1 20 2 1 20
2 1 20 2 1 20 2 1 20 2 1 20 2 1 21 2 1 21 2 1 21 2 1 21 2 1 21 2 1 21
3 1 21 3 1 21 3 1 21 3 1 21 3 1 21 3 1 21 3 1 21 3 1 21 3 1 21 3 1 21
3 1 21 3 1 21 3 1 21 3 1 21 3 1 21 3 1 21 3 1 21 3 1 21 3 1 21 3 1 21
3 1 21 3 1 21 3 1 21 3 1 21 3 1 21 3 1 21 3 1 21 3 1 21 3 1 21 3 1 21
3 1 21 3 1 21 3 1 21 3 1 21 3 1 21 3 1 21 3 1 21 3 1 21 3 1 21 3 1 21
3 1 21 3 1 21 3 1 21 3 1 21 3 1 21 3 1 21 3 1 21 3 1 21 3 1 21 3 1 21
3 1 21 3 1 22 0 0 68 0 0 79 0 0 87 0 1 94 0 1 99 0 1 104 0 1 108 0 1
111 0 1 114 0 1 117 0 1 119 0 1 121 0 1 123 0 1 124 1 1 125 1 1 126 1
1 127 1 1 127 1 1 128 1 1 127 1 1 127 1 1 127 1 1 126 1 1 125 0 1 124
0 1 122 0 1 121 0 1 119 0 1 117 0 1 114 0 1 112 0 1 109 0 1 106 0 1
102 0 1 99 0 1 95 0 0 90 0 0 85 0 0 79 0 0 73 0 0 66 0 0 57 0 0 46 0 0
42 1 0 10 1 0 10 1 0 10 1 0 10 1 0 10 1 0 10 1 0 10 1 0 10 1 0 10 1 0
10 1 0 10 1 0 10 1 0 10 1 0 10 1 0 10 1 0 10 1 0 10 6 3 90 6 3 99 7 3
105 7 4 110 7 4 113 7 4 116 7 4 119 7 4 121 8 4 125 8 4 127 8 5 119 8
5 119 8 5 119 8 5 120 8 5 120 8 5 120 8 5 119 8 5 119 8 5 118 8 5 120
8 5 120 8 5 116 8 5 114 8 5 113 8 5 112 8 5 110 7 5 108 7 5 106 7 5
104 7 5 102 7 5 100 7 4 97 7 4 94 6 4 92 6 4 89 6 4 85 4 3 45 4 3 45 3
3 14 3 3 14 3 3 14 3 3 14 10 11 55 10 11 54 10 11 53 10 11 52 9 10 51
9 10 50 9 10 50 9 10 49 9 10 48 9 9 46 8 9 45 8 9 44 10 12 48 9 11 47
9 10 44 8 9 42 7 8 39 7 8 37 6 7 35 6 7 33 6 6 32 5 6 30 5 6 28 5 5 26
4 5 24 4 4 22 4 4 20 3 4 18 3 3 15 3 3 14 3 3 14 3 3 18 3 3 17 1 0 10
1 0 10 1 0 10 1 0 10 1 0 10 1 0 10 1 0 10 1 0 10 1 0 10 1 0 10 1 0 10
1 0 10 1 0 10 1 0 10 1 0 10 1 0 10 1 0 10 1 0 10 1 0 10 1 0 10 1 0 10
1 0 10 1 0 10 1 0 10 1 0 10 1 0 10 1 0 10 1 0 10 1 0 10 1 0 10 1 0 10
1 0 10 1 0 10 1 0 10 1 0 10 1 0 10 1 0 10 1 0 10 1 0 10 1 0 10 1 0 10
1 0 10 1 0 10 1 0 10 1 0 10 1 0 10 1 0 10 1 0 10 1 0 10 1 0 10 1 0 10
1 0 10 1 0 10 1 0 10 1 0 10 1 0 10 1 0 10 1 0 10 1 0 10 1 0 10 1 0 10
1 0 10 1 0 10 1 0 10 1 0 10 1 0 10 1 0 10 1 0 10 1 0 10 1 0 10 1 0 10
1 0 10 1 0 10 1 0 10 1 0 10 1 0 10 1 0 10 2 1 20 2 1 20 2 1 20 2 1 20
2 1 20 2 1 20 2 1 20 2 1 20 2 1 20 2 1 20 2 1 20 2 1 20 2 1 20 2 1 20
2 1 20 2 1 20 2 1 20 2 1 20 2 1 20 2 1 20 2 1 20 2 1 20 2 1 20 2 1 20
2 1 20 2 1 20 2 1 20 2 1 20 2 1 20 2 1 20 2 1 20 2 1 20 5 9 15 5 9 15
5 9 16 5 9 16 5 9 16 5 9 16 5 9 16 5 9 16 5 9 16 5 9 15 5 9 15 5 9 15
5 9 15 5 9 14 4 8 14 4 8 14 4 8 13 4 8 13 4 8 13 4 7 12 4 7 12 4 7 12
4 7 11 3 6 11 3 6 10 3 6 10 3 6 10 3 5 9 3 5 9 3 5 8 2 5 8 2 4 7 2 4 7
2 4 6 2 3 5 2 3 5 1 2 4 1 2 3 1 2 3 1 1 2 1 1 2 1 1 2 1 1 2 2 1 19 2 1
19 2 1 19 2 1 19 2 1 19 2 1 19 2 1 19 2 1 19 2 1 19 4 8 89 4 9 94 3 9
85 3 9 85 3 9 85 3 9 84 3 9 84 3 8 83 3 8 83 3 8 82 3 8 82
2 1 20 2 1 20 2 1 20 2 1 20 2 1 20 2 1 20 2 1 20 2 1 20 2 1 20 2 1 20
2 1 20 2 1 20 2 1 20 2 1 20 2 1 20 2 1 20 2 1 20 2 1 20 2 1 20 2 1 20
2 1 20 2 1 20 2 1 20 2 1 20 2 1 21 2 1 21 2 1 21 2 1 21 2 1 21 3 1 21
3 1 21 3 1 21 3 1 21 3 1 21 3 1 21 3 1 21 3 1 21 3 1 21 3 1 21 3 1 21
3 1 21 3 1 21 3 1 21 3 1 21 3 1 21 3 1 21 3 1 21 3 1 21 3 1 21 3 1 21
3 1 21 3 1 21 3 1 21 3 1 21 3 1 21 3 1 21 3 1 21 3 1 21 3 1 21 3 1 21
3 1 21 3 1 21 3 1 21 3 1 21 3 1 21 3 1 21 3 1 21 3 1 21 3 1 21 3 1 21
3 1 21 3 1 21 3 1 21 3 1 21 3 1 21 3 1 21 3 1 22 3 1 22 3 1 22 3 1 22
3 1 22 3 1 22 3 1 22 3 1 22 3 1 22 3 1 22 3 1 22 3 1 22 3 1 22 3 1 22
3 1 22 3 1 22 0 0 70 0 0 81 0 0 89 0 1 95 0 1 101 0 1 105 0 1 109 0 1
113 0 1 116 0 1 118 0 1 121 0 1 123 0 1 125 1 1 126 1 1 127 1 1 128 1
1 129 1 1 129 1 1 129 1 1 129 1 1 129 1 1 128 1 1 128 1 1 127 1 1 125
0 1 124 0 1 122 0 1 121 0 1 118 0 1 116 0 1 114 0 1 111 0 1 108 0 1
104 0 1 100 0 1 96 0 0 92 0 0 87 0 0 81 0 0 75 0 0 68 0 0 60 0 0 49 0
0 42 1 0 10 1 0 10 1 0 10 1 0 10 1 0 10 1 0 10 1 0 10 1 0 10 1 0 10 1
0 10 1 0 10 1 0 10 1 0 10 1 0 10 1 0 10 1 0 10 5 3 79 6 3 94 6 3 102 7
4 108 7 4 112 7 4 115 7 4 118 7 4 121 8 4 126 8 4 127 8 4 129 8 5 121
8 5 121 8 5 121 8 5 121 8 5 121 8 5 121 8 5 121 8 5 121 8 5 123 8 5
122 8 5 121 8 5 120 8 5 116 8 5 115 8 5 113 8 5 112 8 5 110 7 5 108 7
5 106 7 5 104 7 5 101 7 4 99 7 4 96 4 3 45 4 3 45 4 3 45 4 3 45 4 3 45
3 3 14 3 3 14 3 3 14 3 3 14 3 3 14 3 3 14 10 11 54 10 11 53 10 10 52 9
10 51 9 10 50 9 10 49 9 10 48 9 9 47 8 9 46 8 9 45 10 13 50 10 12 48 9
11 46 8 10 43 8 9 40 7 8 37 7 7 36 6 7 34 6 6 32 6 6 30 5 6 29 5 5 27
5 5 25 4 5 23 4 4 21 3 4 18 3 3 16 3 3 14 3 3 14 3 3 18 3 3 17 1 0 10
1 0 10 1 0 10 1 0 10 1 0 10 1 0 10 1 0 10 1 0 10 1 0 10 1 0 10 1 0 10
1 0 10 1 0 10 1 0 10 1 0 10 1 0 10 1 0 10 1 0 10 1 0 10 1 0 10 1 0 10
1 0 10 1 0 10 1 0 10 1 0 10 1 0 10 1 0 10 1 0 10 1 0 10 1 0 10 1 0 10
1 0 10 1 0 10 1 0 10 1 0 10 1 0 10 1 0 10 1 0 10 1 0 10 1 0 10 1 0 10
1 0 10 1 0 10 1 0 10 1 0 10 1 0 10 1 0 10 1 0 10 1 0 10 1 0 10 1 0 10
1 0 10 1 0 10 1 0 10 1 0 10 1 0 10 1 0 10 1 0 10 1 0 10 1 0 10 1 0 10
1 0 10 1 0 10 1 0 10 1 0 10 1 0 10 1 0 10 1 0 10 1 0 10 1 0 10 1 0 10
1 0 10 1 0 10 1 0 10 1 0 10 2 1 20 2 1 20 2 1 20 2 1 20 2 1 20 2 1 20
2 1 20 2 1 20 2 1 20 2 1 20 2 1 20 2 1 20 2 1 20 2 1 20 2 1 20 2 1 20
2 1 20 2 1 20 2 1 20 2 1 20 2 1 20 2 1 20 2 1 20 2 1 20 2 1 20 2 1 20
2 1 20 2 1 20 2 1 20 2 1 20 2 1 20 2 1 20 2 1 20 2 1 20 2 1 20 2 1 20
4 8 13 4 8 14 5 9 14 5 9 15 5 9 15 5 9 15 5 9 14 5 9 14 5 8 14 4 8 14
4 8 14 4 8 13 4 8 13 4 8 13 4 7 13 4 7 12 4 7 12 4 7 12 4 7 11 3 6 11
3 6 10 3 6 10 3 6 10 3 5 9 3 5 9 3 5 8 2 5 8 2 4 7 2 4 7 2 4 6 2 3 6 2
3 5 1 3 4 1 2 4 1 2 3 1 1 2 1 1 2 1 1 2 2 1 19 2 1 19 2 1 19 2 1 19 2
1 19 2 1 19 2 1 19 2 1 19 2 1 19 2 1 19 2 1 19 2 1 19 2 1 19 2 1 19 4
8 90 3 8 83 3 8 83 3 8 83 3 8 83 3 8 83 3 8 82 3 8 82 3 8 81
2 1 20 2 1 20 2 1 20 2 1 20 2 1 20 2 1 20 2 1 20 2 1 20 2 1 20 2 1 20
2 1 20 2 1 20 2 1 20 2 1 21 2 1 21 2 1 21 2 1 21 2 1 21 2 1 21 3 1 21
3 1 21 3 1 21 3 1 21 3 1 21 3 1 21 3 1 21 3 1 21 3 1 21 3 1 21 3 1 21
3 1 21 3 1 21 3 1 21 3 1 21 3 1 21 3 1 21 3 1 21 3 1 21 3 1 21 3 1 21
3 1 21 3 1 21 3 1 21 3 1 21 3 1 21 3 1 21 3 1 21 3 1 21 3 1 21 3 1 21
3 1 21 3 1 21 3 1 21 3 1 21 3 1 21 3 1 21 3 1 21 3 1 21 3 1 21 3 1 21
3 1 21 3 1 21 3 1 22 3 1 22 3 1 22 3 1 22 3 1 22 3 1 22 3 1 22 3 1 22
3 1 22 3 1 22 3 1 22 3 1 22 3 1 22 3 1 22 3 1 22 3 1 22 3 1 22 3 1 22
3 1 22 3 1 22 3 1 22 3 1 22 3 1 22 3 1 22 3 1 22 3 1 22 3 1 22 3 1 22
3 1 22 3 1 22 0 0 71 0 0 82 0 0 90 0 1 96 0 1 102 0 1 106 0 1 111 0 1
114 0 1 117 0 1 120 0 1 122 0 1 124 1 1 126 1 1 127 1 1 128 1 1 129 1
1 130 1 1 131 1 1 131 1 1 132 1 1 132 1 1 131 1 1 129 1 1 128 1 1 127
1 1 125 0 1 124 0 1 122 0 1 120 0 1 118 0 1 115 0 1 112 0 1 109 0 1
106 0 1 102 0 1 98 0 0 93 0 0 88 0 0 83 0 0 77 0 0 70 0 0 61 0 0 51 0
0 42 1 0 10 1 0 10 1 0 10 1 0 10 1 0 10 1 0 10 1 0 10 1 0 10 1 0 10 1
0 10 1 0 10 1 0 10 1 0 10 1 0 10 1 0 10 1 0 10 5 3 85 6 3 97 6 3 104 7
4 110 7 4 114 7 4 117 8 4 123 8 4 126 8 4 128 8 4 129 8 4 130 8 5 122
8 5 123 8 5 123 8 5 123 8 5 123 8 5 123 8 5 123 8 5 125 8 5 124 8 5
124 8 5 123 8 5 122 8 5 122 8 5 116 8 5 115 8 5 113 8 5 111 7 5 109 7
5 107 7 5 105 4 3 45 4 3 45 4 3 45 4 3 45 4 3 45 4 3 45 4 3 45 4 3 45
3 3 14 3 3 14 3 3 14 3 3 14 3 3 14 3 3 14 3 3 14 10 11 53 10 11 52 9
10 52 9 10 51 9 10 50 9 10 49 9 11 57 9 9 46 8 9 45 10 13 51 10 12 49
9 11 47 9 10 44 8 9 41 7 8 38 7 8 36 6 7 34 6 7 33 6 6 31 5 6 29 5 5
27 5 5 25 4 5 23 4 4 21 3 4 19 3 3 16 3 3 14 3 3 17 3 3 18 3 3 17 1 0
10 1 0 10 1 0 10 1 0 10 1 0 10 1 0 10 1 0 10 1 0 10 1 0 10 1 0 10 1 0
10 1 0 10 1 0 10 1 0 10 1 0 10 1 0 10 1 0 10 1 0 10 1 0 10 1 0 10 1 0
10 1 0 10 1 0 10 1 0 10 1 0 10 1 0 10 1 0 10 1 0 10 1 0 10 1 0 10 1 0
10 1 0 10 1 0 10 1 0 10 1 0 10 1 0 10 1 0 10 1 0 10 1 0 10 1 0 10 1 0
10 1 0 10 1 0 10 1 0 10 1 0 10 1 0 10 1 0 10 1 0 10 1 0 10 1 0 10 1 0
10 1 0 10 1 0 10 1 0 10 1 0 10 1 0 10 1 0 10 1 0 10 1 0 10 1 0 10 1 0
10 1 0 10 1 0 10 1 0 10 1 0 10 1 0 10 1 0 10 1 0 10 1 0 10 1 0 10 1 0
10 1 0 10 1 0 10 1 0 10 3 1 21 3 1 21 3 1 21 2 1 21 2 1 21 2 1 21 2 1
21 2 1 21 2 1 20 2 1 20 2 1 20 2 1 20 2 1 20 2 1 20 2 1 20 2 1 20 2 1
20 2 1 20 2 1 20 2 1 20 2 1 20 2 1 20 2 1 20 2 1 20 2 1 20 2 1 20 2 1
20 2 1 20 2 1 20 2 1 20 2 1 20 2 1 20 2 1 20 2 1 20 2 1 20 2 1 20 2 1
20 2 1 20 2 1 20 2 1 20 4 7 11 4 7 12 4 8 13 4 8 13 4 8 13 4 8 13 4 8
13 4 7 13 4 7 12 4 7 12 4 7 12 4 7 12 4 7 11 3 7 11 3 6 11 3 6 10 3 6
10 3 6 9 3 5 9 3 5 9 3 5 8 2 5 8 2 4 7 2 4 7 2 4 6 2 3 5 2 3 5 1 2 4 1
2 3 1 2 3 1 1 2 2 1 19 2 1 19 2 1 19 2 1 19 2 1 19 2 1 19 2 1 19 2 1
19 2 1 19 2 1 19 2 1 19 2 1 19 2 1 19 2 1 19 2 1 19 2 1 19 2 1 19 2 1
19 2 1 19 2 1 19 4 8 90 3 8 82 3 8 82 3 8 81 3 8 81 3 8 81 3 8 80
2 1 20 2 1 20 2 1 20 2 1 20 2 1 21 2 1 21 2 1 21 2 1 21 2 1 21 3 1 21
3 1 21 3 1 21 3 1 21 3 1 21 3 1 21 3 1 21 3 1 21 3 1 21 3 1 21 3 1 21
3 1 21 3 1 21 3 1 21 3 1 21 3 1 21 3 1 21 3 1 21 3 1 21 3 1 21 3 1 21
3 1 21 3 1 21 3 1 21 3 1 21 3 1 21 3 1 21 3 1 21 3 1 21 3 1 21 3 1 21
3 1 21 3 1 21 3 1 21 3 1 21 3 1 21 3 1 21 3 1 21 3 1 21 3 1 21 3 1 21
3 1 22 3 1 22 3 1 22 3 1 22 3 1 22 3 1 22 3 1 22 3 1 22 3 1 22 3 1 22
3 1 22 3 1 22 3 1 22 3 1 22 3 1 22 3 1 22 3 1 22 3 1 22 3 1 22 3 1 22
3 1 22 3 1 22 3 1 22 3 1 22 3 1 22 3 1 22 3 1 22 3 1 22 3 1 22 3 1 22
3 1 22 3 1 22 3 1 22 3 1 22 3 1 22 3 1 22 3 1 22 3 1 22 3 1 22 3 1 22
3 1 22 3 1 22 0 0 72 0 0 83 0 0 91 0 1 97 0 1 103 0 1 107 0 1 111 0 1
115 0 1 118 0 1 121 0 1 123 1 1 125 1 1 127 1 1 128 1 1 130 1 1 130 1
1 131 1 1 133 1 1 135 1 1 137 1 1 138 1 1 136 1 1 132 1 1 130 1 1 128
1 1 127 1 1 125 0 1 123 0 1 121 0 1 119 0 1 116 0 1 113 0 1 110 0 1
107 0 1 103 0 1 99 0 1 94 0 0 90 0 0 84 0 0 78 0 0 71 0 0 63 0 0 52 0
0 42 1 0 10 1 0 10 1 0 10 1 0 10 1 0 10 1 0 10 1 0 10 1 0 10 1 0 10 1
0 10 1 0 10 1 0 10 1 0 10 1 0 10 1 0 10 1 0 10 6 3 89 6 3 99 7 4 106 7
4 111 7 4 116 8 4 122 8 4 125 8 4 127 8 4 129 8 4 131 8 5 122 8 5 124
8 5 124 8 5 125 8 5 124 8 5 124 8 5 124 8 5 127 8 5 126 8 5 126 8 5
125 8 5 124 8 5 123 8 5 124 8 5 117 8 5 116 8 5 114 8 5 112 8 5 111 7
5 108 4 3 45 4 3 45 4 3 45 4 3 45 4 3 45 4 3 45 4 3 45 4 3 45 4 3 45 3
3 14 3 3 14 3 3 14 3 3 14 3 3 14 3 3 14 3 3 14 3 3 14 3 3 14 10 10 52
9 10 51 9 10 50 10 12 69 9 11 65 9 11 58 9 10 55 11 14 52 12 15 78 9
12 48 9 11 45 8 10 42 7 8 39 7 8 37 6 7 35 6 7 33 6 6 31 5 6 30 5 6 28
5 5 26 4 5 24 4 4 22 4 4 19 3 3 17 3 3 14 3 3 18 3 3 19 3 3 20 3 3 17
1 0 10 1 0 10 1 0 10 1 0 10 1 0 10 1 0 10 1 0 10 1 0 10 1 0 10 1 0 10
1 0 10 1 0 10 1 0 10 1 0 10 1 0 10 1 0 10 1 0 10 1 0 10 1 0 10 1 0 10
1 0 10 1 0 10 1 0 10 1 0 10 1 0 10 1 0 10 1 0 10 1 0 10 1 0 10 1 0 10
1 0 10 1 0 10 1 0 10 1 0 10 1 0 10 1 0 10 1 0 10 1 0 10 1 0 10 1 0 10
1 0 10 1 0 10 1 0 10 1 0 10 1 0 10 1 0 10 1 0 10 1 0 10 1 0 10 1 0 10
1 0 10 1 0 10 1 0 10 1 0 10 1 0 10 1 0 10 1 0 10 1 0 10 1 0 10 1 0 10
1 0 10 1 0 10 1 0 10 1 0 10 1 0 10 1 0 10 1 0 10 1 0 10 1 0 10 1 0 10
1 0 10 3 1 21 3 1 21 3 1 21 3 1 21 3 1 21 3 1 21 3 1 21 3 1 21 3 1 21
3 1 21 3 1 21 3 1 21 3 1 21 2 1 21 2 1 21 2 1 21 2 1 21 2 1 21 2 1 20
2 1 20 2 1 20 2 1 20 2 1 20 2 1 20 2 1 20 2 1 20 2 1 20 2 1 20 2 1 20
2 1 20 2 1 20 2 1 20 2 1 20 2 1 20 2 1 20 2 1 20 2 1 20 2 1 20 2 1 20
2 1 20 2 1 20 2 1 20 2 1 20 2 1 20 2 1 20 2 1 20 2 1 20 3 6 10 3 6 11
3 6 11 3 6 11 3 6 11 3 6 10 3 6 10 3 6 10 3 6 10 3 6 9 3 5 9 3 5 9 3 5
8 2 5 8 2 4 7 2 4 7 2 4 6 2 3 6 2 3 5 1 3 4 1 2 3 1 1 2 2 1 19 2 1 19
2 1 19 2 1 19 2 1 19 2 1 19 2 1 19 2 1 19 2 1 19 2 1 19 2 1 19 2 1 19
2 1 19 2 1 19 2 1 19 2 1 19 2 1 19 2 1 19 2 1 19 2 1 19 2 1 19 2 1 19
2 1 19 2 1 19 2 1 19 2 1 19 4 8 88 3 8 80 3 8 80 2 8 80 2 8 79
3 1 21 3 1 21 3 1 21 3 1 21 3 1 21 3 1 21 3 1 21 3 1 21 3 1 21 3 1 21
3 1 21 3 1 21 3 1 21 3 1 21 3 1 21 3 1 21 3 1 21 3 1 21 3 1 21 3 1 21
3 1 21 3 1 21 3 1 21 3 1 21 3 1 21 3 1 21 3 1 21 3 1 21 3 1 21 3 1 21
3 1 21 3 1 21 3 1 21 3 1 21 3 1 21 3 1 21 3 1 21 3 1 21 3 1 21 3 1 22
3 1 22 3 1 22 3 1 22 3 1 22 3 1 22 3 1 22 3 1 22 3 1 22 3 1 22 3 1 22
3 1 22 3 1 22 3 1 22 3 1 22 3 1 22 3 1 22 3 1 22 3 1 22 3 1 22 3 1 22
3 1 22 3 1 22 3 1 22 3 1 22 3 1 22 3 1 22 3 1 22 3 1 22 3 1 22 3 1 22
3 1 22 3 1 22 3 1 22 3 1 22 3 1 22 3 1 22 3 1 22 3 1 22 3 1 22 3 1 22
3 1 22 3 1 22 3 1 22 3 1 22 3 1 22 3 1 22 3 1 22 3 1 22 3 1 22 3 1 22
3 1 23 3 1 23 0 0 72 0 0 83 0 0 91 0 1 98 0 1 103 0 1 108 0 1 112 0 1
116 0 1 119 0 1 122 0 1 124 1 1 126 1 1 128 1 1 129 1 1 130 1 1 131 1
1 132 1 1 135 1 1 139 1 2 145 1 2 147 1 2 143 1 1 137 1 1 132 1 1 129
1 1 128 1 1 126 0 1 124 0 1 122 0 1 120 0 1 117 0 1 114 0 1 111 0 1
108 0 1 104 0 1 100 0 1 95 0 0 90 0 0 85 0 0 79 0 0 72 0 0 64 0 0 53 0
0 42 1 0 10 1 0 10 1 0 10 1 0 10 1 0 10 1 0 10 1 0 10 1 0 10 1 0 10 1
0 10 1 0 10 1 0 10 1 0 10 1 0 10 1 0 10 1 0 10 6 3 91 6 3 101 7 4 108
7 4 116 8 4 120 8 4 124 8 4 126 8 4 129 8 4 131 8 4 132 8 5 124 9 5
125 9 5 126 9 5 126 9 5 126 8 5 126 8 5 125 8 5 128 8 5 127 8 5 127 8
5 126 8 5 125 8 5 125 8 5 125 8 5 119 8 5 117 8 5 115 7 4 74 5 3 32 6
4 34 3 1 21 3 1 20 3 1 17 7 6 39 5 3 57 4 3 45 4 3 45 4 3 45 4 3 45 3
3 14 3 3 14 3 3 14 3 3 14 3 3 14 3 3 14 3 3 14 3 3 14 3 3 14 10 11 52
9 10 51 10 13 75 10 12 74 9 12 69 10 13 65 9 10 56 11 14 53 10 13 51
10 12 48 9 11 45 8 10 42 7 8 39 7 8 37 6 7 35 6 7 33 6 6 32 6 6 30 5 6
28 5 5 26 4 5 24 4 4 22 4 4 20 3 3 17 3 3 18 3 3 18 3 3 19 3 3 20 3 3
17 1 0 10 1 0 10 1 0 10 1 0 10 1 0 10 1 0 10 1 0 10 1 0 10 1 0 10 1 0
10 1 0 10 1 0 10 1 0 10 1 0 10 1 0 10 1 0 10 1 0 10 1 0 10 1 0 10 1 0
10 1 0 10 1 0 10 1 0 10 1 0 10 1 0 10 1 0 10 1 0 10 1 0 10 1 0 10 1 0
10 1 0 10 1 0 10 1 0 10 1 0 10 1 0 10 1 0 10 1 0 10 1 0 10 1 0 10 1 0
10 1 0 10 1 0 10 1 0 10 1 0 10 1 0 10 1 0 10 1 0 10 1 0 10 1 0 10 1 0
10 1 0 10 1 0 10 1 0 10 1 0 10 1 0 10 1 0 10 1 0 10 1 0 10 1 0 10 1 0
10 1 0 10 1 0 10 1 0 10 1 0 10 1 0 10 1 0 10 1 0 10 1 0 10 1 0 10 3 1
21 3 1 21 3 1 21 3 1 21 3 1 21 3 1 21 3 1 21 3 1 21 3 1 21 3 1 21 3 1
21 3 1 21 3 1 21 3 1 21 3 1 21 3 1 21 3 1 21 3 1 21 3 1 21 3 1 21 3 1
21 3 1 21 3 1 21 3 1 21 2 1 21 2 1 21 2 1 21 2 1 21 2 1 20 2 1 20 2 1
20 2 1 20 2 1 20 2 1 20 2 1 20 2 1 20 2 1 20 2 1 20 2 1 20 2 1 20 2 1
20 2 1 20 2 1 20 2 1 20 2 1 20 2 1 20 2 1 20 2 1 20 2 1 20 2 1 20 2 1
20 2 1 20 2 1 20 2 1 20 2 1 20 2 1 20 2 1 20 2 4 6 2 4 6 2 4 6 2 3 6 2
3 5 2 1 20 2 1 20 2 1 20 2 1 20 2 1 20 2 1 20 2 1 20 2 1 20 2 1 20 2 1
20 2 1 20 2 1 19 2 1 19 2 1 19 2 1 19 2 1 19 2 1 19 2 1 19 2 1 19 2 1
19 2 1 19 2 1 19 2 1 19 2 1 19 2 1 19 2 1 19 2 1 19 2 1 19 2 1 19 2 1
19 2 1 19 2 1 19 2 1 19 2 1 19 2 1 19 2 1 19 2 1 19 4 8 86 2 8 78 2 8
78
3 1 21 3 1 21 3 1 21 3 1 21 3 1 21 3 1 21 3 1 21 3 1 21 3 1 21 3 1 21
3 1 21 3 1 21 3 1 21 3 1 21 3 1 21 3 1 21 3 1 21 3 1 21 3 1 21 3 1 21
3 1 21 3 1 21 3 1 21 3 1 21 3 1 21 3 1 21 3 1 21 3 1 21 3 1 21 3 1 22
3 1 22 3 1 22 3 1 22 3 1 22 3 1 22 3 1 22 3 1 22 3 1 22 3 1 22 3 1 22
3 1 22 3 1 22 3 1 22 3 1 22 3 1 22 3 1 22 3 1 22 3 1 22 3 1 22 3 1 22
3 1 22 3 1 22 3 1 22 3 1 22 3 1 22 3 1 22 3 1 22 3 1 22 3 1 22 3 1 22
3 1 22 3 1 22 3 1 22 3 1 22 3 1 22 3 1 22 3 1 22 3 1 22 3 1 22 3 1 22
3 1 22 3 1 22 3 1 22 3 1 22 3 1 22 3 1 23 3 1 23 3 1 23 3 1 23 3 1 23
3 1 23 3 1 23 3 1 23 3 1 23 3 1 23 3 1 23 3 1 23 3 1 23 3 1 23 3 1 23
3 1 23 3 1 23 0 0 71 0 0 83 0 0 91 0 1 98 0 1 103 0 1 108 0 1 112 0 1
116 0 1 119 0 1 122 0 1 124 1 1 127 1 1 128 1 1 130 1 1 131 1 1 132 1
1 133 1 1 136 1 2 143 2 2 151 2 3 155 2 2 150 1 1 140 1 1 133 1 1 130
1 1 128 1 1 127 0 1 125 0 1 123 0 1 120 0 1 118 0 1 115 0 1 112 0 1
108 0 1 105 0 1 101 0 1 96 0 0 91 0 0 86 0 0 79 0 0 72 0 0 64 0 0 54 0
0 42 1 0 10 1 0 10 1 0 10 1 0 10 1 0 10 1 0 10 1 0 10 1 0 10 1 0 10 1
0 10 1 0 10 1 0 10 1 0 10 1 0 10 1 0 10 1 0 10 6 3 93 6 3 103 7 4 112
7 4 117 8 4 121 8 4 125 8 4 128 8 4 130 8 4 132 8 4 133 8 5 125 9 5
126 9 5 127 9 5 127 9 5 127 9 5 127 9 5 127 9 5 129 9 5 128 8 5 128 8
5 127 8 5 126 8 5 126 8 5 126 8 5 120 7 3 84 9 6 50 10 8 57 9 6 50 4 2
28 4 2 27 4 2 25 4 1 23 3 1 20 3 1 17 6 5 38 4 2 38 4 3 45 4 3 45 3 3
14 3 3 14 3 3 14 3 3 14 3 3 14 3 3 14 3 3 14 3 3 14 3 3 14 3 3 14 10
10 52 10 13 77 11 13 81 11 12 80 10 11 69 9 10 60 8 9 45 10 13 51 10
12 48 9 11 46 8 10 43 7 8 39 7 8 37 6 7 35 6 7 34 6 6 32 6 6 30 5 6 28
5 5 26 4 5 24 4 4 22 4 4 20 4 4 21 3 3 19 3 3 19 3 3 19 3 3 20 3 3 17
1 0 10 1 0 10 1 0 10 1 0 10 1 0 10 1 0 10 1 0 10 1 0 10 1 0 10 1 0 10
1 0 10 1 0 10 1 0 10 1 0 10 1 0 10 1 0 10 1 0 10 1 0 10 1 0 10 1 0 10
1 0 10 1 0 10 1 0 10 1 0 10 1 0 10 1 0 10 1 0 10 1 0 10 1 0 10 1 0 10
1 0 10 1 0 10 1 0 10 1 0 10 1 0 10 1 0 10 1 0 10 1 0 10 1 0 10 1 0 10
1 0 10 1 0 10 1 0 10 1 0 10 1 0 10 1 0 10 1 0 10 1 0 10 1 0 10 1 0 10
1 0 10 1 0 10 1 0 10 1 0 10 1 0 10 1 0 10 1 0 10 1 0 10 1 0 10 1 0 10
1 0 10 1 0 10 1 0 10 1 0 10 1 0 10 1 0 10 1 0 10 3 1 21 3 1 21 3 1 21
3 1 21 3 1 21 3 1 21 3 1 21 3 1 21 3 1 21 3 1 21 3 1 21 3 1 21 3 1 21
3 1 21 3 1 21 3 1 21 3 1 21 3 1 21 3 1 21 3 1 21 3 1 21 3 1 21 3 1 21
3 1 21 3 1 21 3 1 21 3 1 21 3 1 21 3 1 21 3 1 21 3 1 21 3 1 21 3 1 21
2 1 21 2 1 21 2 1 21 2 1 21 2 1 21 2 1 20 2 1 20 2 1 20 2 1 20 2 1 20
2 1 20 2 1 20 2 1 20 2 1 20 2 1 20 2 1 20 2 1 20 2 1 20 2 1 20 2 1 20
2 1 20 2 1 20 2 1 20 2 1 20 2 1 20 2 1 20 2 1 20 2 1 20 2 1 20 2 1 20
2 1 20 2 1 20 2 1 20 2 1 20 2 1 20 2 1 20 2 1 20 2 1 20 2 1 20 2 1 20
2 1 20 2 1 20 2 1 20 2 1 20 2 1 20 2 1 20 2 1 20 2 1 20 2 1 20 2 1 19
2 1 19 2 1 19 2 1 19 2 1 19 2 1 19 2 1 19 2 1 19 2 1 19 2 1 19 2 1 19
2 1 19 2 1 19 2 1 19 2 1 19 2 1 19 2 1 19 2 1 19 2 1 19 2 1 19 2 1 19
4 7 82
3 1 21 3 1 21 3 1 21 3 1 21 3 1 21 3 1 21 3 1 21 3 1 21 3 1 21 3 1 21
3 1 21 3 1 21 3 1 21 3 1 21 3 1 21 3 1 21 3 1 21 3 1 21 3 1 21 3 1 22
3 1 22 3 1 22 3 1 22 3 1 22 3 1 22 3 1 22 3 1 22 3 1 22 3 1 22 3 1 22
3 1 22 3 1 22 3 1 22 3 1 22 3 1 22 3 1 22 3 1 22 3 1 22 3 1 22 3 1 22
3 1 22 3 1 22 3 1 22 3 1 22 3 1 22 3 1 22 3 1 22 3 1 22 3 1 22 3 1 22
3 1 22 3 1 22 3 1 22 3 1 22 3 1 22 3 1 22 3 1 22 3 1 22 3 1 22 3 1 22
3 1 22 3 1 22 3 1 23 3 1 23 3 1 23 3 1 23 3 1 23 3 1 23 3 1 23 3 1 23
3 1 23 3 1 23 3 1 23 3 1 23 3 1 23 3 1 23 3 1 23 3 1 23 3 1 23 3 1 23
3 1 23 3 1 23 3 1 23 3 1 23 3 1 23 3 1 23 3 1 23 3 1 23 3 1 23 3 1 23
3 1 23 3 1 23 0 0 69 0 0 82 0 0 91 0 1 98 0 1 103 0 1 108 0 1 113 0 1
116 0 1 119 0 1 122 0 1 125 1 1 127 1 1 129 1 1 130 1 1 131 1 1 132 1
1 134 1 1 136 1 1 142 1 2 150 2 3 154 1 2 149 1 1 140 1 1 134 1 1 131
1 1 129 1 1 127 1 1 125 0 1 123 0 1 121 0 1 118 0 1 115 0 1 112 0 1
109 0 1 105 0 1 101 0 1 96 0 0 91 0 0 86 0 0 80 0 0 72 0 0 64 0 0 53 0
0 42 1 0 10 1 0 10 1 0 10 1 0 10 1 0 10 1 0 10 1 0 10 1 0 10 1 0 10 1
0 10 1 0 10 1 0 10 1 0 10 1 0 10 1 0 10 1 0 10 6 3 98 7 4 107 7 4 114
8 4 118 8 4 122 8 4 126 8 4 129 8 4 131 8 4 133 8 4 134 9 5 126 9 5
127 9 5 128 9 5 128 9 5 129 9 5 128 9 5 128 9 5 130 9 5 129 9 5 129 8
5 128 8 5 127 8 5 127 8 5 128 8 4 88 9 7 54 5 2 32 5 2 32 5 2 32 5 2
31 5 2 30 4 2 29 4 2 27 4 1 24 3 1 21 3 1 18 2 1 15 4 2 23 4 3 46 3 3
19 3 3 14 3 3 14 3 3 14 3 3 14 3 3 14 3 3 14 3 3 14 3 3 14 3 3 14 10
11 52 9 10 51 11 13 83 10 12 73 9 11 66 9 10 58 8 9 45 8 9 44 10 12 48
9 11 45 8 9 42 7 8 39 7 7 37 7 7 36 6 7 34 6 7 32 6 6 31 5 6 29 5 5 27
5 5 25 4 5 23 4 4 23 4 4 22 3 3 19 3 3 19 3 3 20 3 3 20 3 3 17 1 0 10
1 0 10 1 0 10 1 0 10 1 0 10 1 0 10 1 0 10 1 0 10 1 0 10 1 0 10 1 0 10
1 0 10 1 0 10 1 0 10 1 0 10 1 0 10 1 0 10 1 0 10 1 0 10 1 0 10 1 0 10
1 0 10 1 0 10 1 0 10 1 0 10 1 0 10 1 0 10 1 0 10 1 0 10 1 0 10 1 0 10
1 0 10 1 0 10 1 0 10 1 0 10 1 0 10 1 0 10 1 0 10 1 0 10 1 0 10 1 0 10
1 0 10 1 0 10 1 0 10 1 0 10 1 0 10 1 0 10 1 0 10 1 0 10 1 0 10 1 0 10
1 0 10 1 0 10 1 0 10 1 0 10 1 0 10 1 0 10 1 0 10 1 0 10 1 0 10 1 0 10
1 0 10 1 0 10 1 0 10 1 0 10 3 1 22 3 1 22 3 1 22 3 1 22 3 1 22 3 1 22
3 1 21 3 1 21 3 1 21 3 1 21 3 1 21 3 1 21 3 1 21 3 1 21 3 1 21 3 1 21
3 1 21 3 1 21 3 1 21 3 1 21 3 1 21 3 1 21 3 1 21 3 1 21 3 1 21 3 1 21
3 1 21 3 1 21 3 1 21 3 1 21 3 1 21 3 1 21 3 1 21 3 1 21 3 1 21 3 1 21
3 1 21 3 1 21 3 1 21 3 1 21 3 1 21 3 1 21 3 1 21 2 1 21 2 1 21 2 1 21
2 1 21 2 1 21 2 1 20 2 1 20 2 1 20 2 1 20 2 1 20 2 1 20 2 1 20 2 1 20
2 1 20 2 1 20 2 1 20 2 1 20 2 1 20 2 1 20 2 1 20 2 1 20 2 1 20 2 1 20
2 1 20 2 1 20 2 1 20 2 1 20 2 1 20 2 1 20 2 1 20 2 1 20 2 1 20 2 1 20
2 1 20 2 1 20 2 1 20 2 1 20 2 1 20 2 1 20 2 1 20 2 1 20 2 1 20 2 1 20
2 1 20 2 1 20 2 1 20 2 1 20 2 1 20 2 1 19 2 1 19 2 1 19 2 1 19 2 1 19
2 1 19 2 1 19 2 1 19 2 1 19 2 1 19 2 1 19 2 1 19 2 1 19 2 1 19 2 1 19
3 1 21 3 1 21 3 1 21 3 1 21 3 1 21 3 1 21 3 1 21 3 1 21 3 1 21 3 1 21
3 1 22 3 1 22 3 1 22 3 1 22 3 1 22 3 1 22 3 1 22 3 1 22 3 1 22 3 1 22
3 1 22 3 1 22 3 1 22 3 1 22 3 1 22 3 1 22 3 1 22 3 1 22 3 1 22 3 1 22
3 1 22 3 1 22 3 1 22 3 1 22 3 1 22 3 1 22 3 1 22 3 1 22 3 1 22 3 1 22
3 1 22 3 1 22 3 1 22 3 1 22 3 1 22 3 1 22 3 1 22 3 1 22 3 1 22 3 1 22
3 1 22 3 1 23 3 1 23 3 1 23 3 1 23 3 1 23 3 1 23 3 1 23 3 1 23 3 1 23
3 1 23 3 1 23 3 1 23 3 1 23 3 1 23 3 1 23 3 1 23 3 1 23 3 1 23 3 1 23
3 1 23 3 1 23 3 1 23 3 1 23 3 1 23 3 1 23 3 1 23 3 1 23 3 1 23 3 1 23
3 1 23 3 1 23 3 1 23 3 1 23 3 1 23 3 1 23 3 1 23 3 1 23 3 1 23 3 1 23
3 1 23 3 1 23 0 0 65 0 0 80 0 0 90 0 1 97 0 1 103 0 1 108 0 1 112 0 1
116 0 1 119 0 1 122 0 1 125 1 1 127 1 1 129 1 1 130 1 1 131 1 1 132 1
1 133 1 1 135 1 1 138 1 2 143 1 2 145 1 2 142 1 1 137 1 1 133 1 1 131
1 1 129 1 1 127 1 1 126 0 1 123 0 1 121 0 1 118 0 1 116 0 1 112 0 1
109 0 1 105 0 1 101 0 1 96 0 0 91 0 0 86 0 0 79 0 0 72 0 0 64 0 0 52 0
0 42 1 0 10 1 0 10 1 0 10 1 0 10 1 0 10 1 0 10 1 0 10 1 0 10 1 0 10 1
0 10 1 0 10 1 0 10 1 0 10 1 0 10 1 0 10 3 1 24 6 3 98 7 4 108 7 4 114
8 4 119 8 4 123 8 4 127 8 4 129 8 4 132 8 4 133 9 5 135 9 5 126 9 5
128 9 5 129 9 5 129 9 5 129 9 5 129 9 5 129 9 5 131 9 6 131 9 6 131 9
6 130 8 5 128 8 5 128 8 4 92 5 2 33 5 2 35 5 2 36 5 2 36 5 2 35 5 2 34
5 2 33 5 2 32 5 2 30 4 2 27 4 2 25 3 1 22 3 1 18 2 1 15 4 2 23 3 3 19
3 3 19 3 3 14 3 3 14 3 3 14 3 3 14 3 3 14 3 3 14 3 3 14 3 3 14 3 3 14
9 10 51 9 10 54 10 12 72 10 11 62 9 9 47 8 9 46 8 9 44 8 9 43 8 8 42 7
8 40 7 8 39 7 8 37 7 7 36 6 7 34 6 7 33 6 6 31 5 6 29 5 5 27 5 5 28 5
5 26 4 4 25 4 4 22 3 3 20 3 3 20 3 3 20 3 3 20 3 3 17 1 0 10 1 0 10 1
0 10 1 0 10 1 0 10 1 0 10 1 0 10 1 0 10 1 0 10 1 0 10 1 0 10 1 0 10 1
0 10 1 0 10 1 0 10 1 0 10 1 0 10 1 0 10 1 0 10 1 0 10 1 0 10 1 0 10 1
0 10 1 0 10 1 0 10 1 0 10 1 0 10 1 0 10 1 0 10 1 0 10 1 0 10 1 0 10 1
0 10 1 0 10 1 0 10 1 0 10 1 0 10 1 0 10 1 0 10 1 0 10 1 0 10 1 0 10 1
0 10 1 0 10 1 0 10 1 0 10 1 0 10 1 0 10 1 0 10 1 0 10 1 0 10 1 0 10 1
0 10 1 0 10 1 0 10 1 0 10 1 0 10 1 0 10 1 0 10 1 0 10 1 0 10 1 0 10 1
0 10 1 0 10 3 1 22 3 1 22 3 1 22 3 1 22 3 1 22 3 1 22 3 1 22 3 1 22 3
1 22 3 1 22 3 1 22 3 1 22 3 1 22 3 1 22 3 1 22 3 1 21 3 1 21 3 1 21 3
1 21 3 1 21 3 1 21 3 1 21 3 1 21 3 1 21 3 1 21 3 1 21 3 1 21 3 1 21 3
1 21 3 1 21 3 1 21 3 1 21 3 1 21 3 1 21 3 1 21 3 1 21 3 1 21 3 1 21 3
1 21 3 1 21 3 1 21 3 1 21 3 1 21 3 1 21 3 1 21 3 1 21 3 1 21 3 1 21 3
1 21 3 1 21 3 1 21 2 1 21 2 1 21 2 1 21 2 1 21 2 1 21 2 1 20 2 1 20 2
1 20 2 1 20 2 1 20 2 1 20 2 1 20 0 1 9 0 1 9 0 1 9 0 1 9 0 1 9 0 1 9 0
1 9 0 1 9 0 1 9 0 1 9 0 1 9 0 1 9 0 1 9 0 1 9 0 1 9 0 1 9 0 1 9 0 1 9
0 1 9 0 1 9 0 1 9 0 1 9 0 1 9 2 1 20 2 1 20 2 1 20 2 1 20 2 1 20 2 1
20 2 1 20 2 1 20 2 1 20 2 1 20 2 1 20 2 1 20 2 1 20 2 1 19 2 1 19 2 1
19 2 1 19 2 1 19 2 1 19 2 1 19 2 1 19
3 1 21 3 1 22 3 1 22 3 1 22 3 1 22 3 1 22 3 1 22 3 1 22 3 1 22 3 1 22
3 1 22 3 1 22 3 1 22 3 1 22 3 1 22 3 1 22 3 1 22 3 1 22 3 1 22 3 1 22
3 1 22 3 1 22 3 1 22 3 1 22 3 1 22 3 1 22 3 1 22 3 1 22 3 1 22 3 1 22
3 1 22 3 1 22 3 1 22 3 1 22 3 1 22 3 1 22 3 1 22 3 1 22 3 1 22 3 1 22
3 1 23 3 1 23 3 1 23 3 1 23 3 1 23 3 1 23 3 1 23 3 1 23 3 1 23 3 1 23
3 1 23 3 1 23 3 1 23 3 1 23 3 1 23 3 1 23 3 1 23 3 1 23 3 1 23 3 1 23
3 1 23 3 1 23 3 1 23 3 1 23 3 1 23 3 1 23 3 1 23 3 1 23 3 1 23 3 1 23
3 1 23 3 1 23 3 1 23 3 1 23 3 1 23 3 1 23 3 1 23 3 1 23 3 1 23 3 1 23
3 1 23 3 1 23 3 1 23 3 1 23 3 1 23 3 1 24 3 1 24 3 1 24 3 1 24 3 1 24
3 1 24 3 1 24 0 0 58 0 0 78 0 0 88 0 1 96 0 1 102 0 1 107 0 1 112 0 1
115 0 1 119 0 1 122 0 1 124 1 1 127 1 1 128 1 1 130 1 1 131 1 1 132 1
1 133 1 1 134 1 1 135 1 1 137 1 1 137 1 1 136 1 1 134 1 1 132 1 1 130
1 1 129 1 1 127 1 1 126 0 1 123 0 1 121 0 1 118 0 1 116 0 1 112 0 1
109 0 1 105 0 1 101 0 1 96 0 0 91 0 0 85 0 0 79 0 0 71 0 0 62 0 0 51 1
0 10 1 0 10 1 0 10 1 0 10 1 0 10 1 0 10 1 0 10 1 0 10 1 0 10 1 0 10 1
0 10 1 0 10 1 0 10 1 0 10 3 1 24 3 1 24 3 1 24 6 3 99 7 4 108 7 4 115
8 4 120 8 4 124 8 4 127 8 4 130 8 4 132 8 4 134 9 5 136 9 5 127 9 5
129 9 6 130 9 6 130 9 6 130 9 6 130 9 6 130 9 6 132 9 6 136 9 7 145 9
6 139 9 6 131 8 4 90 5 2 34 6 2 37 6 2 38 6 2 38 6 2 38 6 2 38 6 2 37
5 2 36 5 2 34 5 2 32 5 2 30 4 2 27 4 1 24 3 1 21 2 1 16 7 6 38 3 3 19
4 4 20 3 3 19 3 3 14 3 3 14 3 3 14 3 3 14 3 3 14 3 3 14 3 3 14 3 3 14
10 12 63 10 11 59 9 11 55 9 10 51 9 10 50 8 9 46 8 9 45 8 9 43 8 8 42
7 8 41 7 8 39 7 8 38 7 7 36 6 7 34 6 7 33 6 6 34 6 6 32 5 6 30 5 5 29
5 5 27 4 4 25 4 4 23 3 3 21 3 3 20 3 3 20 3 3 21 3 3 17 1 0 10 1 0 10
1 0 10 1 0 10 1 0 10 1 0 10 1 0 10 1 0 10 1 0 10 1 0 10 1 0 10 1 0 10
1 0 10 1 0 10 1 0 10 1 0 10 1 0 10 1 0 10 1 0 10 1 0 10 1 0 10 1 0 10
1 0 10 1 0 10 1 0 10 1 0 10 1 0 10 1 0 10 1 0 10 1 0 10 1 0 10 1 0 10
1 0 10 1 0 10 1 0 10 1 0 10 1 0 10 1 0 10 1 0 10 1 0 10 1 0 10 1 0 10
1 0 10 1 0 10 1 0 10 1 0 10 1 0 10 1 0 10 1 0 10 1 0 10 1 0 10 1 0 10
1 0 10 1 0 10 1 0 10 1 0 10 1 0 10 1 0 10 1 0 10 1 0 10 1 0 10 1 0 10
3 1 22 3 1 22 3 1 22 3 1 22 3 1 22 3 1 22 3 1 22 3 1 22 3 1 22 3 1 22
3 1 22 3 1 22 3 1 22 3 1 22 3 1 22 3 1 22 3 1 22 3 1 22 3 1 22 3 1 22
3 1 22 3 1 22 3 1 22 3 1 22 3 1 22 3 1 21 3 1 21 3 1 21 3 1 21 3 1 21
3 1 21 3 1 21 3 1 21 3 1 21 3 1 21 3 1 21 3 1 21 3 1 21 3 1 21 3 1 21
3 1 21 3 1 21 3 1 21 3 1 21 3 1 21 3 1 21 3 1 21 3 1 21 3 1 21 3 1 21
3 1 21 3 1 21 3 1 21 3 1 21 3 1 21 3 1 21 3 1 21 3 1 21 3 1 21 1 1 14
1 1 14 1 1 13 1 1 13 1 1 13 1 1 12 1 1 12 1 1 11 1 1 11 1 1 10 0 1 10
0 1 9 0 1 9 0 1 9 0 1 9 0 1 9 0 1 9 0 1 9 0 1 9 0 1 9 0 1 9 0 1 9 0 1
9 0 1 9 0 1 9 0 1 9 0 1 9 0 1 9 0 1 9 0 1 9 0 1 9 0 1 9 0 1 9 0 1 9 0
1 9 2 1 20 2 1 20 2 1 20 2 1 20 2 1 20 2 1 20 2 1 20 2 1 20 2 1 20 2 1
20 2 1 20 2 1 20 2 1 20 2 1 20 2 1 19
3 1 22 3 1 22 3 1 22 3 1 22 3 1 22 3 1 22 3 1 22 3 1 22 3 1 22 3 1 22
3 1 22 3 1 22 3 1 22 3 1 22 3 1 22 3 1 22 3 1 22 3 1 22 3 1 22 3 1 22
3 1 22 3 1 22 3 1 22 3 1 22 3 1 22 3 1 22 3 1 22 3 1 22 3 1 22 3 1 22
3 1 22 3 1 23 3 1 23 3 1 23 3 1 23 3 1 23 3 1 23 3 1 23 3 1 23 3 1 23
3 1 23 3 1 23 3 1 23 3 1 23 3 1 23 3 1 23 3 1 23 3 1 23 3 1 23 3 1 23
3 1 23 3 1 23 3 1 23 3 1 23 3 1 23 3 1 23 3 1 23 3 1 23 3 1 23 3 1 23
3 1 23 3 1 23 3 1 23 3 1 23 3 1 23 3 1 23 3 1 23 3 1 23 3 1 23 3 1 23
3 1 23 3 1 23 3 1 24 3 1 24 3 1 24 3 1 24 3 1 24 3 1 24 3 1 24 3 1 24
3 1 24 3 1 24 3 1 24 3 1 24 3 1 24 3 1 24 3 1 24 3 1 24 3 1 24 3 1 24
3 1 24 3 1 24 3 1 24 0 0 74 0 0 86 0 1 94 0 1 100 0 1 106 0 1 111 0 1
115 0 1 118 0 1 121 0 1 124 1 1 126 1 1 128 1 1 130 1 1 131 1 1 132 1
1 133 1 1 133 1 1 134 1 1 134 1 1 134 1 1 133 1 1 133 1 1 131 1 1 130
1 1 129 1 1 127 1 1 125 0 1 123 0 1 121 0 1 118 0 1 115 0 1 112 0 1
108 0 1 105 0 1 100 0 1 96 0 0 90 0 0 85 0 0 78 0 0 70 0 0 61 0 0 48 1
0 10 1 0 10 1 0 10 1 0 10 1 0 10 1 0 10 1 0 10 1 0 10 1 0 10 1 0 10 1
0 10 1 0 10 3 1 25 3 1 25 3 1 25 3 1 25 3 1 25 6 3 98 7 4 108 7 4 115
8 4 120 8 4 124 8 4 127 8 4 130 8 4 133 8 4 134 9 5 136 9 5 127 9 5
129 9 6 130 9 6 130 9 6 131 9 6 131 9 6 131 9 6 133 9 7 143 11 8 162
10 7 152 9 6 134 9 4 94 6 2 37 6 2 39 6 2 40 6 2 41 6 2 40 6 2 40 6 2
39 6 2 38 6 2 36 5 2 34 5 2 32 4 2 29 4 2 26 4 1 23 3 1 19 2 1 15 4 4
34 3 3 19 4 4 30 3 3 14 3 3 14 3 3 14 3 3 14 3 3 14 3 3 14 3 3 14 3 5
30 10 12 65 10 11 61 9 11 56 9 10 51 9 10 50 8 9 46 8 9 45 8 9 43 8 8
42 7 8 41 7 8 39 7 8 38 7 7 39 7 7 37 6 7 36 6 6 34 6 6 32 6 6 32 5 5
30 5 5 28 4 4 26 4 4 24 4 3 21 3 3 21 3 3 21 3 3 21 3 3 17 1 0 10 1 0
10 1 0 10 1 0 10 1 0 10 1 0 10 1 0 10 1 0 10 1 0 10 1 0 10 1 0 10 1 0
10 1 0 10 1 0 10 1 0 10 1 0 10 1 0 10 1 0 10 1 0 10 1 0 10 1 0 10 1 0
10 1 0 10 1 0 10 1 0 10 1 0 10 1 0 10 1 0 10 1 0 10 1 0 10 1 0 10 1 0
10 1 0 10 1 0 10 1 0 10 1 0 10 1 0 10 1 0 10 1 0 10 1 0 10 1 0 10 1 0
10 1 0 10 1 0 10 1 0 10 1 0 10 1 0 10 1 0 10 1 0 10 1 0 10 1 0 10 1 0
10 1 0 10 1 0 10 1 0 10 1 0 10 1 0 10 1 0 10 1 0 10 1 0 10 3 1 22 3 1
22 3 1 22 3 1 22 3 1 22 3 1 22 3 1 22 3 1 22 3 1 22 3 1 22 3 1 22 3 1
22 3 1 22 3 1 22 3 1 22 3 1 22 3 1 22 3 1 22 3 1 22 3 1 22 3 1 22 3 1
22 3 1 22 3 1 22 3 1 22 3 1 22 3 1 22 3 1 22 3 1 22 3 1 22 3 1 22 3 1
22 3 1 22 3 1 22 3 1 21 3 1 21 3 1 21 3 1 21 3 1 21 3 1 21 3 1 21 3 1
21 3 1 21 3 1 21 3 1 21 3 1 21 3 1 21 3 1 21 3 1 21 3 1 21 3 1 21 3 1
21 3 1 21 3 1 21 3 1 21 3 1 21 3 1 21 1 2 17 1 2 17 1 2 16 1 2 16 1 2
16 1 2 15 1 2 15 1 2 14 1 2 14 1 1 13 1 1 13 1 1 12 1 1 12 1 1 11 1 1
11 1 1 10 0 1 9 0 1 9 0 1 9 0 1 9 0 1 9 0 1 9 0 1 9 0 1 9 0 1 9 0 1 9
0 1 9 0 1 9 0 1 9 0 1 9 0 1 9 0 1 9 0 1 9 0 1 9 0 1 9 0 1 9 0 1 9 0 1
9 0 1 9 0 1 9 0 1 9 0 1 9 0 1 9 2 1 20 2 1 20 2 1 20 2 1 20 2 1 20 2 1
20 2 1 20 2 1 20 2 1 20 2 1 20 2 1 20
3 1 22 3 1 22 3 1 22 3 1 22 3 1 22 3 1 22 3 1 22 3 1 22 3 1 22 3 1 22
3 1 22 3 1 22 3 1 22 3 1 22 3 1 22 3 1 22 3 1 22 3 1 22 3 1 22 3 1 22
3 1 22 3 1 23 3 1 23 3 1 23 3 1 23 3 1 23 3 1 23 3 1 23 3 1 23 3 1 23
3 1 23 3 1 23 3 1 23 3 1 23 3 1 23 3 1 23 3 1 23 3 1 23 3 1 23 3 1 23
3 1 23 3 1 23 3 1 23 3 1 23 3 1 23 3 1 23 3 1 23 3 1 23 3 1 23 3 1 23
3 1 23 3 1 23 3 1 23 3 1 23 3 1 23 3 1 23 3 1 23 3 1 23 3 1 23 3 1 23
3 1 24 3 1 24 3 1 24 3 1 24 3 1 24 3 1 24 3 1 24 3 1 24 3 1 24 3 1 24
3 1 24 3 1 24 3 1 24 3 1 24 3 1 24 3 1 24 3 1 24 3 1 24 3 1 24 3 1 24
3 1 24 3 1 24 3 1 24 3 1 24 3 1 24 3 1 24 3 1 24 3 1 24 3 1 24 3 1 24
3 1 24 3 1 24 3 1 24 0 0 68 0 0 82 0 0 91 0 1 98 0 1 104 0 1 109 0 1
113 0 1 117 0 1 120 0 1 123 1 1 125 1 1 127 1 1 129 1 1 130 1 1 131 1
1 132 1 1 133 1 1 133 1 1 133 1 1 133 1 1 132 1 1 132 1 1 131 1 1 130
1 1 128 1 1 127 0 1 125 0 1 123 0 1 120 0 1 118 0 1 115 0 1 111 0 1
108 0 1 104 0 1 99 0 1 95 0 0 89 0 0 83 0 0 76 0 0 68 0 0 58 0 0 43 1
0 10 1 0 10 1 0 10 1 0 10 1 0 10 1 0 10 1 0 10 1 0 10 1 0 10 3 1 25 3
1 25 3 1 25 3 1 25 3 1 25 3 1 25 3 1 25 3 1 25 6 3 97 7 4 108 7 4 115
8 4 120 8 4 124 8 4 127 8 4 130 8 4 133 9 4 135 9 5 136 9 5 128 9 6
130 9 6 130 9 6 131 9 6 131 9 6 131 9 6 131 9 6 131 9 6 138 10 7 151 9
7 145 9 6 133 6 2 36 6 3 71 6 3 41 6 3 42 6 3 42 6 3 42 6 3 41 6 2 40
6 2 39 6 2 38 5 2 36 5 2 34 5 2 31 5 4 32 4 2 25 3 1 21 2 1 16 7 6 39
3 3 19 3 3 20 3 3 14 3 3 14 3 3 14 3 3 14 3 3 14 3 3 14 3 3 14 4 5 31
10 12 66 10 11 62 10 11 57 9 10 52 9 10 50 8 9 46 8 9 45 8 9 46 8 9 45
8 8 44 8 8 43 7 8 41 7 7 39 7 7 37 6 7 36 6 6 34 6 6 35 6 6 33 5 5 31
5 5 29 5 4 27 4 4 24 4 3 22 3 3 21 3 3 21 3 3 21 3 3 17 1 0 10 1 0 10
1 0 10 1 0 10 1 0 10 1 0 10 1 0 10 1 0 10 1 0 10 1 0 10 1 0 10 1 0 10
1 0 10 1 0 10 1 0 10 1 0 10 1 0 10 1 0 10 1 0 10 1 0 10 1 0 10 1 0 10
1 0 10 1 0 10 1 0 10 1 0 10 1 0 10 1 0 10 1 0 10 1 0 10 1 0 10 1 0 10
1 0 10 1 0 10 1 0 10 1 0 10 1 0 10 1 0 10 1 0 10 1 0 10 1 0 10 1 0 10
1 0 10 1 0 10 1 0 10 1 0 10 1 0 10 1 0 10 1 0 10 1 0 10 1 0 10 1 0 10
1 0 10 1 0 10 1 0 10 1 0 10 1 0 10 1 0 10 3 1 23 3 1 23 3 1 23 3 1 23
3 1 23 3 1 23 3 1 22 3 1 22 3 1 22 3 1 22 3 1 22 3 1 22 3 1 22 3 1 22
3 1 22 3 1 22 3 1 22 3 1 22 3 1 22 3 1 22 3 1 22 3 1 22 3 1 22 3 1 22
3 1 22 3 1 22 3 1 22 3 1 22 3 1 22 3 1 22 3 1 22 3 1 22 3 1 22 3 1 22
3 1 22 3 1 22 3 1 22 3 1 22 3 1 22 3 1 22 3 1 22 3 1 22 3 1 22 3 1 21
3 1 21 3 1 21 3 1 21 3 1 21 3 1 21 3 1 21 3 1 21 3 1 21 3 1 21 3 1 21
3 1 21 1 2 19 1 2 19 1 2 19 1 2 19 1 2 19 1 2 18 1 2 18 1 2 17 1 2 17
1 2 16 1 2 16 1 2 15 1 2 15 1 2 14 1 1 14 1 1 13 1 1 13 1 1 12 1 1 11
1 1 11 1 1 10 0 1 10 0 1 9 0 1 9 0 1 9 0 1 9 0 1 9 0 1 9 0 1 9 0 1 9 0
1 9 0 1 9 0 1 9 0 1 9 0 1 9 0 1 9 0 1 9 0 1 9 0 1 9 0 1 9 0 1 9 0 1 9
0 1 9 0 1 9 0 1 9 0 1 9 0 1 9 0 1 9 0 1 9 0 1 9 0 1 9 2 1 20 2 1 20 2
1 20 2 1 20 2 1 20 2 1 20 2 1 20
3 1 22 3 1 22 3 1 22 3 1 22 3 1 22 3 1 22 3 1 22 3 1 22 3 1 22 3 1 22
3 1 22 3 1 22 3 1 22 3 1 23 3 1 23 3 1 23 3 1 23 3 1 23 3 1 23 3 1 23
3 1 23 3 1 23 3 1 23 3 1 23 3 1 23 3 1 23 3 1 23 3 1 23 3 1 23 3 1 23
3 1 23 3 1 23 3 1 23 3 1 23 3 1 23 3 1 23 3 1 23 3 1 23 3 1 23 3 1 23
3 1 23 3 1 23 3 1 23 3 1 23 3 1 23 3 1 23 3 1 23 3 1 23 3 1 23 3 1 23
3 1 24 3 1 24 3 1 24 3 1 24 3 1 24 3 1 24 3 1 24 3 1 24 3 1 24 3 1 24
3 1 24 3 1 24 3 1 24 3 1 24 3 1 24 3 1 24 3 1 24 3 1 24 3 1 24 3 1 24
3 1 24 3 1 24 3 1 24 3 1 24 3 1 24 3 1 24 3 1 24 3 1 24 3 1 24 3 1 24
3 1 24 3 1 24 3 1 24 3 1 24 3 1 24 3 1 24 3 1 24 3 1 24 3 1 24 3 1 24
3 1 24 3 1 24 3 1 24 0 0 54 0 0 78 0 0 88 0 1 96 0 1 102 0 1 107 0 1
112 0 1 115 0 1 119 0 1 121 0 1 124 1 1 126 1 1 128 1 1 129 1 1 130 1
1 131 1 1 132 1 1 132 1 1 132 1 1 132 1 1 131 1 1 131 1 1 130 1 1 129
1 1 127 1 1 126 0 1 124 0 1 122 0 1 119 0 1 117 0 1 114 0 1 110 0 1
107 0 1 103 0 1 98 0 0 93 0 0 88 0 0 82 0 0 74 0 0 66 0 0 55 1 0 10 1
0 10 1 0 10 1 0 10 1 0 10 1 0 10 1 0 10 1 0 10 3 1 25 3 1 25 3 1 25 3
1 25 3 1 25 3 1 25 3 1 25 3 1 25 3 1 25 3 1 25 6 3 95 7 4 107 7 4 114
8 4 119 8 4 124 8 4 127 8 4 130 8 4 133 9 4 135 9 5 136 9 5 138 9 6
130 9 6 130 9 6 131 9 6 131 9 6 131 9 6 131 9 6 131 9 6 132 9 6 134 9
6 133 9 4 101 6 2 59 7 3 90 7 3 43 7 3 43 7 3 44 7 3 43 7 3 43 6 3 42
6 2 40 6 2 39 6 2 37 5 2 35 5 2 32 8 9 41 5 3 28 3 1 22 3 1 18 3 1 20
3 3 20 4 4 30 3 3 17 3 3 17 3 3 17 3 3 17 3 3 17 3 3 17 3 3 18 4 5 31
10 12 66 10 11 62 10 11 57 9 10 52 9 10 50 9 9 50 9 9 49 9 9 48 8 9 47
8 8 46 8 8 42 7 8 41 7 7 39 7 7 37 6 7 36 6 6 37 6 6 35 6 6 34 5 5 32
5 5 29 5 4 27 4 4 25 4 3 22 3 3 21 3 3 21 3 3 21 1 0 10 1 0 10 1 0 10
1 0 10 1 0 10 1 0 10 1 0 10 1 0 10 1 0 10 1 0 10 1 0 10 1 0 10 1 0 10
1 0 10 1 0 10 1 0 10 1 0 10 1 0 10 1 0 10 1 0 10 1 0 10 1 0 10 1 0 10
1 0 10 1 0 10 1 0 10 1 0 10 1 0 10 1 0 10 1 0 10 1 0 10 1 0 10 1 0 10
1 0 10 1 0 10 1 0 10 1 0 10 1 0 10 1 0 10 1 0 10 1 0 10 1 0 10 1 0 10
1 0 10 1 0 10 1 0 10 1 0 10 1 0 10 1 0 10 1 0 10 1 0 10 1 0 10 1 0 10
1 0 10 1 0 10 1 0 10 1 0 10 3 1 23 3 1 23 3 1 23 3 1 23 3 1 23 3 1 23
3 1 23 3 1 23 3 1 23 3 1 23 3 1 23 3 1 23 3 1 23 3 1 23 3 1 23 3 1 23
3 1 22 3 1 22 3 1 22 3 1 22 3 1 22 3 1 22 3 1 22 3 1 22 3 1 22 3 1 22
3 1 22 3 1 22 3 1 22 3 1 22 3 1 22 3 1 22 3 1 22 3 1 22 3 1 22 3 1 22
3 1 22 3 1 22 3 1 22 3 1 22 3 1 22 3 1 22 3 1 22 3 1 22 3 1 22 3 1 22
3 1 22 3 1 22 3 1 22 3 1 22 3 1 22 3 1 22 3 1 21 3 1 21 1 2 21 1 2 22
1 2 22 1 2 21 1 2 21 1 2 21 1 2 20 1 2 20 1 2 19 1 2 19 1 2 18 1 2 18
1 2 17 1 2 17 1 2 16 1 2 16 1 2 15 1 2 14 1 2 14 1 1 13 1 1 13 1 1 12
1 1 11 1 1 11 1 1 10 1 1 10 0 1 9 0 1 9 0 1 9 0 1 9 0 1 9 0 1 9 0 1 9
0 1 9 0 1 9 0 1 9 0 1 9 0 1 9 0 1 9 0 1 9 0 1 9 0 1 9 0 1 9 0 1 9 0 1
9 0 1 9 0 1 9 0 1 9 0 1 9 0 1 9 0 1 9 0 1 9 0 1 9 0 1 9 0 1 9 0 1 9 0
1 9 2 1 20 2 1 20 2 1 20 2 1 20
3 1 22 3 1 22 3 1 22 3 1 22 3 1 23 3 1 23 3 1 23 3 1 23 3 1 23 3 1 23
3 1 23 3 1 23 3 1 23 3 1 23 3 1 23 3 1 23 3 1 23 3 1 23 3 1 23 3 1 23
3 1 23 3 1 23 3 1 23 3 1 23 3 1 23 3 1 23 3 1 23 3 1 23 3 1 23 3 1 23
3 1 23 3 1 23 3 1 23 3 1 23 3 1 23 3 1 23 3 1 23 3 1 23 3 1 23 3 1 23
3 1 24 3 1 24 3 1 24 3 1 24 3 1 24 3 1 24 3 1 24 3 1 24 3 1 24 3 1 24
3 1 24 3 1 24 3 1 24 3 1 24 3 1 24 3 1 24 3 1 24 3 1 24 3 1 24 3 1 24
3 1 24 3 1 24 3 1 24 3 1 24 3 1 24 3 1 24 3 1 24 3 1 24 3 1 24 3 1 24
3 1 24 3 1 24 3 1 24 3 1 24 3 1 24 3 1 24 3 1 24 3 1 24 3 1 24 3 1 25
3 1 25 3 1 25 3 1 25 3 1 25 3 1 25 3 1 25 3 1 25 3 1 25 3 1 25 3 1 25
3 1 25 3 1 25 3 1 25 3 1 25 0 0 71 0 0 84 0 0 93 0 1 99 0 1 105 0 1
109 0 1 113 0 1 117 0 1 120 0 1 122 0 1 124 1 1 126 1 1 128 1 1 129 1
1 130 1 1 130 1 1 131 1 1 131 1 1 131 1 1 130 1 1 130 1 1 129 1 1 128
1 1 126 0 1 125 0 1 123 0 1 121 0 1 118 0 1 115 0 1 112 0 1 109 0 1
105 0 1 101 0 1 97 0 0 92 0 0 86 0 0 79 0 0 72 0 0 62 0 0 49 1 0 10 1
0 10 1 0 10 1 0 10 3 1 25 3 1 25 3 1 25 3 1 25 3 1 25 3 1 25 3 1 25 3
1 25 3 1 25 3 1 25 3 1 25 3 1 25 3 1 25 3 1 25 6 3 91 7 4 105 7 4 113
8 4 119 8 4 123 8 4 127 8 4 130 8 4 132 9 4 134 9 5 136 9 5 137 9 5
129 9 6 130 9 6 131 9 6 131 9 6 131 9 6 131 9 6 131 9 6 131 9 6 130 9
5 130 10 4 103 6 3 64 7 3 102 7 3 44 7 3 44 7 3 45 7 3 44 7 3 44 7 3
43 6 3 41 6 2 40 6 2 38 7 7 84 6 4 56 9 9 43 5 4 31 4 1 23 3 1 19 3 1
23 4 2 25 4 3 25 3 3 19 3 3 19 3 3 19 3 3 19 3 3 19 3 3 20 3 3 20 4 4
35 11 12 68 10 11 61 9 11 56 9 10 51 9 10 50 9 10 52 9 9 51 9 9 50 8 9
45 8 8 44 8 8 42 7 8 41 7 7 39 7 7 41 7 7 40 6 6 34 6 6 36 6 6 34 5 5
32 5 5 30 5 4 27 4 4 25 4 3 22 4 3 21 4 3 21 4 3 21 1 0 10 1 0 10 1 0
10 1 0 10 1 0 10 1 0 10 1 0 10 1 0 10 1 0 10 1 0 10 1 0 10 1 0 10 1 0
10 1 0 10 1 0 10 1 0 10 1 0 10 1 0 10 1 0 10 1 0 10 1 0 10 1 0 10 1 0
10 1 0 10 1 0 10 1 0 10 1 0 10 1 0 10 1 0 10 1 0 10 1 0 10 1 0 10 1 0
10 1 0 10 1 0 10 1 0 10 1 0 10 1 0 10 1 0 10 1 0 10 1 0 10 1 0 10 1 0
10 1 0 10 1 0 10 1 0 10 1 0 10 1 0 10 1 0 10 1 0 10 1 0 10 1 0 10 1 0
10 1 0 10 1 0 10 3 1 23 3 1 23 3 1 23 3 1 23 3 1 23 3 1 23 3 1 23 3 1
23 3 1 23 3 1 23 3 1 23 3 1 23 3 1 23 3 1 23 3 1 23 3 1 23 3 1 23 3 1
23 3 1 23 3 1 23 3 1 23 3 1 23 3 1 23 3 1 23 3 1 23 3 1 22 3 1 22 3 1
22 3 1 22 3 1 22 3 1 22 3 1 22 3 1 22 3 1 22 3 1 22 3 1 22 3 1 22 3 1
22 3 1 22 3 1 22 3 1 22 3 1 22 3 1 22 3 1 22 3 1 22 3 1 22 3 1 22 3 1
22 3 1 22 3 1 22 3 1 22 3 1 22 3 1 22 3 1 22 1 3 24 1 3 24 1 3 24 1 3
23 1 3 23 1 2 23 1 2 22 1 2 22 1 2 21 1 2 21 1 2 20 1 2 20 1 2 19 1 2
18 1 2 18 1 2 17 1 2 17 1 2 16 1 2 16 1 2 15 1 2 14 1 2 14 1 1 13 1 1
13 1 1 12 1 1 11 1 1 11 1 1 10 0 1 10 0 1 9 0 1 9 0 1 9 0 1 9 0 1 9 0
1 9 0 1 9 0 1 9 0 1 9 0 1 9 0 1 9 0 1 9 0 1 9 0 1 9 0 1 9 0 1 9 0 1 9
0 1 9 0 1 9 0 1 9 0 1 9 0 1 9 0 1 9 0 1 9 0 1 9 0 1 9 0 1 9 0 1 9 0 1
9 0 1 9 0 1 9 0 1 9 2 1 20 2 1 20
3 1 23 3 1 23 3 1 23 3 1 23 3 1 23 3 1 23 3 1 23 3 1 23 3 1 23 3 1 23
3 1 23 3 1 23 3 1 23 3 1 23 3 1 23 3 1 23 3 1 23 3 1 23 3 1 23 3 1 23
3 1 23 3 1 23 3 1 23 3 1 23 3 1 23 3 1 23 3 1 23 3 1 23 3 1 23 3 1 23
3 1 23 3 1 24 3 1 24 3 1 24 3 1 24 3 1 24 3 1 24 3 1 24 3 1 24 3 1 24
3 1 24 3 1 24 3 1 24 3 1 24 3 1 24 3 1 24 3 1 24 3 1 24 3 1 24 3 1 24
3 1 24 3 1 24 3 1 24 3 1 24 3 1 24 3 1 24 3 1 24 3 1 24 3 1 24 3 1 24
3 1 24 3 1 24 3 1 24 3 1 24 3 1 24 3 1 24 3 1 24 3 1 25 3 1 25 3 1 25
3 1 25 3 1 25 3 1 25 3 1 25 3 1 25 3 1 25 3 1 25 3 1 25 3 1 25 3 1 25
3 1 25 3 1 25 3 1 25 3 1 25 3 1 25 3 1 25 3 1 25 3 1 25 3 1 25 3 1 25
3 1 25 3 1 25 3 1 25 3 1 25 3 1 25 0 0 78 0 0 88 0 1 96 0 1 102 0 1
107 0 1 111 0 1 115 0 1 118 0 1 120 0 1 123 0 1 125 1 1 126 1 1 127 1
1 128 1 1 129 1 1 129 1 1 129 1 1 129 1 1 129 1 1 128 1 1 127 1 1 126
0 1 125 0 1 123 0 1 121 0 1 119 0 1 117 0 1 114 0 1 111 0 1 107 0 1
103 0 1 99 0 1 95 0 0 89 0 0 83 0 0 76 0 0 68 0 0 58 0 0 42 3 1 26 3 1
26 3 1 26 3 1 26 3 1 26 3 1 26 3 1 26 3 1 26 3 1 26 3 1 26 3 1 26 3 1
26 3 1 26 3 1 26 3 1 26 3 1 26 3 1 26 3 1 26 3 1 26 7 3 103 7 4 112 8
4 118 8 4 122 8 4 126 8 4 129 8 4 132 8 4 134 9 5 136 9 5 137 9 5 129
9 6 130 9 6 131 9 6 131 9 6 131 9 6 131 9 6 131 9 6 131 9 6 130 9 6
129 10 4 103 6 3 67 7 3 106 7 3 44 7 3 45 7 3 45 7 3 47 9 7 89 7 3 45
6 3 42 6 2 40 6 2 39 6 4 53 5 3 38 5 2 31 4 2 28 4 2 29 4 2 28 4 1 26
4 3 26 4 3 23 4 3 23 4 3 23 4 3 22 4 3 22 4 3 22 4 3 22 4 3 22 5 5 36
11 12 69 10 11 62 10 10 55 11 11 66 10 10 56 9 10 54 9 9 48 8 9 46 8 9
45 8 8 43 8 8 42 8 8 45 8 8 44 7 7 37 6 7 35 7 6 38 6 6 36 6 6 34 5 5
32 5 5 30 5 4 28 4 4 25 4 3 22 4 3 22 4 3 22 3 3 17 1 0 10 1 0 10 1 0
10 1 0 10 1 0 10 1 0 10 1 0 10 1 0 10 1 0 10 1 0 10 1 0 10 1 0 10 1 0
10 1 0 10 1 0 10 1 0 10 1 0 10 1 0 10 1 0 10 1 0 10 1 0 10 1 0 10 1 0
10 1 0 10 1 0 10 1 0 10 1 0 10 1 0 10 1 0 10 1 0 10 1 0 10 1 0 10 1 0
10 1 0 10 1 0 10 1 0 10 1 0 10 1 0 10 1 0 10 1 0 10 1 0 10 1 0 10 1 0
10 1 0 10 1 0 10 1 0 10 1 0 10 1 0 10 1 0 10 1 0 10 1 0 10 1 0 10 1 0
10 3 1 23 3 1 23 3 1 23 3 1 23 3 1 23 3 1 23 3 1 23 3 1 23 3 1 23 3 1
23 3 1 23 3 1 23 3 1 23 3 1 23 3 1 23 3 1 23 3 1 23 3 1 23 3 1 23 3 1
23 3 1 23 3 1 23 3 1 23 3 1 23 3 1 23 3 1 23 3 1 23 3 1 23 3 1 23 3 1
23 3 1 23 3 1 23 3 1 23 3 1 23 3 1 22 3 1 22 3 1 22 3 1 22 3 1 22 3 1
22 3 1 22 3 1 22 3 1 22 3 1 22 3 1 22 3 1 22 3 1 22 3 1 22 3 1 22 3 1
22 3 1 22 3 1 22 3 1 22 1 3 25 1 3 26 1 3 26 1 3 25 1 3 25 1 3 25 1 3
24 1 3 24 1 3 23 1 2 23 1 2 22 1 2 22 1 2 21 1 2 21 1 2 20 1 2 20 1 2
19 1 2 18 1 2 18 1 2 17 1 2 17 1 2 16 1 2 16 1 2 15 1 2 14 1 1 14 1 1
13 1 1 13 1 1 12 1 1 11 1 1 11 1 1 10 0 1 9 0 1 9 0 1 9 0 1 9 0 1 9 0
1 9 0 1 9 0 1 9 0 1 9 0 1 9 0 1 9 0 1 9 0 1 9 0 1 9 0 1 9 0 1 9 0 1 9
0 1 9 0 1 9 0 1 9 0 1 9 0 1 9 0 1 9 0 1 9 0 1 9 0 1 9 0 1 9 0 1 9 0 1
9 0 1 9 0 1 9 0 1 9 0 1 9 0 1 9
3 1 23 3 1 23 3 1 23 3 1 23 3 1 23 3 1 23 3 1 23 3 1 23 3 1 23 3 1 23
3 1 23 3 1 23 3 1 23 3 1 23 3 1 23 3 1 23 3 1 23 3 1 23 3 1 23 3 1 23
3 1 23 3 1 23 3 1 24 3 1 24 3 1 24 3 1 24 3 1 24 3 1 24 3 1 24 3 1 24
3 1 24 3 1 24 3 1 24 3 1 24 3 1 24 3 1 24 3 1 24 3 1 24 3 1 24 3 1 24
3 1 24 3 1 24 3 1 24 3 1 24 3 1 24 3 1 24 3 1 24 3 1 24 3 1 24 3 1 24
3 1 24 3 1 24 3 1 24 3 1 24 3 1 24 3 1 24 3 1 25 3 1 25 3 1 25 3 1 25
3 1 25 3 1 25 3 1 25 3 1 25 3 1 25 3 1 25 3 1 25 3 1 25 3 1 25 3 1 25
3 1 25 3 1 25 3 1 25 3 1 25 3 1 25 3 1 25 3 1 25 3 1 25 3 1 25 3 1 25
3 1 25 3 1 25 3 1 25 3 1 25 3 1 25 3 1 25 3 1 25 3 1 25 3 1 25 3 1 25
3 1 25 3 1 25 3 1 25 3 1 25 3 1 25 0 0 68 0 0 82 0 0 91 0 1 98 0 1 103
0 1 108 0 1 112 0 1 115 0 1 118 0 1 120 0 1 122 0 1 124 1 1 125 1 1
126 1 1 127 1 1 127 1 1 128 1 1 128 1 1 127 1 1 127 1 1 126 0 1 124 0
1 123 0 1 121 0 1 119 0 1 117 0 1 115 0 1 112 0 1 109 0 1 105 0 1 101
0 1 97 0 0 92 0 0 86 0 0 80 0 0 73 0 0 64 0 0 51 3 1 26 3 1 26 3 1 26
3 1 26 3 1 26 3 1 26 3 1 26 3 1 26 3 1 26 3 1 26 3 1 26 3 1 26 3 1 26
3 1 26 3 1 26 3 1 26 3 1 26 3 1 26 3 1 26 3 1 26 6 3 100 7 4 110 7 4
116 8 4 121 8 4 125 8 4 128 8 4 131 8 4 133 9 5 135 9 5 136 9 5 128 9
6 129 9 6 130 9 6 131 9 6 131 9 6 131 9 6 131 9 6 130 9 6 130 9 5 129
10 4 103 6 3 62 8 3 57 8 3 57 8 3 55 8 3 53 8 4 57 15 16 188 7 3 49 6
3 42 6 3 41 6 2 39 7 5 64 6 3 40 6 2 40 5 2 33 5 2 36 5 2 32 4 1 28 4
3 28 4 3 28 4 3 27 4 3 27 4 3 26 4 3 26 4 3 26 4 3 25 5 5 37 4 4 35 11
12 68 10 11 61 9 10 54 10 11 64 10 10 56 9 9 49 9 9 48 8 9 46 8 9 45 9
9 49 8 8 48 7 8 40 7 7 39 7 7 37 7 7 41 7 6 39 6 6 37 6 6 35 5 5 32 5
5 30 5 4 28 4 4 25 4 3 22 4 3 22 4 3 22 3 3 17 1 0 10 1 0 10 1 0 10 1
0 10 1 0 10 1 0 10 1 0 10 1 0 10 1 0 10 1 0 10 1 0 10 1 0 10 1 0 10 1
0 10 1 0 10 1 0 10 1 0 10 1 0 10 1 0 10 1 0 10 1 0 10 1 0 10 1 0 10 1
0 10 1 0 10 1 0 10 1 0 10 1 0 10 1 0 10 1 0 10 1 0 10 1 0 10 1 0 10 1
0 10 1 0 10 1 0 10 1 0 10 1 0 10 1 0 10 1 0 10 1 0 10 1 0 10 1 0 10 1
0 10 1 0 10 1 0 10 1 0 10 1 0 10 1 0 10 1 0 10 1 0 10 3 1 24 3 1 24 3
1 24 3 1 24 3 1 24 3 1 24 3 1 24 3 1 24 3 1 24 3 1 24 3 1 23 3 1 23 3
1 23 3 1 23 3 1 23 3 1 23 3 1 23 3 1 23 3 1 23 3 1 23 3 1 23 3 1 23 3
1 23 3 1 23 3 1 23 3 1 23 3 1 23 3 1 23 3 1 23 3 1 23 3 1 23 3 1 23 3
1 23 3 1 23 3 1 23 3 1 23 3 1 23 3 1 23 3 1 23 3 1 23 3 1 23 3 1 23 3
1 23 3 1 22 3 1 22 3 1 22 3 1 22 3 1 22 3 1 22 3 1 22 3 1 22 3 1 22 3
1 22 1 3 27 1 3 28 1 3 27 1 3 27 1 3 27 1 3 26 1 3 26 1 3 26 1 3 25 1
3 25 1 3 24 1 3 24 1 3 23 1 2 22 1 2 22 1 2 21 1 2 21 1 2 20 1 2 20 1
2 19 1 2 18 1 2 18 1 2 17 1 2 17 1 2 16 1 2 15 1 2 15 1 2 14 1 1 14 1
1 13 1 1 12 1 1 12 1 1 11 1 1 11 1 1 10 0 1 9 0 1 9 0 1 9 0 1 9 0 1 9
0 1 9 0 1 9 0 1 9 0 1 9 0 1 9 0 1 9 0 1 9 0 1 9 0 1 9 0 1 9 0 1 9 0 1
9 0 1 9 0 1 9 0 1 9 0 1 9 0 1 9 0 1 9 0 1 9 0 1 9 0 1 9 0 1 9 0 1 9 0
1 9 0 1 9 0 1 9 0 1 9 0 1 9
3 1 23 3 1 23 3 1 23 3 1 23 3 1 23 3 1 23 3 1 23 3 1 23 3 1 23 3 1 23
3 1 23 3 1 23 3 1 23 3 1 23 3 1 24 3 1 24 3 1 24 3 1 24 3 1 24 3 1 24
3 1 24 3 1 24 3 1 24 3 1 24 3 1 24 3 1 24 3 1 24 3 1 24 3 1 24 3 1 24
3 1 24 3 1 24 3 1 24 3 1 24 3 1 24 3 1 24 3 1 24 3 1 24 3 1 24 3 1 24
3 1 24 3 1 24 3 1 24 3 1 24 3 1 24 3 1 24 3 1 24 3 1 25 3 1 25 3 1 25
3 1 25 3 1 25 3 1 25 3 1 25 3 1 25 3 1 25 3 1 25 3 1 25 3 1 25 3 1 25
3 1 25 3 1 25 3 1 25 3 1 25 3 1 25 3 1 25 3 1 25 3 1 25 3 1 25 3 1 25
3 1 25 3 1 25 3 1 25 3 1 25 3 1 25 3 1 25 3 1 25 3 1 25 3 1 25 3 1 25
3 1 25 3 1 25 3 1 25 3 1 25 3 1 26 3 1 26 3 1 26 3 1 26 3 1 26 3 1 26
3 1 26 3 1 26 3 1 26 3 1 26 3 1 26 3 1 26 0 0 74 0 0 85 0 0 93 0 1 99
0 1 104 0 1 109 0 1 112 0 1 115 0 1 118 0 1 120 0 1 122 0 1 123 0 1
124 0 1 125 1 1 125 1 1 125 1 1 125 1 1 125 0 1 124 0 1 123 0 1 122 0
1 121 0 1 119 0 1 117 0 1 115 0 1 112 0 1 109 0 1 106 0 1 103 0 1 98 0
1 94 0 0 89 0 0 83 0 0 76 0 0 68 0 0 57 3 1 26 3 1 26 3 1 26 3 1 26 3
1 26 3 1 26 3 1 26 3 1 26 3 1 26 3 1 26 3 1 26 3 1 26 3 1 26 3 1 26 3
1 26 3 1 26 3 1 26 3 1 26 3 1 26 3 1 26 3 1 26 6 3 95 7 4 107 7 4 114
8 4 120 8 4 124 8 4 127 8 4 130 8 4 132 9 4 134 9 5 136 9 5 128 9 5
129 9 6 129 9 6 130 9 6 130 9 6 130 9 6 130 9 6 130 9 6 129 9 5 129 9
4 102 8 3 57 9 3 62 9 4 66 10 4 69 10 4 70 10 4 70 10 4 69 9 3 65 9 3
62 9 3 60 8 3 57 8 5 69 10 4 76 5 2 36 5 2 33 6 2 39 5 2 34 4 1 30 5 4
35 5 4 34 5 4 32 5 4 31 5 3 30 4 3 29 4 3 29 4 3 28 4 4 33 11 12 71 11
11 65 10 11 59 9 10 52 9 10 50 9 10 50 9 9 49 9 9 47 9 9 53 9 9 51 8 8
43 7 8 42 8 8 46 8 8 45 7 7 43 7 7 41 7 6 39 6 6 37 6 6 35 5 5 32 5 5
30 5 4 27 4 4 25 4 3 22 4 3 22 4 3 22 3 3 17 1 0 10 1 0 10 1 0 10 1 0
10 1 0 10 1 0 10 1 0 10 1 0 10 1 0 10 1 0 10 1 0 10 1 0 10 1 0 10 1 0
10 1 0 10 1 0 10 1 0 10 1 0 10 1 0 10 1 0 10 1 0 10 1 0 10 1 0 10 1 0
10 1 0 10 1 0 10 1 0 10 1 0 10 1 0 10 1 0 10 1 0 10 1 0 10 1 0 10 1 0
10 1 0 10 1 0 10 1 0 10 1 0 10 1 0 10 1 0 10 1 0 10 1 0 10 1 0 10 1 0
10 1 0 10 1 0 10 1 0 10 1 0 10 1 0 10 3 1 24 3 1 24 3 1 24 3 1 24 3 1
24 3 1 24 3 1 24 3 1 24 3 1 24 3 1 24 3 1 24 3 1 24 3 1 24 3 1 24 3 1
24 3 1 24 3 1 24 3 1 24 3 1 24 3 1 23 3 1 23 3 1 23 3 1 23 3 1 23 3 1
23 3 1 23 3 1 23 3 1 23 3 1 23 3 1 23 3 1 23 3 1 23 3 1 23 3 1 23 3 1
23 3 1 23 3 1 23 3 1 23 3 1 23 3 1 23 3 1 23 3 1 23 3 1 23 3 1 23 3 1
23 3 1 23 3 1 23 3 1 23 3 1 23 3 1 23 3 1 23 3 1 22 3 1 22 1 3 29 2 3
29 2 3 29 2 3 29 1 3 29 1 3 28 1 3 28 1 3 27 1 3 27 1 3 26 1 3 26 1 3
25 1 3 25 1 3 24 1 3 24 1 3 23 1 2 22 1 2 22 1 2 21 1 2 21 1 2 20 1 2
19 1 2 19 1 2 18 1 2 18 1 2 17 1 2 16 1 2 16 1 2 15 1 2 15 1 2 14 1 1
13 1 1 13 1 1 12 1 1 12 1 1 11 1 1 10 1 1 10 0 1 9 0 1 9 0 1 9 0 1 9 0
1 9 0 1 9 0 1 9 0 1 9 0 1 9 0 1 9 0 1 9 0 1 9 0 1 9 0 1 9 0 1 9 0 1 9
0 1 9 0 1 9 0 1 9 0 1 9 0 1 9 0 1 9 0 1 9 0 1 9 0 1 9 0 1 9 0 1 9 0 1
9 0 1 9 0 1 9 0 1 9 0 1 9
3 1 23 3 1 23 3 1 23 3 1 23 3 1 23 3 1 23 3 1 24 3 1 24 3 1 24 3 1 24
3 1 24 3 1 24 3 1 24 3 1 24 3 1 24 3 1 24 3 1 24 3 1 24 3 1 24 3 1 24
3 1 24 3 1 24 3 1 24 3 1 24 3 1 24 3 1 24 3 1 24 3 1 24 3 1 24 3 1 24
3 1 24 3 1 24 3 1 24 3 1 24 3 1 24 3 1 24 3 1 24 3 1 25 3 1 25 3 1 25
3 1 25 3 1 25 3 1 25 3 1 25 3 1 25 3 1 25 3 1 25 3 1 25 3 1 25 3 1 25
3 1 25 3 1 25 3 1 25 3 1 25 3 1 25 3 1 25 3 1 25 3 1 25 3 1 25 3 1 25
3 1 25 3 1 25 3 1 25 3 1 25 3 1 25 3 1 25 3 1 25 3 1 25 3 1 25 3 1 25
3 1 25 3 1 25 3 1 26 3 1 26 3 1 26 3 1 26 3 1 26 3 1 26 3 1 26 3 1 26
3 1 26 3 1 26 3 1 26 3 1 26 3 1 26 3 1 26 3 1 26 3 1 26 3 1 26 3 1 26
3 1 26 3 1 26 3 1 26 3 1 26 3 1 26 3 1 26 3 1 26 0 0 77 0 0 87 0 1 94
0 1 100 0 1 105 0 1 108 0 1 112 0 1 114 0 1 117 0 1 119 0 1 120 0 1
121 0 1 122 0 1 123 0 1 123 0 1 123 0 1 122 0 1 122 0 1 121 0 1 120 0
1 118 0 1 117 0 1 115 0 1 112 0 1 110 0 1 107 0 1 103 0 1 99 0 1 95 0
0 90 0 0 85 0 0 79 0 0 71 0 0 61 0 0 46 3 1 27 3 1 27 3 1 27 3 1 27 3
1 27 3 1 27 3 1 27 3 1 27 3 1 27 3 1 27 3 1 27 3 1 27 3 1 27 3 1 27 3
1 27 3 1 27 3 1 27 3 1 27 3 1 27 3 1 27 3 1 27 3 1 27 7 3 103 7 4 112
8 4 118 8 4 122 8 4 126 8 4 129 8 4 131 8 4 133 9 4 135 9 5 136 9 5
128 9 5 129 9 5 129 9 6 129 9 6 130 9 6 129 9 5 129 9 5 129 9 5 128 9
5 127 8 3 57 9 3 64 10 4 69 10 4 75 11 4 81 12 4 89 13 4 93 12 4 89 11
4 80 10 4 73 9 3 66 8 3 60 8 3 56 7 3 51 6 2 46 6 2 41 5 2 35 7 5 41 5
4 38 5 4 36 5 4 35 5 4 33 5 4 32 5 4 31 5 3 30 4 3 29 12 11 68 11 11
66 11 11 64 11 11 63 11 10 61 10 10 60 10 10 58 10 10 57 9 9 55 9 9 53
9 9 52 9 8 50 8 8 48 8 8 46 8 7 45 7 7 43 7 7 41 7 6 39 6 6 37 6 6 35
5 5 32 5 5 30 4 4 27 4 4 24 4 3 22 4 3 22 4 3 22 1 0 10 1 0 10 1 0 10
1 0 10 1 0 10 1 0 10 1 0 10 1 0 10 1 0 10 1 0 10 1 0 10 1 0 10 1 0 10
1 0 10 1 0 10 1 0 10 1 0 10 1 0 10 1 0 10 1 0 10 1 0 10 1 0 10 1 0 10
1 0 10 1 0 10 1 0 10 1 0 10 1 0 10 1 0 10 1 0 10 1 0 10 1 0 10 1 0 10
1 0 10 1 0 10 1 0 10 1 0 10 1 0 10 1 0 10 1 0 10 1 0 10 1 0 10 1 0 10
1 0 10 1 0 10 1 0 10 1 0 10 1 0 10 3 1 24 3 1 24 3 1 24 3 1 24 3 1 24
3 1 24 3 1 24 3 1 24 3 1 24 3 1 24 3 1 24 3 1 24 3 1 24 3 1 24 3 1 24
3 1 24 3 1 24 3 1 24 3 1 24 3 1 24 3 1 24 3 1 24 3 1 24 3 1 24 3 1 24
3 1 24 3 1 24 3 1 23 3 1 23 3 1 23 3 1 23 3 1 23 3 1 23 3 1 23 3 1 23
3 1 23 3 1 23 3 1 23 3 1 23 3 1 23 3 1 23 3 1 23 3 1 23 3 1 23 3 1 23
3 1 23 3 1 23 3 1 23 3 1 23 3 1 23 3 1 23 3 1 23 3 1 23 2 3 30 2 3 31
2 3 31 2 3 31 2 3 30 2 3 30 2 3 29 2 3 29 1 3 28 1 3 28 1 3 27 1 3 27
1 3 26 1 3 26 1 3 25 1 3 25 1 3 24 1 3 23 1 2 23 1 2 22 1 2 22 1 2 21
1 2 20 1 2 20 1 2 19 1 2 19 1 2 18 1 2 17 1 2 17 1 2 16 1 2 16 1 2 15
1 2 14 1 2 14 1 1 13 1 1 13 1 1 12 1 1 11 1 1 11 1 1 10 0 1 9 0 1 9 0
1 9 0 1 9 0 1 9 0 1 9 0 1 9 0 1 9 0 1 9 0 1 9 0 1 9 0 1 9 0 1 9 0 1 9
0 1 9 0 1 9 0 1 9 0 1 9 0 1 9 0 1 9 0 1 9 0 1 9 0 1 9 0 1 9 0 1 9 0 1
9 0 1 9 0 1 9 0 1 9 0 1 9 0 1 9 0 1 9
3 1 24 3 1 24 3 1 24 3 1 24 3 1 24 3 1 24 3 1 24 3 1 24 3 1 24 3 1 24
3 1 24 3 1 24 3 1 24 3 1 24 3 1 24 3 1 24 3 1 24 3 1 24 3 1 24 3 1 24
3 1 24 3 1 24 3 1 24 3 1 24 3 1 24 3 1 24 3 1 24 3 1 24 3 1 24 3 1 25
3 1 25 3 1 25 3 1 25 3 1 25 3 1 25 3 1 25 3 1 25 3 1 25 3 1 25 3 1 25
3 1 25 3 1 25 3 1 25 3 1 25 3 1 25 3 1 25 3 1 25 3 1 25 3 1 25 3 1 25
3 1 25 3 1 25 3 1 25 3 1 25 3 1 25 3 1 25 3 1 25 3 1 25 3 1 25 3 1 25
3 1 25 3 1 26 3 1 26 3 1 26 3 1 26 3 1 26 3 1 26 3 1 26 3 1 26 3 1 26
3 1 26 3 1 26 3 1 26 3 1 26 3 1 26 3 1 26 3 1 26 3 1 26 3 1 26 3 1 26
3 1 26 3 1 26 3 1 26 3 1 26 3 1 26 3 1 26 3 1 26 3 1 26 3 1 26 3 1 26
3 1 26 3 1 26 3 1 26 3 1 26 3 1 26 3 1 26 3 1 26 0 0 59 0 0 78 0 0 88
0 1 94 0 1 100 0 1 104 0 1 107 0 1 110 0 1 113 0 1 115 0 1 117 0 1 118
0 1 119 0 1 119 0 1 120 0 1 120 0 1 119 0 1 119 0 1 118 0 1 117 0 1
115 0 1 114 0 1 112 0 1 109 0 1 106 0 1 103 0 1 100 0 1 96 0 0 91 0 0
86 0 0 80 0 0 73 0 0 64 0 0 51 3 1 27 3 1 27 3 1 27 3 1 27 3 1 27 3 1
27 3 1 27 3 1 27 3 1 27 3 1 27 3 1 27 3 1 27 3 1 27 3 1 27 3 1 27 3 1
27 3 1 27 3 1 27 3 1 27 3 1 27 3 1 27 3 1 27 3 1 27 6 3 98 7 4 108 7 4
115 8 4 120 8 4 124 8 4 127 8 4 130 8 4 132 8 4 133 9 4 135 9 5 127 9
5 127 9 5 128 9 5 128 9 5 129 9 5 128 9 5 128 9 5 128 9 5 127 9 5 126
8 3 54 9 3 62 10 4 68 10 4 72 11 4 76 11 4 80 11 4 81 11 4 79 10 4 76
10 4 71 9 3 66 9 3 61 8 3 56 7 3 51 6 2 46 6 2 41 5 2 34 8 7 49 5 4 36
5 4 35 5 4 34 5 4 33 5 4 32 5 4 31 5 3 30 4 3 30 12 11 68 11 11 66 11
11 65 11 11 63 11 10 61 10 10 60 10 10 58 10 10 57 9 9 55 9 9 53 9 9
52 9 8 50 8 8 48 8 8 46 8 7 45 7 7 43 7 7 41 7 6 39 6 6 37 6 5 34 5 5
32 5 5 29 4 4 27 4 3 24 4 3 22 4 3 22 3 3 17 1 0 10 1 0 10 1 0 10 1 0
10 1 0 10 1 0 10 1 0 10 1 0 10 1 0 10 1 0 10 1 0 10 1 0 10 1 0 10 1 0
10 1 0 10 1 0 10 1 0 10 1 0 10 1 0 10 1 0 10 1 0 10 1 0 10 1 0 10 1 0
10 1 0 10 1 0 10 1 0 10 1 0 10 1 0 10 1 0 10 1 0 10 1 0 10 1 0 10 1 0
10 1 0 10 1 0 10 1 0 10 1 0 10 1 0 10 1 0 10 1 0 10 1 0 10 1 0 10 1 0
10 1 0 10 1 0 10 3 1 25 3 1 25 3 1 25 3 1 25 3 1 25 3 1 24 3 1 24 3 1
24 3 1 24 3 1 24 3 1 24 3 1 24 3 1 24 3 1 24 3 1 24 3 1 24 3 1 24 3 1
24 3 1 24 3 1 24 3 1 24 3 1 24 3 1 24 3 1 24 3 1 24 3 1 24 3 1 24 3 1
24 3 1 24 3 1 24 3 1 24 3 1 24 3 1 24 3 1 24 3 1 24 3 1 24 3 1 23 3 1
23 3 1 23 3 1 23 3 1 23 3 1 23 3 1 23 3 1 23 3 1 23 3 1 23 3 1 23 3 1
23 3 1 23 3 1 23 3 1 23 3 1 23 3 1 23 3 1 23 2 4 32 2 4 32 2 4 32 2 3
32 2 3 31 2 3 31 2 3 31 2 3 30 2 3 30 2 3 29 1 3 28 1 3 28 1 3 27 1 3
27 1 3 26 1 3 26 1 3 25 1 3 24 1 3 24 1 3 23 1 2 23 1 2 22 1 2 21 1 2
21 1 2 20 1 2 20 1 2 19 1 2 18 1 2 18 1 2 17 1 2 17 1 2 16 1 2 15 1 2
15 1 2 14 1 1 14 1 1 13 1 1 12 1 1 12 1 1 11 1 1 10 1 1 10 0 1 9 0 1 9
0 1 9 0 1 9 0 1 9 0 1 9 0 1 9 0 1 9 0 1 9 0 1 9 0 1 9 0 1 9 0 1 9 0 1
9 0 1 9 0 1 9 0 1 9 0 1 9 0 1 9 0 1 9 0 1 9 0 1 9 0 1 9 0 1 9 0 1 9 0
1 9 0 1 9 0 1 9 0 1 9 0 1 9 0 1 9
3 1 24 3 1 24 3 1 24 3 1 24 3 1 24 3 1 24 3 1 24 3 1 24 3 1 24 3 1 24
3 1 24 3 1 24 3 1 24 3 1 24 3 1 24 3 1 24 3 1 24 3 1 24 3 1 24 3 1 24
3 1 24 3 1 25 3 1 25 3 1 25 3 1 25 3 1 25 3 1 25 3 1 25 3 1 25 3 1 25
3 1 25 3 1 25 3 1 25 3 1 25 3 1 25 3 1 25 3 1 25 3 1 25 3 1 25 3 1 25
3 1 25 3 1 25 3 1 25 3 1 25 3 1 25 3 1 25 3 1 25 3 1 25 3 1 25 3 1 25
3 1 25 3 1 26 3 1 26 3 1 26 3 1 26 3 1 26 3 1 26 3 1 26 3 1 26 3 1 26
3 1 26 3 1 26 3 1 26 3 1 26 3 1 26 3 1 26 3 1 26 3 1 26 3 1 26 3 1 26
3 1 26 3 1 26 3 1 26 3 1 26 3 1 26 3 1 26 3 1 26 3 1 26 3 1 26 3 1 26
3 1 26 3 1 26 3 1 26 3 1 26 3 1 26 3 1 26 3 1 27 3 1 27 3 1 27 3 1 27
3 1 27 3 1 27 3 1 27 3 1 27 3 1 27 3 1 27 3 1 27 3 1 27 0 0 60 0 0 78
0 0 87 0 0 93 0 1 98 0 1 102 0 1 106 0 1 109 0 1 111 0 1 113 0 1 114 0
1 115 0 1 116 0 1 116 0 1 116 0 1 116 0 1 115 0 1 114 0 1 113 0 1 112
0 1 110 0 1 108 0 1 105 0 1 103 0 1 99 0 1 96 0 0 91 0 0 86 0 0 81 0 0
74 0 0 66 0 0 54 3 1 27 3 1 27 3 1 27 3 1 27 3 1 27 3 1 27 3 1 27 3 1
27 3 1 27 3 1 27 3 1 27 3 1 27 3 1 27 3 1 27 3 1 27 3 1 27 3 1 27 3 1
27 3 1 27 3 1 27 3 1 27 3 1 27 3 1 27 3 1 27 6 3 88 7 3 104 7 4 112 8
4 117 8 4 122 8 4 125 8 4 128 8 4 130 8 4 132 8 4 133 9 5 125 9 5 126
9 5 127 9 5 127 9 5 127 9 5 127 9 5 127 9 5 127 9 5 126 9 5 125 9 5
124 8 3 58 9 3 64 10 4 68 10 4 71 10 4 73 10 4 73 10 4 72 10 4 70 9 3
67 9 3 63 8 3 59 8 3 55 7 3 50 6 2 45 5 2 39 4 2 32 5 4 34 5 4 34 5 4
33 5 4 33 5 4 32 5 4 31 5 4 31 5 3 30 12 11 69 11 11 67 11 11 66 11 11
64 11 11 63 10 10 61 10 10 60 10 10 58 10 10 57 9 9 55 9 9 53 9 9 52 9
8 50 8 8 48 8 8 46 8 7 44 7 7 43 7 7 41 6 6 38 6 6 36 6 5 34 5 5 32 5
4 29 4 4 26 4 3 23 4 3 23 4 3 22 3 3 17 1 0 10 1 0 10 1 0 10 1 0 10 1
0 10 1 0 10 1 0 10 1 0 10 1 0 10 1 0 10 1 0 10 1 0 10 1 0 10 1 0 10 1
0 10 1 0 10 1 0 10 1 0 10 1 0 10 1 0 10 1 0 10 1 0 10 1 0 10 1 0 10 1
0 10 1 0 10 1 0 10 1 0 10 1 0 10 1 0 10 1 0 10 1 0 10 1 0 10 1 0 10 1
0 10 1 0 10 1 0 10 1 0 10 1 0 10 1 0 10 1 0 10 1 0 10 1 0 10 1 0 10 3
1 25 3 1 25 3 1 25 3 1 25 3 1 25 3 1 25 3 1 25 3 1 25 3 1 25 3 1 25 3
1 25 3 1 25 3 1 25 3 1 25 3 1 24 3 1 24 3 1 24 3 1 24 3 1 24 3 1 24 3
1 24 3 1 24 3 1 24 3 1 24 3 1 24 3 1 24 3 1 24 3 1 24 3 1 24 3 1 24 3
1 24 3 1 24 3 1 24 3 1 24 3 1 24 3 1 24 3 1 24 3 1 24 3 1 24 3 1 24 3
1 24 3 1 24 3 1 24 3 1 24 3 1 23 3 1 23 3 1 23 3 1 23 3 1 23 3 1 23 3
1 23 3 1 23 3 1 23 3 1 23 2 4 34 2 4 34 2 4 34 2 4 33 2 4 33 2 4 33 2
4 32 2 3 32 2 3 31 2 3 31 2 3 30 2 3 30 2 3 29 1 3 28 1 3 28 1 3 27 1
3 27 1 3 26 1 3 25 1 3 25 1 3 24 1 3 24 1 3 23 1 2 22 1 2 22 1 2 21 1
2 21 1 2 20 1 2 19 1 2 19 1 2 18 1 2 18 1 2 17 1 2 16 1 2 16 1 2 15 1
2 14 1 2 14 1 1 13 1 1 13 1 1 12 1 1 11 1 1 11 1 1 10 0 1 10 0 1 9 0 1
9 0 1 9 0 1 9 0 1 9 0 1 9 0 1 9 0 1 9 0 1 9 0 1 9 0 1 9 0 1 9 0 1 9 0
1 9 0 1 9 0 1 9 0 1 9 0 1 9 0 1 9 0 1 9 0 1 9 0 1 9 0 1 9 0 1 9 0 1 9
0 1 9 0 1 9 0 1 9 0 1 9 0 1 9
3 1 24 3 1 24 3 1 24 3 1 24 3 1 24 3 1 24 3 1 24 3 1 24 3 1 24 3 1 24
3 1 24 3 1 24 3 1 24 3 1 25 3 1 25 3 1 25 3 1 25 3 1 25 3 1 25 3 1 25
3 1 25 3 1 25 3 1 25 3 1 25 3 1 25 3 1 25 3 1 25 3 1 25 3 1 25 3 1 25
3 1 25 3 1 25 3 1 25 3 1 25 3 1 25 3 1 25 3 1 25 3 1 25 3 1 25 3 1 25
3 1 25 3 1 25 3 1 26 3 1 26 3 1 26 3 1 26 3 1 26 3 1 26 3 1 26 3 1 26
3 1 26 3 1 26 3 1 26 3 1 26 3 1 26 3 1 26 3 1 26 3 1 26 3 1 26 3 1 26
3 1 26 3 1 26 3 1 26 3 1 26 3 1 26 3 1 26 3 1 26 3 1 26 3 1 26 3 1 26
3 1 26 3 1 26 3 1 26 3 1 26 3 1 27 3 1 27 3 1 27 3 1 27 3 1 27 3 1 27
3 1 27 3 1 27 3 1 27 3 1 27 3 1 27 3 1 27 3 1 27 3 1 27 3 1 27 3 1 27
3 1 27 3 1 27 3 1 27 3 1 27 3 1 27 3 1 27 3 1 27 3 1 27 3 1 27 3 1 27
0 0 76 0 0 85 0 0 91 0 1 96 0 1 100 0 1 103 0 1 106 0 1 108 0 1 110 0
1 111 0 1 112 0 1 112 0 1 112 0 1 112 0 1 111 0 1 110 0 1 109 0 1 108
0 1 106 0 1 104 0 1 101 0 1 98 0 1 94 0 0 90 0 0 86 0 0 80 0 0 74 0 0
66 0 0 54 3 1 28 3 1 28 3 1 28 3 1 28 3 1 28 3 1 28 3 1 28 3 1 28 3 1
28 3 1 28 3 1 28 3 1 28 3 1 28 3 1 28 3 1 28 3 1 28 3 1 28 3 1 28 3 1
28 3 1 28 3 1 28 3 1 28 3 1 28 3 1 28 3 1 28 3 1 28 6 3 97 7 4 108 7 4
114 8 4 119 8 4 122 8 4 126 8 4 128 8 4 130 8 4 131 8 4 133 9 5 124 9
5 125 9 5 126 9 5 126 9 5 126 9 5 126 9 5 125 9 5 125 9 5 124 9 5 123
9 4 95 8 3 59 9 3 64 9 3 67 10 4 68 10 4 68 9 3 68 9 3 66 9 3 63 8 3
60 8 3 57 7 3 53 7 2 48 6 2 43 5 2 36 5 4 33 5 4 32 5 4 32 5 4 32 5 4
31 5 4 31 5 3 30 12 12 71 12 12 69 12 11 68 11 11 67 11 11 65 11 11 64
11 10 62 10 10 61 10 10 59 10 10 58 10 9 56 9 9 55 9 9 53 9 9 51 8 8
50 8 8 48 8 8 46 8 7 44 7 7 42 7 7 40 6 6 38 6 6 36 6 5 34 5 5 31 5 4
28 4 4 25 4 3 23 4 3 23 4 3 22 1 0 10 1 0 10 1 0 10 1 0 10 1 0 10 1 0
10 1 0 10 1 0 10 1 0 10 1 0 10 1 0 10 1 0 10 1 0 10 1 0 10 1 0 10 1 0
10 1 0 10 1 0 10 1 0 10 1 0 10 1 0 10 1 0 10 1 0 10 1 0 10 1 0 10 1 0
10 1 0 10 1 0 10 1 0 10 1 0 10 1 0 10 1 0 10 1 0 10 1 0 10 1 0 10 1 0
10 1 0 10 1 0 10 1 0 10 1 0 10 1 0 10 1 0 10 1 0 10 3 1 25 3 1 25 3 1
25 3 1 25 3 1 25 3 1 25 3 1 25 3 1 25 3 1 25 3 1 25 3 1 25 3 1 25 3 1
25 3 1 25 3 1 25 3 1 25 3 1 25 3 1 25 3 1 25 3 1 25 3 1 25 3 1 25 3 1
25 3 1 24 3 1 24 3 1 24 3 1 24 3 1 24 3 1 24 3 1 24 3 1 24 3 1 24 3 1
24 3 1 24 3 1 24 3 1 24 3 1 24 3 1 24 3 1 24 3 1 24 3 1 24 3 1 24 3 1
24 3 1 24 3 1 24 3 1 24 3 1 24 3 1 24 3 1 24 3 1 24 3 1 24 3 1 24 3 1
23 3 1 23 2 4 34 2 4 35 2 4 35 2 4 35 2 4 35 2 4 34 2 4 34 2 4 33 2 4
33 2 4 32 2 3 32 2 3 31 2 3 31 2 3 30 2 3 29 1 3 29 1 3 28 1 3 28 1 3
27 1 3 26 1 3 26 1 3 25 1 3 25 1 3 24 1 3 23 1 2 23 1 2 22 1 2 22 1 2
21 1 2 20 1 2 20 1 2 19 1 2 18 1 2 18 1 2 17 1 2 17 1 2 16 1 2 15 1 2
15 1 2 14 1 1 14 1 1 13 1 1 12 1 1 12 1 1 11 1 1 10 1 1 10 0 1 9 0 1 9
0 1 9 0 1 9 0 1 9 0 1 9 0 1 9 0 1 9 0 1 9 0 1 9 0 1 9 0 1 9 0 1 9 0 1
9 0 1 9 0 1 9 0 1 9 0 1 9 0 1 9 0 1 9 0 1 9 0 1 9 0 1 9 0 1 9 0 1 9 0
1 9 0 1 9 0 1 9 0 1 9 0 1 9
3 1 24 3 1 24 3 1 24 3 1 24 3 1 24 3 1 24 3 1 25 3 1 25 3 1 25 3 1 25
3 1 25 3 1 25 3 1 25 3 1 25 3 1 25 3 1 25 3 1 25 3 1 25 3 1 25 3 1 25
3 1 25 3 1 25 3 1 25 3 1 25 3 1 25 3 1 25 3 1 25 3 1 25 3 1 25 3 1 25
3 1 25 3 1 25 3 1 25 3 1 25 3 1 26 3 1 26 3 1 26 3 1 26 3 1 26 3 1 26
3 1 26 3 1 26 3 1 26 3 1 26 3 1 26 3 1 26 3 1 26 3 1 26 3 1 26 3 1 26
3 1 26 3 1 26 3 1 26 3 1 26 3 1 26 3 1 26 3 1 26 3 1 26 3 1 26 3 1 26
3 1 26 3 1 26 3 1 26 3 1 26 3 1 27 3 1 27 3 1 27 3 1 27 3 1 27 3 1 27
3 1 27 3 1 27 3 1 27 3 1 27 3 1 27 3 1 27 3 1 27 3 1 27 3 1 27 3 1 27
3 1 27 3 1 27 3 1 27 3 1 27 3 1 27 3 1 27 3 1 27 3 1 27 3 1 27 3 1 27
3 1 27 3 1 27 3 1 27 3 1 27 3 1 27 3 1 27 3 1 27 3 1 27 3 1 27 3 1 27
3 1 28 0 0 73 0 0 82 0 0 88 0 0 93 0 1 97 0 1 100 0 1 102 0 1 104 0 1
105 0 1 106 0 1 107 0 1 107 0 1 107 0 1 106 0 1 106 0 1 104 0 1 103 0
1 101 0 1 98 0 1 96 0 0 92 0 0 89 0 0 84 0 0 79 0 0 73 0 0 64 0 0 51 3
1 28 3 1 28 3 1 28 3 1 28 3 1 28 3 1 28 3 1 28 3 1 28 3 1 28 3 1 28 3
1 28 3 1 28 3 1 28 3 1 28 3 1 28 3 1 28 3 1 28 3 1 28 3 1 28 3 1 28 3
1 28 3 1 28 3 1 28 3 1 28 3 1 28 3 1 28 3 1 28 3 1 28 7 3 102 7 4 110
7 4 115 8 4 120 8 4 123 8 4 126 8 4 128 8 4 129 8 4 131 8 5 122 8 5
123 9 5 124 9 5 124 9 5 124 9 5 124 9 5 124 8 5 123 8 5 122 8 5 121 8
5 120 9 4 88 8 3 58 9 3 61 9 3 63 9 3 64 9 3 63 9 3 62 8 3 60 8 3 57 7
3 53 7 2 49 6 2 44 5 2 38 9 7 52 5 4 31 5 4 31 5 4 31 5 4 31 5 3 30 12
12 72 12 12 71 12 12 70 12 11 68 11 11 67 11 11 66 11 11 65 11 11 63
11 10 62 10 10 60 10 10 59 10 10 57 10 9 56 9 9 54 9 9 53 9 8 51 8 8
49 8 8 47 8 8 46 7 7 44 7 7 42 7 6 40 6 6 38 6 6 35 5 5 33 5 5 30 5 4
28 4 4 25 4 3 23 4 3 23 3 3 17 1 0 10 1 0 10 1 0 10 1 0 10 1 0 10 1 0
10 1 0 10 1 0 10 1 0 10 1 0 10 1 0 10 1 0 10 1 0 10 1 0 10 1 0 10 1 0
10 1 0 10 1 0 10 1 0 10 1 0 10 1 0 10 1 0 10 1 0 10 1 0 10 1 0 10 1 0
10 1 0 10 1 0 10 1 0 10 1 0 10 1 0 10 1 0 10 1 0 10 1 0 10 1 0 10 1 0
10 1 0 10 1 0 10 1 0 10 1 0 10 1 0 10 3 1 26 3 1 26 3 1 26 3 1 25 3 1
25 3 1 25 3 1 25 3 1 25 3 1 25 3 1 25 3 1 25 3 1 25 3 1 25 3 1 25 3 1
25 3 1 25 3 1 25 3 1 25 3 1 25 3 1 25 3 1 25 3 1 25 3 1 25 3 1 25 3 1
25 3 1 25 3 1 25 3 1 25 3 1 25 3 1 25 3 1 25 3 1 24 3 1 24 3 1 24 3 1
24 3 1 24 3 1 24 3 1 24 3 1 24 3 1 24 3 1 24 3 1 24 3 1 24 3 1 24 3 1
24 3 1 24 3 1 24 3 1 24 3 1 24 3 1 24 3 1 24 3 1 24 3 1 24 3 1 24 3 1
24 2 4 36 2 4 36 2 4 36 2 4 36 2 4 36 2 4 35 2 4 35 2 4 34 2 4 34 2 4
33 2 4 33 2 4 32 2 3 32 2 3 31 2 3 30 2 3 30 2 3 29 1 3 29 1 3 28 1 3
27 1 3 27 1 3 26 1 3 26 1 3 25 1 3 24 1 3 24 1 3 23 1 2 22 1 2 22 1 2
21 1 2 21 1 2 20 1 2 19 1 2 19 1 2 18 1 2 18 1 2 17 1 2 16 1 2 16 1 2
15 1 2 14 1 2 14 1 1 13 1 1 13 1 1 12 1 1 11 1 1 11 1 1 10 0 1 9 0 1 9
0 1 9 0 1 9 0 1 9 0 1 9 0 1 9 0 1 9 0 1 9 0 1 9 0 1 9 0 1 9 0 1 9 0 1
9 0 1 9 0 1 9 0 1 9 0 1 9 0 1 9 0 1 9 0 1 9 0 1 9 0 1 9 0 1 9 0 1 9 0
1 9 0 1 9 0 1 9 0 1 9 0 1 9
3 1 25 3 1 25 3 1 25 3 1 25 3 1 25 3 1 25 3 1 25 3 1 25 3 1 25 3 1 25
3 1 25 3 1 25 3 1 25 3 1 25 3 1 25 3 1 25 3 1 25 3 1 25 3 1 25 3 1 25
3 1 25 3 1 25 3 1 25 3 1 25 3 1 25 3 1 25 3 1 26 3 1 26 3 1 26 3 1 26
3 1 26 3 1 26 3 1 26 3 1 26 3 1 26 3 1 26 3 1 26 3 1 26 3 1 26 3 1 26
3 1 26 3 1 26 3 1 26 3 1 26 3 1 26 3 1 26 3 1 26 3 1 26 3 1 26 3 1 26
3 1 26 3 1 26 3 1 26 3 1 26 3 1 27 3 1 27 3 1 27 3 1 27 3 1 27 3 1 27
3 1 27 3 1 27 3 1 27 3 1 27 3 1 27 3 1 27 3 1 27 3 1 27 3 1 27 3 1 27
3 1 27 3 1 27 3 1 27 3 1 27 3 1 27 3 1 27 3 1 27 3 1 27 3 1 27 3 1 27
3 1 27 3 1 27 3 1 27 3 1 27 3 1 27 3 1 27 3 1 28 3 1 28 3 1 28 3 1 28
3 1 28 3 1 28 3 1 28 3 1 28 3 1 28 3 1 28 3 1 28 3 1 28 3 1 28 3 1 28
3 1 28 3 1 28 0 0 64 0 0 77 0 0 84 0 0 89 0 0 92 0 1 95 0 1 97 0 1 99
0 1 100 0 1 101 0 1 101 0 1 101 0 1 101 0 1 100 0 1 98 0 1 97 0 1 95 0
0 92 0 0 89 0 0 85 0 0 81 0 0 76 0 0 69 0 0 60 3 1 28 3 1 28 3 1 28 3
1 28 3 1 28 3 1 28 3 1 28 3 1 28 3 1 28 3 1 28 3 1 28 3 1 28 3 1 28 3
1 28 3 1 28 3 1 28 3 1 28 3 1 28 3 1 28 3 1 28 3 1 28 3 1 28 3 1 28 3
1 28 3 1 28 3 1 28 3 1 28 3 1 28 3 1 28 3 1 28 6 3 93 7 3 104 7 4 111
7 4 116 8 4 120 8 4 123 8 4 125 8 4 127 8 4 128 8 5 120 8 5 121 8 5
122 8 5 122 8 5 122 8 5 122 8 5 122 8 5 121 8 5 120 8 5 120 8 5 118 8
5 117 8 4 84 8 3 54 8 3 57 8 3 58 8 3 58 8 3 57 8 3 55 7 3 52 7 2 49 6
2 44 5 2 38 6 4 88 13 13 75 13 12 75 13 12 74 13 12 73 12 12 73 12 12
72 12 12 71 12 12 70 12 11 69 12 11 68 11 11 66 11 11 65 11 11 64 11
10 63 10 10 61 10 10 60 10 10 58 10 10 57 9 9 55 9 9 54 9 9 52 9 8 50
8 8 49 8 8 47 8 7 45 7 7 43 7 7 41 7 6 39 6 6 37 6 5 35 5 5 32 5 4 30
4 4 27 4 3 24 4 3 23 4 3 23 3 3 17 1 0 10 1 0 10 1 0 10 1 0 10 1 0 10
1 0 10 1 0 10 1 0 10 1 0 10 1 0 10 1 0 10 1 0 10 1 0 10 1 0 10 1 0 10
1 0 10 1 0 10 1 0 10 1 0 10 1 0 10 1 0 10 1 0 10 1 0 10 1 0 10 1 0 10
1 0 10 1 0 10 1 0 10 1 0 10 1 0 10 1 0 10 1 0 10 1 0 10 1 0 10 1 0 10
1 0 10 1 0 10 1 0 10 1 0 10 3 1 26 3 1 26 3 1 26 3 1 26 3 1 26 3 1 26
3 1 26 3 1 26 3 1 26 3 1 26 3 1 26 3 1 26 3 1 25 3 1 25 3 1 25 3 1 25
3 1 25 3 1 25 3 1 25 3 1 25 3 1 25 3 1 25 3 1 25 3 1 25 3 1 25 3 1 25
3 1 25 3 1 25 3 1 25 3 1 25 3 1 25 3 1 25 3 1 25 3 1 25 3 1 25 3 1 25
3 1 25 3 1 25 3 1 25 3 1 24 3 1 24 3 1 24 3 1 24 3 1 24 3 1 24 3 1 24
3 1 24 3 1 24 3 1 24 3 1 24 3 1 24 3 1 24 3 1 24 3 1 24 3 1 24 3 1 24
2 4 38 2 4 38 2 4 38 2 4 37 2 4 37 2 4 36 2 4 36 2 4 35 2 4 35 2 4 34
2 4 34 2 4 33 2 4 33 2 3 32 2 3 31 2 3 31 2 3 30 2 3 30 2 3 29 1 3 28
1 3 28 1 3 27 1 3 26 1 3 26 1 3 25 1 3 25 1 3 24 1 3 23 1 2 23 1 2 22
1 2 21 1 2 21 1 2 20 1 2 20 1 2 19 1 2 18 1 2 18 1 2 17 1 2 17 1 2 16
1 2 15 1 2 15 1 2 14 1 1 13 1 1 13 1 1 12 1 1 12 1 1 11 1 1 10 1 1 10
0 1 9 0 1 9 0 1 9 0 1 9 0 1 9 0 1 9 0 1 9 0 1 9 0 1 9 0 1 9 0 1 9 0 1
9 0 1 9 0 1 9 0 1 9 0 1 9 0 1 9 0 1 9 0 1 9 0 1 9 0 1 9 0 1 9 0 1 9 0
1 9 0 1 9 0 1 9 0 1 9 0 1 9 0 1 9
3 1 25 3 1 25 3 1 25 3 1 25 3 1 25 3 1 25 3 1 25 3 1 25 3 1 25 3 1 25
3 1 25 3 1 25 3 1 25 3 1 25 3 1 25 3 1 25 3 1 25 3 1 25 3 1 25 3 1 26
3 1 26 3 1 26 3 1 26 3 1 26 3 1 26 3 1 26 3 1 26 3 1 26 3 1 26 3 1 26
3 1 26 3 1 26 3 1 26 3 1 26 3 1 26 3 1 26 3 1 26 3 1 26 3 1 26 3 1 26
3 1 26 3 1 26 3 1 26 3 1 26 3 1 26 3 1 27 3 1 27 3 1 27 3 1 27 3 1 27
3 1 27 3 1 27 3 1 27 3 1 27 3 1 27 3 1 27 3 1 27 3 1 27 3 1 27 3 1 27
3 1 27 3 1 27 3 1 27 3 1 27 3 1 27 3 1 27 3 1 27 3 1 27 3 1 27 3 1 27
3 1 27 3 1 27 3 1 27 3 1 27 3 1 27 3 1 28 3 1 28 3 1 28 3 1 28 3 1 28
3 1 28 3 1 28 3 1 28 3 1 28 3 1 28 3 1 28 3 1 28 3 1 28 3 1 28 3 1 28
3 1 28 3 1 28 3 1 28 3 1 28 3 1 28 3 1 28 3 1 28 3 1 28 3 1 28 3 1 28
3 1 28 3 1 28 3 1 28 3 1 28 0 0 67 0 0 76 0 0 82 0 0 86 0 0 89 0 0 91
0 0 93 0 1 94 0 1 94 0 1 94 0 1 94 0 0 93 0 0 91 0 0 89 0 0 87 0 0 84
0 0 81 0 0 76 0 0 71 0 0 64 0 0 51 3 1 29 3 1 29 3 1 29 3 1 29 3 1 29
3 1 29 3 1 29 3 1 29 3 1 29 3 1 29 3 1 29 3 1 29 3 1 29 3 1 29 3 1 29
3 1 29 3 1 29 3 1 29 3 1 29 3 1 29 3 1 29 3 1 29 3 1 29 3 1 29 3 1 29
3 1 29 3 1 29 3 1 29 3 1 29 3 1 29 3 1 29 3 1 29 6 3 96 7 4 106 7 4
112 7 4 116 8 4 119 8 4 122 8 4 124 8 4 126 8 4 127 8 5 118 8 5 119 8
5 120 8 5 120 8 5 120 8 5 120 8 5 119 8 5 118 8 5 117 8 5 116 8 5 115
8 5 114 8 5 112 8 4 77 7 2 49 7 3 50 7 3 49 7 2 48 6 2 45 5 2 40 7 4
92 6 4 89 13 12 74 13 12 74 13 12 73 12 12 73 12 12 72 12 12 71 12 12
70 12 12 70 12 12 69 12 11 68 11 11 67 11 11 65 11 11 64 11 11 63 11
10 62 10 10 60 10 10 59 10 10 58 10 9 56 9 9 55 9 9 53 9 9 51 8 8 50 8
8 48 8 8 46 8 7 44 7 7 43 7 7 41 6 6 38 6 6 36 6 5 34 5 5 31 5 4 29 4
4 26 4 3 23 4 3 23 4 3 23 1 0 10 1 0 10 1 0 10 1 0 10 1 0 10 1 0 10 1
0 10 1 0 10 1 0 10 1 0 10 1 0 10 1 0 10 1 0 10 1 0 10 1 0 10 1 0 10 1
0 10 1 0 10 1 0 10 1 0 10 1 0 10 1 0 10 1 0 10 1 0 10 1 0 10 1 0 10 1
0 10 1 0 10 1 0 10 1 0 10 1 0 10 1 0 10 1 0 10 1 0 10 1 0 10 1 0 10 1
0 10 1 0 10 3 1 26 3 1 26 3 1 26 3 1 26 3 1 26 3 1 26 3 1 26 3 1 26 3
1 26 3 1 26 3 1 26 3 1 26 3 1 26 3 1 26 3 1 26 3 1 26 3 1 26 3 1 26 3
1 26 3 1 26 3 1 26 3 1 25 3 1 25 3 1 25 3 1 25 3 1 25 3 1 25 3 1 25 3
1 25 3 1 25 3 1 25 3 1 25 3 1 25 3 1 25 3 1 25 3 1 25 3 1 25 3 1 25 3
1 25 3 1 25 3 1 25 3 1 25 3 1 25 3 1 25 3 1 25 3 1 25 3 1 25 3 1 24 3
1 24 3 1 24 3 1 24 3 1 24 3 1 24 3 1 24 3 1 24 3 1 24 2 4 39 2 4 39 2
4 39 2 4 39 2 4 38 2 4 38 2 4 37 2 4 37 2 4 36 2 4 36 2 4 35 2 4 35 2
4 34 2 4 34 2 4 33 2 4 32 2 3 32 2 3 31 2 3 30 2 3 30 2 3 29 1 3 29 1
3 28 1 3 27 1 3 27 1 3 26 1 3 26 1 3 25 1 3 24 1 3 24 1 3 23 1 2 22 1
2 22 1 2 21 1 2 21 1 2 20 1 2 19 1 2 19 1 2 18 1 2 17 1 2 17 1 2 16 1
2 16 1 2 15 1 2 14 1 1 14 1 1 13 1 1 12 1 1 12 1 1 11 1 1 11 1 1 10 0
1 9 0 1 9 0 1 9 0 1 9 0 1 9 0 1 9 0 1 9 0 1 9 0 1 9 0 1 9 0 1 9 0 1 9
0 1 9 0 1 9 0 1 9 0 1 9 0 1 9 0 1 9 0 1 9 0 1 9 0 1 9 0 1 9 0 1 9 0 1
9 0 1 9 0 1 9 0 1 9 0 1 9 0 1 9
3 1 25 3 1 25 3 1 25 3 1 25 3 1 25 3 1 25 3 1 25 3 1 25 3 1 25 3 1 25
3 1 25 3 1 26 3 1 26 3 1 26 3 1 26 3 1 26 3 1 26 3 1 26 3 1 26 3 1 26
3 1 26 3 1 26 3 1 26 3 1 26 3 1 26 3 1 26 3 1 26 3 1 26 3 1 26 3 1 26
3 1 26 3 1 26 3 1 26 3 1 26 3 1 26 3 1 26 3 1 26 3 1 27 3 1 27 3 1 27
3 1 27 3 1 27 3 1 27 3 1 27 3 1 27 3 1 27 3 1 27 3 1 27 3 1 27 3 1 27
3 1 27 3 1 27 3 1 27 3 1 27 3 1 27 3 1 27 3 1 27 3 1 27 3 1 27 3 1 27
3 1 27 3 1 27 3 1 27 3 1 27 3 1 27 3 1 28 3 1 28 3 1 28 3 1 28 3 1 28
3 1 28 3 1 28 3 1 28 3 1 28 3 1 28 3 1 28 3 1 28 3 1 28 3 1 28 3 1 28
3 1 28 3 1 28 3 1 28 3 1 28 3 1 28 3 1 28 3 1 28 3 1 28 3 1 28 3 1 28
3 1 28 3 1 28 3 1 28 3 1 28 3 1 28 3 1 28 3 1 28 3 1 28 3 1 29 3 1 29
3 1 29 3 1 29 3 1 29 3 1 29 3 1 29 3 1 29 0 0 60 0 0 71 0 0 76 0 0 80
0 0 82 0 0 84 0 0 85 0 0 85 0 0 84 0 0 83 0 0 82 0 0 80 0 0 77 0 0 73
0 0 68 0 0 62 4 1 29 4 1 29 4 1 29 4 1 29 4 1 29 4 1 29 4 1 29 4 1 29
4 1 29 4 1 29 4 1 29 4 1 29 4 1 29 4 1 29 4 1 29 4 1 29 4 1 29 4 1 29
4 1 29 4 1 29 4 1 29 4 1 29 4 1 29 4 1 29 4 1 29 4 1 29 4 1 29 4 1 29
4 1 29 4 1 29 4 1 29 4 1 29 4 1 29 4 1 29 4 1 29 4 1 29 6 3 98 7 4 106
7 4 111 7 4 115 8 4 118 8 4 121 8 4 123 8 4 124 8 5 115 8 5 116 8 5
117 8 5 117 8 5 117 8 5 117 8 5 117 8 5 116 8 5 115 8 5 114 8 5 113 8
5 111 8 5 110 8 5 108 7 5 106 7 5 104 7 5 101 7 4 99 7 4 96 7 4 93 7 4
90 6 4 86 12 12 73 12 12 72 12 12 72 12 12 71 12 12 71 12 12 70 12 12
69 12 12 69 12 11 68 11 11 67 11 11 66 11 11 65 11 11 63 11 10 62 10
10 61 10 10 60 10 10 58 10 10 57 9 9 55 9 9 54 9 9 52 9 8 51 8 8 49 8
8 47 8 7 46 7 7 44 7 7 42 7 6 40 6 6 38 6 6 35 5 5 33 5 5 30 4 4 28 4
3 24 4 3 23 4 3 23 3 3 17 1 0 10 1 0 10 1 0 10 1 0 10 1 0 10 1 0 10 1
0 10 1 0 10 1 0 10 1 0 10 1 0 10 1 0 10 1 0 10 1 0 10 1 0 10 1 0 10 1
0 10 1 0 10 1 0 10 1 0 10 1 0 10 1 0 10 1 0 10 1 0 10 1 0 10 1 0 10 1
0 10 1 0 10 1 0 10 1 0 10 1 0 10 1 0 10 1 0 10 1 0 10 1 0 10 1 0 10 3
1 27 3 1 27 3 1 27 3 1 26 3 1 26 3 1 26 3 1 26 3 1 26 3 1 26 3 1 26 3
1 26 3 1 26 3 1 26 3 1 26 3 1 26 3 1 26 3 1 26 3 1 26 3 1 26 3 1 26 3
1 26 3 1 26 3 1 26 3 1 26 3 1 26 3 1 26 3 1 26 3 1 26 3 1 26 3 1 25 3
1 25 3 1 25 3 1 25 3 1 25 3 1 25 3 1 25 3 1 25 3 1 25 3 1 25 3 1 25 3
1 25 3 1 25 3 1 25 3 1 25 3 1 25 3 1 25 3 1 25 3 1 25 3 1 25 3 1 25 3
1 25 3 1 25 3 1 25 3 1 25 3 1 25 3 1 24 3 1 24 2 4 40 2 4 40 2 4 40 2
4 40 2 4 39 2 4 39 2 4 38 2 4 38 2 4 37 2 4 37 2 4 36 2 4 36 2 4 35 2
4 34 2 4 34 2 4 33 2 4 33 2 3 32 2 3 31 2 3 31 2 3 30 2 3 30 2 3 29 1
3 28 1 3 28 1 3 27 1 3 26 1 3 26 1 3 25 1 3 25 1 3 24 1 3 23 1 2 23 1
2 22 1 2 21 1 2 21 1 2 20 1 2 19 1 2 19 1 2 18 1 2 18 1 2 17 1 2 16 1
2 16 1 2 15 1 2 15 1 2 14 1 1 13 1 1 13 1 1 12 1 1 11 1 1 11 1 1 10 0
1 10 0 1 9 0 1 9 0 1 9 0 1 9 0 1 9 0 1 9 0 1 9 0 1 9 0 1 9 0 1 9 0 1 9
0 1 9 0 1 9 0 1 9 0 1 9 0 1 9 0 1 9 0 1 9 0 1 9 0 1 9 0 1 9 0 1 9 0 1
9 0 1 9 0 1 9 0 1 9 0 1 9 0 1 9
3 1 25 3 1 25 3 1 25 3 1 25 3 1 26 3 1 26 3 1 26 3 1 26 3 1 26 3 1 26
3 1 26 3 1 26 3 1 26 3 1 26 3 1 26 3 1 26 3 1 26 3 1 26 3 1 26 3 1 26
3 1 26 3 1 26 3 1 26 3 1 26 3 1 26 3 1 26 3 1 26 3 1 26 3 1 26 3 1 26
3 1 27 3 1 27 3 1 27 3 1 27 3 1 27 3 1 27 3 1 27 3 1 27 3 1 27 3 1 27
3 1 27 3 1 27 3 1 27 3 1 27 3 1 27 3 1 27 3 1 27 3 1 27 3 1 27 3 1 27
3 1 27 3 1 27 3 1 27 3 1 27 3 1 27 3 1 27 3 1 28 3 1 28 3 1 28 3 1 28
3 1 28 3 1 28 3 1 28 3 1 28 3 1 28 3 1 28 3 1 28 3 1 28 3 1 28 3 1 28
3 1 28 3 1 28 3 1 28 3 1 28 3 1 28 3 1 28 3 1 28 3 1 28 3 1 28 3 1 28
3 1 28 3 1 28 3 1 28 3 1 28 3 1 28 3 1 29 3 1 29 3 1 29 3 1 29 3 1 29
3 1 29 3 1 29 3 1 29 3 1 29 3 1 29 3 1 29 3 1 29 3 1 29 4 1 29 4 1 29
4 1 29 4 1 29 4 1 29 4 1 29 4 1 29 4 1 29 4 1 29 4 1 29 4 1 29 4 1 29
0 0 63 0 0 67 0 0 70 0 0 70 0 0 70 0 0 69 0 0 67 0 0 63 0 0 58 4 1 29
4 1 29 4 1 29 4 1 29 4 1 29 4 1 29 4 1 29 4 1 29 4 1 29 4 1 29 4 1 29
4 1 29 4 1 29 4 1 29 4 1 29 4 1 29 4 1 29 4 1 30 4 1 30 4 1 30 4 1 30
4 1 30 4 1 30 4 1 30 4 1 30 4 1 30 4 1 30 4 1 30 4 1 30 4 1 30 4 1 30
4 1 30 4 1 30 4 1 30 4 1 30 4 1 30 4 1 30 4 1 30 4 1 30 4 1 30 6 3 98
7 4 105 7 4 110 7 4 114 7 4 117 8 4 119 8 4 121 8 4 122 8 5 113 8 5
114 8 5 114 8 5 114 8 5 114 8 5 114 8 5 113 8 5 112 8 5 111 8 5 110 8
5 109 8 5 107 7 5 105 7 5 103 7 5 101 7 4 98 7 4 96 7 4 93 7 4 90 6 4
86 12 12 72 12 12 72 12 12 71 12 12 71 12 12 70 12 12 70 12 12 69 12
12 68 12 11 67 11 11 67 11 11 66 11 11 65 11 11 64 11 11 63 10 10 61
10 10 60 10 10 59 10 10 57 10 9 56 9 9 55 9 9 53 9 9 52 9 8 50 8 8 48
8 8 47 8 7 45 7 7 43 7 7 41 7 6 39 6 6 37 6 5 34 5 5 32 5 4 29 4 4 26
4 3 23 4 3 23 4 3 23 1 0 10 1 0 10 1 0 10 1 0 10 1 0 10 1 0 10 1 0 10
1 0 10 1 0 10 1 0 10 1 0 10 1 0 10 1 0 10 1 0 10 1 0 10 1 0 10 1 0 10
1 0 10 1 0 10 1 0 10 1 0 10 1 0 10 1 0 10 1 0 10 1 0 10 1 0 10 1 0 10
1 0 10 1 0 10 1 0 10 1 0 10 1 0 10 1 0 10 1 0 10 3 1 27 3 1 27 3 1 27
3 1 27 3 1 27 3 1 27 3 1 27 3 1 27 3 1 27 3 1 27 3 1 27 3 1 27 3 1 26
3 1 26 3 1 26 3 1 26 3 1 26 3 1 26 3 1 26 3 1 26 3 1 26 3 1 26 3 1 26
3 1 26 3 1 26 3 1 26 3 1 26 3 1 26 3 1 26 3 1 26 3 1 26 3 1 26 3 1 26
3 1 26 3 1 26 3 1 26 3 1 26 3 1 26 3 1 25 3 1 25 3 1 25 3 1 25 3 1 25
3 1 25 3 1 25 3 1 25 3 1 25 3 1 25 3 1 25 3 1 25 3 1 25 3 1 25 3 1 25
3 1 25 3 1 25 3 1 25 3 1 25 3 1 25 3 1 25 2 4 41 2 4 41 2 4 41 2 4 41
2 4 40 2 4 40 2 4 39 2 4 39 2 4 38 2 4 38 2 4 37 2 4 37 2 4 36 2 4 35
2 4 35 2 4 34 2 4 34 2 4 33 2 4 32 2 3 32 2 3 31 2 3 30 2 3 30 2 3 29
1 3 29 1 3 28 1 3 27 1 3 27 1 3 26 1 3 25 1 3 25 1 3 24 1 3 23 1 2 23
1 2 22 1 2 22 1 2 21 1 2 20 1 2 20 1 2 19 1 2 18 1 2 18 1 2 17 1 2 17
1 2 16 1 2 15 1 2 15 1 2 14 1 1 14 1 1 13 1 1 12 1 1 12 1 1 11 1 1 10
1 1 10 0 1 9 0 1 9 0 1 9 0 1 9 0 1 9 0 1 9 0 1 9 0 1 9 0 1 9 0 1 9 0 1
9 0 1 9 0 1 9 0 1 9 0 1 9 0 1 9 0 1 9 0 1 9 0 1 9 0 1 9 0 1 9 0 1 9 0
1 9 0 1 9 0 1 9 0 1 9 0 1 9 0 1 9
3 1 26 3 1 26 3 1 26 3 1 26 3 1 26 3 1 26 3 1 26 3 1 26 3 1 26 3 1 26
3 1 26 3 1 26 3 1 26 3 1 26 3 1 26 3 1 26 3 1 26 3 1 26 3 1 26 3 1 26
3 1 26 3 1 26 3 1 27 3 1 27 3 1 27 3 1 27 3 1 27 3 1 27 3 1 27 3 1 27
3 1 27 3 1 27 3 1 27 3 1 27 3 1 27 3 1 27 3 1 27 3 1 27 3 1 27 3 1 27
3 1 27 3 1 27 3 1 27 3 1 27 3 1 27 3 1 27 3 1 27 3 1 28 3 1 28 3 1 28
3 1 28 3 1 28 3 1 28 3 1 28 3 1 28 3 1 28 3 1 28 3 1 28 3 1 28 3 1 28
3 1 28 3 1 28 3 1 28 3 1 28 3 1 28 3 1 28 3 1 28 3 1 28 3 1 28 3 1 28
3 1 28 3 1 28 3 1 28 3 1 28 3 1 29 3 1 29 3 1 29 3 1 29 3 1 29 3 1 29
3 1 29 3 1 29 3 1 29 3 1 29 3 1 29 4 1 29 4 1 29 4 1 29 4 1 29 4 1 29
4 1 29 4 1 29 4 1 29 4 1 29 4 1 29 4 1 29 4 1 29 4 1 29 4 1 29 4 1 29
4 1 29 4 1 29 4 1 29 4 1 29 4 1 29 4 1 29 4 1 29 4 1 29 4 1 29 4 1 29
4 1 30 4 1 30 4 1 30 4 1 30 4 1 30 4 1 30 4 1 30 4 1 30 4 1 30 4 1 30
4 1 30 4 1 30 4 1 30 4 1 30 4 1 30 4 1 30 4 1 30 4 1 30 4 1 30 4 1 30
4 1 30 4 1 30 4 1 30 4 1 30 4 1 30 4 1 30 4 1 30 4 1 30 4 1 30 4 1 30
4 1 30 4 1 30 4 1 30 4 1 30 4 1 30 4 1 30 4 1 30 4 1 30 4 1 30 4 1 30
4 1 30 4 1 30 4 1 30 4 1 30 4 1 30 4 1 30 4 1 30 4 1 30 4 1 30 4 1 30
6 3 96 7 3 104 7 4 108 7 4 112 7 4 115 7 4 117 8 4 118 8 4 119 8 5 110
8 5 111 8 5 111 8 5 111 8 5 111 8 5 110 8 5 109 8 5 108 8 5 107 7 5
106 7 5 104 7 5 102 7 5 100 7 4 98 7 4 95 7 4 93 6 4 90 6 4 86 6 4 83
12 12 71 12 12 70 12 12 70 12 12 70 12 12 69 12 12 69 12 12 68 12 11
67 11 11 66 11 11 66 11 11 65 11 11 64 11 11 63 11 10 62 10 10 60 10
10 59 10 10 58 10 9 57 9 9 55 9 9 54 9 9 52 9 8 51 8 8 49 8 8 47 8 7
46 7 7 44 7 7 42 7 6 40 6 6 38 6 6 36 6 5 33 5 5 31 5 4 28 4 3 25 4 3
23 4 3 23 1 0 10 1 0 10 1 0 10 1 0 10 1 0 10 1 0 10 1 0 10 1 0 10 1 0
10 1 0 10 1 0 10 1 0 10 1 0 10 1 0 10 1 0 10 1 0 10 1 0 10 1 0 10 1 0
10 1 0 10 1 0 10 1 0 10 1 0 10 1 0 10 1 0 10 1 0 10 1 0 10 1 0 10 1 0
10 1 0 10 1 0 10 1 0 10 1 0 10 3 1 27 3 1 27 3 1 27 3 1 27 3 1 27 3 1
27 3 1 27 3 1 27 3 1 27 3 1 27 3 1 27 3 1 27 3 1 27 3 1 27 3 1 27 3 1
27 3 1 27 3 1 27 3 1 27 3 1 27 3 1 27 3 1 26 3 1 26 3 1 26 3 1 26 3 1
26 3 1 26 3 1 26 3 1 26 3 1 26 3 1 26 3 1 26 3 1 26 3 1 26 3 1 26 3 1
26 3 1 26 3 1 26 3 1 26 3 1 26 3 1 26 3 1 26 3 1 26 3 1 26 3 1 26 3 1
25 3 1 25 3 1 25 3 1 25 3 1 25 3 1 25 3 1 25 3 1 25 3 1 25 3 1 25 3 1
25 3 1 25 3 1 25 3 1 25 3 1 25 2 5 42 2 5 42 2 5 42 2 5 42 2 5 41 2 4
41 2 4 40 2 4 40 2 4 39 2 4 39 2 4 38 2 4 38 2 4 37 2 4 36 2 4 36 2 4
35 2 4 34 2 4 34 2 4 33 2 4 33 2 3 32 2 3 31 2 3 31 2 3 30 2 3 29 1 3
29 1 3 28 1 3 27 1 3 27 1 3 26 1 3 26 1 3 25 1 3 24 1 3 24 1 3 23 1 2
22 1 2 22 1 2 21 1 2 21 1 2 20 1 2 19 1 2 19 1 2 18 1 2 17 1 2 17 1 2
16 1 2 16 1 2 15 1 2 14 1 1 14 1 1 13 1 1 13 1 1 12 1 1 11 1 1 11 1 1
10 0 1 9 0 1 9 0 1 9 0 1 9 0 1 9 0 1 9 0 1 9 0 1 9 0 1 9 0 1 9 0 1 9 0
1 9 0 1 9 0 1 9 0 1 9 0 1 9 0 1 9 0 1 9 0 1 9 0 1 9 0 1 9 0 1 9 0 1 9
0 1 9 0 1 9 0 1 9 0 1 9 0 1 9
3 1 26 3 1 26 3 1 26 3 1 26 3 1 26 3 1 26 3 1 26 3 1 26 3 1 26 3 1 26
3 1 26 3 1 26 3 1 26 3 1 26 3 1 26 3 1 27 3 1 27 3 1 27 3 1 27 3 1 27
3 1 27 3 1 27 3 1 27 3 1 27 3 1 27 3 1 27 3 1 27 3 1 27 3 1 27 3 1 27
3 1 27 3 1 27 3 1 27 3 1 27 3 1 27 3 1 27 3 1 27 3 1 27 3 1 27 3 1 28
3 1 28 3 1 28 3 1 28 3 1 28 3 1 28 3 1 28 3 1 28 3 1 28 3 1 28 3 1 28
3 1 28 3 1 28 3 1 28 3 1 28 3 1 28 3 1 28 3 1 28 3 1 28 3 1 28 3 1 28
3 1 28 3 1 28 3 1 28 3 1 28 3 1 29 3 1 29 3 1 29 3 1 29 3 1 29 3 1 29
3 1 29 3 1 29 3 1 29 3 1 29 4 1 29 4 1 29 4 1 29 4 1 29 4 1 29 4 1 29
4 1 29 4 1 29 4 1 29 4 1 29 4 1 29 4 1 29 4 1 29 4 1 29 4 1 29 4 1 29
4 1 29 4 1 29 4 1 29 4 1 29 4 1 29 4 1 30 4 1 30 4 1 30 4 1 30 4 1 30
4 1 30 4 1 30 4 1 30 4 1 30 4 1 30 4 1 30 4 1 30 4 1 30 4 1 30 4 1 30
4 1 30 4 1 30 4 1 30 4 1 30 4 1 30 4 1 30 4 1 30 4 1 30 4 1 30 4 1 30
4 1 30 4 1 30 4 1 30 4 1 30 4 1 30 4 1 30 4 1 30 4 1 30 4 1 30 4 1 30
4 1 30 4 1 30 4 1 30 4 1 30 4 1 30 4 1 30 4 1 30 4 1 30 4 1 30 4 1 30
4 1 30 4 1 30 4 1 30 4 1 30 4 1 30 4 1 30 4 1 30 4 1 30 4 1 30 4 1 30
4 1 30 4 1 30 4 1 30 4 1 30 4 1 30 4 1 30 4 1 30 4 1 30 4 1 30 4 1 30
4 1 30 6 3 94 7 3 101 7 4 106 7 4 109 7 4 112 7 4 114 7 4 115 7 5 106
7 5 107 8 5 107 8 5 107 8 5 107 7 5 106 7 5 106 7 5 105 7 5 104 7 5
102 7 5 100 7 4 99 7 4 97 7 4 94 7 4 92 6 4 89 6 4 86 6 4 82 12 12 70
12 12 69 12 12 69 12 12 69 12 12 68 12 12 68 12 11 67 11 11 67 11 11
66 11 11 65 11 11 64 11 11 64 11 11 63 11 10 62 10 10 61 10 10 59 10
10 58 10 10 57 10 9 56 9 9 54 9 9 53 9 9 51 8 8 50 8 8 48 8 8 46 8 7
45 7 7 43 7 7 41 7 6 39 6 6 37 6 5 34 5 5 32 5 4 29 4 4 26 4 3 24 4 3
23 3 3 17 1 0 10 1 0 10 1 0 10 1 0 10 1 0 10 1 0 10 1 0 10 1 0 10 1 0
10 1 0 10 1 0 10 1 0 10 1 0 10 1 0 10 1 0 10 1 0 10 1 0 10 1 0 10 1 0
10 1 0 10 1 0 10 1 0 10 1 0 10 1 0 10 1 0 10 1 0 10 1 0 10 1 0 10 1 0
10 1 0 10 1 0 10 3 1 28 3 1 28 3 1 28 3 1 28 3 1 28 3 1 27 3 1 27 3 1
27 3 1 27 3 1 27 3 1 27 3 1 27 3 1 27 3 1 27 3 1 27 3 1 27 3 1 27 3 1
27 3 1 27 3 1 27 3 1 27 3 1 27 3 1 27 3 1 27 3 1 27 3 1 27 3 1 27 3 1
27 3 1 27 3 1 26 3 1 26 3 1 26 3 1 26 3 1 26 3 1 26 3 1 26 3 1 26 3 1
26 3 1 26 3 1 26 3 1 26 3 1 26 3 1 26 3 1 26 3 1 26 3 1 26 3 1 26 3 1
26 3 1 26 3 1 26 3 1 26 3 1 26 3 1 26 3 1 25 3 1 25 3 1 25 3 1 25 3 1
25 3 1 25 3 1 25 2 5 42 2 5 43 2 5 43 2 5 43 2 5 43 2 5 42 2 5 42 2 5
41 2 4 41 2 4 40 2 4 40 2 4 39 2 4 38 2 4 38 2 4 37 2 4 37 2 4 36 2 4
35 2 4 35 2 4 34 2 4 33 2 4 33 2 4 32 2 3 32 2 3 31 2 3 30 2 3 30 2 3
29 1 3 28 1 3 28 1 3 27 1 3 26 1 3 26 1 3 25 1 3 25 1 3 24 1 3 23 1 2
23 1 2 22 1 2 21 1 2 21 1 2 20 1 2 20 1 2 19 1 2 18 1 2 18 1 2 17 1 2
16 1 2 16 1 2 15 1 2 15 1 2 14 1 1 13 1 1 13 1 1 12 1 1 11 1 1 11 1 1
10 1 1 10 0 1 9 0 1 9 0 1 9 0 1 9 0 1 9 0 1 9 0 1 9 0 1 9 0 1 9 0 1 9
0 1 9 0 1 9 0 1 9 0 1 9 0 1 9 0 1 9 0 1 9 0 1 9 0 1 9 0 1 9 0 1 9 0 1
9 0 1 9 0 1 9 0 1 9 0 1 9 0 1 9
3 1 26 3 1 26 3 1 26 3 1 26 3 1 26 3 1 26 3 1 26 3 1 26 3 1 26 3 1 27
3 1 27 3 1 27 3 1 27 3 1 27 3 1 27 3 1 27 3 1 27 3 1 27 3 1 27 3 1 27
3 1 27 3 1 27 3 1 27 3 1 27 3 1 27 3 1 27 3 1 27 3 1 27 3 1 27 3 1 27
3 1 27 3 1 27 3 1 28 3 1 28 3 1 28 3 1 28 3 1 28 3 1 28 3 1 28 3 1 28
3 1 28 3 1 28 3 1 28 3 1 28 3 1 28 3 1 28 3 1 28 3 1 28 3 1 28 3 1 28
3 1 28 3 1 28 3 1 28 3 1 28 3 1 28 3 1 28 3 1 29 3 1 29 3 1 29 3 1 29
3 1 29 3 1 29 3 1 29 3 1 29 3 1 29 4 1 29 4 1 29 4 1 29 4 1 29 4 1 29
4 1 29 4 1 29 4 1 29 4 1 29 4 1 29 4 1 29 4 1 29 4 1 29 4 1 29 4 1 29
4 1 29 4 1 29 4 1 29 4 1 30 4 1 30 4 1 30 4 1 30 4 1 30 4 1 30 4 1 30
4 1 30 4 1 30 4 1 30 4 1 30 4 1 30 4 1 30 4 1 30 4 1 30 4 1 30 4 1 30
4 1 30 4 1 30 4 1 30 4 1 30 4 1 30 4 1 30 4 1 30 4 1 30 4 1 30 4 1 30
4 1 30 4 1 30 4 1 30 4 1 30 4 1 30 4 1 30 4 1 30 4 1 30 4 1 30 4 1 30
4 1 30 4 1 30 4 1 31 4 1 31 4 1 31 4 1 31 4 1 31 4 1 31 4 1 31 4 1 31
4 1 31 4 1 31 4 1 31 4 1 31 4 1 31 4 1 31 4 1 31 4 1 31 4 1 31 4 1 31
4 1 31 4 1 31 4 1 31 4 1 31 4 1 31 4 1 31 4 1 31 4 1 31 4 1 31 4 1 31
4 1 31 4 1 31 4 1 31 4 1 31 4 1 31 4 1 31 4 1 31 4 1 31 4 1 31 4 1 31
4 1 31 4 1 31 6 3 89 6 3 97 7 3 102 7 4 106 7 4 108 7 4 110 7 4 111 7
5 102 7 5 103 7 5 103 7 5 103 7 5 102 7 5 102 7 5 101 7 5 100 7 4 98 7
4 97 7 4 95 7 4 92 7 4 90 6 4 87 6 4 84 6 4 81 6 4 78 12 12 68 12 12
68 12 12 68 12 12 68 12 11 67 11 11 67 11 11 66 11 11 66 11 11 65 11
11 64 11 11 63 11 11 62 11 10 62 10 10 61 10 10 59 10 10 58 10 10 57
10 9 56 9 9 55 9 9 53 9 9 52 9 8 50 8 8 49 8 8 47 8 7 45 7 7 44 7 7 42
7 6 40 6 6 38 6 5 35 5 5 33 5 5 30 4 4 27 4 3 24 4 3 24 4 3 23 1 0 10
1 0 10 1 0 10 1 0 10 1 0 10 1 0 10 1 0 10 1 0 10 1 0 10 1 0 10 1 0 10
1 0 10 1 0 10 1 0 10 1 0 10 1 0 10 1 0 10 1 0 10 1 0 10 1 0 10 1 0 10
1 0 10 1 0 10 1 0 10 1 0 10 1 0 10 1 0 10 1 0 10 1 0 10 1 0 10 3 1 28
3 1 28 3 1 28 3 1 28 3 1 28 3 1 28 3 1 28 3 1 28 3 1 28 3 1 28 3 1 28
3 1 28 3 1 28 3 1 27 3 1 27 3 1 27 3 1 27 3 1 27 3 1 27 3 1 27 3 1 27
3 1 27 3 1 27 3 1 27 3 1 27 3 1 27 3 1 27 3 1 27 3 1 27 3 1 27 3 1 27
3 1 27 3 1 27 3 1 27 3 1 27 3 1 27 3 1 26 3 1 26 3 1 26 3 1 26 3 1 26
3 1 26 3 1 26 3 1 26 3 1 26 3 1 26 3 1 26 3 1 26 3 1 26 3 1 26 3 1 26
3 1 26 3 1 26 3 1 26 3 1 26 3 1 26 3 1 26 3 1 26 3 1 26 3 1 26 3 1 25
2 5 44 2 5 44 2 5 44 2 5 44 2 5 44 2 5 43 2 5 43 2 5 42 2 5 42 2 4 41
2 4 41 2 4 40 2 4 39 2 4 39 2 4 38 2 4 38 2 4 37 2 4 36 2 4 36 2 4 35
2 4 34 2 4 34 2 4 33 2 4 32 2 3 32 2 3 31 2 3 30 2 3 30 2 3 29 1 3 29
1 3 28 1 3 27 1 3 27 1 3 26 1 3 25 1 3 25 1 3 24 1 3 23 1 2 23 1 2 22
1 2 22 1 2 21 1 2 20 1 2 20 1 2 19 1 2 18 1 2 18 1 2 17 1 2 17 1 2 16
1 2 15 1 2 15 1 2 14 1 1 13 1 1 13 1 1 12 1 1 12 1 1 11 1 1 10 1 1 10
0 1 9 0 1 9 0 1 9 0 1 9 0 1 9 0 1 9 0 1 9 0 1 9 0 1 9 0 1 9 0 1 9 0 1
9 0 1 9 0 1 9 0 1 9 0 1 9 0 1 9 0 1 9 0 1 9 0 1 9 0 1 9 0 1 9 0 1 9 0
1 9 0 1 9 0 1 9 0 1 9
3 1 26 3 1 26 3 1 27 3 1 27 3 1 27 3 1 27 3 1 27 3 1 27 3 1 27 3 1 27
3 1 27 3 1 27 3 1 27 3 1 27 3 1 27 3 1 27 3 1 27 3 1 27 3 1 27 3 1 27
3 1 27 3 1 27 3 1 27 3 1 27 3 1 27 3 1 28 3 1 28 3 1 28 3 1 28 3 1 28
3 1 28 3 1 28 3 1 28 3 1 28 3 1 28 3 1 28 3 1 28 3 1 28 3 1 28 3 1 28
3 1 28 3 1 28 3 1 28 3 1 28 3 1 28 3 1 28 3 1 28 3 1 29 3 1 29 3 1 29
3 1 29 3 1 29 3 1 29 3 1 29 3 1 29 3 1 29 4 1 29 4 1 29 4 1 29 4 1 29
4 1 29 4 1 29 4 1 29 4 1 29 4 1 29 4 1 29 4 1 29 4 1 29 4 1 29 4 1 29
4 1 29 4 1 29 4 1 30 4 1 30 4 1 30 4 1 30 4 1 30 4 1 30 4 1 30 4 1 30
4 1 30 4 1 30 4 1 30 4 1 30 4 1 30 4 1 30 4 1 30 4 1 30 4 1 30 4 1 30
4 1 30 4 1 30 4 1 30 4 1 30 4 1 30 4 1 30 4 1 30 4 1 30 4 1 30 4 1 30
4 1 30 4 1 30 4 1 30 4 1 31 4 1 31 4 1 31 4 1 31 4 1 31 4 1 31 4 1 31
4 1 31 4 1 31 4 1 31 4 1 31 4 1 31 4 1 31 4 1 31 4 1 31 4 1 31 4 1 31
4 1 31 4 1 31 4 1 31 4 1 31 4 1 31 4 1 31 4 1 31 4 1 31 4 1 31 4 1 31
4 1 31 4 1 31 4 1 31 4 1 31 4 1 31 4 1 31 4 1 31 4 1 31 4 1 31 4 1 31
4 1 31 4 1 31 4 1 31 4 1 31 4 1 31 4 1 31 4 1 31 4 1 31 4 1 31 4 1 31
4 1 31 4 1 31 4 1 31 4 1 31 4 1 31 4 1 31 4 1 31 4 1 31 4 1 31 4 1 31
4 1 31 4 1 31 4 1 31 4 1 31 6 3 92 6 3 97 7 3 101 7 3 103 7 4 105 7 4
106 7 4 97 7 4 98 7 4 98 7 4 97 7 4 97 7 4 96 7 4 95 7 4 94 7 4 92 6 4
90 6 4 88 6 4 85 6 4 82 6 4 79 6 4 76 12 11 67 11 11 67 11 11 67 11 11
67 11 11 66 11 11 66 11 11 65 11 11 65 11 11 64 11 11 64 11 11 63 11
11 62 11 10 61 10 10 60 10 10 59 10 10 58 10 10 57 10 9 56 9 9 55 9 9
53 9 9 52 9 8 51 8 8 49 8 8 48 8 7 46 7 7 44 7 7 42 7 6 40 6 6 38 6 6
36 6 5 34 5 5 31 5 4 28 4 4 25 4 3 24 4 3 23 1 0 10 1 0 10 1 0 10 1 0
10 1 0 10 1 0 10 1 0 10 1 0 10 1 0 10 1 0 10 1 0 10 1 0 10 1 0 10 1 0
10 1 0 10 1 0 10 1 0 10 1 0 10 1 0 10 1 0 10 1 0 10 1 0 10 1 0 10 1 0
10 1 0 10 1 0 10 1 0 10 1 0 10 3 1 28 3 1 28 3 1 28 3 1 28 3 1 28 3 1
28 3 1 28 3 1 28 3 1 28 3 1 28 3 1 28 3 1 28 3 1 28 3 1 28 3 1 28 3 1
28 3 1 28 3 1 28 3 1 28 3 1 28 3 1 28 3 1 28 3 1 27 3 1 27 3 1 27 3 1
27 3 1 27 3 1 27 3 1 27 3 1 27 3 1 27 3 1 27 3 1 27 3 1 27 3 1 27 3 1
27 3 1 27 3 1 27 3 1 27 3 1 27 3 1 27 3 1 27 3 1 27 3 1 27 3 1 27 3 1
26 3 1 26 3 1 26 3 1 26 3 1 26 3 1 26 3 1 26 3 1 26 3 1 26 3 1 26 3 1
26 3 1 26 3 1 26 3 1 26 3 1 26 3 1 26 3 1 26 3 1 26 2 5 45 2 5 45 2 5
45 2 5 45 2 5 45 2 5 44 2 5 44 2 5 43 2 5 43 2 5 42 2 5 42 2 4 41 2 4
40 2 4 40 2 4 39 2 4 38 2 4 38 2 4 37 2 4 37 2 4 36 2 4 35 2 4 35 2 4
34 2 4 33 2 4 33 2 3 32 2 3 31 2 3 31 2 3 30 2 3 29 1 3 29 1 3 28 1 3
27 1 3 27 1 3 26 1 3 26 1 3 25 1 3 24 1 3 24 1 3 23 1 2 22 1 2 22 1 2
21 1 2 20 1 2 20 1 2 19 1 2 19 1 2 18 1 2 17 1 2 17 1 2 16 1 2 16 1 2
15 1 2 14 1 1 14 1 1 13 1 1 12 1 1 12 1 1 11 1 1 11 1 1 10 0 1 9 0 1 9
0 1 9 0 1 9 0 1 9 0 1 9 0 1 9 0 1 9 0 1 9 0 1 9 0 1 9 0 1 9 0 1 9 0 1
9 0 1 9 0 1 9 0 1 9 0 1 9 0 1 9 0 1 9 0 1 9 0 1 9 0 1 9 0 1 9 0 1 9 0
1 9 0 1 9
3 1 27 3 1 27 3 1 27 3 1 27 3 1 27 3 1 27 3 1 27 3 1 27 3 1 27 3 1 27
3 1 27 3 1 27 3 1 27 3 1 27 3 1 27 3 1 27 3 1 27 3 1 27 3 1 28 3 1 28
3 1 28 3 1 28 3 1 28 3 1 28 3 1 28 3 1 28 3 1 28 3 1 28 3 1 28 3 1 28
3 1 28 3 1 28 3 1 28 3 1 28 3 1 28 3 1 28 3 1 28 3 1 28 3 1 28 3 1 28
3 1 29 3 1 29 3 1 29 3 1 29 3 1 29 3 1 29 3 1 29 3 1 29 4 1 29 4 1 29
4 1 29 4 1 29 4 1 29 4 1 29 4 1 29 4 1 29 4 1 29 4 1 29 4 1 29 4 1 29
4 1 29 4 1 29 4 1 29 4 1 30 4 1 30 4 1 30 4 1 30 4 1 30 4 1 30 4 1 30
4 1 30 4 1 30 4 1 30 4 1 30 4 1 30 4 1 30 4 1 30 4 1 30 4 1 30 4 1 30
4 1 30 4 1 30 4 1 30 4 1 30 4 1 30 4 1 30 4 1 30 4 1 30 4 1 30 4 1 30
4 1 31 4 1 31 4 1 31 4 1 31 4 1 31 4 1 31 4 1 31 4 1 31 4 1 31 4 1 31
4 1 31 4 1 31 4 1 31 4 1 31 4 1 31 4 1 31 4 1 31 4 1 31 4 1 31 4 1 31
4 1 31 4 1 31 4 1 31 4 1 31 4 1 31 4 1 31 4 1 31 4 1 31 4 1 31 4 1 31
4 1 31 4 1 31 4 1 31 4 1 31 4 1 31 4 1 31 4 1 31 4 1 31 4 1 31 4 1 31
4 1 31 4 1 31 4 1 31 4 1 31 4 1 31 4 1 31 4 1 31 4 1 31 4 1 31 4 1 31
4 1 31 4 1 31 4 1 31 4 1 31 4 1 31 4 1 31 4 1 31 4 1 31 4 1 31 4 1 31
4 1 31 4 1 31 4 1 31 4 1 31 4 1 31 4 1 31 4 1 31 4 1 31 4 1 31 4 1 31
4 1 31 4 1 31 4 1 31 4 1 31 4 1 31 5 3 81 6 3 90 6 3 95 6 3 98 6 3 99
7 3 101 7 4 91 7 4 92 7 4 92 7 4 91 7 4 90 6 4 89 6 4 88 6 4 86 6 4 84
6 4 82 6 4 79 6 4 76 5 4 73 11 11 65 11 11 65 11 11 65 11 11 65 11 11
65 11 11 65 11 11 64 11 11 64 11 11 64 11 11 63 11 11 62 11 10 62 10
10 61 10 10 60 10 10 59 10 10 58 10 10 57 10 9 56 9 9 55 9 9 53 9 9 52
9 8 51 8 8 49 8 8 48 8 8 46 8 7 45 7 7 43 7 7 41 7 6 39 6 6 37 6 5 35
5 5 32 5 4 29 4 4 26 4 3 24 4 3 24 1 0 10 1 0 10 1 0 10 1 0 10 1 0 10
1 0 10 1 0 10 1 0 10 1 0 10 1 0 10 1 0 10 1 0 10 1 0 10 1 0 10 1 0 10
1 0 10 1 0 10 1 0 10 1 0 10 1 0 10 1 0 10 1 0 10 1 0 10 1 0 10 1 0 10
1 0 10 1 0 10 3 1 29 3 1 29 3 1 29 3 1 29 3 1 29 3 1 29 3 1 29 3 1 29
3 1 28 3 1 28 3 1 28 3 1 28 3 1 28 3 1 28 3 1 28 3 1 28 3 1 28 3 1 28
3 1 28 3 1 28 3 1 28 3 1 28 3 1 28 3 1 28 3 1 28 3 1 28 3 1 28 3 1 28
3 1 28 3 1 28 3 1 27 3 1 27 3 1 27 3 1 27 3 1 27 3 1 27 3 1 27 3 1 27
3 1 27 3 1 27 3 1 27 3 1 27 3 1 27 3 1 27 3 1 27 3 1 27 3 1 27 3 1 27
3 1 27 3 1 27 3 1 27 3 1 27 3 1 26 3 1 26 3 1 26 3 1 26 3 1 26 3 1 26
3 1 26 3 1 26 3 1 26 3 1 26 3 1 26 3 1 26 2 5 46 2 5 46 2 5 46 2 5 46
2 5 46 2 5 45 2 5 45 2 5 44 2 5 44 2 5 43 2 5 42 2 5 42 2 4 41 2 4 41
2 4 40 2 4 39 2 4 39 2 4 38 2 4 37 2 4 37 2 4 36 2 4 35 2 4 35 2 4 34
2 4 33 2 4 33 2 4 32 2 3 32 2 3 31 2 3 30 2 3 30 2 3 29 1 3 28 1 3 28
1 3 27 1 3 26 1 3 26 1 3 25 1 3 24 1 3 24 1 3 23 1 2 23 1 2 22 1 2 21
1 2 21 1 2 20 1 2 19 1 2 19 1 2 18 1 2 18 1 2 17 1 2 16 1 2 16 1 2 15
1 2 14 1 2 14 1 1 13 1 1 13 1 1 12 1 1 11 1 1 11 1 1 10 0 1 10 0 1 9 0
1 9 0 1 9 0 1 9 0 1 9 0 1 9 0 1 9 0 1 9 0 1 9 0 1 9 0 1 9 0 1 9 0 1 9
0 1 9 0 1 9 0 1 9 0 1 9 0 1 9 0 1 9 0 1 9 0 1 9 0 1 9 0 1 9 0 1 9 0 1
9 0 1 9
3 1 27 3 1 27 3 1 27 3 1 27 3 1 27 3 1 27 3 1 27 3 1 27 3 1 27 3 1 27
3 1 27 3 1 28 3 1 28 3 1 28 3 1 28 3 1 28 3 1 28 3 1 28 3 1 28 3 1 28
3 1 28 3 1 28 3 1 28 3 1 28 3 1 28 3 1 28 3 1 28 3 1 28 3 1 28 3 1 28
3 1 28 3 1 28 3 1 28 3 1 29 3 1 29 3 1 29 3 1 29 3 1 29 3 1 29 3 1 29
4 1 29 4 1 29 4 1 29 4 1 29 4 1 29 4 1 29 4 1 29 4 1 29 4 1 29 4 1 29
4 1 29 4 1 29 4 1 29 4 1 29 4 1 29 4 1 30 4 1 30 4 1 30 4 1 30 4 1 30
4 1 30 4 1 30 4 1 30 4 1 30 4 1 30 4 1 30 4 1 30 4 1 30 4 1 30 4 1 30
4 1 30 4 1 30 4 1 30 4 1 30 4 1 30 4 1 30 4 1 30 4 1 30 4 1 30 4 1 31
4 1 31 4 1 31 4 1 31 4 1 31 4 1 31 4 1 31 4 1 31 4 1 31 4 1 31 4 1 31
4 1 31 4 1 31 4 1 31 4 1 31 4 1 31 4 1 31 4 1 31 4 1 31 4 1 31 4 1 31
4 1 31 4 1 31 4 1 31 4 1 31 4 1 31 4 1 31 4 1 31 4 1 31 4 1 31 4 1 31
4 1 31 4 1 31 4 1 32 4 1 32 4 1 32 4 1 32 4 1 32 4 1 32 4 1 32 4 1 32
4 1 32 4 1 32 4 1 32 4 1 32 4 1 32 4 1 32 4 1 32 4 1 32 4 1 32 4 1 32
4 1 32 4 1 32 4 1 32 4 1 32 4 1 32 4 1 32 4 1 32 4 1 32 4 1 32 4 1 32
4 1 32 4 1 32 4 1 32 4 1 32 4 1 32 4 1 32 4 1 32 4 1 32 4 1 32 4 1 32
4 1 32 4 1 32 4 1 32 4 1 32 4 1 32 4 1 32 4 1 32 4 1 32 4 1 32 4 1 32
4 1 32 4 1 32 4 1 32 4 1 32 4 1 32 4 1 32 4 1 32 5 2 73 6 3 85 6 3 89
6 3 92 6 3 93 6 4 84 6 4 84 6 4 84 6 4 83 6 4 82 6 4 81 6 4 79 6 4 77
6 4 74 5 4 71 5 3 68 11 11 63 11 11 64 11 11 64 11 11 64 11 11 64 11
11 64 11 11 63 11 11 63 11 11 63 11 11 62 11 10 62 10 10 61 10 10 60
10 10 59 10 10 59 10 10 58 10 10 57 10 9 56 9 9 55 9 9 53 9 9 52 9 8
51 8 8 49 8 8 48 8 8 46 8 7 45 7 7 43 7 7 41 7 6 39 6 6 37 6 5 35 5 5
33 5 4 30 4 4 27 4 3 24 4 3 24 1 0 10 1 0 10 1 0 10 1 0 10 1 0 10 1 0
10 1 0 10 1 0 10 1 0 10 1 0 10 1 0 10 1 0 10 1 0 10 1 0 10 1 0 10 1 0
10 1 0 10 1 0 10 1 0 10 1 0 10 1 0 10 1 0 10 1 0 10 1 0 10 1 0 10 4 1
29 4 1 29 4 1 29 4 1 29 4 1 29 4 1 29 4 1 29 4 1 29 4 1 29 3 1 29 3 1
29 3 1 29 3 1 29 3 1 29 3 1 29 3 1 29 3 1 29 3 1 28 3 1 28 3 1 28 3 1
28 3 1 28 3 1 28 3 1 28 3 1 28 3 1 28 3 1 28 3 1 28 3 1 28 3 1 28 3 1
28 3 1 28 3 1 28 3 1 28 3 1 28 3 1 28 3 1 28 3 1 28 3 1 27 3 1 27 3 1
27 3 1 27 3 1 27 3 1 27 3 1 27 3 1 27 3 1 27 3 1 27 3 1 27 3 1 27 3 1
27 3 1 27 3 1 27 3 1 27 3 1 27 3 1 27 3 1 27 3 1 27 3 1 27 3 1 27 3 1
26 3 1 26 3 1 26 3 1 26 3 1 26 3 1 26 2 5 46 2 5 47 2 5 47 2 5 47 2 5
47 2 5 46 2 5 46 2 5 45 2 5 45 2 5 44 2 5 43 2 5 43 2 5 42 2 5 41 2 4
41 2 4 40 2 4 40 2 4 39 2 4 38 2 4 38 2 4 37 2 4 36 2 4 36 2 4 35 2 4
34 2 4 34 2 4 33 2 4 32 2 3 32 2 3 31 2 3 30 2 3 30 2 3 29 1 3 28 1 3
28 1 3 27 1 3 27 1 3 26 1 3 25 1 3 25 1 3 24 1 3 23 1 2 23 1 2 22 1 2
21 1 2 21 1 2 20 1 2 20 1 2 19 1 2 18 1 2 18 1 2 17 1 2 16 1 2 16 1 2
15 1 2 15 1 2 14 1 1 13 1 1 13 1 1 12 1 1 12 1 1 11 1 1 10 1 1 10 0 1
9 0 1 9 0 1 9 0 1 9 0 1 9 0 1 9 0 1 9 0 1 9 0 1 9 0 1 9 0 1 9 0 1 9 0
1 9 0 1 9 0 1 9 0 1 9 0 1 9 0 1 9 0 1 9 0 1 9 0 1 9 0 1 9 0 1 9 0 1 9
0 1 9 0 1 9
3 1 27 3 1 27 3 1 27 3 1 27 3 1 27 3 1 28 3 1 28 3 1 28 3 1 28 3 1 28
3 1 28 3 1 28 3 1 28 3 1 28 3 1 28 3 1 28 3 1 28 3 1 28 3 1 28 3 1 28
3 1 28 3 1 28 3 1 28 3 1 28 3 1 28 3 1 28 3 1 29 3 1 29 3 1 29 3 1 29
3 1 29 3 1 29 3 1 29 4 1 29 4 1 29 4 1 29 4 1 29 4 1 29 4 1 29 4 1 29
4 1 29 4 1 29 4 1 29 4 1 29 4 1 29 4 1 29 4 1 29 4 1 30 4 1 30 4 1 30
4 1 30 4 1 30 4 1 30 4 1 30 4 1 30 4 1 30 4 1 30 4 1 30 4 1 30 4 1 30
4 1 30 4 1 30 4 1 30 4 1 30 4 1 30 4 1 30 4 1 30 4 1 30 4 1 30 4 1 31
4 1 31 4 1 31 4 1 31 4 1 31 4 1 31 4 1 31 4 1 31 4 1 31 4 1 31 4 1 31
4 1 31 4 1 31 4 1 31 4 1 31 4 1 31 4 1 31 4 1 31 4 1 31 4 1 31 4 1 31
4 1 31 4 1 31 4 1 31 4 1 31 4 1 31 4 1 31 4 1 32 4 1 32 4 1 32 4 1 32
4 1 32 4 1 32 4 1 32 4 1 32 4 1 32 4 1 32 4 1 32 4 1 32 4 1 32 4 1 32
4 1 32 4 1 32 4 1 32 4 1 32 4 1 32 4 1 32 4 1 32 4 1 32 4 1 32 4 1 32
4 1 32 4 1 32 4 1 32 4 1 32 4 1 32 4 1 32 4 1 32 4 1 32 4 1 32 4 1 32
4 1 32 4 1 32 4 1 32 4 1 32 4 1 32 4 1 32 4 1 32 4 1 32 4 1 32 4 1 32
4 1 32 4 1 32 4 1 32 4 1 32 4 1 32 4 1 32 4 1 32 4 1 32 4 1 32 4 1 32
4 1 32 4 1 32 4 1 32 4 1 32 4 1 32 4 1 32 4 1 32 4 1 32 4 1 32 4 1 32
4 1 32 4 1 32 4 1 32 4 1 32 4 1 32 4 1 32 4 1 32 4 1 32 4 1 32 4 1 32
4 1 32 5 3 79 5 3 82 6 4 86 5 4 74 5 4 73 5 4 73 5 4 71 5 3 69 5 3 67
5 3 63 10 10 60 10 10 61 11 10 61 11 11 62 11 11 62 11 11 62 11 11 62
11 11 62 11 10 62 11 10 61 10 10 61 10 10 61 10 10 60 10 10 59 10 10
59 10 10 58 10 10 57 10 9 56 9 9 55 9 9 54 9 9 53 9 9 52 9 8 51 8 8 49
8 8 48 8 8 46 8 7 45 7 7 43 7 7 41 7 6 40 6 6 38 6 5 35 5 5 33 5 4 30
4 4 27 4 3 24 4 3 24 1 0 10 1 0 10 1 0 10 1 0 10 1 0 10 1 0 10 1 0 10
1 0 10 1 0 10 1 0 10 1 0 10 1 0 10 1 0 10 1 0 10 1 0 10 1 0 10 1 0 10
1 0 10 1 0 10 1 0 10 1 0 10 1 0 10 1 0 10 1 0 10 4 1 30 4 1 30 4 1 30
4 1 30 4 1 29 4 1 29 4 1 29 4 1 29 4 1 29 4 1 29 4 1 29 4 1 29 4 1 29
4 1 29 4 1 29 4 1 29 4 1 29 3 1 29 3 1 29 3 1 29 3 1 29 3 1 29 3 1 29
3 1 29 3 1 29 3 1 28 3 1 28 3 1 28 3 1 28 3 1 28 3 1 28 3 1 28 3 1 28
3 1 28 3 1 28 3 1 28 3 1 28 3 1 28 3 1 28 3 1 28 3 1 28 3 1 28 3 1 28
3 1 28 3 1 28 3 1 27 3 1 27 3 1 27 3 1 27 3 1 27 3 1 27 3 1 27 3 1 27
3 1 27 3 1 27 3 1 27 3 1 27 3 1 27 3 1 27 3 1 27 3 1 27 3 1 27 3 1 27
3 1 27 3 1 27 3 1 27 3 1 27 3 1 26 2 5 48 2 5 48 2 5 48 2 5 47 2 5 47
2 5 47 2 5 46 2 5 45 2 5 45 2 5 44 2 5 44 2 5 43 2 5 42 2 5 42 2 4 41
2 4 40 2 4 40 2 4 39 2 4 38 2 4 38 2 4 37 2 4 36 2 4 36 2 4 35 2 4 35
2 4 34 2 4 33 2 4 33 2 3 32 2 3 31 2 3 31 2 3 30 2 3 29 1 3 29 1 3 28
1 3 27 1 3 27 1 3 26 1 3 25 1 3 25 1 3 24 1 3 23 1 2 23 1 2 22 1 2 22
1 2 21 1 2 20 1 2 20 1 2 19 1 2 18 1 2 18 1 2 17 1 2 17 1 2 16 1 2 15
1 2 15 1 2 14 1 1 14 1 1 13 1 1 12 1 1 12 1 1 11 1 1 10 1 1 10 0 1 9 0
1 9 0 1 9 0 1 9 0 1 9 0 1 9 0 1 9 0 1 9 0 1 9 0 1 9 0 1 9 0 1 9 0 1 9
0 1 9 0 1 9 0 1 9 0 1 9 0 1 9 0 1 9 0 1 9 0 1 9 0 1 9 0 1 9 0 1 9 0 1
9 0 1 9
3 1 28 3 1 28 3 1 28 3 1 28 3 1 28 3 1 28 3 1 28 3 1 28 3 1 28 3 1 28
3 1 28 3 1 28 3 1 28 3 1 28 3 1 28 3 1 28 3 1 28 3 1 28 3 1 28 3 1 29
3 1 29 3 1 29 3 1 29 3 1 29 3 1 29 3 1 29 3 1 29 4 1 29 4 1 29 4 1 29
4 1 29 4 1 29 4 1 29 4 1 29 4 1 29 4 1 29 4 1 29 4 1 29 4 1 29 4 1 29
4 1 30 4 1 30 4 1 30 4 1 30 4 1 30 4 1 30 4 1 30 4 1 30 4 1 30 4 1 30
4 1 30 4 1 30 4 1 30 4 1 30 4 1 30 4 1 30 4 1 30 4 1 30 4 1 30 4 1 30
4 1 30 4 1 31 4 1 31 4 1 31 4 1 31 4 1 31 4 1 31 4 1 31 4 1 31 4 1 31
4 1 31 4 1 31 4 1 31 4 1 31 4 1 31 4 1 31 4 1 31 4 1 31 4 1 31 4 1 31
4 1 31 4 1 31 4 1 31 4 1 31 4 1 31 4 1 32 4 1 32 4 1 32 4 1 32 4 1 32
4 1 32 4 1 32 4 1 32 4 1 32 4 1 32 4 1 32 4 1 32 4 1 32 4 1 32 4 1 32
4 1 32 4 1 32 4 1 32 4 1 32 4 1 32 4 1 32 4 1 32 4 1 32 4 1 32 4 1 32
4 1 32 4 1 32 4 1 32 4 1 32 4 1 32 4 1 32 4 1 32 4 1 32 4 1 32 4 1 32
4 1 33 4 1 33 4 1 33 4 1 33 4 1 33 4 1 33 4 1 33 4 1 33 4 1 33 4 1 33
4 1 33 4 1 33 4 1 33 4 1 33 4 1 33 4 1 33 4 1 33 4 1 33 4 1 33 4 1 33
4 1 33 4 1 33 4 1 33 4 1 33 4 1 33 4 1 33 4 1 33 4 1 33 4 1 33 4 1 33
4 1 33 4 1 33 4 1 33 4 1 33 4 1 33 4 1 33 4 1 33 4 1 33 4 1 33 4 1 33
4 1 33 4 1 33 4 1 33 4 1 33 4 1 33 4 1 33 4 1 33 4 1 33 4 1 33 4 1 33
4 1 33 4 1 33 4 1 32 4 1 32 8 7 44 8 8 48 9 9 51 9 9 53 9 9 55 10 10
56 10 10 57 10 10 58 10 10 59 10 10 59 10 10 60 10 10 60 10 10 60 10
10 60 10 10 60 10 10 60 10 10 60 10 10 59 10 10 59 10 10 58 10 10 58
10 10 57 10 9 56 9 9 56 9 9 55 9 9 54 9 9 53 9 9 51 9 8 50 8 8 49 8 8
48 8 8 46 8 7 45 7 7 43 7 7 41 7 6 40 6 6 38 6 5 35 5 5 33 5 5 31 4 4
28 4 3 24 4 3 24 1 0 10 1 0 10 1 0 10 1 0 10 1 0 10 1 0 10 1 0 10 1 0
10 1 0 10 1 0 10 1 0 10 1 0 10 1 0 10 1 0 10 1 0 10 1 0 10 1 0 10 1 0
10 1 0 10 1 0 10 1 0 10 1 0 10 4 1 30 4 1 30 4 1 30 4 1 30 4 1 30 4 1
30 4 1 30 4 1 30 4 1 30 4 1 30 4 1 30 4 1 30 4 1 30 4 1 29 4 1 29 4 1
29 4 1 29 4 1 29 4 1 29 4 1 29 4 1 29 4 1 29 4 1 29 4 1 29 4 1 29 4 1
29 3 1 29 3 1 29 3 1 29 3 1 29 3 1 29 3 1 29 3 1 29 3 1 28 3 1 28 3 1
28 3 1 28 3 1 28 3 1 28 3 1 28 3 1 28 3 1 28 3 1 28 3 1 28 3 1 28 3 1
28 3 1 28 3 1 28 3 1 28 3 1 28 3 1 28 3 1 28 3 1 28 3 1 27 3 1 27 3 1
27 3 1 27 3 1 27 3 1 27 3 1 27 3 1 27 3 1 27 3 1 27 3 1 27 3 1 27 3 1
27 3 1 27 3 1 27 3 1 27 3 1 27 3 5 49 3 5 49 3 5 49 3 5 48 2 5 48 2 5
47 2 5 47 2 5 46 2 5 46 2 5 45 2 5 45 2 5 44 2 5 43 2 5 43 2 5 42 2 4
41 2 4 41 2 4 40 2 4 39 2 4 39 2 4 38 2 4 37 2 4 37 2 4 36 2 4 35 2 4
35 2 4 34 2 4 33 2 4 33 2 3 32 2 3 31 2 3 31 2 3 30 2 3 29 1 3 29 1 3
28 1 3 27 1 3 27 1 3 26 1 3 26 1 3 25 1 3 24 1 3 24 1 3 23 1 2 22 1 2
22 1 2 21 1 2 20 1 2 20 1 2 19 1 2 19 1 2 18 1 2 17 1 2 17 1 2 16 1 2
16 1 2 15 1 2 14 1 1 14 1 1 13 1 1 12 1 1 12 1 1 11 1 1 11 1 1 10 0 1
9 0 1 9 0 1 9 0 1 9 0 1 9 0 1 9 0 1 9 0 1 9 0 1 9 0 1 9 0 1 9 0 1 9 0
1 9 0 1 9 0 1 9 0 1 9 0 1 9 0 1 9 0 1 9 0 1 9 0 1 9 0 1 9 0 1 9 0 1 9
0 1 9 0 1 9
3 1 28 3 1 28 3 1 28 3 1 28 3 1 28 3 1 28 3 1 28 3 1 28 3 1 28 3 1 28
3 1 28 3 1 28 3 1 28 3 1 29 3 1 29 3 1 29 3 1 29 3 1 29 3 1 29 3 1 29
4 1 29 4 1 29 4 1 29 4 1 29 4 1 29 4 1 29 4 1 29 4 1 29 4 1 29 4 1 29
4 1 29 4 1 29 4 1 29 4 1 30 4 1 30 4 1 30 4 1 30 4 1 30 4 1 30 4 1 30
4 1 30 4 1 30 4 1 30 4 1 30 4 1 30 4 1 30 4 1 30 4 1 30 4 1 30 4 1 30
4 1 30 4 1 30 4 1 30 4 1 31 4 1 31 4 1 31 4 1 31 4 1 31 4 1 31 4 1 31
4 1 31 4 1 31 4 1 31 4 1 31 4 1 31 4 1 31 4 1 31 4 1 31 4 1 31 4 1 31
4 1 31 4 1 31 4 1 31 4 1 31 4 1 31 4 1 32 4 1 32 4 1 32 4 1 32 4 1 32
4 1 32 4 1 32 4 1 32 4 1 32 4 1 32 4 1 32 4 1 32 4 1 32 4 1 32 4 1 32
4 1 32 4 1 32 4 1 32 4 1 32 4 1 32 4 1 32 4 1 32 4 1 32 4 1 32 4 1 32
4 1 32 4 1 32 4 1 33 4 1 33 4 1 33 4 1 33 4 1 33 4 1 33 4 1 33 4 1 33
4 1 33 4 1 33 4 1 33 4 1 33 4 1 33 4 1 33 4 1 33 4 1 33 4 1 33 4 1 33
4 1 33 4 1 33 4 1 33 4 1 33 4 1 33 4 1 33 4 1 33 4 1 33 4 1 33 4 1 33
4 1 33 4 1 33 4 1 33 4 1 33 4 1 33 4 1 33 4 1 33 4 1 33 4 1 33 4 1 33
4 1 33 4 1 33 4 1 33 4 1 33 4 1 33 4 1 33 4 1 33 4 1 33 4 1 33 4 1 33
4 1 33 4 1 33 4 1 33 4 1 33 4 1 33 4 1 33 4 1 33 4 1 33 4 1 33 4 1 33
4 1 33 4 1 33 4 1 33 4 1 33 4 1 33 4 1 33 4 1 33 4 1 33 4 1 33 4 1 33
4 1 33 4 1 33 4 1 33 4 1 33 4 1 33 7 7 42 8 8 47 8 8 50 9 9 52 9 9 53
9 9 55 10 9 56 10 10 57 10 10 57 10 10 58 10 10 58 10 10 58 10 10 58
10 10 58 10 10 58 10 10 58 10 10 57 10 10 57 10 9 57 10 9 56 9 9 55 9
9 55 9 9 54 9 9 53 9 9 52 9 8 51 8 8 50 8 8 48 8 8 47 8 7 46 7 7 44 7
7 43 7 7 41 7 6 39 6 6 37 6 5 35 5 5 33 5 4 30 4 4 28 4 3 24 4 3 24 1
0 10 1 0 10 1 0 10 1 0 10 1 0 10 1 0 10 1 0 10 1 0 10 1 0 10 1 0 10 1
0 10 1 0 10 1 0 10 1 0 10 1 0 10 1 0 10 1 0 10 1 0 10 1 0 10 1 0 10 4
1 31 4 1 31 4 1 30 4 1 30 4 1 30 4 1 30 4 1 30 4 1 30 4 1 30 4 1 30 4
1 30 4 1 30 4 1 30 4 1 30 4 1 30 4 1 30 4 1 30 4 1 30 4 1 30 4 1 30 4
1 30 4 1 30 4 1 29 4 1 29 4 1 29 4 1 29 4 1 29 4 1 29 4 1 29 4 1 29 4
1 29 4 1 29 4 1 29 4 1 29 3 1 29 3 1 29 3 1 29 3 1 29 3 1 29 3 1 29 3
1 29 3 1 28 3 1 28 3 1 28 3 1 28 3 1 28 3 1 28 3 1 28 3 1 28 3 1 28 3
1 28 3 1 28 3 1 28 3 1 28 3 1 28 3 1 28 3 1 28 3 1 28 3 1 28 3 1 28 3
1 28 3 1 27 3 1 27 3 1 27 3 1 27 3 1 27 3 1 27 3 1 27 3 1 27 3 1 27 3
1 27 3 1 27 3 5 50 3 5 50 3 5 50 3 5 49 3 5 49 3 5 48 2 5 48 2 5 47 2
5 47 2 5 46 2 5 45 2 5 45 2 5 44 2 5 43 2 5 43 2 5 42 2 5 42 2 4 41 2
4 40 2 4 40 2 4 39 2 4 38 2 4 37 2 4 37 2 4 36 2 4 35 2 4 35 2 4 34 2
4 33 2 4 33 2 4 32 2 3 32 2 3 31 2 3 30 2 3 30 2 3 29 1 3 28 1 3 28 1
3 27 1 3 26 1 3 26 1 3 25 1 3 24 1 3 24 1 3 23 1 2 22 1 2 22 1 2 21 1
2 21 1 2 20 1 2 19 1 2 19 1 2 18 1 2 17 1 2 17 1 2 16 1 2 16 1 2 15 1
2 14 1 2 14 1 1 13 1 1 13 1 1 12 1 1 11 1 1 11 1 1 10 0 1 10 0 1 9 0 1
9 0 1 9 0 1 9 0 1 9 0 1 9 0 1 9 0 1 9 0 1 9 0 1 9 0 1 9 0 1 9 0 1 9 0
1 9 0 1 9 0 1 9 0 1 9 0 1 9 0 1 9 0 1 9 0 1 9 0 1 9 0 1 9 0 1 9 0 1 9
3 1 28 3 1 28 3 1 28 3 1 28 3 1 28 3 1 28 3 1 28 3 1 29 3 1 29 3 1 29
3 1 29 3 1 29 3 1 29 3 1 29 4 1 29 4 1 29 4 1 29 4 1 29 4 1 29 4 1 29
4 1 29 4 1 29 4 1 29 4 1 29 4 1 29 4 1 29 4 1 30 4 1 30 4 1 30 4 1 30
4 1 30 4 1 30 4 1 30 4 1 30 4 1 30 4 1 30 4 1 30 4 1 30 4 1 30 4 1 30
4 1 30 4 1 30 4 1 30 4 1 30 4 1 30 4 1 31 4 1 31 4 1 31 4 1 31 4 1 31
4 1 31 4 1 31 4 1 31 4 1 31 4 1 31 4 1 31 4 1 31 4 1 31 4 1 31 4 1 31
4 1 31 4 1 31 4 1 31 4 1 31 4 1 31 4 1 31 4 1 32 4 1 32 4 1 32 4 1 32
4 1 32 4 1 32 4 1 32 4 1 32 4 1 32 4 1 32 4 1 32 4 1 32 4 1 32 4 1 32
4 1 32 4 1 32 4 1 32 4 1 32 4 1 32 4 1 32 4 1 32 4 1 32 4 1 32 4 1 33
4 1 33 4 1 33 4 1 33 4 1 33 4 1 33 4 1 33 4 1 33 4 1 33 4 1 33 4 1 33
4 1 33 4 1 33 4 1 33 4 1 33 4 1 33 4 1 33 4 1 33 4 1 33 4 1 33 4 1 33
4 1 33 4 1 33 4 1 33 4 1 33 4 1 33 4 1 33 4 1 33 4 1 33 4 1 33 4 1 33
4 1 33 4 1 33 4 1 33 4 1 33 4 1 33 4 1 33 4 1 33 4 1 33 4 1 34 4 1 34
4 1 34 4 1 34 4 1 34 4 1 34 4 1 34 4 1 34 4 1 34 4 1 34 4 1 34 4 1 34
4 1 34 4 1 34 4 1 34 4 1 34 4 1 34 4 1 34 4 1 34 4 1 34 4 1 34 4 1 34
4 1 34 4 1 34 4 1 34 4 1 34 4 1 34 4 1 34 4 1 34 4 1 34 4 1 34 4 1 34
4 1 34 4 1 33 4 1 33 4 1 33 4 1 33 4 1 33 4 1 33 4 1 33 4 1 33 4 1 33
4 1 33 4 1 33 4 1 33 4 1 33 4 1 33 4 1 33 7 6 39 8 7 45 8 8 48 9 8 50
9 9 52 9 9 53 9 9 54 9 9 55 9 9 55 10 9 56 10 9 56 10 9 56 10 9 56 10
9 56 10 9 56 9 9 55 9 9 55 9 9 55 9 9 54 9 9 53 9 9 53 9 9 52 9 8 51 8
8 50 8 8 49 8 8 48 8 8 46 8 7 45 7 7 44 7 7 42 7 6 41 6 6 39 6 6 37 6
5 35 5 5 33 5 4 30 4 4 27 4 3 24 4 3 24 1 0 10 1 0 10 1 0 10 1 0 10 1
0 10 1 0 10 1 0 10 1 0 10 1 0 10 1 0 10 1 0 10 1 0 10 1 0 10 1 0 10 1
0 10 1 0 10 1 0 10 1 0 10 4 1 31 4 1 31 4 1 31 4 1 31 4 1 31 4 1 31 4
1 31 4 1 31 4 1 31 4 1 31 4 1 31 4 1 30 4 1 30 4 1 30 4 1 30 4 1 30 4
1 30 4 1 30 4 1 30 4 1 30 4 1 30 4 1 30 4 1 30 4 1 30 4 1 30 4 1 30 4
1 30 4 1 30 4 1 30 4 1 30 4 1 29 4 1 29 4 1 29 4 1 29 4 1 29 4 1 29 4
1 29 4 1 29 4 1 29 4 1 29 4 1 29 4 1 29 3 1 29 3 1 29 3 1 29 3 1 29 3
1 29 3 1 29 3 1 29 3 1 28 3 1 28 3 1 28 3 1 28 3 1 28 3 1 28 3 1 28 3
1 28 3 1 28 3 1 28 3 1 28 3 1 28 3 1 28 3 1 28 3 1 28 3 1 28 3 1 28 3
1 28 3 1 28 3 1 28 3 1 27 3 1 27 3 1 27 3 1 27 3 1 27 3 5 50 3 6 51 3
5 50 3 5 50 3 5 50 3 5 49 3 5 49 2 5 48 2 5 48 2 5 47 2 5 46 2 5 46 2
5 45 2 5 44 2 5 44 2 5 43 2 5 42 2 5 42 2 4 41 2 4 40 2 4 40 2 4 39 2
4 38 2 4 38 2 4 37 2 4 36 2 4 36 2 4 35 2 4 34 2 4 34 2 4 33 2 4 32 2
3 32 2 3 31 2 3 30 2 3 30 2 3 29 1 3 28 1 3 28 1 3 27 1 3 26 1 3 26 1
3 25 1 3 25 1 3 24 1 3 23 1 2 23 1 2 22 1 2 21 1 2 21 1 2 20 1 2 19 1
2 19 1 2 18 1 2 18 1 2 17 1 2 16 1 2 16 1 2 15 1 2 15 1 2 14 1 1 13 1
1 13 1 1 12 1 1 11 1 1 11 1 1 10 1 1 10 0 1 9 0 1 9 0 1 9 0 1 9 0 1 9
0 1 9 0 1 9 0 1 9 0 1 9 0 1 9 0 1 9 0 1 9 0 1 9 0 1 9 0 1 9 0 1 9 0 1
9 0 1 9 0 1 9 0 1 9 0 1 9 0 1 9 0 1 9 0 1 9 0 1 9
3 1 28 3 1 29 3 1 29 3 1 29 3 1 29 3 1 29 3 1 29 3 1 29 4 1 29 4 1 29
4 1 29 4 1 29 4 1 29 4 1 29 4 1 29 4 1 29 4 1 29 4 1 29 4 1 29 4 1 29
4 1 30 4 1 30 4 1 30 4 1 30 4 1 30 4 1 30 4 1 30 4 1 30 4 1 30 4 1 30
4 1 30 4 1 30 4 1 30 4 1 30 4 1 30 4 1 30 4 1 30 4 1 30 4 1 30 4 1 31
4 1 31 4 1 31 4 1 31 4 1 31 4 1 31 4 1 31 4 1 31 4 1 31 4 1 31 4 1 31
4 1 31 4 1 31 4 1 31 4 1 31 4 1 31 4 1 31 4 1 31 4 1 31 4 1 32 4 1 32
4 1 32 4 1 32 4 1 32 4 1 32 4 1 32 4 1 32 4 1 32 4 1 32 4 1 32 4 1 32
4 1 32 4 1 32 4 1 32 4 1 32 4 1 32 4 1 32 4 1 32 4 1 32 4 1 32 4 1 33
4 1 33 4 1 33 4 1 33 4 1 33 4 1 33 4 1 33 4 1 33 4 1 33 4 1 33 4 1 33
4 1 33 4 1 33 4 1 33 4 1 33 4 1 33 4 1 33 4 1 33 4 1 33 4 1 33 4 1 33
4 1 33 4 1 33 4 1 33 4 1 33 4 1 33 4 1 33 4 1 33 4 1 34 4 1 34 4 1 34
4 1 34 4 1 34 4 1 34 4 1 34 4 1 34 4 1 34 4 1 34 4 1 34 4 1 34 4 1 34
4 1 34 4 1 34 4 1 34 4 1 34 4 1 34 4 1 34 4 1 34 4 1 34 4 1 34 4 1 34
4 1 34 4 1 34 4 1 34 4 1 34 4 1 34 4 1 34 4 1 34 4 1 34 4 1 34 4 1 34
4 1 34 4 1 34 4 1 34 4 1 34 4 1 34 4 1 34 4 1 34 4 1 34 4 1 34 4 1 34
4 1 34 4 1 34 4 1 34 4 1 34 4 1 34 4 1 34 4 1 34 4 1 34 4 1 34 4 1 34
4 1 34 4 1 34 4 1 34 4 1 34 4 1 34 4 1 34 4 1 34 4 1 34 4 1 34 4 1 34
4 1 34 4 1 34 4 1 34 4 1 34 4 1 34 4 1 34 4 1 34 4 1 34 7 7 42 8 7 45
8 8 48 8 8 49 9 8 51 9 9 52 9 9 52 9 9 53 9 9 53 9 9 54 9 9 54 9 9 54
9 9 53 9 9 53 9 9 53 9 9 52 9 9 52 9 8 51 9 8 50 8 8 50 8 8 49 8 8 48
8 8 47 8 7 46 7 7 44 7 7 43 7 7 41 7 6 40 6 6 38 6 6 36 6 5 34 5 5 32
5 4 29 4 4 26 4 3 24 1 0 10 1 0 10 1 0 10 1 0 10 1 0 10 1 0 10 1 0 10
1 0 10 1 0 10 1 0 10 1 0 10 1 0 10 1 0 10 1 0 10 1 0 10 1 0 10 1 0 10
4 1 31 4 1 31 4 1 31 4 1 31 4 1 31 4 1 31 4 1 31 4 1 31 4 1 31 4 1 31
4 1 31 4 1 31 4 1 31 4 1 31 4 1 31 4 1 31 4 1 31 4 1 31 4 1 31 4 1 31
4 1 30 4 1 30 4 1 30 4 1 30 4 1 30 4 1 30 4 1 30 4 1 30 4 1 30 4 1 30
4 1 30 4 1 30 4 1 30 4 1 30 4 1 30 4 1 30 4 1 30 4 1 30 4 1 29 4 1 29
4 1 29 4 1 29 4 1 29 4 1 29 4 1 29 4 1 29 4 1 29 4 1 29 4 1 29 4 1 29
3 1 29 3 1 29 3 1 29 3 1 29 3 1 29 3 1 29 3 1 29 3 1 28 3 1 28 3 1 28
3 1 28 3 1 28 3 1 28 3 1 28 3 1 28 3 1 28 3 1 28 3 1 28 3 1 28 3 1 28
3 1 28 3 1 28 3 1 28 3 1 28 3 1 28 3 1 28 3 6 51 3 6 51 3 6 51 3 6 51
3 6 51 3 5 50 3 5 50 3 5 49 3 5 48 2 5 48 2 5 47 2 5 47 2 5 46 2 5 45
2 5 45 2 5 44 2 5 43 2 5 43 2 5 42 2 4 41 2 4 41 2 4 40 2 4 39 2 4 38
2 4 38 2 4 37 2 4 36 2 4 36 2 4 35 2 4 34 2 4 34 2 4 33 2 4 32 2 3 32
2 3 31 2 3 30 2 3 30 2 3 29 1 3 28 1 3 28 1 3 27 1 3 27 1 3 26 1 3 25
1 3 25 1 3 24 1 3 23 1 2 23 1 2 22 1 2 21 1 2 21 1 2 20 1 2 20 1 2 19
1 2 18 1 2 18 1 2 17 1 2 16 1 2 16 1 2 15 1 2 15 1 2 14 1 1 13 1 1 13
1 1 12 1 1 12 1 1 11 1 1 10 1 1 10 0 1 9 0 1 9 0 1 9 0 1 9 0 1 9 0 1 9
0 1 9 0 1 9 0 1 9 0 1 9 0 1 9 0 1 9 0 1 9 0 1 9 0 1 9 0 1 9 0 1 9 0 1
9 0 1 9 0 1 9 0 1 9 0 1 9 0 1 9 0 1 9 0 1 9
3 1 29 3 1 29 4 1 29 4 1 29 4 1 29 4 1 29 4 1 29 4 1 29 4 1 29 4 1 29
4 1 29 4 1 29 4 1 29 4 1 29 4 1 30 4 1 30 4 1 30 4 1 30 4 1 30 4 1 30
4 1 30 4 1 30 4 1 30 4 1 30 4 1 30 4 1 30 4 1 30 4 1 30 4 1 30 4 1 30
4 1 30 4 1 30 4 1 31 4 1 31 4 1 31 4 1 31 4 1 31 4 1 31 4 1 31 4 1 31
4 1 31 4 1 31 4 1 31 4 1 31 4 1 31 4 1 31 4 1 31 4 1 31 4 1 31 4 1 31
4 1 32 4 1 32 4 1 32 4 1 32 4 1 32 4 1 32 4 1 32 4 1 32 4 1 32 4 1 32
4 1 32 4 1 32 4 1 32 4 1 32 4 1 32 4 1 32 4 1 32 4 1 32 4 1 32 4 1 32
4 1 33 4 1 33 4 1 33 4 1 33 4 1 33 4 1 33 4 1 33 4 1 33 4 1 33 4 1 33
4 1 33 4 1 33 4 1 33 4 1 33 4 1 33 4 1 33 4 1 33 4 1 33 4 1 33 4 1 33
4 1 33 4 1 33 4 1 33 4 1 34 4 1 34 4 1 34 4 1 34 4 1 34 4 1 34 4 1 34
4 1 34 4 1 34 4 1 34 4 1 34 4 1 34 4 1 34 4 1 34 4 1 34 4 1 34 4 1 34
4 1 34 4 1 34 4 1 34 4 1 34 4 1 34 4 1 34 4 1 34 4 1 34 4 1 34 4 1 34
4 1 34 4 1 34 4 1 34 4 1 34 4 1 34 4 1 34 4 1 34 4 1 34 4 1 34 4 1 34
4 1 34 4 1 34 4 1 34 4 1 34 4 1 34 4 1 34 4 1 34 4 1 34 4 1 34 4 1 34
4 1 34 4 1 34 4 1 35 4 1 35 4 1 35 4 1 35 4 1 34 4 1 34 4 1 34 4 1 34
4 1 34 4 1 34 4 1 34 4 1 34 4 1 34 4 1 34 4 1 34 4 1 34 4 1 34 4 1 34
4 1 34 4 1 34 4 1 34 4 1 34 4 1 34 4 1 34 4 1 34 4 1 34 4 1 34 4 1 34
4 1 34 4 1 34 4 1 34 4 1 34 4 1 34 4 1 34 4 1 34 4 1 34 4 1 34 6 5 35
7 7 42 8 7 45 8 8 47 8 8 48 8 8 49 8 8 50 9 8 50 9 8 51 9 8 51 9 8 51
9 8 51 9 8 51 9 8 50 8 8 50 8 8 49 8 8 49 8 8 48 8 8 47 8 8 46 8 7 45
7 7 44 7 7 43 7 7 42 7 6 40 6 6 39 6 6 37 6 5 35 5 5 33 5 4 31 4 4 28
4 3 24 3 3 17 1 0 10 1 0 10 1 0 10 1 0 10 1 0 10 1 0 10 1 0 10 1 0 10
1 0 10 1 0 10 1 0 10 1 0 10 1 0 10 1 0 10 1 0 10 4 1 32 4 1 32 4 1 32
4 1 32 4 1 32 4 1 32 4 1 32 4 1 32 4 1 32 4 1 32 4 1 31 4 1 31 4 1 31
4 1 31 4 1 31 4 1 31 4 1 31 4 1 31 4 1 31 4 1 31 4 1 31 4 1 31 4 1 31
4 1 31 4 1 31 4 1 31 4 1 31 4 1 31 4 1 30 4 1 30 4 1 30 4 1 30 4 1 30
4 1 30 4 1 30 4 1 30 4 1 30 4 1 30 4 1 30 4 1 30 4 1 30 4 1 30 4 1 30
4 1 30 4 1 30 4 1 30 4 1 29 4 1 29 4 1 29 4 1 29 4 1 29 4 1 29 4 1 29
4 1 29 4 1 29 4 1 29 4 1 29 4 1 29 3 1 29 3 1 29 3 1 29 3 1 29 3 1 29
3 1 29 3 1 29 3 1 28 3 1 28 3 1 28 3 1 28 3 1 28 3 1 28 3 1 28 3 1 28
3 1 28 3 1 28 3 1 28 3 1 28 3 1 28 3 5 50 3 6 52 3 6 52 3 6 52 3 6 51
3 6 51 3 5 50 3 5 50 3 5 49 3 5 49 2 5 48 2 5 47 2 5 47 2 5 46 2 5 45
2 5 45 2 5 44 2 5 43 2 5 43 2 5 42 2 5 41 2 4 41 2 4 40 2 4 39 2 4 39
2 4 38 2 4 37 2 4 37 2 4 36 2 4 35 2 4 35 2 4 34 2 4 33 2 4 33 2 3 32
2 3 31 2 3 31 2 3 30 2 3 29 1 3 29 1 3 28 1 3 27 1 3 27 1 3 26 1 3 25
1 3 25 1 3 24 1 3 23 1 2 23 1 2 22 1 2 22 1 2 21 1 2 20 1 2 20 1 2 19
1 2 18 1 2 18 1 2 17 1 2 17 1 2 16 1 2 15 1 2 15 1 2 14 1 1 14 1 1 13
1 1 12 1 1 12 1 1 11 1 1 11 1 1 10 0 1 9 0 1 9 0 1 9 0 1 9 0 1 9 0 1 9
0 1 9 0 1 9 0 1 9 0 1 9 0 1 9 0 1 9 0 1 9 0 1 9 0 1 9 0 1 9 0 1 9 0 1
9 0 1 9 0 1 9 0 1 9 0 1 9 0 1 9 0 1 9 0 1 9
4 1 29 4 1 29 4 1 29 4 1 29 4 1 29 4 1 29 4 1 29 4 1 29 4 1 30 4 1 30
4 1 30 4 1 30 4 1 30 4 1 30 4 1 30 4 1 30 4 1 30 4 1 30 4 1 30 4 1 30
4 1 30 4 1 30 4 1 30 4 1 30 4 1 30 4 1 30 4 1 31 4 1 31 4 1 31 4 1 31
4 1 31 4 1 31 4 1 31 4 1 31 4 1 31 4 1 31 4 1 31 4 1 31 4 1 31 4 1 31
4 1 31 4 1 31 4 1 31 4 1 32 4 1 32 4 1 32 4 1 32 4 1 32 4 1 32 4 1 32
4 1 32 4 1 32 4 1 32 4 1 32 4 1 32 4 1 32 4 1 32 4 1 32 4 1 32 4 1 32
4 1 32 4 1 32 4 1 33 4 1 33 4 1 33 4 1 33 4 1 33 4 1 33 4 1 33 4 1 33
4 1 33 4 1 33 4 1 33 4 1 33 4 1 33 4 1 33 4 1 33 4 1 33 4 1 33 4 1 33
4 1 33 4 1 33 4 1 33 4 1 34 4 1 34 4 1 34 4 1 34 4 1 34 4 1 34 4 1 34
4 1 34 4 1 34 4 1 34 4 1 34 4 1 34 4 1 34 4 1 34 4 1 34 4 1 34 4 1 34
4 1 34 4 1 34 4 1 34 4 1 34 4 1 34 4 1 34 4 1 34 4 1 34 4 1 34 4 1 34
4 1 35 4 1 35 4 1 35 4 1 35 4 1 35 4 1 35 4 1 35 4 1 35 4 1 35 4 1 35
4 1 35 4 1 35 4 1 35 4 1 35 4 1 35 4 1 35 4 1 35 4 1 35 4 1 35 4 1 35
4 1 35 4 1 35 4 1 35 4 1 35 4 1 35 4 1 35 4 1 35 4 1 35 4 1 35 4 1 35
4 1 35 4 1 35 4 1 35 4 1 35 4 1 35 4 1 35 4 1 35 4 1 35 4 1 35 4 1 35
4 1 35 4 1 35 4 1 35 4 1 35 4 1 35 4 1 35 4 1 35 4 1 35 4 1 35 4 1 35
4 1 35 4 1 35 4 1 35 4 1 35 4 1 35 4 1 35 4 1 35 4 1 35 4 1 35 4 1 35
4 1 35 4 1 35 4 1 35 4 1 35 4 1 35 4 1 35 4 1 34 4 1 34 4 1 34 4 1 34
4 1 34 6 5 35 7 6 40 7 7 43 8 7 45 8 7 46 8 8 47 8 8 47 8 8 47 8 8 48
8 8 48 8 8 48 8 8 47 8 8 47 8 8 46 8 7 46 8 7 45 7 7 44 7 7 43 7 7 42
7 7 41 7 6 40 6 6 39 6 6 37 6 5 35 5 5 33 5 5 31 5 4 28 4 3 25 4 3 24
1 0 10 1 0 10 1 0 10 1 0 10 1 0 10 1 0 10 1 0 10 1 0 10 1 0 10 1 0 10
1 0 10 1 0 10 1 0 10 4 1 33 4 1 32 4 1 32 4 1 32 4 1 32 4 1 32 4 1 32
4 1 32 4 1 32 4 1 32 4 1 32 4 1 32 4 1 32 4 1 32 4 1 32 4 1 32 4 1 32
4 1 32 4 1 32 4 1 32 4 1 31 4 1 31 4 1 31 4 1 31 4 1 31 4 1 31 4 1 31
4 1 31 4 1 31 4 1 31 4 1 31 4 1 31 4 1 31 4 1 31 4 1 31 4 1 31 4 1 31
4 1 30 4 1 30 4 1 30 4 1 30 4 1 30 4 1 30 4 1 30 4 1 30 4 1 30 4 1 30
4 1 30 4 1 30 4 1 30 4 1 30 4 1 30 4 1 30 4 1 30 4 1 30 4 1 29 4 1 29
4 1 29 4 1 29 4 1 29 4 1 29 4 1 29 4 1 29 4 1 29 4 1 29 4 1 29 4 1 29
3 1 29 3 1 29 3 1 29 3 1 29 3 1 29 3 1 29 3 1 28 3 1 28 3 1 28 3 1 28
3 1 28 3 1 28 3 1 28 3 1 28 3 1 28 3 6 53 3 6 53 3 6 53 3 6 52 3 6 52
3 6 51 3 6 51 3 5 50 3 5 49 3 5 49 3 5 48 2 5 48 2 5 47 2 5 46 2 5 46
2 5 45 2 5 44 2 5 44 2 5 43 2 5 42 2 5 41 2 4 41 2 4 40 2 4 39 2 4 39
2 4 38 2 4 37 2 4 37 2 4 36 2 4 35 2 4 35 2 4 34 2 4 33 2 4 33 2 3 32
2 3 31 2 3 31 2 3 30 2 3 29 1 3 29 1 3 28 1 3 27 1 3 27 1 3 26 1 3 25
1 3 25 1 3 24 1 3 24 1 2 23 1 2 22 1 2 22 1 2 21 1 2 20 1 2 20 1 2 19
1 2 19 1 2 18 1 2 17 1 2 17 1 2 16 1 2 15 1 2 15 1 2 14 1 1 14 1 1 13
1 1 12 1 1 12 1 1 11 1 1 11 1 1 10 0 1 9 0 1 9 0 1 9 0 1 9 0 1 9 0 1 9
0 1 9 0 1 9 0 1 9 0 1 9 0 1 9 0 1 9 0 1 9 0 1 9 0 1 9 0 1 9 0 1 9 0 1
9 0 1 9 0 1 9 0 1 9 0 1 9 0 1 9 0 1 9 0 1 9
4 1 29 4 1 29 4 1 30 4 1 30 4 1 30 4 1 30 4 1 30 4 1 30 4 1 30 4 1 30
4 1 30 4 1 30 4 1 30 4 1 30 4 1 30 4 1 30 4 1 30 4 1 30 4 1 30 4 1 30
4 1 31 4 1 31 4 1 31 4 1 31 4 1 31 4 1 31 4 1 31 4 1 31 4 1 31 4 1 31
4 1 31 4 1 31 4 1 31 4 1 31 4 1 31 4 1 31 4 1 31 4 1 32 4 1 32 4 1 32
4 1 32 4 1 32 4 1 32 4 1 32 4 1 32 4 1 32 4 1 32 4 1 32 4 1 32 4 1 32
4 1 32 4 1 32 4 1 32 4 1 32 4 1 33 4 1 33 4 1 33 4 1 33 4 1 33 4 1 33
4 1 33 4 1 33 4 1 33 4 1 33 4 1 33 4 1 33 4 1 33 4 1 33 4 1 33 4 1 33
4 1 33 4 1 33 4 1 33 4 1 34 4 1 34 4 1 34 4 1 34 4 1 34 4 1 34 4 1 34
4 1 34 4 1 34 4 1 34 4 1 34 4 1 34 4 1 34 4 1 34 4 1 34 4 1 34 4 1 34
4 1 34 4 1 34 4 1 34 4 1 34 4 1 34 4 1 34 4 1 35 4 1 35 4 1 35 4 1 35
4 1 35 4 1 35 4 1 35 4 1 35 4 1 35 4 1 35 4 1 35 4 1 35 4 1 35 4 1 35
4 1 35 4 1 35 4 1 35 4 1 35 4 1 35 4 1 35 4 1 35 4 1 35 4 1 35 4 1 35
4 1 35 4 1 35 4 1 35 4 1 35 4 1 35 4 1 35 4 1 35 4 1 35 4 1 35 4 1 35
4 1 35 4 1 35 4 1 35 4 1 35 4 1 35 4 1 35 4 1 35 4 1 35 4 1 35 4 1 35
4 1 35 4 1 35 4 1 35 4 1 35 4 1 35 4 1 35 4 1 35 4 1 35 4 1 35 4 1 35
4 1 35 4 1 35 4 1 35 4 1 35 4 1 35 4 1 35 4 1 35 4 1 35 4 1 35 4 1 35
4 1 35 4 1 35 4 1 35 4 1 35 4 1 35 4 1 35 4 1 35 4 1 35 4 1 35 4 1 35
4 1 35 4 1 35 4 1 35 4 1 35 4 1 35 4 1 35 4 1 35 4 1 35 4 1 35 4 1 35
4 1 35 4 1 35 4 1 35 4 1 35 6 6 37 7 6 40 7 7 42 7 7 43 7 7 43 7 7 44
7 7 44 7 7 44 7 7 44 7 7 43 7 7 43 7 7 42 7 7 42 7 6 41 7 6 40 6 6 39
6 6 38 6 6 36 6 5 35 5 5 33 5 5 31 5 4 28 4 3 25 1 0 10 1 0 10 1 0 10
1 0 10 1 0 10 1 0 10 1 0 10 1 0 10 1 0 10 1 0 10 1 0 10 1 0 10 4 1 33
4 1 33 4 1 33 4 1 33 4 1 33 4 1 33 4 1 33 4 1 33 4 1 33 4 1 33 4 1 33
4 1 33 4 1 32 4 1 32 4 1 32 4 1 32 4 1 32 4 1 32 4 1 32 4 1 32 4 1 32
4 1 32 4 1 32 4 1 32 4 1 32 4 1 32 4 1 32 4 1 32 4 1 32 4 1 31 4 1 31
4 1 31 4 1 31 4 1 31 4 1 31 4 1 31 4 1 31 4 1 31 4 1 31 4 1 31 4 1 31
4 1 31 4 1 31 4 1 31 4 1 31 4 1 31 4 1 30 4 1 30 4 1 30 4 1 30 4 1 30
4 1 30 4 1 30 4 1 30 4 1 30 4 1 30 4 1 30 4 1 30 4 1 30 4 1 30 4 1 30
4 1 30 4 1 30 4 1 30 4 1 29 4 1 29 4 1 29 4 1 29 4 1 29 4 1 29 4 1 29
4 1 29 4 1 29 4 1 29 4 1 29 3 1 29 3 1 29 3 1 29 3 1 29 3 1 29 3 1 29
3 1 28 3 1 28 3 1 28 3 1 28 3 6 53 3 6 53 3 6 53 3 6 53 3 6 53 3 6 52
3 6 52 3 6 51 3 5 50 3 5 50 3 5 49 3 5 48 2 5 48 2 5 47 2 5 46 2 5 46
2 5 45 2 5 44 2 5 44 2 5 43 2 5 42 2 5 42 2 4 41 2 4 40 2 4 40 2 4 39
2 4 38 2 4 37 2 4 37 2 4 36 2 4 35 2 4 35 2 4 34 2 4 33 2 4 33 2 3 32
2 3 31 2 3 31 2 3 30 2 3 29 1 3 29 1 3 28 1 3 28 1 3 27 1 3 26 1 3 26
1 3 25 1 3 24 1 3 24 1 3 23 1 2 22 1 2 22 1 2 21 1 2 21 1 2 20 1 2 19
1 2 19 1 2 18 1 2 17 1 2 17 1 2 16 1 2 16 1 2 15 1 2 14 1 1 14 1 1 13
1 1 13 1 1 12 1 1 11 1 1 11 1 1 10 0 1 10 0 1 9 0 1 9 0 1 9 0 1 9 0 1
9 0 1 9 0 1 9 0 1 9 0 1 9 0 1 9 0 1 9 0 1 9 0 1 9 0 1 9 0 1 9 0 1 9 0
1 9 0 1 9 0 1 9 0 1 9 0 1 9 0 1 9 0 1 9 0 1 9
4 1 30 4 1 30 4 1 30 4 1 30 4 1 30 4 1 30 4 1 30 4 1 30 4 1 30 4 1 30
4 1 30 4 1 30 4 1 30 4 1 30 4 1 31 4 1 31 4 1 31 4 1 31 4 1 31 4 1 31
4 1 31 4 1 31 4 1 31 4 1 31 4 1 31 4 1 31 4 1 31 4 1 31 4 1 31 4 1 31
4 1 31 4 1 32 4 1 32 4 1 32 4 1 32 4 1 32 4 1 32 4 1 32 4 1 32 4 1 32
4 1 32 4 1 32 4 1 32 4 1 32 4 1 32 4 1 32 4 1 32 4 1 33 4 1 33 4 1 33
4 1 33 4 1 33 4 1 33 4 1 33 4 1 33 4 1 33 4 1 33 4 1 33 4 1 33 4 1 33
4 1 33 4 1 33 4 1 33 4 1 33 4 1 33 4 1 34 4 1 34 4 1 34 4 1 34 4 1 34
4 1 34 4 1 34 4 1 34 4 1 34 4 1 34 4 1 34 4 1 34 4 1 34 4 1 34 4 1 34
4 1 34 4 1 34 4 1 34 4 1 34 4 1 34 4 1 35 4 1 35 4 1 35 4 1 35 4 1 35
4 1 35 4 1 35 4 1 35 4 1 35 4 1 35 4 1 35 4 1 35 4 1 35 4 1 35 4 1 35
4 1 35 4 1 35 4 1 35 4 1 35 4 1 35 4 1 35 4 1 35 4 1 35 4 1 35 4 1 35
4 1 35 4 1 35 4 1 35 4 1 36 4 1 36 4 1 36 4 1 36 4 1 36 4 1 36 4 1 36
4 1 36 4 1 36 4 1 36 4 1 36 4 1 36 4 1 36 4 1 36 4 1 36 4 1 36 4 1 36
4 1 36 4 1 36 4 1 36 4 1 36 4 1 36 4 1 36 4 1 36 4 1 36 4 1 36 4 1 36
4 1 36 4 1 36 4 1 36 4 1 36 4 1 36 4 1 36 4 1 36 4 1 36 4 1 36 4 1 36
4 1 36 4 1 36 4 1 36 4 1 36 4 1 36 4 1 36 4 1 36 4 1 36 4 1 36 4 1 36
4 1 36 4 1 36 4 1 36 4 1 36 4 1 36 4 1 36 4 1 36 4 1 36 4 1 36 4 1 36
4 1 36 4 1 35 4 1 35 4 1 35 4 1 35 4 1 35 4 1 35 4 1 35 4 1 35 4 1 35
4 1 35 4 1 35 4 1 35 4 1 35 4 1 35 4 1 35 4 1 35 6 5 35 6 6 37 6 6 38
6 6 39 7 6 39 7 6 39 6 6 39 6 6 39 6 6 38 6 6 37 6 6 36 6 5 35 6 5 34
5 5 33 5 5 31 5 4 29 4 4 25 1 0 10 1 0 10 1 0 10 1 0 10 1 0 10 1 0 10
1 0 10 1 0 10 1 0 10 4 1 34 4 1 34 4 1 34 4 1 34 4 1 34 4 1 34 4 1 33
4 1 33 4 1 33 4 1 33 4 1 33 4 1 33 4 1 33 4 1 33 4 1 33 4 1 33 4 1 33
4 1 33 4 1 33 4 1 33 4 1 33 4 1 33 4 1 33 4 1 33 4 1 32 4 1 32 4 1 32
4 1 32 4 1 32 4 1 32 4 1 32 4 1 32 4 1 32 4 1 32 4 1 32 4 1 32 4 1 32
4 1 32 4 1 32 4 1 32 4 1 31 4 1 31 4 1 31 4 1 31 4 1 31 4 1 31 4 1 31
4 1 31 4 1 31 4 1 31 4 1 31 4 1 31 4 1 31 4 1 31 4 1 31 4 1 31 4 1 31
4 1 30 4 1 30 4 1 30 4 1 30 4 1 30 4 1 30 4 1 30 4 1 30 4 1 30 4 1 30
4 1 30 4 1 30 4 1 30 4 1 30 4 1 30 4 1 30 4 1 30 4 1 29 4 1 29 4 1 29
4 1 29 4 1 29 4 1 29 4 1 29 4 1 29 4 1 29 4 1 29 4 1 29 3 1 29 3 1 29
3 1 29 3 1 29 3 1 29 3 6 53 3 6 54 3 6 54 3 6 54 3 6 53 3 6 53 3 6 52
3 6 52 3 6 51 3 6 51 3 5 50 3 5 49 3 5 49 2 5 48 2 5 47 2 5 47 2 5 46
2 5 45 2 5 44 2 5 44 2 5 43 2 5 42 2 5 42 2 4 41 2 4 40 2 4 40 2 4 39
2 4 38 2 4 38 2 4 37 2 4 36 2 4 36 2 4 35 2 4 34 2 4 34 2 4 33 2 4 32
2 3 32 2 3 31 2 3 30 2 3 30 2 3 29 1 3 28 1 3 28 1 3 27 1 3 26 1 3 26
1 3 25 1 3 24 1 3 24 1 3 23 1 2 22 1 2 22 1 2 21 1 2 21 1 2 20 1 2 19
1 2 19 1 2 18 1 2 18 1 2 17 1 2 16 1 2 16 1 2 15 1 2 14 1 2 14 1 1 13
1 1 13 1 1 12 1 1 11 1 1 11 1 1 10 0 1 10 0 1 9 0 1 9 0 1 9 0 1 9 0 1
9 0 1 9 0 1 9 0 1 9 0 1 9 0 1 9 0 1 9 0 1 9 0 1 9 0 1 9 0 1 9 0 1 9 0
1 9 0 1 9 0 1 9 0 1 9 0 1 9 0 1 9 0 1 9 0 1 9
4 1 30 4 1 30 4 1 30 4 1 30 4 1 30 4 1 30 4 1 30 4 1 30 4 1 31 4 1 31
4 1 31 4 1 31 4 1 31 4 1 31 4 1 31 4 1 31 4 1 31 4 1 31 4 1 31 4 1 31
4 1 31 4 1 31 4 1 31 4 1 31 4 1 31 4 1 32 4 1 32 4 1 32 4 1 32 4 1 32
4 1 32 4 1 32 4 1 32 4 1 32 4 1 32 4 1 32 4 1 32 4 1 32 4 1 32 4 1 32
4 1 32 4 1 33 4 1 33 4 1 33 4 1 33 4 1 33 4 1 33 4 1 33 4 1 33 4 1 33
4 1 33 4 1 33 4 1 33 4 1 33 4 1 33 4 1 33 4 1 33 4 1 33 4 1 34 4 1 34
4 1 34 4 1 34 4 1 34 4 1 34 4 1 34 4 1 34 4 1 34 4 1 34 4 1 34 4 1 34
4 1 34 4 1 34 4 1 34 4 1 34 4 1 34 4 1 34 4 1 35 4 1 35 4 1 35 4 1 35
4 1 35 4 1 35 4 1 35 4 1 35 4 1 35 4 1 35 4 1 35 4 1 35 4 1 35 4 1 35
4 1 35 4 1 35 4 1 35 4 1 35 4 1 35 4 1 35 4 1 35 4 1 35 4 1 36 4 1 36
4 1 36 4 1 36 4 1 36 4 1 36 4 1 36 4 1 36 4 1 36 4 1 36 4 1 36 4 1 36
4 1 36 4 1 36 4 1 36 4 1 36 4 1 36 4 1 36 4 1 36 4 1 36 4 1 36 4 1 36
4 1 36 4 1 36 4 1 36 4 1 36 4 1 36 4 1 36 4 1 36 4 1 36 4 1 36 4 1 36
4 1 36 4 1 36 4 1 36 4 1 36 4 1 36 4 1 36 4 1 36 4 1 36 4 1 36 4 1 36
4 1 36 4 1 36 4 1 36 4 1 36 4 1 36 4 1 36 4 1 36 4 1 36 4 1 36 4 1 36
4 1 36 4 1 36 4 1 36 4 1 36 4 1 36 4 1 36 4 1 36 4 1 36 4 1 36 4 1 36
4 1 36 4 1 36 4 1 36 4 1 36 4 1 36 4 1 36 4 1 36 4 1 36 4 1 36 4 1 36
4 1 36 4 1 36 4 1 36 4 1 36 4 1 36 4 1 36 4 1 36 4 1 36 4 1 36 4 1 36
4 1 36 4 1 36 4 1 36 4 1 36 4 1 36 4 1 35 4 1 35 4 1 35 4 1 35 4 1 35
4 1 35 4 1 35 5 4 29 5 4 30 5 4 30 5 4 30 5 4 29 5 4 28 4 4 26 4 1 35
4 1 35 4 1 35 4 1 35 4 1 35 4 1 35 4 1 35 4 1 35 4 1 34 4 1 34 4 1 34
4 1 34 4 1 34 4 1 34 4 1 34 4 1 34 4 1 34 4 1 34 4 1 34 4 1 34 4 1 34
4 1 34 4 1 34 4 1 34 4 1 34 4 1 34 4 1 33 4 1 33 4 1 33 4 1 33 4 1 33
4 1 33 4 1 33 4 1 33 4 1 33 4 1 33 4 1 33 4 1 33 4 1 33 4 1 33 4 1 33
4 1 33 4 1 33 4 1 32 4 1 32 4 1 32 4 1 32 4 1 32 4 1 32 4 1 32 4 1 32
4 1 32 4 1 32 4 1 32 4 1 32 4 1 32 4 1 32 4 1 32 4 1 32 4 1 31 4 1 31
4 1 31 4 1 31 4 1 31 4 1 31 4 1 31 4 1 31 4 1 31 4 1 31 4 1 31 4 1 31
4 1 31 4 1 31 4 1 31 4 1 31 4 1 31 4 1 30 4 1 30 4 1 30 4 1 30 4 1 30
4 1 30 4 1 30 4 1 30 4 1 30 4 1 30 4 1 30 4 1 30 4 1 30 4 1 30 4 1 30
4 1 30 4 1 29 4 1 29 4 1 29 4 1 29 4 1 29 4 1 29 4 1 29 4 1 29 4 1 29
4 1 29 4 1 29 3 1 29 3 6 55 3 6 55 3 6 55 3 6 54 3 6 54 3 6 53 3 6 53
3 6 52 3 6 51 3 6 51 3 5 50 3 5 49 3 5 49 2 5 48 2 5 47 2 5 47 2 5 46
2 5 45 2 5 45 2 5 44 2 5 43 2 5 43 2 5 42 2 4 41 2 4 40 2 4 40 2 4 39
2 4 38 2 4 38 2 4 37 2 4 36 2 4 36 2 4 35 2 4 34 2 4 34 2 4 33 2 4 32
2 3 32 2 3 31 2 3 30 2 3 30 2 3 29 1 3 28 1 3 28 1 3 27 1 3 26 1 3 26
1 3 25 1 3 24 1 3 24 1 3 23 1 2 23 1 2 22 1 2 21 1 2 21 1 2 20 1 2 19
1 2 19 1 2 18 1 2 18 1 2 17 1 2 16 1 2 16 1 2 15 1 2 15 1 2 14 1 1 13
1 1 13 1 1 12 1 1 12 1 1 11 1 1 10 1 1 10 0 1 9 0 1 9 0 1 9 0 1 9 0 1
9 0 1 9 0 1 9 0 1 9 0 1 9 0 1 9 0 1 9 0 1 9 0 1 9 0 1 9 0 1 9 0 1 9 0
1 9 0 1 9 0 1 9 0 1 9 0 1 9 0 1 9 0 1 9 0 1 9
4 1 30 4 1 30 4 1 30 4 1 31 4 1 31 4 1 31 4 1 31 4 1 31 4 1 31 4 1 31
4 1 31 4 1 31 4 1 31 4 1 31 4 1 31 4 1 31 4 1 31 4 1 31 4 1 31 4 1 32
4 1 32 4 1 32 4 1 32 4 1 32 4 1 32 4 1 32 4 1 32 4 1 32 4 1 32 4 1 32
4 1 32 4 1 32 4 1 32 4 1 32 4 1 32 4 1 33 4 1 33 4 1 33 4 1 33 4 1 33
4 1 33 4 1 33 4 1 33 4 1 33 4 1 33 4 1 33 4 1 33 4 1 33 4 1 33 4 1 33
4 1 33 4 1 34 4 1 34 4 1 34 4 1 34 4 1 34 4 1 34 4 1 34 4 1 34 4 1 34
4 1 34 4 1 34 4 1 34 4 1 34 4 1 34 4 1 34 4 1 34 4 1 34 4 1 35 4 1 35
4 1 35 4 1 35 4 1 35 4 1 35 4 1 35 4 1 35 4 1 35 4 1 35 4 1 35 4 1 35
4 1 35 4 1 35 4 1 35 4 1 35 4 1 35 4 1 35 4 1 35 4 1 36 4 1 36 4 1 36
4 1 36 4 1 36 4 1 36 4 1 36 4 1 36 4 1 36 4 1 36 4 1 36 4 1 36 4 1 36
4 1 36 4 1 36 4 1 36 4 1 36 4 1 36 4 1 36 4 1 36 4 1 36 4 1 36 4 1 36
4 1 36 4 1 36 4 1 36 4 1 36 4 1 37 4 1 37 4 1 37 4 1 37 4 1 37 4 1 37
4 1 37 4 1 37 4 1 37 4 1 37 4 1 37 4 1 37 4 1 37 4 1 37 4 1 37 4 1 37
4 1 37 4 1 37 4 1 37 4 1 37 4 1 37 4 1 37 4 1 37 4 1 37 4 1 37 4 1 37
4 1 37 4 1 37 4 1 37 4 1 37 4 1 37 4 1 37 4 1 37 4 1 37 4 1 37 4 1 37
4 1 37 4 1 37 4 1 37 4 1 37 4 1 37 4 1 37 4 1 37 4 1 37 4 1 37 4 1 37
4 1 37 4 1 37 4 1 37 4 1 37 4 1 37 4 1 37 4 1 37 4 1 37 4 1 36 4 1 36
4 1 36 4 1 36 4 1 36 4 1 36 4 1 36 4 1 36 4 1 36 4 1 36 4 1 36 4 1 36
4 1 36 4 1 36 4 1 36 4 1 36 4 1 36 4 1 36 4 1 36 4 1 36 4 1 36 4 1 36
4 1 36 4 1 36 4 1 36 4 1 36 4 1 36 4 1 35 4 1 35 4 1 35 4 1 35 4 1 35
4 1 35 4 1 35 4 1 35 4 1 35 4 1 35 4 1 35 4 1 35 4 1 35 4 1 35 4 1 35
4 1 35 4 1 35 4 1 35 4 1 35 4 1 34 4 1 34 4 1 34 4 1 34 4 1 34 4 1 34
4 1 34 4 1 34 4 1 34 4 1 34 4 1 34 4 1 34 4 1 34 4 1 34 4 1 34 4 1 34
4 1 34 4 1 33 4 1 33 4 1 33 4 1 33 4 1 33 4 1 33 4 1 33 4 1 33 4 1 33
4 1 33 4 1 33 4 1 33 4 1 33 4 1 33 4 1 33 4 1 33 4 1 32 4 1 32 4 1 32
4 1 32 4 1 32 4 1 32 4 1 32 4 1 32 4 1 32 4 1 32 4 1 32 4 1 32 4 1 32
4 1 32 4 1 32 4 1 32 4 1 31 4 1 31 4 1 31 4 1 31 4 1 31 4 1 31 4 1 31
4 1 31 4 1 31 4 1 31 4 1 31 4 1 31 4 1 31 4 1 31 4 1 31 4 1 31 4 1 30
4 1 30 4 1 30 4 1 30 4 1 30 4 1 30 4 1 30 4 1 30 4 1 30 4 1 30 4 1 30
4 1 30 4 1 30 4 1 30 4 1 30 4 1 30 4 1 29 4 1 29 4 1 29 4 1 29 4 1 29
4 1 29 4 1 29 3 6 55 3 6 55 3 6 55 3 6 55 3 6 54 3 6 54 3 6 53 3 6 53
3 6 52 3 6 52 3 6 51 3 5 50 3 5 50 3 5 49 3 5 48 2 5 48 2 5 47 2 5 46
2 5 45 2 5 45 2 5 44 2 5 43 2 5 43 2 5 42 2 4 41 2 4 41 2 4 40 2 4 39
2 4 38 2 4 38 2 4 37 2 4 36 2 4 36 2 4 35 2 4 34 2 4 34 2 4 33 2 4 32
2 3 32 2 3 31 2 3 30 2 3 30 2 3 29 1 3 28 1 3 28 1 3 27 1 3 26 1 3 26
1 3 25 1 3 25 1 3 24 1 3 23 1 2 23 1 2 22 1 2 21 1 2 21 1 2 20 1 2 20
1 2 19 1 2 18 1 2 18 1 2 17 1 2 16 1 2 16 1 2 15 1 2 15 1 2 14 1 1 13
1 1 13 1 1 12 1 1 12 1 1 11 1 1 10 1 1 10 0 1 9 0 1 9 0 1 9 0 1 9 0 1
9 0 1 9 0 1 9 0 1 9 0 1 9 0 1 9 0 1 9 0 1 9 0 1 9 0 1 9 0 1 9 0 1 9 0
1 9 0 1 9 0 1 9 0 1 9 0 1 9 0 1 9 0 1 9 0 1 9
4 1 31 4 1 31 4 1 31 4 1 31 4 1 31 4 1 31 4 1 31 4 1 31 4 1 31 4 1 31
4 1 31 4 1 31 4 1 31 4 1 32 4 1 32 4 1 32 4 1 32 4 1 32 4 1 32 4 1 32
4 1 32 4 1 32 4 1 32 4 1 32 4 1 32 4 1 32 4 1 32 4 1 32 4 1 32 4 1 33
4 1 33 4 1 33 4 1 33 4 1 33 4 1 33 4 1 33 4 1 33 4 1 33 4 1 33 4 1 33
4 1 33 4 1 33 4 1 33 4 1 33 4 1 34 4 1 34 4 1 34 4 1 34 4 1 34 4 1 34
4 1 34 4 1 34 4 1 34 4 1 34 4 1 34 4 1 34 4 1 34 4 1 34 4 1 34 4 1 34
4 1 35 4 1 35 4 1 35 4 1 35 4 1 35 4 1 35 4 1 35 4 1 35 4 1 35 4 1 35
4 1 35 4 1 35 4 1 35 4 1 35 4 1 35 4 1 35 4 1 35 4 1 35 4 1 36 4 1 36
4 1 36 4 1 36 4 1 36 4 1 36 4 1 36 4 1 36 4 1 36 4 1 36 4 1 36 4 1 36
4 1 36 4 1 36 4 1 36 4 1 36 4 1 36 4 1 36 4 1 36 4 1 36 4 1 36 4 1 37
4 1 37 4 1 37 4 1 37 4 1 37 4 1 37 4 1 37 4 1 37 4 1 37 4 1 37 4 1 37
4 1 37 4 1 37 4 1 37 4 1 37 4 1 37 4 1 37 4 1 37 4 1 37 5 1 37 5 1 37
5 1 37 5 1 37 5 1 37 5 1 37 5 1 37 5 1 37 5 1 37 5 1 37 5 1 37 5 1 37
5 1 37 5 1 37 5 1 37 5 1 37 5 1 37 5 1 37 5 1 37 5 1 37 5 1 37 5 1 37
5 1 37 5 1 37 5 1 37 5 1 37 5 1 37 5 1 37 5 1 37 5 1 37 5 1 37 5 1 37
5 1 37 5 1 37 5 1 37 5 1 37 5 1 37 5 1 37 5 1 37 5 1 37 5 1 37 5 1 37
5 1 37 5 1 37 5 1 37 4 1 37 4 1 37 4 1 37 4 1 37 4 1 37 4 1 37 4 1 37
4 1 37 4 1 37 4 1 37 4 1 37 4 1 37 4 1 37 4 1 37 4 1 37 4 1 37 4 1 37
4 1 37 4 1 37 4 1 36 4 1 36 4 1 36 4 1 36 4 1 36 4 1 36 4 1 36 4 1 36
4 1 36 4 1 36 4 1 36 4 1 36 4 1 36 4 1 36 4 1 36 4 1 36 4 1 36 4 1 36
4 1 36 4 1 36 4 1 36 4 1 35 4 1 35 4 1 35 4 1 35 4 1 35 4 1 35 4 1 35
4 1 35 4 1 35 4 1 35 4 1 35 4 1 35 4 1 35 4 1 35 4 1 35 4 1 35 4 1 35
4 1 35 4 1 34 4 1 34 4 1 34 4 1 34 4 1 34 4 1 34 4 1 34 4 1 34 4 1 34
4 1 34 4 1 34 4 1 34 4 1 34 4 1 34 4 1 34 4 1 34 4 1 33 4 1 33 4 1 33
4 1 33 4 1 33 4 1 33 4 1 33 4 1 33 4 1 33 4 1 33 4 1 33 4 1 33 4 1 33
4 1 33 4 1 33 4 1 32 4 1 32 4 1 32 4 1 32 4 1 32 4 1 32 4 1 32 4 1 32
4 1 32 4 1 32 4 1 32 4 1 32 4 1 32 4 1 32 4 1 32 4 1 32 4 1 31 4 1 31
4 1 31 4 1 31 4 1 31 4 1 31 4 1 31 4 1 31 4 1 31 4 1 31 4 1 31 4 1 31
4 1 31 4 1 31 4 1 31 4 1 30 4 1 30 4 1 30 4 1 30 4 1 30 4 1 30 4 1 30
4 1 30 4 1 30 4 1 30 4 1 30 4 1 30 4 1 30 4 1 30 4 1 30 4 1 30 4 1 29
4 1 29 4 1 29 3 6 56 3 6 56 3 6 56 3 6 55 3 6 55 3 6 54 3 6 54 3 6 53
3 6 52 3 6 52 3 6 51 3 5 50 3 5 50 3 5 49 3 5 48 2 5 48 2 5 47 2 5 46
2 5 46 2 5 45 2 5 44 2 5 43 2 5 43 2 5 42 2 5 41 2 4 41 2 4 40 2 4 39
2 4 39 2 4 38 2 4 37 2 4 36 2 4 36 2 4 35 2 4 34 2 4 34 2 4 33 2 4 32
2 3 32 2 3 31 2 3 30 2 3 30 2 3 29 1 3 28 1 3 28 1 3 27 1 3 27 1 3 26
1 3 25 1 3 25 1 3 24 1 3 23 1 2 23 1 2 22 1 2 21 1 2 21 1 2 20 1 2 20
1 2 19 1 2 18 1 2 18 1 2 17 1 2 17 1 2 16 1 2 15 1 2 15 1 2 14 1 1 13
1 1 13 1 1 12 1 1 12 1 1 11 1 1 10 1 1 10 0 1 9 0 1 9 0 1 9 0 1 9 0 1
9 0 1 9 0 1 9 0 1 9 0 1 9 0 1 9 0 1 9 0 1 9 0 1 9 0 1 9 0 1 9 0 1 9 0
1 9 0 1 9 0 1 9 0 1 9 0 1 9 0 1 9 0 1 9 0 1 9
4 1 31 4 1 31 4 1 31 4 1 31 4 1 31 4 1 31 4 1 31 4 1 31 4 1 32 4 1 32
4 1 32 4 1 32 4 1 32 4 1 32 4 1 32 4 1 32 4 1 32 4 1 32 4 1 32 4 1 32
4 1 32 4 1 32 4 1 32 4 1 33 4 1 33 4 1 33 4 1 33 4 1 33 4 1 33 4 1 33
4 1 33 4 1 33 4 1 33 4 1 33 4 1 33 4 1 33 4 1 33 4 1 33 4 1 34 4 1 34
4 1 34 4 1 34 4 1 34 4 1 34 4 1 34 4 1 34 4 1 34 4 1 34 4 1 34 4 1 34
4 1 34 4 1 34 4 1 34 4 1 35 4 1 35 4 1 35 4 1 35 4 1 35 4 1 35 4 1 35
4 1 35 4 1 35 4 1 35 4 1 35 4 1 35 4 1 35 4 1 35 4 1 35 4 1 35 4 1 36
4 1 36 4 1 36 4 1 36 4 1 36 4 1 36 4 1 36 4 1 36 4 1 36 4 1 36 4 1 36
4 1 36 4 1 36 4 1 36 4 1 36 4 1 36 4 1 36 4 1 36 4 1 36 4 1 37 4 1 37
4 1 37 4 1 37 4 1 37 4 1 37 4 1 37 4 1 37 4 1 37 4 1 37 4 1 37 4 1 37
4 1 37 5 1 37 5 1 37 5 1 37 5 1 37 5 1 37 5 1 37 5 1 37 5 1 37 5 1 37
5 1 37 5 1 37 5 1 37 5 1 38 5 1 38 5 1 38 5 1 38 5 1 38 5 1 38 5 1 38
5 1 38 5 1 38 5 1 38 5 1 38 5 1 38 5 1 38 5 1 38 5 1 38 5 1 38 5 1 38
5 1 38 5 1 38 5 1 38 5 1 38 5 1 38 5 1 38 5 1 38 5 1 38 5 1 38 5 1 38
5 1 38 5 1 38 5 1 38 5 1 38 5 1 38 5 1 38 5 1 38 5 1 38 5 1 38 5 1 38
5 1 38 5 1 38 5 1 38 5 1 38 5 1 38 5 1 38 5 1 38 5 1 38 5 1 38 5 1 38
5 1 38 5 1 38 5 1 38 5 1 38 5 1 38 5 1 38 5 1 37 5 1 37 5 1 37 5 1 37
5 1 37 5 1 37 5 1 37 5 1 37 5 1 37 5 1 37 5 1 37 5 1 37 4 1 37 4 1 37
4 1 37 4 1 37 4 1 37 4 1 37 4 1 37 4 1 37 4 1 37 4 1 37 4 1 37 4 1 37
4 1 37 4 1 37 4 1 36 4 1 36 4 1 36 4 1 36 4 1 36 4 1 36 4 1 36 4 1 36
4 1 36 4 1 36 4 1 36 4 1 36 4 1 36 4 1 36 4 1 36 4 1 36 4 1 36 4 1 36
4 1 36 4 1 35 4 1 35 4 1 35 4 1 35 4 1 35 4 1 35 4 1 35 4 1 35 4 1 35
4 1 35 4 1 35 4 1 35 4 1 35 4 1 35 4 1 35 4 1 35 4 1 34 4 1 34 4 1 34
4 1 34 4 1 34 4 1 34 4 1 34 4 1 34 4 1 34 4 1 34 4 1 34 4 1 34 4 1 34
4 1 34 4 1 34 4 1 33 4 1 33 4 1 33 4 1 33 4 1 33 4 1 33 4 1 33 4 1 33
4 1 33 4 1 33 4 1 33 4 1 33 4 1 33 4 1 33 4 1 33 4 1 32 4 1 32 4 1 32
4 1 32 4 1 32 4 1 32 4 1 32 4 1 32 4 1 32 4 1 32 4 1 32 4 1 32 4 1 32
4 1 32 4 1 32 4 1 31 4 1 31 4 1 31 4 1 31 4 1 31 4 1 31 4 1 31 4 1 31
4 1 31 4 1 31 4 1 31 4 1 31 4 1 31 4 1 31 4 1 31 4 1 30 4 1 30 4 1 30
4 1 30 4 1 30 4 1 30 4 1 30 4 1 30 4 1 30 4 1 30 4 1 30 4 1 30 4 1 30
4 1 30 3 6 56 3 6 56 3 6 56 3 6 56 3 6 56 3 6 55 3 6 54 3 6 54 3 6 53
3 6 53 3 6 52 3 6 51 3 6 51 3 5 50 3 5 49 3 5 48 2 5 48 2 5 47 2 5 46
2 5 46 2 5 45 2 5 44 2 5 44 2 5 43 2 5 42 2 5 41 2 4 41 2 4 40 2 4 39
2 4 39 2 4 38 2 4 37 2 4 37 2 4 36 2 4 35 2 4 35 2 4 34 2 4 33 2 4 33
2 3 32 2 3 31 2 3 31 2 3 30 2 3 29 1 3 29 1 3 28 1 3 27 1 3 27 1 3 26
1 3 25 1 3 25 1 3 24 1 3 23 1 2 23 1 2 22 1 2 22 1 2 21 1 2 20 1 2 20
1 2 19 1 2 18 1 2 18 1 2 17 1 2 17 1 2 16 1 2 15 1 2 15 1 2 14 1 1 14
1 1 13 1 1 12 1 1 12 1 1 11 1 1 11 1 1 10 0 1 9 0 1 9 0 1 9 0 1 9 0 1
9 0 1 9 0 1 9 0 1 9 0 1 9 0 1 9 0 1 9 0 1 9 0 1 9 0 1 9 0 1 9 0 1 9 0
1 9 0 1 9 0 1 9 0 1 9 0 1 9 0 1 9 0 1 9 0 1 9
4 1 31 4 1 31 4 1 31 4 1 32 4 1 32 4 1 32 4 1 32 4 1 32 4 1 32 4 1 32
4 1 32 4 1 32 4 1 32 4 1 32 4 1 32 4 1 32 4 1 32 4 1 32 4 1 33 4 1 33
4 1 33 4 1 33 4 1 33 4 1 33 4 1 33 4 1 33 4 1 33 4 1 33 4 1 33 4 1 33
4 1 33 4 1 33 4 1 34 4 1 34 4 1 34 4 1 34 4 1 34 4 1 34 4 1 34 4 1 34
4 1 34 4 1 34 4 1 34 4 1 34 4 1 34 4 1 34 4 1 34 4 1 35 4 1 35 4 1 35
4 1 35 4 1 35 4 1 35 4 1 35 4 1 35 4 1 35 4 1 35 4 1 35 4 1 35 4 1 35
4 1 35 4 1 35 4 1 36 4 1 36 4 1 36 4 1 36 4 1 36 4 1 36 4 1 36 4 1 36
4 1 36 4 1 36 4 1 36 4 1 36 4 1 36 4 1 36 4 1 36 4 1 36 4 1 37 4 1 37
4 1 37 4 1 37 4 1 37 4 1 37 4 1 37 4 1 37 4 1 37 4 1 37 4 1 37 4 1 37
5 1 37 5 1 37 5 1 37 5 1 37 5 1 37 5 1 37 5 1 37 5 1 37 5 1 37 5 1 38
5 1 38 5 1 38 5 1 38 5 1 38 5 1 38 5 1 38 5 1 38 5 1 38 5 1 38 5 1 38
5 1 38 5 1 38 5 1 38 5 1 38 5 1 38 5 1 38 5 1 38 5 1 38 5 1 38 5 1 38
5 1 38 5 1 38 5 1 38 5 1 38 5 1 38 5 1 38 5 1 38 5 1 38 5 1 38 5 1 38
5 1 38 5 1 38 5 1 38 5 1 38 5 1 38 5 1 38 5 1 38 5 1 38 5 1 38 5 1 38
5 1 38 5 1 38 5 1 38 5 1 38 5 1 38 5 1 38 5 1 38 5 1 38 5 1 38 5 1 38
5 1 38 5 1 38 5 1 38 5 1 38 5 1 38 5 1 38 5 1 38 5 1 38 5 1 38 5 1 38
5 1 38 5 1 38 5 1 38 5 1 38 5 1 38 5 1 38 5 1 38 5 1 38 5 1 38 5 1 38
5 1 38 5 1 38 5 1 38 5 1 38 5 1 38 5 1 38 5 1 38 5 1 38 5 1 38 5 1 38
5 1 37 5 1 37 5 1 37 5 1 37 5 1 37 5 1 37 5 1 37 5 1 37 5 1 37 4 1 37
4 1 37 4 1 37 4 1 37 4 1 37 4 1 37 4 1 37 4 1 37 4 1 37 4 1 37 4 1 37
4 1 36 4 1 36 4 1 36 4 1 36 4 1 36 4 1 36 4 1 36 4 1 36 4 1 36 4 1 36
4 1 36 4 1 36 4 1 36 4 1 36 4 1 36 4 1 36 4 1 36 4 1 35 4 1 35 4 1 35
4 1 35 4 1 35 4 1 35 4 1 35 4 1 35 4 1 35 4 1 35 4 1 35 4 1 35 4 1 35
4 1 35 4 1 35 4 1 34 4 1 34 4 1 34 4 1 34 4 1 34 4 1 34 4 1 34 4 1 34
4 1 34 4 1 34 4 1 34 4 1 34 4 1 34 4 1 34 4 1 34 4 1 33 4 1 33 4 1 33
4 1 33 4 1 33 4 1 33 4 1 33 4 1 33 4 1 33 4 1 33 4 1 33 4 1 33 4 1 33
4 1 33 4 1 32 4 1 32 4 1 32 4 1 32 4 1 32 4 1 32 4 1 32 4 1 32 4 1 32
4 1 32 4 1 32 4 1 32 4 1 32 4 1 32 4 1 32 4 1 31 4 1 31 4 1 31 4 1 31
4 1 31 4 1 31 4 1 31 4 1 31 4 1 31 4 1 31 4 1 31 4 1 31 4 1 31 4 1 31
4 1 31 4 1 30 4 1 30 4 1 30 4 1 30 4 1 30 4 1 30 4 1 30 4 1 30 4 1 30
4 1 30 3 6 57 3 6 57 3 6 57 3 6 56 3 6 56 3 6 55 3 6 55 3 6 54 3 6 53
3 6 53 3 6 52 3 6 51 3 6 51 3 5 50 3 5 49 3 5 49 2 5 48 2 5 47 2 5 46
2 5 46 2 5 45 2 5 44 2 5 44 2 5 43 2 5 42 2 5 41 2 4 41 2 4 40 2 4 39
2 4 39 2 4 38 2 4 37 2 4 37 2 4 36 2 4 35 2 4 35 2 4 34 2 4 33 2 4 33
2 3 32 2 3 31 2 3 31 2 3 30 2 3 29 1 3 29 1 3 28 1 3 27 1 3 27 1 3 26
1 3 25 1 3 25 1 3 24 1 3 23 1 2 23 1 2 22 1 2 22 1 2 21 1 2 20 1 2 20
1 2 19 1 2 18 1 2 18 1 2 17 1 2 17 1 2 16 1 2 15 1 2 15 1 2 14 1 1 14
1 1 13 1 1 12 1 1 12 1 1 11 1 1 11 1 1 10 0 1 9 0 1 9 0 1 9 0 1 9 0 1
9 0 1 9 0 1 9 0 1 9 0 1 9 0 1 9 0 1 9 0 1 9 0 1 9 0 1 9 0 1 9 0 1 9 0
1 9 0 1 9 0 1 9 0 1 9 0 1 9 0 1 9 0 1 9 0 1 9
4 1 32 4 1 32 4 1 32 4 1 32 4 1 32 4 1 32 4 1 32 4 1 32 4 1 32 4 1 32
4 1 32 4 1 32 4 1 33 4 1 33 4 1 33 4 1 33 4 1 33 4 1 33 4 1 33 4 1 33
4 1 33 4 1 33 4 1 33 4 1 33 4 1 33 4 1 33 4 1 34 4 1 34 4 1 34 4 1 34
4 1 34 4 1 34 4 1 34 4 1 34 4 1 34 4 1 34 4 1 34 4 1 34 4 1 34 4 1 34
4 1 34 4 1 35 4 1 35 4 1 35 4 1 35 4 1 35 4 1 35 4 1 35 4 1 35 4 1 35
4 1 35 4 1 35 4 1 35 4 1 35 4 1 35 4 1 36 4 1 36 4 1 36 4 1 36 4 1 36
4 1 36 4 1 36 4 1 36 4 1 36 4 1 36 4 1 36 4 1 36 4 1 36 4 1 36 4 1 36
4 1 37 4 1 37 4 1 37 4 1 37 4 1 37 4 1 37 4 1 37 4 1 37 4 1 37 4 1 37
4 1 37 5 1 37 5 1 37 5 1 37 5 1 37 5 1 37 5 1 37 5 1 37 5 1 38 5 1 38
5 1 38 5 1 38 5 1 38 5 1 38 5 1 38 5 1 38 5 1 38 5 1 38 5 1 38 5 1 38
5 1 38 5 1 38 5 1 38 5 1 38 5 1 38 5 1 38 5 1 38 5 1 38 5 1 38 5 1 38
5 1 38 5 1 38 5 1 39 5 1 39 5 1 39 5 1 39 5 1 39 5 1 39 5 1 39 5 1 39
5 1 39 5 1 39 5 1 39 5 1 39 5 1 39 5 1 39 5 1 39 5 1 39 5 1 39 5 1 39
5 1 39 5 1 39 5 1 39 5 1 39 5 1 39 5 1 39 5 1 39 5 1 39 5 1 39 5 1 39
5 1 39 5 1 39 5 1 39 5 1 39 5 1 39 5 1 39 5 1 39 5 1 39 5 1 39 5 1 39
5 1 39 5 1 39 5 1 39 5 1 39 5 1 39 5 1 39 5 1 39 5 1 39 5 1 39 5 1 39
5 1 39 5 1 39 5 1 39 5 1 39 5 1 39 5 1 39 5 1 38 5 1 38 5 1 38 5 1 38
5 1 38 5 1 38 5 1 38 5 1 38 5 1 38 5 1 38 5 1 38 5 1 38 5 1 38 5 1 38
5 1 38 5 1 38 5 1 38 5 1 38 5 1 38 5 1 38 5 1 38 5 1 38 5 1 38 5 1 38
5 1 37 5 1 37 5 1 37 5 1 37 5 1 37 5 1 37 5 1 37 4 1 37 4 1 37 4 1 37
4 1 37 4 1 37 4 1 37 4 1 37 4 1 37 4 1 37 4 1 37 4 1 36 4 1 36 4 1 36
4 1 36 4 1 36 4 1 36 4 1 36 4 1 36 4 1 36 4 1 36 4 1 36 4 1 36 4 1 36
4 1 36 4 1 36 4 1 36 4 1 35 4 1 35 4 1 35 4 1 35 4 1 35 4 1 35 4 1 35
4 1 35 4 1 35 4 1 35 4 1 35 4 1 35 4 1 35 4 1 35 4 1 34 4 1 34 4 1 34
4 1 34 4 1 34 4 1 34 4 1 34 4 1 34 4 1 34 4 1 34 4 1 34 4 1 34 4 1 34
4 1 34 4 1 33 4 1 33 4 1 33 4 1 33 4 1 33 4 1 33 4 1 33 4 1 33 4 1 33
4 1 33 4 1 33 4 1 33 4 1 33 4 1 33 4 1 32 4 1 32 4 1 32 4 1 32 4 1 32
4 1 32 4 1 32 4 1 32 4 1 32 4 1 32 4 1 32 4 1 32 4 1 32 4 1 32 4 1 32
4 1 31 4 1 31 4 1 31 4 1 31 4 1 31 4 1 31 4 1 31 4 1 31 4 1 31 4 1 31
4 1 31 4 1 31 4 1 31 4 1 31 4 1 31 4 1 30 4 1 30 4 1 30 4 1 30 4 1 30
3 6 57 3 6 57 3 6 57 3 6 57 3 6 57 3 6 56 3 6 55 3 6 55 3 6 54 3 6 54
3 6 53 3 6 52 3 6 51 3 6 51 3 5 50 3 5 49 3 5 49 2 5 48 2 5 47 2 5 47
2 5 46 2 5 45 2 5 44 2 5 44 2 5 43 2 5 42 2 5 42 2 4 41 2 4 40 2 4 39
2 4 39 2 4 38 2 4 37 2 4 37 2 4 36 2 4 35 2 4 35 2 4 34 2 4 33 2 4 33
2 3 32 2 3 31 2 3 31 2 3 30 2 3 29 1 3 29 1 3 28 1 3 27 1 3 27 1 3 26
1 3 25 1 3 25 1 3 24 1 3 24 1 2 23 1 2 22 1 2 22 1 2 21 1 2 20 1 2 20
1 2 19 1 2 19 1 2 18 1 2 17 1 2 17 1 2 16 1 2 15 1 2 15 1 2 14 1 1 14
1 1 13 1 1 12 1 1 12 1 1 11 1 1 11 1 1 10 0 1 10 0 1 9 0 1 9 0 1 9 0 1
9 0 1 9 0 1 9 0 1 9 0 1 9 0 1 9 0 1 9 0 1 9 0 1 9 0 1 9 0 1 9 0 1 9 0
1 9 0 1 9 0 1 9 0 1 9 0 1 9 0 1 9 0 1 9 0 1 9
4 1 32 4 1 32 4 1 32 4 1 32 4 1 32 4 1 32 4 1 32 4 1 33 4 1 33 4 1 33
4 1 33 4 1 33 4 1 33 4 1 33 4 1 33 4 1 33 4 1 33 4 1 33 4 1 33 4 1 33
4 1 33 4 1 34 4 1 34 4 1 34 4 1 34 4 1 34 4 1 34 4 1 34 4 1 34 4 1 34
4 1 34 4 1 34 4 1 34 4 1 34 4 1 34 4 1 35 4 1 35 4 1 35 4 1 35 4 1 35
4 1 35 4 1 35 4 1 35 4 1 35 4 1 35 4 1 35 4 1 35 4 1 35 4 1 35 4 1 36
4 1 36 4 1 36 4 1 36 4 1 36 4 1 36 4 1 36 4 1 36 4 1 36 4 1 36 4 1 36
4 1 36 4 1 36 4 1 36 4 1 37 4 1 37 4 1 37 4 1 37 4 1 37 4 1 37 4 1 37
4 1 37 4 1 37 5 1 37 5 1 37 5 1 37 5 1 37 5 1 37 5 1 37 5 1 37 5 1 38
5 1 38 5 1 38 5 1 38 5 1 38 5 1 38 5 1 38 5 1 38 5 1 38 5 1 38 5 1 38
5 1 38 5 1 38 5 1 38 5 1 38 5 1 38 5 1 38 5 1 38 5 1 38 5 1 39 5 1 39
5 1 39 5 1 39 5 1 39 5 1 39 5 1 39 5 1 39 5 1 39 5 1 39 5 1 39 5 1 39
5 1 39 5 1 39 5 1 39 5 1 39 5 1 39 5 1 39 5 1 39 5 1 39 5 1 39 5 1 39
5 1 39 5 1 39 5 1 39 5 1 39 5 1 39 5 1 39 5 1 39 5 1 39 5 1 39 5 1 39
5 1 39 5 1 39 5 1 39 5 1 39 5 1 39 5 1 39 5 1 39 5 1 39 5 1 39 5 1 39
5 1 39 5 1 39 5 1 39 5 1 39 5 1 39 5 1 39 5 1 39 5 1 39 5 1 39 5 1 39
5 1 39 5 1 39 5 1 39 5 1 39 5 1 39 5 1 39 5 1 39 5 1 39 5 1 39 5 1 39
5 1 39 5 1 39 5 1 39 5 1 39 5 1 39 5 1 39 5 1 39 5 1 39 5 1 39 5 1 39
5 1 39 5 1 39 5 1 39 5 1 39 5 1 39 5 1 39 5 1 39 5 1 39 5 1 39 5 1 38
5 1 38 5 1 38 5 1 38 5 1 38 5 1 38 5 1 38 5 1 38 5 1 38 5 1 38 5 1 38
5 1 38 5 1 38 5 1 38 5 1 38 5 1 38 5 1 38 5 1 38 5 1 38 5 1 37 5 1 37
5 1 37 5 1 37 5 1 37 5 1 37 4 1 37 4 1 37 4 1 37 4 1 37 4 1 37 4 1 37
4 1 37 4 1 37 4 1 37 4 1 37 4 1 36 4 1 36 4 1 36 4 1 36 4 1 36 4 1 36
4 1 36 4 1 36 4 1 36 4 1 36 4 1 36 4 1 36 4 1 36 4 1 36 4 1 35 4 1 35
4 1 35 4 1 35 4 1 35 4 1 35 4 1 35 4 1 35 4 1 35 4 1 35 4 1 35 4 1 35
4 1 35 4 1 35 4 1 34 4 1 34 4 1 34 4 1 34 4 1 34 4 1 34 4 1 34 4 1 34
4 1 34 4 1 34 4 1 34 4 1 34 4 1 34 4 1 34 4 1 33 4 1 33 4 1 33 4 1 33
4 1 33 4 1 33 4 1 33 4 1 33 4 1 33 4 1 33 4 1 33 4 1 33 4 1 33 4 1 32
4 1 32 4 1 32 4 1 32 4 1 32 4 1 32 4 1 32 4 1 32 4 1 32 4 1 32 4 1 32
4 1 32 4 1 32 4 1 32 4 1 32 4 1 31 4 1 31 4 1 31 4 1 31 4 1 31 4 1 31
4 1 31 4 1 31 4 1 31 4 1 31 4 1 31 4 1 31 4 1 31 4 1 31 4 1 30 4 1 30
3 6 58 3 6 58 3 6 58 3 6 57 3 6 57 3 6 56 3 6 56 3 6 55 3 6 54 3 6 54
3 6 53 3 6 52 3 6 52 3 6 51 3 5 50 3 5 49 3 5 49 2 5 48 2 5 47 2 5 47
2 5 46 2 5 45 2 5 44 2 5 44 2 5 43 2 5 42 2 5 42 2 4 41 2 4 40 2 4 40
2 4 39 2 4 38 2 4 37 2 4 37 2 4 36 2 4 35 2 4 35 2 4 34 2 4 33 2 4 33
2 3 32 2 3 31 2 3 31 2 3 30 2 3 29 1 3 29 1 3 28 1 3 27 1 3 27 1 3 26
1 3 26 1 3 25 1 3 24 1 3 24 1 3 23 1 2 22 1 2 22 1 2 21 1 2 20 1 2 20
1 2 19 1 2 19 1 2 18 1 2 17 1 2 17 1 2 16 1 2 16 1 2 15 1 2 14 1 1 14
1 1 13 1 1 13 1 1 12 1 1 11 1 1 11 1 1 10 0 1 10 0 1 9 0 1 9 0 1 9 0 1
9 0 1 9 0 1 9 0 1 9 0 1 9 0 1 9 0 1 9 0 1 9 0 1 9 0 1 9 0 1 9 0 1 9 0
1 9 0 1 9 0 1 9 0 1 9 0 1 9 0 1 9 0 1 9 0 1 9
4 1 32 4 1 32 4 1 33 4 1 33 4 1 33 4 1 33 4 1 33 4 1 33 4 1 33 4 1 33
4 1 33 4 1 33 4 1 33 4 1 33 4 1 33 4 1 33 4 1 34 4 1 34 4 1 34 4 1 34
4 1 34 4 1 34 4 1 34 4 1 34 4 1 34 4 1 34 4 1 34 4 1 34 4 1 34 4 1 35
4 1 35 4 1 35 4 1 35 4 1 35 4 1 35 4 1 35 4 1 35 4 1 35 4 1 35 4 1 35
4 1 35 4 1 35 4 1 35 4 1 36 4 1 36 4 1 36 4 1 36 4 1 36 4 1 36 4 1 36
4 1 36 4 1 36 4 1 36 4 1 36 4 1 36 4 1 36 4 1 37 4 1 37 4 1 37 4 1 37
4 1 37 4 1 37 4 1 37 4 1 37 4 1 37 5 1 37 5 1 37 5 1 37 5 1 37 5 1 37
5 1 37 5 1 38 5 1 38 5 1 38 5 1 38 5 1 38 5 1 38 5 1 38 5 1 38 5 1 38
5 1 38 5 1 38 5 1 38 5 1 38 5 1 38 5 1 38 5 1 38 5 1 39 5 1 39 5 1 39
5 1 39 5 1 39 5 1 39 5 1 39 5 1 39 5 1 39 5 1 39 5 1 39 5 1 39 5 1 39
5 1 39 5 1 39 5 1 39 5 1 39 5 1 39 5 1 39 5 1 39 5 1 39 5 1 39 5 1 39
5 1 40 5 1 40 5 1 40 5 1 40 5 1 40 5 1 40 5 1 40 5 1 40 5 1 40 5 1 40
5 1 40 5 1 40 5 1 40 5 1 40 5 1 40 5 1 40 5 1 40 5 1 40 5 1 40 5 1 40
5 1 40 5 1 40 5 1 40 5 1 40 5 1 40 5 1 40 5 1 40 5 1 40 5 1 40 5 1 40
5 1 40 5 1 40 5 1 40 5 1 40 5 1 40 5 1 40 5 1 40 5 1 40 5 1 40 5 1 40
5 1 40 5 1 40 5 1 40 5 1 40 5 1 40 5 1 40 5 1 40 5 1 40 5 1 40 5 1 40
5 1 40 5 1 40 5 1 40 5 1 40 5 1 40 5 1 40 5 1 39 5 1 39 5 1 39 5 1 39
5 1 39 5 1 39 5 1 39 5 1 39 5 1 39 5 1 39 5 1 39 5 1 39 5 1 39 5 1 39
5 1 39 5 1 39 5 1 39 5 1 39 5 1 39 5 1 39 5 1 39 5 1 39 5 1 38 5 1 38
5 1 38 5 1 38 5 1 38 5 1 38 5 1 38 5 1 38 5 1 38 5 1 38 5 1 38 5 1 38
5 1 38 5 1 38 5 1 38 5 1 38 5 1 38 5 1 37 5 1 37 5 1 37 5 1 37 5 1 37
5 1 37 4 1 37 4 1 37 4 1 37 4 1 37 4 1 37 4 1 37 4 1 37 4 1 37 4 1 36
4 1 36 4 1 36 4 1 36 4 1 36 4 1 36 4 1 36 4 1 36 4 1 36 4 1 36 4 1 36
4 1 36 4 1 36 4 1 36 4 1 35 4 1 35 4 1 35 4 1 35 4 1 35 4 1 35 4 1 35
4 1 35 4 1 35 4 1 35 4 1 35 4 1 35 4 1 35 4 1 34 4 1 34 4 1 34 4 1 34
4 1 34 4 1 34 4 1 34 4 1 34 4 1 34 4 1 34 4 1 34 4 1 34 4 1 34 4 1 34
4 1 33 4 1 33 4 1 33 4 1 33 4 1 33 4 1 33 4 1 33 4 1 33 4 1 33 4 1 33
4 1 33 4 1 33 4 1 33 4 1 32 4 1 32 4 1 32 4 1 32 4 1 32 4 1 32 4 1 32
4 1 32 4 1 32 4 1 32 4 1 32 4 1 32 4 1 32 4 1 32 4 1 31 4 1 31 4 1 31
4 1 31 4 1 31 4 1 31 4 1 31 4 1 31 4 1 31 4 1 31 4 1 31 4 1 31 3 6 58
3 6 58 3 6 58 3 6 58 3 6 57 3 6 57 3 6 56 3 6 56 3 6 55 3 6 54 3 6 54
3 6 53 3 6 52 3 6 52 3 6 51 3 5 50 3 5 50 3 5 49 2 5 48 2 5 47 2 5 47
2 5 46 2 5 45 2 5 45 2 5 44 2 5 43 2 5 42 2 5 42 2 4 41 2 4 40 2 4 40
2 4 39 2 4 38 2 4 37 2 4 37 2 4 36 2 4 35 2 4 35 2 4 34 2 4 33 2 4 33
2 3 32 2 3 31 2 3 31 2 3 30 2 3 29 1 3 29 1 3 28 1 3 27 1 3 27 1 3 26
1 3 26 1 3 25 1 3 24 1 3 24 1 3 23 1 2 22 1 2 22 1 2 21 1 2 21 1 2 20
1 2 19 1 2 19 1 2 18 1 2 17 1 2 17 1 2 16 1 2 16 1 2 15 1 2 14 1 2 14
1 1 13 1 1 13 1 1 12 1 1 11 1 1 11 1 1 10 0 1 10 0 1 9 0 1 9 0 1 9 0 1
9 0 1 9 0 1 9 0 1 9 0 1 9 0 1 9 0 1 9 0 1 9 0 1 9 0 1 9 0 1 9 0 1 9 0
1 9 0 1 9 0 1 9 0 1 9 0 1 9 0 1 9 0 1 9 0 1 9
4 1 33 4 1 33 4 1 33 4 1 33 4 1 33 4 1 33 4 1 33 4 1 33 4 1 33 4 1 33
4 1 33 4 1 34 4 1 34 4 1 34 4 1 34 4 1 34 4 1 34 4 1 34 4 1 34 4 1 34
4 1 34 4 1 34 4 1 34 4 1 34 4 1 35 4 1 35 4 1 35 4 1 35 4 1 35 4 1 35
4 1 35 4 1 35 4 1 35 4 1 35 4 1 35 4 1 35 4 1 35 4 1 36 4 1 36 4 1 36
4 1 36 4 1 36 4 1 36 4 1 36 4 1 36 4 1 36 4 1 36 4 1 36 4 1 36 4 1 36
4 1 37 4 1 37 4 1 37 4 1 37 4 1 37 4 1 37 4 1 37 4 1 37 5 1 37 5 1 37
5 1 37 5 1 37 5 1 37 5 1 37 5 1 38 5 1 38 5 1 38 5 1 38 5 1 38 5 1 38
5 1 38 5 1 38 5 1 38 5 1 38 5 1 38 5 1 38 5 1 38 5 1 38 5 1 38 5 1 39
5 1 39 5 1 39 5 1 39 5 1 39 5 1 39 5 1 39 5 1 39 5 1 39 5 1 39 5 1 39
5 1 39 5 1 39 5 1 39 5 1 39 5 1 39 5 1 39 5 1 40 5 1 40 5 1 40 5 1 40
5 1 40 5 1 40 5 1 40 5 1 40 5 1 40 5 1 40 5 1 40 5 1 40 5 1 40 5 1 40
5 1 40 5 1 40 5 1 40 5 1 40 5 1 40 5 1 40 5 1 40 5 1 40 5 1 40 5 1 40
5 1 40 5 1 40 5 1 40 5 1 40 5 1 40 5 1 40 5 1 40 5 1 40 5 1 40 5 1 40
5 1 41 5 1 41 5 1 41 5 1 41 5 1 41 5 1 41 5 1 41 5 1 41 5 1 41 5 1 41
5 1 41 5 1 41 5 1 41 5 1 41 5 1 41 5 1 40 5 1 40 5 1 40 5 1 40 5 1 40
5 1 40 5 1 40 5 1 40 5 1 40 5 1 40 5 1 40 5 1 40 5 1 40 5 1 40 5 1 40
5 1 40 5 1 40 5 1 40 5 1 40 5 1 40 5 1 40 5 1 40 5 1 40 5 1 40 5 1 40
5 1 40 5 1 40 5 1 40 5 1 40 5 1 40 5 1 40 5 1 40 5 1 40 5 1 39 5 1 39
5 1 39 5 1 39 5 1 39 5 1 39 5 1 39 5 1 39 5 1 39 5 1 39 5 1 39 5 1 39
5 1 39 5 1 39 5 1 39 5 1 39 5 1 39 5 1 39 5 1 38 5 1 38 5 1 38 5 1 38
5 1 38 5 1 38 5 1 38 5 1 38 5 1 38 5 1 38 5 1 38 5 1 38 5 1 38 5 1 38
5 1 38 5 1 37 5 1 37 5 1 37 5 1 37 5 1 37 4 1 37 4 1 37 4 1 37 4 1 37
4 1 37 4 1 37 4 1 37 4 1 37 4 1 37 4 1 36 4 1 36 4 1 36 4 1 36 4 1 36
4 1 36 4 1 36 4 1 36 4 1 36 4 1 36 4 1 36 4 1 36 4 1 36 4 1 35 4 1 35
4 1 35 4 1 35 4 1 35 4 1 35 4 1 35 4 1 35 4 1 35 4 1 35 4 1 35 4 1 35
4 1 35 4 1 34 4 1 34 4 1 34 4 1 34 4 1 34 4 1 34 4 1 34 4 1 34 4 1 34
4 1 34 4 1 34 4 1 34 4 1 34 4 1 33 4 1 33 4 1 33 4 1 33 4 1 33 4 1 33
4 1 33 4 1 33 4 1 33 4 1 33 4 1 33 4 1 33 4 1 33 4 1 32 4 1 32 4 1 32
4 1 32 4 1 32 4 1 32 4 1 32 4 1 32 4 1 32 4 1 32 4 1 32 4 1 32 4 1 32
4 1 32 4 1 31 4 1 31 4 1 31 4 1 31 4 1 31 4 1 31 4 1 31 4 1 31 3 6 59
3 6 59 3 6 59 3 6 58 3 6 58 3 6 57 3 6 56 3 6 56 3 6 55 3 6 55 3 6 54
3 6 53 3 6 52 3 6 52 3 6 51 3 5 50 3 5 50 3 5 49 3 5 48 2 5 47 2 5 47
2 5 46 2 5 45 2 5 45 2 5 44 2 5 43 2 5 42 2 5 42 2 4 41 2 4 40 2 4 40
2 4 39 2 4 38 2 4 38 2 4 37 2 4 36 2 4 35 2 4 35 2 4 34 2 4 33 2 4 33
2 3 32 2 3 31 2 3 31 2 3 30 2 3 29 1 3 29 1 3 28 1 3 28 1 3 27 1 3 26
1 3 26 1 3 25 1 3 24 1 3 24 1 3 23 1 2 22 1 2 22 1 2 21 1 2 21 1 2 20
1 2 19 1 2 19 1 2 18 1 2 17 1 2 17 1 2 16 1 2 16 1 2 15 1 2 14 1 2 14
1 1 13 1 1 13 1 1 12 1 1 11 1 1 11 1 1 10 1 1 10 0 1 9 0 1 9 0 1 9 0 1
9 0 1 9 0 1 9 0 1 9 0 1 9 0 1 9 0 1 9 0 1 9 0 1 9 0 1 9 0 1 9 0 1 9 0
1 9 0 1 9 0 1 9 0 1 9 0 1 9 0 1 9 0 1 9 0 1 9
4 1 33 4 1 33 4 1 33 4 1 33 4 1 33 4 1 33 4 1 34 4 1 34 4 1 34 4 1 34
4 1 34 4 1 34 4 1 34 4 1 34 4 1 34 4 1 34 4 1 34 4 1 34 4 1 34 4 1 35
4 1 35 4 1 35 4 1 35 4 1 35 4 1 35 4 1 35 4 1 35 4 1 35 4 1 35 4 1 35
4 1 35 4 1 36 4 1 36 4 1 36 4 1 36 4 1 36 4 1 36 4 1 36 4 1 36 4 1 36
4 1 36 4 1 36 4 1 36 4 1 36 4 1 37 4 1 37 4 1 37 4 1 37 4 1 37 4 1 37
4 1 37 4 1 37 5 1 37 5 1 37 5 1 37 5 1 37 5 1 37 5 1 38 5 1 38 5 1 38
5 1 38 5 1 38 5 1 38 5 1 38 5 1 38 5 1 38 5 1 38 5 1 38 5 1 38 5 1 38
5 1 38 5 1 39 5 1 39 5 1 39 5 1 39 5 1 39 5 1 39 5 1 39 5 1 39 5 1 39
5 1 39 5 1 39 5 1 39 5 1 39 5 1 39 5 1 39 5 1 40 5 1 40 5 1 40 5 1 40
5 1 40 5 1 40 5 1 40 5 1 40 5 1 40 5 1 40 5 1 40 5 1 40 5 1 40 5 1 40
5 1 40 5 1 40 5 1 40 5 1 40 5 1 40 5 1 40 5 1 40 5 1 41 5 1 41 5 1 41
5 1 41 5 1 41 5 1 41 5 1 41 5 1 41 5 1 41 5 1 41 5 1 41 5 1 41 5 1 41
5 1 41 5 1 41 5 1 41 5 1 41 5 1 41 5 1 41 5 1 41 5 1 41 5 1 41 5 1 41
5 1 41 5 1 41 5 1 41 5 1 41 5 1 41 5 1 41 5 1 41 5 1 41 5 1 41 5 1 41
5 1 41 5 1 41 5 1 41 5 1 41 5 1 41 5 1 41 5 1 41 5 1 41 5 1 41 5 1 41
5 1 41 5 1 41 5 1 41 5 1 41 5 1 41 5 1 41 5 1 41 5 1 41 5 1 41 5 1 41
5 1 41 5 1 41 5 1 41 5 1 41 5 1 41 5 1 41 5 1 41 5 1 40 5 1 40 5 1 40
5 1 40 5 1 40 5 1 40 5 1 40 5 1 40 5 1 40 5 1 40 5 1 40 5 1 40 5 1 40
5 1 40 5 1 40 5 1 40 5 1 40 5 1 40 5 1 40 5 1 40 5 1 39 5 1 39 5 1 39
5 1 39 5 1 39 5 1 39 5 1 39 5 1 39 5 1 39 5 1 39 5 1 39 5 1 39 5 1 39
5 1 39 5 1 39 5 1 39 5 1 38 5 1 38 5 1 38 5 1 38 5 1 38 5 1 38 5 1 38
5 1 38 5 1 38 5 1 38 5 1 38 5 1 38 5 1 38 5 1 37 5 1 37 5 1 37 5 1 37
5 1 37 5 1 37 4 1 37 4 1 37 4 1 37 4 1 37 4 1 37 4 1 37 4 1 37 4 1 36
4 1 36 4 1 36 4 1 36 4 1 36 4 1 36 4 1 36 4 1 36 4 1 36 4 1 36 4 1 36
4 1 36 4 1 36 4 1 35 4 1 35 4 1 35 4 1 35 4 1 35 4 1 35 4 1 35 4 1 35
4 1 35 4 1 35 4 1 35 4 1 35 4 1 35 4 1 34 4 1 34 4 1 34 4 1 34 4 1 34
4 1 34 4 1 34 4 1 34 4 1 34 4 1 34 4 1 34 4 1 34 4 1 34 4 1 33 4 1 33
4 1 33 4 1 33 4 1 33 4 1 33 4 1 33 4 1 33 4 1 33 4 1 33 4 1 33 4 1 33
4 1 33 4 1 32 4 1 32 4 1 32 4 1 32 4 1 32 4 1 32 4 1 32 4 1 32 4 1 32
4 1 32 4 1 32 4 1 32 4 1 32 4 1 31 4 1 31 4 1 31 4 1 31 3 6 59 3 6 59
3 6 59 3 6 59 3 6 58 3 6 58 3 6 57 3 6 57 3 6 56 3 6 55 3 6 55 3 6 54
3 6 53 3 6 53 3 6 52 3 6 51 3 5 50 3 5 50 3 5 49 3 5 48 2 5 47 2 5 47
2 5 46 2 5 45 2 5 45 2 5 44 2 5 43 2 5 42 2 5 42 2 4 41 2 4 40 2 4 40
2 4 39 2 4 38 2 4 38 2 4 37 2 4 36 2 4 36 2 4 35 2 4 34 2 4 33 2 4 33
2 4 32 2 3 31 2 3 31 2 3 30 2 3 30 1 3 29 1 3 28 1 3 28 1 3 27 1 3 26
1 3 26 1 3 25 1 3 24 1 3 24 1 3 23 1 2 22 1 2 22 1 2 21 1 2 21 1 2 20
1 2 19 1 2 19 1 2 18 1 2 18 1 2 17 1 2 16 1 2 16 1 2 15 1 2 14 1 2 14
1 1 13 1 1 13 1 1 12 1 1 11 1 1 11 1 1 10 1 1 10 0 1 9 0 1 9 0 1 9 0 1
9 0 1 9 0 1 9 0 1 9 0 1 9 0 1 9 0 1 9 0 1 9 0 1 9 0 1 9 0 1 9 0 1 9 0
1 9 0 1 9 0 1 9 0 1 9 0 1 9 0 1 9 0 1 9 0 1 9
4 1 33 4 1 34 4 1 34 4 1 34 4 1 34 4 1 34 4 1 34 4 1 34 4 1 34 4 1 34
4 1 34 4 1 34 4 1 34 4 1 34 4 1 35 4 1 35 4 1 35 4 1 35 4 1 35 4 1 35
4 1 35 4 1 35 4 1 35 4 1 35 4 1 35 4 1 35 4 1 36 4 1 36 4 1 36 4 1 36
4 1 36 4 1 36 4 1 36 4 1 36 4 1 36 4 1 36 4 1 36 4 1 36 4 1 37 4 1 37
4 1 37 4 1 37 4 1 37 4 1 37 4 1 37 4 1 37 5 1 37 5 1 37 5 1 37 5 1 37
5 1 37 5 1 38 5 1 38 5 1 38 5 1 38 5 1 38 5 1 38 5 1 38 5 1 38 5 1 38
5 1 38 5 1 38 5 1 38 5 1 38 5 1 39 5 1 39 5 1 39 5 1 39 5 1 39 5 1 39
5 1 39 5 1 39 5 1 39 5 1 39 5 1 39 5 1 39 5 1 39 5 1 39 5 1 40 5 1 40
5 1 40 5 1 40 5 1 40 5 1 40 5 1 40 5 1 40 5 1 40 5 1 40 5 1 40 5 1 40
5 1 40 5 1 40 5 1 40 5 1 40 5 1 41 5 1 41 5 1 41 5 1 41 5 1 41 5 1 41
5 1 41 5 1 41 5 1 41 5 1 41 5 1 41 5 1 41 5 1 41 5 1 41 5 1 41 5 1 41
5 1 41 5 1 41 5 1 41 5 1 41 5 2 41 5 2 41 5 2 41 5 2 41 5 2 41 5 2 41
5 2 41 5 2 42 5 2 42 5 2 42 5 2 42 5 2 42 5 2 42 5 2 42 5 2 42 5 2 42
5 2 42 5 2 42 5 2 42 5 2 42 5 2 42 5 2 42 5 2 42 5 2 42 5 2 42 5 2 42
5 2 42 5 2 42 5 2 42 5 2 42 5 2 42 5 2 42 5 2 42 5 2 42 5 2 42 5 2 42
5 2 42 5 2 42 5 2 41 5 2 41 5 2 41 5 2 41 5 2 41 5 2 41 5 1 41 5 1 41
5 1 41 5 1 41 5 1 41 5 1 41 5 1 41 5 1 41 5 1 41 5 1 41 5 1 41 5 1 41
5 1 41 5 1 41 5 1 41 5 1 41 5 1 41 5 1 41 5 1 41 5 1 41 5 1 40 5 1 40
5 1 40 5 1 40 5 1 40 5 1 40 5 1 40 5 1 40 5 1 40 5 1 40 5 1 40 5 1 40
5 1 40 5 1 40 5 1 40 5 1 40 5 1 40 5 1 39 5 1 39 5 1 39 5 1 39 5 1 39
5 1 39 5 1 39 5 1 39 5 1 39 5 1 39 5 1 39 5 1 39 5 1 39 5 1 39 5 1 38
5 1 38 5 1 38 5 1 38 5 1 38 5 1 38 5 1 38 5 1 38 5 1 38 5 1 38 5 1 38
5 1 38 5 1 38 5 1 37 5 1 37 5 1 37 5 1 37 5 1 37 4 1 37 4 1 37 4 1 37
4 1 37 4 1 37 4 1 37 4 1 37 4 1 36 4 1 36 4 1 36 4 1 36 4 1 36 4 1 36
4 1 36 4 1 36 4 1 36 4 1 36 4 1 36 4 1 36 4 1 35 4 1 35 4 1 35 4 1 35
4 1 35 4 1 35 4 1 35 4 1 35 4 1 35 4 1 35 4 1 35 4 1 35 4 1 35 4 1 34
4 1 34 4 1 34 4 1 34 4 1 34 4 1 34 4 1 34 4 1 34 4 1 34 4 1 34 4 1 34
4 1 34 4 1 33 4 1 33 4 1 33 4 1 33 4 1 33 4 1 33 4 1 33 4 1 33 4 1 33
4 1 33 4 1 33 4 1 33 4 1 33 4 1 32 4 1 32 4 1 32 4 1 32 4 1 32 4 1 32
4 1 32 4 1 32 4 1 32 4 1 32 4 1 32 4 1 32 4 1 32 4 1 32 3 6 59 3 6 60
3 6 59 3 6 59 3 6 59 3 6 58 3 6 57 3 6 57 3 6 56 3 6 55 3 6 55 3 6 54
3 6 53 3 6 53 3 6 52 3 6 51 3 5 50 3 5 50 3 5 49 3 5 48 2 5 48 2 5 47
2 5 46 2 5 45 2 5 45 2 5 44 2 5 43 2 5 43 2 5 42 2 4 41 2 4 40 2 4 40
2 4 39 2 4 38 2 4 38 2 4 37 2 4 36 2 4 36 2 4 35 2 4 34 2 4 34 2 4 33
2 4 32 2 3 32 2 3 31 2 3 30 2 3 30 2 3 29 1 3 28 1 3 28 1 3 27 1 3 26
1 3 26 1 3 25 1 3 24 1 3 24 1 3 23 1 2 22 1 2 22 1 2 21 1 2 21 1 2 20
1 2 19 1 2 19 1 2 18 1 2 18 1 2 17 1 2 16 1 2 16 1 2 15 1 2 15 1 2 14
1 1 13 1 1 13 1 1 12 1 1 12 1 1 11 1 1 10 1 1 10 0 1 9 0 1 9 0 1 9 0 1
9 0 1 9 0 1 9 0 1 9 0 1 9 0 1 9 0 1 9 0 1 9 0 1 9 0 1 9 0 1 9 0 1 9 0
1 9 0 1 9 0 1 9 0 1 9 0 1 9 0 1 9 0 1 9 0 1 9
4 1 34 4 1 34 4 1 34 4 1 34 4 1 34 4 1 34 4 1 34 4 1 34 4 1 34 4 1 35
4 1 35 4 1 35 4 1 35 4 1 35 4 1 35 4 1 35 4 1 35 4 1 35 4 1 35 4 1 35
4 1 35 4 1 36 4 1 36 4 1 36 4 1 36 4 1 36 4 1 36 4 1 36 4 1 36 4 1 36
4 1 36 4 1 36 4 1 36 4 1 37 4 1 37 4 1 37 4 1 37 4 1 37 4 1 37 4 1 37
5 1 37 5 1 37 5 1 37 5 1 37 5 1 37 5 1 38 5 1 38 5 1 38 5 1 38 5 1 38
5 1 38 5 1 38 5 1 38 5 1 38 5 1 38 5 1 38 5 1 38 5 1 39 5 1 39 5 1 39
5 1 39 5 1 39 5 1 39 5 1 39 5 1 39 5 1 39 5 1 39 5 1 39 5 1 39 5 1 39
5 1 40 5 1 40 5 1 40 5 1 40 5 1 40 5 1 40 5 1 40 5 1 40 5 1 40 5 1 40
5 1 40 5 1 40 5 1 40 5 1 40 5 1 40 5 1 41 5 1 41 5 1 41 5 1 41 5 1 41
5 1 41 5 1 41 5 1 41 5 1 41 5 1 41 5 1 41 5 1 41 5 1 41 5 1 41 5 1 41
5 2 41 5 2 41 5 2 41 5 2 42 5 2 42 5 2 42 5 2 42 5 2 42 5 2 42 5 2 42
5 2 42 5 2 42 5 2 42 5 2 42 5 2 42 5 2 42 5 2 42 5 2 42 5 2 42 5 2 42
5 2 42 5 2 42 5 2 42 5 2 42 5 2 42 5 2 42 5 2 42 5 2 42 5 2 42 5 2 42
5 2 42 5 2 42 5 2 42 5 2 42 5 2 42 5 2 42 5 2 42 5 2 42 5 2 42 5 2 42
5 2 42 5 2 42 5 2 42 5 2 42 5 2 42 5 2 42 5 2 42 5 2 42 5 2 42 5 2 42
5 2 42 5 2 42 5 2 42 5 2 42 5 2 42 5 2 42 5 2 42 5 2 42 5 2 42 5 2 42
5 2 42 5 2 42 5 2 42 5 2 42 5 2 42 5 2 42 5 2 42 5 2 42 5 2 41 5 2 41
5 2 41 5 2 41 5 1 41 5 1 41 5 1 41 5 1 41 5 1 41 5 1 41 5 1 41 5 1 41
5 1 41 5 1 41 5 1 41 5 1 41 5 1 41 5 1 41 5 1 41 5 1 40 5 1 40 5 1 40
5 1 40 5 1 40 5 1 40 5 1 40 5 1 40 5 1 40 5 1 40 5 1 40 5 1 40 5 1 40
5 1 40 5 1 39 5 1 39 5 1 39 5 1 39 5 1 39 5 1 39 5 1 39 5 1 39 5 1 39
5 1 39 5 1 39 5 1 39 5 1 39 5 1 38 5 1 38 5 1 38 5 1 38 5 1 38 5 1 38
5 1 38 5 1 38 5 1 38 5 1 38 5 1 38 5 1 38 5 1 37 5 1 37 5 1 37 5 1 37
5 1 37 4 1 37 4 1 37 4 1 37 4 1 37 4 1 37 4 1 37 4 1 37 4 1 36 4 1 36
4 1 36 4 1 36 4 1 36 4 1 36 4 1 36 4 1 36 4 1 36 4 1 36 4 1 36 4 1 36
4 1 35 4 1 35 4 1 35 4 1 35 4 1 35 4 1 35 4 1 35 4 1 35 4 1 35 4 1 35
4 1 35 4 1 35 4 1 34 4 1 34 4 1 34 4 1 34 4 1 34 4 1 34 4 1 34 4 1 34
4 1 34 4 1 34 4 1 34 4 1 34 4 1 34 4 1 33 4 1 33 4 1 33 4 1 33 4 1 33
4 1 33 4 1 33 4 1 33 4 1 33 4 1 33 4 1 33 4 1 33 4 1 33 4 1 32 4 1 32
4 1 32 4 1 32 4 1 32 4 1 32 4 1 32 4 1 32 4 1 32 3 6 59 3 7 60 3 7 60
3 6 60 3 6 59 3 6 59 3 6 58 3 6 57 3 6 57 3 6 56 3 6 55 3 6 55 3 6 54
3 6 53 3 6 53 3 6 52 3 6 51 3 5 50 3 5 50 3 5 49 3 5 48 2 5 48 2 5 47
2 5 46 2 5 45 2 5 45 2 5 44 2 5 43 2 5 43 2 5 42 2 4 41 2 4 40 2 4 40
2 4 39 2 4 38 2 4 38 2 4 37 2 4 36 2 4 36 2 4 35 2 4 34 2 4 34 2 4 33
2 4 32 2 3 32 2 3 31 2 3 30 2 3 30 2 3 29 1 3 28 1 3 28 1 3 27 1 3 26
1 3 26 1 3 25 1 3 24 1 3 24 1 3 23 1 2 23 1 2 22 1 2 21 1 2 21 1 2 20
1 2 19 1 2 19 1 2 18 1 2 18 1 2 17 1 2 16 1 2 16 1 2 15 1 2 15 1 2 14
1 1 13 1 1 13 1 1 12 1 1 12 1 1 11 1 1 10 1 1 10 0 1 9 0 1 9 0 1 9 0 1
9 0 1 9 0 1 9 0 1 9 0 1 9 0 1 9 0 1 9 0 1 9 0 1 9 0 1 9 0 1 9 0 1 9 0
1 9 0 1 9 0 1 9 0 1 9 0 1 9 0 1 9 0 1 9 0 1 9
4 1 34 4 1 34 4 1 34 4 1 34 4 1 35 4 1 35 4 1 35 4 1 35 4 1 35 4 1 35
4 1 35 4 1 35 4 1 35 4 1 35 4 1 35 4 1 35 4 1 36 4 1 36 4 1 36 4 1 36
4 1 36 4 1 36 4 1 36 4 1 36 4 1 36 4 1 36 4 1 36 4 1 36 4 1 37 4 1 37
4 1 37 4 1 37 4 1 37 4 1 37 4 1 37 5 1 37 5 1 37 5 1 37 5 1 37 5 1 38
5 1 38 5 1 38 5 1 38 5 1 38 5 1 38 5 1 38 5 1 38 5 1 38 5 1 38 5 1 38
5 1 38 5 1 39 5 1 39 5 1 39 5 1 39 5 1 39 5 1 39 5 1 39 5 1 39 5 1 39
5 1 39 5 1 39 5 1 39 5 1 40 5 1 40 5 1 40 5 1 40 5 1 40 5 1 40 5 1 40
5 1 40 5 1 40 5 1 40 5 1 40 5 1 40 5 1 40 5 1 40 5 1 41 5 1 41 5 1 41
5 1 41 5 1 41 5 1 41 5 1 41 5 1 41 5 1 41 5 1 41 5 1 41 5 1 41 5 2 41
5 2 41 5 2 41 5 2 42 5 2 42 5 2 42 5 2 42 5 2 42 5 2 42 5 2 42 5 2 42
5 2 42 5 2 42 5 2 42 5 2 42 5 2 42 5 2 42 5 2 42 5 2 42 5 2 42 5 2 42
5 2 42 5 2 42 5 2 42 5 2 42 5 2 43 5 2 43 5 2 43 5 2 43 5 2 43 5 2 43
5 2 43 5 2 43 5 2 43 5 2 43 5 2 43 5 2 43 5 2 43 5 2 43 5 2 43 5 2 43
5 2 43 5 2 43 5 2 43 5 2 43 5 2 43 5 2 43 5 2 43 5 2 43 5 2 43 5 2 43
5 2 43 5 2 43 5 2 43 5 2 43 5 2 43 5 2 43 5 2 43 5 2 43 5 2 43 5 2 43
5 2 43 5 2 43 5 2 43 5 2 43 5 2 43 5 2 43 5 2 42 5 2 42 5 2 42 5 2 42
5 2 42 5 2 42 5 2 42 5 2 42 5 2 42 5 2 42 5 2 42 5 2 42 5 2 42 5 2 42
5 2 42 5 2 42 5 2 42 5 2 42 5 2 42 5 2 42 5 2 42 5 2 42 5 2 41 5 2 41
5 2 41 5 1 41 5 1 41 5 1 41 5 1 41 5 1 41 5 1 41 5 1 41 5 1 41 5 1 41
5 1 41 5 1 41 5 1 41 5 1 41 5 1 40 5 1 40 5 1 40 5 1 40 5 1 40 5 1 40
5 1 40 5 1 40 5 1 40 5 1 40 5 1 40 5 1 40 5 1 40 5 1 39 5 1 39 5 1 39
5 1 39 5 1 39 5 1 39 5 1 39 5 1 39 5 1 39 5 1 39 5 1 39 5 1 39 5 1 38
5 1 38 5 1 38 5 1 38 5 1 38 5 1 38 5 1 38 5 1 38 5 1 38 5 1 38 5 1 38
5 1 38 5 1 37 5 1 37 5 1 37 5 1 37 4 1 37 4 1 37 4 1 37 4 1 37 4 1 37
4 1 37 4 1 37 4 1 36 4 1 36 4 1 36 4 1 36 4 1 36 4 1 36 4 1 36 4 1 36
4 1 36 4 1 36 4 1 36 4 1 36 4 1 35 4 1 35 4 1 35 4 1 35 4 1 35 4 1 35
4 1 35 4 1 35 4 1 35 4 1 35 4 1 35 4 1 35 4 1 34 4 1 34 4 1 34 4 1 34
4 1 34 4 1 34 4 1 34 4 1 34 4 1 34 4 1 34 4 1 34 4 1 34 4 1 33 4 1 33
4 1 33 4 1 33 4 1 33 4 1 33 4 1 33 4 1 33 4 1 33 4 1 33 4 1 33 4 1 33
4 1 33 4 1 32 4 1 32 4 1 32 4 1 32 4 1 32 4 1 32 3 7 60 3 7 60 3 7 60
3 7 60 3 6 59 3 6 59 3 6 58 3 6 58 3 6 57 3 6 56 3 6 56 3 6 55 3 6 54
3 6 53 3 6 53 3 6 52 3 6 51 3 6 51 3 5 50 3 5 49 3 5 48 2 5 48 2 5 47
2 5 46 2 5 45 2 5 45 2 5 44 2 5 43 2 5 43 2 5 42 2 4 41 2 4 40 2 4 40
2 4 39 2 4 38 2 4 38 2 4 37 2 4 36 2 4 36 2 4 35 2 4 34 2 4 34 2 4 33
2 4 32 2 3 32 2 3 31 2 3 30 2 3 30 2 3 29 1 3 28 1 3 28 1 3 27 1 3 26
1 3 26 1 3 25 1 3 24 1 3 24 1 3 23 1 2 23 1 2 22 1 2 21 1 2 21 1 2 20
1 2 19 1 2 19 1 2 18 1 2 18 1 2 17 1 2 16 1 2 16 1 2 15 1 2 15 1 2 14
1 1 13 1 1 13 1 1 12 1 1 12 1 1 11 1 1 10 1 1 10 0 1 9 0 1 9 0 1 9 0 1
9 0 1 9 0 1 9 0 1 9 0 1 9 0 1 9 0 1 9 0 1 9 0 1 9 0 1 9 0 1 9 0 1 9 0
1 9 0 1 9 0 1 9 0 1 9 0 1 9 0 1 9 0 1 9 0 1 9
4 1 35 4 1 35 4 1 35 4 1 35 4 1 35 4 1 35 4 1 35 4 1 35 4 1 35 4 1 35
4 1 35 4 1 36 4 1 36 4 1 36 4 1 36 4 1 36 4 1 36 4 1 36 4 1 36 4 1 36
4 1 36 4 1 36 4 1 36 4 1 37 4 1 37 4 1 37 4 1 37 4 1 37 4 1 37 4 1 37
5 1 37 5 1 37 5 1 37 5 1 37 5 1 38 5 1 38 5 1 38 5 1 38 5 1 38 5 1 38
5 1 38 5 1 38 5 1 38 5 1 38 5 1 38 5 1 38 5 1 39 5 1 39 5 1 39 5 1 39
5 1 39 5 1 39 5 1 39 5 1 39 5 1 39 5 1 39 5 1 39 5 1 40 5 1 40 5 1 40
5 1 40 5 1 40 5 1 40 5 1 40 5 1 40 5 1 40 5 1 40 5 1 40 5 1 40 5 1 41
5 1 41 5 1 41 5 1 41 5 1 41 5 1 41 5 1 41 5 1 41 5 1 41 5 1 41 5 1 41
5 1 41 5 2 41 5 2 41 5 2 42 5 2 42 5 2 42 5 2 42 5 2 42 5 2 42 5 2 42
5 2 42 5 2 42 5 2 42 5 2 42 5 2 42 5 2 42 5 2 42 5 2 42 5 2 42 5 2 42
5 2 43 5 2 43 5 2 43 5 2 43 5 2 43 5 2 43 5 2 43 5 2 43 5 2 43 5 2 43
5 2 43 5 2 43 5 2 43 5 2 43 5 2 43 5 2 43 5 2 43 5 2 43 5 2 43 5 2 43
5 2 43 5 2 43 5 2 43 5 2 43 5 2 43 5 2 43 5 2 43 5 2 43 5 2 43 5 2 43
5 2 43 5 2 43 5 2 43 5 2 43 5 2 43 5 2 43 5 2 43 5 2 43 5 2 43 5 2 43
5 2 43 5 2 43 5 2 43 5 2 43 5 2 43 5 2 43 5 2 43 5 2 43 5 2 43 5 2 43
5 2 43 5 2 43 5 2 43 5 2 43 5 2 43 5 2 43 5 2 43 5 2 43 5 2 43 5 2 43
5 2 43 5 2 43 5 2 43 5 2 43 5 2 43 5 2 43 5 2 43 5 2 43 5 2 43 5 2 43
5 2 42 5 2 42 5 2 42 5 2 42 5 2 42 5 2 42 5 2 42 5 2 42 5 2 42 5 2 42
5 2 42 5 2 42 5 2 42 5 2 42 5 2 42 5 2 42 5 2 41 5 2 41 5 2 41 5 1 41
5 1 41 5 1 41 5 1 41 5 1 41 5 1 41 5 1 41 5 1 41 5 1 41 5 1 41 5 1 41
5 1 40 5 1 40 5 1 40 5 1 40 5 1 40 5 1 40 5 1 40 5 1 40 5 1 40 5 1 40
5 1 40 5 1 40 5 1 39 5 1 39 5 1 39 5 1 39 5 1 39 5 1 39 5 1 39 5 1 39
5 1 39 5 1 39 5 1 39 5 1 39 5 1 38 5 1 38 5 1 38 5 1 38 5 1 38 5 1 38
5 1 38 5 1 38 5 1 38 5 1 38 5 1 38 5 1 37 5 1 37 5 1 37 5 1 37 5 1 37
4 1 37 4 1 37 4 1 37 4 1 37 4 1 37 4 1 37 4 1 36 4 1 36 4 1 36 4 1 36
4 1 36 4 1 36 4 1 36 4 1 36 4 1 36 4 1 36 4 1 36 4 1 36 4 1 35 4 1 35
4 1 35 4 1 35 4 1 35 4 1 35 4 1 35 4 1 35 4 1 35 4 1 35 4 1 35 4 1 34
4 1 34 4 1 34 4 1 34 4 1 34 4 1 34 4 1 34 4 1 34 4 1 34 4 1 34 4 1 34
4 1 34 4 1 34 4 1 33 4 1 33 4 1 33 4 1 33 4 1 33 4 1 33 4 1 33 4 1 33
4 1 33 4 1 33 4 1 33 4 1 33 4 1 32 4 1 32 4 1 32 3 7 61 3 7 61 3 7 60
3 7 60 3 6 59 3 6 59 3 6 58 3 6 58 3 6 57 3 6 56 3 6 56 3 6 55 3 6 54
3 6 53 3 6 53 3 6 52 3 6 51 3 6 51 3 5 50 3 5 49 3 5 48 2 5 48 2 5 47
2 5 46 2 5 45 2 5 45 2 5 44 2 5 43 2 5 43 2 5 42 2 4 41 2 4 40 2 4 40
2 4 39 2 4 38 2 4 38 2 4 37 2 4 36 2 4 36 2 4 35 2 4 34 2 4 34 2 4 33
2 4 32 2 3 32 2 3 31 2 3 30 2 3 30 2 3 29 1 3 28 1 3 28 1 3 27 1 3 26
1 3 26 1 3 25 1 3 24 1 3 24 1 3 23 1 2 23 1 2 22 1 2 21 1 2 21 1 2 20
1 2 19 1 2 19 1 2 18 1 2 18 1 2 17 1 2 16 1 2 16 1 2 15 1 2 15 1 2 14
1 1 13 1 1 13 1 1 12 1 1 12 1 1 11 1 1 10 1 1 10 0 1 9 0 1 9 0 1 9 0 1
9 0 1 9 0 1 9 0 1 9 0 1 9 0 1 9 0 1 9 0 1 9 0 1 9 0 1 9 0 1 9 0 1 9 0
1 9 0 1 9 0 1 9 0 1 9 0 1 9 0 1 9 0 1 9 0 1 9
4 1 35 4 1 35 4 1 35 4 1 35 4 1 35 4 1 35 4 1 35 4 1 36 4 1 36 4 1 36
4 1 36 4 1 36 4 1 36 4 1 36 4 1 36 4 1 36 4 1 36 4 1 36 4 1 37 4 1 37
4 1 37 4 1 37 4 1 37 4 1 37 4 1 37 5 1 37 5 1 37 5 1 37 5 1 37 5 1 38
5 1 38 5 1 38 5 1 38 5 1 38 5 1 38 5 1 38 5 1 38 5 1 38 5 1 38 5 1 38
5 1 39 5 1 39 5 1 39 5 1 39 5 1 39 5 1 39 5 1 39 5 1 39 5 1 39 5 1 39
5 1 39 5 1 40 5 1 40 5 1 40 5 1 40 5 1 40 5 1 40 5 1 40 5 1 40 5 1 40
5 1 40 5 1 40 5 1 40 5 1 41 5 1 41 5 1 41 5 1 41 5 1 41 5 1 41 5 1 41
5 1 41 5 1 41 5 1 41 5 2 41 5 2 41 5 2 42 5 2 42 5 2 42 5 2 42 5 2 42
5 2 42 5 2 42 5 2 42 5 2 42 5 2 42 5 2 42 5 2 42 5 2 42 5 2 42 5 2 43
5 2 43 5 2 43 5 2 43 5 2 43 5 2 43 5 2 43 5 2 43 5 2 43 5 2 43 5 2 43
5 2 43 5 2 43 5 2 43 5 2 43 5 2 43 5 2 43 5 2 43 5 2 43 5 2 44 5 2 44
5 2 44 5 2 44 5 2 44 5 2 44 5 2 44 5 2 44 5 2 44 5 2 44 5 2 44 5 2 44
5 2 44 5 2 44 5 2 44 5 2 44 5 2 44 5 2 44 5 2 44 5 2 44 5 2 44 5 2 44
5 2 44 5 2 44 5 2 44 5 2 44 5 2 44 5 2 44 5 2 44 5 2 44 5 2 44 5 2 44
5 2 44 5 2 44 5 2 44 5 2 44 5 2 44 5 2 44 5 2 44 5 2 44 5 2 44 5 2 44
5 2 44 5 2 44 5 2 44 5 2 44 5 2 44 5 2 44 5 2 44 5 2 44 5 2 44 5 2 44
5 2 43 5 2 43 5 2 43 5 2 43 5 2 43 5 2 43 5 2 43 5 2 43 5 2 43 5 2 43
5 2 43 5 2 43 5 2 43 5 2 43 5 2 43 5 2 43 5 2 43 5 2 43 5 2 43 5 2 42
5 2 42 5 2 42 5 2 42 5 2 42 5 2 42 5 2 42 5 2 42 5 2 42 5 2 42 5 2 42
5 2 42 5 2 42 5 2 42 5 2 41 5 2 41 5 1 41 5 1 41 5 1 41 5 1 41 5 1 41
5 1 41 5 1 41 5 1 41 5 1 41 5 1 41 5 1 40 5 1 40 5 1 40 5 1 40 5 1 40
5 1 40 5 1 40 5 1 40 5 1 40 5 1 40 5 1 40 5 1 40 5 1 39 5 1 39 5 1 39
5 1 39 5 1 39 5 1 39 5 1 39 5 1 39 5 1 39 5 1 39 5 1 39 5 1 38 5 1 38
5 1 38 5 1 38 5 1 38 5 1 38 5 1 38 5 1 38 5 1 38 5 1 38 5 1 38 5 1 37
5 1 37 5 1 37 5 1 37 4 1 37 4 1 37 4 1 37 4 1 37 4 1 37 4 1 37 4 1 37
4 1 36 4 1 36 4 1 36 4 1 36 4 1 36 4 1 36 4 1 36 4 1 36 4 1 36 4 1 36
4 1 36 4 1 35 4 1 35 4 1 35 4 1 35 4 1 35 4 1 35 4 1 35 4 1 35 4 1 35
4 1 35 4 1 35 4 1 35 4 1 34 4 1 34 4 1 34 4 1 34 4 1 34 4 1 34 4 1 34
4 1 34 4 1 34 4 1 34 4 1 34 4 1 34 4 1 33 4 1 33 4 1 33 4 1 33 4 1 33
4 1 33 4 1 33 5 3 50 5 3 48 5 2 46 4 2 42 3 7 60 3 7 61 3 7 61 3 7 61
3 7 60 3 6 60 3 6 59 3 6 58 3 6 58 3 6 57 3 6 56 3 6 56 3 6 55 3 6 54
3 6 53 3 6 53 3 6 52 3 6 51 3 6 51 3 5 50 3 5 49 3 5 48 2 5 48 2 5 47
2 5 46 2 5 45 2 5 45 2 5 44 2 5 43 2 5 43 2 5 42 2 4 41 2 4 40 2 4 40
2 4 39 2 4 38 2 4 38 2 4 37 2 4 36 2 4 36 2 4 35 2 4 34 2 4 34 2 4 33
2 4 32 2 3 32 2 3 31 2 3 30 2 3 30 2 3 29 1 3 28 1 3 28 1 3 27 1 3 26
1 3 26 1 3 25 1 3 24 1 3 24 1 3 23 1 2 23 1 2 22 1 2 21 1 2 21 1 2 20
1 2 19 1 2 19 1 2 18 1 2 18 1 2 17 1 2 16 1 2 16 1 2 15 1 2 15 1 2 14
1 1 13 1 1 13 1 1 12 1 1 12 1 1 11 1 1 10 1 1 10 0 1 9 0 1 9 0 1 9 0 1
9 0 1 9 0 1 9 0 1 9 0 1 9 0 1 9 0 1 9 0 1 9 0 1 9 0 1 9 0 1 9 0 1 9 0
1 9 0 1 9 0 1 9 0 1 9 0 1 9 0 1 9 0 1 9 0 1 9
4 1 35 4 1 35 4 1 36 4 1 36 4 1 36 4 1 36 4 1 36 4 1 36 4 1 36 4 1 36
4 1 36 4 1 36 4 1 36 4 1 36 4 1 37 4 1 37 4 1 37 4 1 37 4 1 37 4 1 37
5 1 37 5 1 37 5 1 37 5 1 37 5 1 38 5 1 38 5 1 38 5 1 38 5 1 38 5 1 38
5 1 38 5 1 38 5 1 38 5 1 38 5 1 38 5 1 39 5 1 39 5 1 39 5 1 39 5 1 39
5 1 39 5 1 39 5 1 39 5 1 39 5 1 39 5 1 39 5 1 40 5 1 40 5 1 40 5 1 40
5 1 40 5 1 40 5 1 40 5 1 40 5 1 40 5 1 40 5 1 40 5 1 41 5 1 41 5 1 41
5 1 41 5 1 41 5 1 41 5 1 41 5 1 41 5 1 41 5 2 41 5 2 41 5 2 42 5 2 42
5 2 42 5 2 42 5 2 42 5 2 42 5 2 42 5 2 42 5 2 42 5 2 42 5 2 42 5 2 42
5 2 42 5 2 43 5 2 43 5 2 43 5 2 43 5 2 43 5 2 43 5 2 43 5 2 43 5 2 43
5 2 43 5 2 43 5 2 43 5 2 43 5 2 43 5 2 43 5 2 44 5 2 44 5 2 44 5 2 44
5 2 44 5 2 44 5 2 44 5 2 44 5 2 44 5 2 44 5 2 44 5 2 44 5 2 44 5 2 44
5 2 44 5 2 44 5 2 44 5 2 44 5 2 44 5 2 44 5 2 44 5 2 44 5 2 44 5 2 44
5 2 45 5 2 45 5 2 45 5 2 45 5 2 45 5 2 45 5 2 45 5 2 45 5 2 45 5 2 45
5 2 45 5 2 45 5 2 45 5 2 45 5 2 45 5 2 45 5 2 45 5 2 45 5 2 45 5 2 45
5 2 45 5 2 45 5 2 45 5 2 45 5 2 45 5 2 45 5 2 45 5 2 44 5 2 44 5 2 44
5 2 44 5 2 44 5 2 44 5 2 44 5 2 44 5 2 44 5 2 44 5 2 44 5 2 44 5 2 44
5 2 44 5 2 44 5 2 44 5 2 44 5 2 44 5 2 44 5 2 44 5 2 44 5 2 44 5 2 44
5 2 44 5 2 43 5 2 43 5 2 43 5 2 43 5 2 43 5 2 43 5 2 43 5 2 43 5 2 43
5 2 43 5 2 43 5 2 43 5 2 43 5 2 43 5 2 43 5 2 42 5 2 42 5 2 42 5 2 42
5 2 42 5 2 42 5 2 42 5 2 42 5 2 42 5 2 42 5 2 42 5 2 42 5 2 42 5 2 41
5 2 41 5 1 41 5 1 41 5 1 41 5 1 41 5 1 41 5 1 41 5 1 41 5 1 41 5 1 41
5 1 40 5 1 40 5 1 40 5 1 40 5 1 40 5 1 40 5 1 40 5 1 40 5 1 40 5 1 40
5 1 40 5 1 39 5 1 39 5 1 39 5 1 39 5 1 39 5 1 39 5 1 39 5 1 39 5 1 39
5 1 39 5 1 39 5 1 38 5 1 38 5 1 38 5 1 38 5 1 38 5 1 38 5 1 38 5 1 38
5 1 38 5 1 38 5 1 38 5 1 37 5 1 37 5 1 37 5 1 37 4 1 37 4 1 37 4 1 37
4 1 37 4 1 37 4 1 37 4 1 37 4 1 36 4 1 36 4 1 36 4 1 36 4 1 36 4 1 36
4 1 36 4 1 36 4 1 36 4 1 36 4 1 36 4 1 35 4 1 35 4 1 35 4 1 35 4 1 35
4 1 35 4 1 35 4 1 35 4 1 35 4 1 35 4 1 35 4 1 34 4 1 34 4 1 34 4 1 34
4 1 34 4 1 34 4 1 34 4 1 34 4 1 34 4 1 34 4 1 34 4 1 34 4 1 33 7 3 62
7 3 62 6 3 61 6 3 59 6 3 56 6 3 53 5 3 50 3 7 61 3 7 61 3 7 61 3 7 61
3 7 60 3 6 60 3 6 59 3 6 58 3 6 58 3 6 57 3 6 56 3 6 56 3 6 55 3 6 54
3 6 54 3 6 53 3 6 52 3 6 51 3 6 51 3 5 50 3 5 49 3 5 48 2 5 48 2 5 47
2 5 46 2 5 45 2 5 45 2 5 44 2 5 43 2 5 43 2 5 42 2 4 41 2 4 40 2 4 40
2 4 39 2 4 38 2 4 38 2 4 37 2 4 36 2 4 36 2 4 35 2 4 34 2 4 34 2 4 33
2 4 32 2 3 32 2 3 31 2 3 30 2 3 30 2 3 29 1 3 28 1 3 28 1 3 27 1 3 26
1 3 26 1 3 25 1 3 24 1 3 24 1 3 23 1 2 23 1 2 22 1 2 21 1 2 21 1 2 20
1 2 20 1 2 19 1 2 18 1 2 18 1 2 17 1 2 16 1 2 16 1 2 15 1 2 15 1 2 14
1 1 13 1 1 13 1 1 12 1 1 12 1 1 11 1 1 11 1 1 10 0 1 9 0 1 9 0 1 9 0 1
9 0 1 9 0 1 9 0 1 9 0 1 9 0 1 9 0 1 9 0 1 9 0 1 9 0 1 9 0 1 9 0 1 9 0
1 9 0 1 9 0 1 9 0 1 9 0 1 9 0 1 9 0 1 9 0 1 9
4 1 36 4 1 36 4 1 36 4 1 36 4 1 36 4 1 36 4 1 36 4 1 36 4 1 36 4 1 37
4 1 37 4 1 37 4 1 37 4 1 37 4 1 37 5 1 37 5 1 37 5 1 37 5 1 37 5 1 37
5 1 38 5 1 38 5 1 38 5 1 38 5 1 38 5 1 38 5 1 38 5 1 38 5 1 38 5 1 38
5 1 39 5 1 39 5 1 39 5 1 39 5 1 39 5 1 39 5 1 39 5 1 39 5 1 39 5 1 39
5 1 40 5 1 40 5 1 40 5 1 40 5 1 40 5 1 40 5 1 40 5 1 40 5 1 40 5 1 40
5 1 40 5 1 41 5 1 41 5 1 41 5 1 41 5 1 41 5 1 41 5 1 41 5 1 41 5 1 41
5 2 41 5 2 41 5 2 42 5 2 42 5 2 42 5 2 42 5 2 42 5 2 42 5 2 42 5 2 42
5 2 42 5 2 42 5 2 42 5 2 43 5 2 43 5 2 43 5 2 43 5 2 43 5 2 43 5 2 43
5 2 43 5 2 43 5 2 43 5 2 43 5 2 43 5 2 43 5 2 44 5 2 44 5 2 44 5 2 44
5 2 44 5 2 44 5 2 44 5 2 44 5 2 44 5 2 44 5 2 44 5 2 44 5 2 44 5 2 44
5 2 44 5 2 44 5 2 44 5 2 45 5 2 45 5 2 45 5 2 45 5 2 45 5 2 45 5 2 45
5 2 45 5 2 45 5 2 45 5 2 45 5 2 45 5 2 45 5 2 45 5 2 45 5 2 45 5 2 45
5 2 45 5 2 45 5 2 45 5 2 45 5 2 45 5 2 45 5 2 45 5 2 45 5 2 45 5 2 45
5 2 45 5 2 45 5 2 45 5 2 45 5 2 45 5 2 45 5 2 45 5 2 45 5 2 45 5 2 45
5 2 45 5 2 45 5 2 45 5 2 45 5 2 45 5 2 45 5 2 45 5 2 45 5 2 45 5 2 45
5 2 45 5 2 45 5 2 45 5 2 45 5 2 45 5 2 45 5 2 45 5 2 45 5 2 45 5 2 45
5 2 45 5 2 45 5 2 45 5 2 44 5 2 44 5 2 44 5 2 44 5 2 44 5 2 44 5 2 44
5 2 44 5 2 44 5 2 44 5 2 44 5 2 44 5 2 44 5 2 44 5 2 44 5 2 44 5 2 44
5 2 43 5 2 43 5 2 43 5 2 43 5 2 43 5 2 43 5 2 43 5 2 43 5 2 43 5 2 43
5 2 43 5 2 43 5 2 43 5 2 42 5 2 42 5 2 42 5 2 42 5 2 42 5 2 42 5 2 42
5 2 42 5 2 42 5 2 42 5 2 42 5 2 41 5 2 41 5 1 41 5 1 41 5 1 41 5 1 41
5 1 41 5 1 41 5 1 41 5 1 41 5 1 41 5 1 40 5 1 40 5 1 40 5 1 40 5 1 40
5 1 40 5 1 40 5 1 40 5 1 40 5 1 40 5 1 40 5 1 39 5 1 39 5 1 39 5 1 39
5 1 39 5 1 39 5 1 39 5 1 39 5 1 39 5 1 39 5 1 38 5 1 38 5 1 38 5 1 38
5 1 38 5 1 38 5 1 38 5 1 38 5 1 38 5 1 38 5 1 37 5 1 37 5 1 37 5 1 37
5 1 37 4 1 37 4 1 37 4 1 37 4 1 37 4 1 37 4 1 37 4 1 36 4 1 36 4 1 36
4 1 36 4 1 36 4 1 36 4 1 36 4 1 36 4 1 36 4 1 36 4 1 36 4 1 35 4 1 35
4 1 35 4 1 35 4 1 35 4 1 35 4 1 35 4 1 35 4 1 35 4 1 35 4 1 35 4 1 34
4 1 34 4 1 34 4 1 34 4 1 34 4 1 34 4 1 34 4 1 34 7 4 69 7 4 70 7 4 69
7 4 68 7 4 66 7 3 63 6 3 60 6 3 57 6 3 54 3 7 61 3 7 61 3 7 61 3 7 61
3 7 60 3 7 60 3 6 59 3 6 58 3 6 58 3 6 57 3 6 56 3 6 56 3 6 55 3 6 54
3 6 54 3 6 53 3 6 52 3 6 51 3 6 51 3 5 50 3 5 49 3 5 48 2 5 48 2 5 47
2 5 46 2 5 45 2 5 45 2 5 44 2 5 43 2 5 43 2 5 42 2 4 41 2 4 40 2 4 40
2 4 39 2 4 38 2 4 38 2 4 37 2 4 36 2 4 36 2 4 35 2 4 34 2 4 34 2 4 33
2 4 32 2 3 32 2 3 31 2 3 30 2 3 30 2 3 29 1 3 28 1 3 28 1 3 27 1 3 26
1 3 26 1 3 25 1 3 25 1 3 24 1 3 23 1 2 23 1 2 22 1 2 21 1 2 21 1 2 20
1 2 20 1 2 19 1 2 18 1 2 18 1 2 17 1 2 16 1 2 16 1 2 15 1 2 15 1 2 14
1 1 13 1 1 13 1 1 12 1 1 12 1 1 11 1 1 11 1 1 10 0 1 9 0 1 9 0 1 9 0 1
9 0 1 9 0 1 9 0 1 9 0 1 9 0 1 9 0 1 9 0 1 9 0 1 9 0 1 9 0 1 9 0 1 9 0
1 9 0 1 9 0 1 9 0 1 9 0 1 9 0 1 9 0 1 9 0 1 9
4 1 36 4 1 36 4 1 36 4 1 36 4 1 36 4 1 37 4 1 37 4 1 37 4 1 37 4 1 37
4 1 37 5 1 37 5 1 37 5 1 37 5 1 37 5 1 38 5 1 38 5 1 38 5 1 38 5 1 38
5 1 38 5 1 38 5 1 38 5 1 38 5 1 38 5 1 39 5 1 39 5 1 39 5 1 39 5 1 39
5 1 39 5 1 39 5 1 39 5 1 39 5 1 39 5 1 40 5 1 40 5 1 40 5 1 40 5 1 40
5 1 40 5 1 40 5 1 40 5 1 40 5 1 40 5 1 40 5 1 41 5 1 41 5 1 41 5 1 41
5 1 41 5 1 41 5 1 41 5 1 41 5 2 41 5 2 41 5 2 42 5 2 42 5 2 42 5 2 42
5 2 42 5 2 42 5 2 42 5 2 42 5 2 42 5 2 42 5 2 42 5 2 43 5 2 43 5 2 43
5 2 43 5 2 43 5 2 43 5 2 43 5 2 43 5 2 43 5 2 43 5 2 43 5 2 44 5 2 44
5 2 44 5 2 44 5 2 44 5 2 44 5 2 44 5 2 44 5 2 44 5 2 44 5 2 44 5 2 44
5 2 44 5 2 44 5 2 45 5 2 45 5 2 45 5 2 45 5 2 45 5 2 45 5 2 45 5 2 45
5 2 45 5 2 45 5 2 45 5 2 45 5 2 45 5 2 45 5 2 45 6 2 45 6 2 45 6 2 45
6 2 45 6 2 46 6 2 46 6 2 46 6 2 46 6 2 46 6 2 46 6 2 46 6 2 46 6 2 46
6 2 46 6 2 46 6 2 46 6 2 46 6 2 46 6 2 46 6 2 46 6 2 46 6 2 46 6 2 46
6 2 46 6 2 46 6 2 46 6 2 46 6 2 46 6 2 46 6 2 46 6 2 46 6 2 46 6 2 46
6 2 46 6 2 46 6 2 46 6 2 46 6 2 46 6 2 46 6 2 46 6 2 46 6 2 46 6 2 46
6 2 46 6 2 46 6 2 46 6 2 46 6 2 45 6 2 45 6 2 45 6 2 45 5 2 45 5 2 45
5 2 45 5 2 45 5 2 45 5 2 45 5 2 45 5 2 45 5 2 45 5 2 45 5 2 45 5 2 45
5 2 45 5 2 45 5 2 45 5 2 44 5 2 44 5 2 44 5 2 44 5 2 44 5 2 44 5 2 44
5 2 44 5 2 44 5 2 44 5 2 44 5 2 44 5 2 44 5 2 44 5 2 43 5 2 43 5 2 43
5 2 43 5 2 43 5 2 43 5 2 43 5 2 43 5 2 43 5 2 43 5 2 43 5 2 42 5 2 42
5 2 42 5 2 42 5 2 42 5 2 42 5 2 42 5 2 42 5 2 42 5 2 42 5 2 42 5 2 41
5 2 41 5 1 41 5 1 41 5 1 41 5 1 41 5 1 41 5 1 41 5 1 41 5 1 41 5 1 40
5 1 40 5 1 40 5 1 40 5 1 40 5 1 40 5 1 40 5 1 40 5 1 40 5 1 40 5 1 40
5 1 39 5 1 39 5 1 39 5 1 39 5 1 39 5 1 39 5 1 39 5 1 39 5 1 39 5 1 39
5 1 38 5 1 38 5 1 38 5 1 38 5 1 38 5 1 38 5 1 38 5 1 38 5 1 38 5 1 38
5 1 37 5 1 37 5 1 37 5 1 37 4 1 37 4 1 37 4 1 37 4 1 37 4 1 37 4 1 37
4 1 36 4 1 36 4 1 36 4 1 36 4 1 36 4 1 36 4 1 36 4 1 36 4 1 36 4 1 36
4 1 36 4 1 35 4 1 35 4 1 35 4 1 35 4 1 35 4 1 35 4 1 35 4 1 35 4 1 35
4 1 35 4 1 35 4 1 34 4 1 34 4 1 34 4 1 34 8 4 75 8 4 76 8 4 75 8 4 73
7 4 71 7 4 69 7 4 66 7 3 63 6 3 60 6 3 57 3 7 62 3 7 62 3 7 61 3 7 61
3 7 60 3 7 60 3 6 59 3 6 59 3 6 58 3 6 57 3 6 56 3 6 56 3 6 55 3 6 54
3 6 54 3 6 53 3 6 52 3 6 51 3 6 51 3 5 50 3 5 49 3 5 48 2 5 48 2 5 47
2 5 46 2 5 45 2 5 45 2 5 44 2 5 43 2 5 43 2 5 42 2 4 41 2 4 40 2 4 40
2 4 39 2 4 38 2 4 38 2 4 37 2 4 36 2 4 36 2 4 35 2 4 34 2 4 34 2 4 33
2 4 32 2 3 32 2 3 31 2 3 30 2 3 30 2 3 29 1 3 28 1 3 28 1 3 27 1 3 26
1 3 26 1 3 25 1 3 25 1 3 24 1 3 23 1 2 23 1 2 22 1 2 21 1 2 21 1 2 20
1 2 20 1 2 19 1 2 18 1 2 18 1 2 17 1 2 16 1 2 16 1 2 15 1 2 15 1 2 14
1 1 13 1 1 13 1 1 12 1 1 12 1 1 11 1 1 11 1 1 10 0 1 9 0 1 9 0 1 9 0 1
9 0 1 9 0 1 9 0 1 9 0 1 9 0 1 9 0 1 9 0 1 9 0 1 9 0 1 9 0 1 9 0 1 9 0
1 9 0 1 9 0 1 9 0 1 9 0 1 9 0 1 9 0 1 9 0 1 9
4 1 37 4 1 37 4 1 37 4 1 37 4 1 37 4 1 37 4 1 37 5 1 37 5 1 37 5 1 37
5 1 37 5 1 38 5 1 38 5 1 38 5 1 38 5 1 38 5 1 38 5 1 38 5 1 38 5 1 38
5 1 38 5 1 39 5 1 39 5 1 39 5 1 39 5 1 39 5 1 39 5 1 39 5 1 39 5 1 39
5 1 39 5 1 40 5 1 40 5 1 40 5 1 40 5 1 40 5 1 40 5 1 40 5 1 40 5 1 40
5 1 41 5 1 41 5 1 41 5 1 41 5 1 41 5 1 41 5 1 41 5 1 41 5 1 41 5 2 41
5 2 42 5 2 42 5 2 42 5 2 42 5 2 42 5 2 42 5 2 42 5 2 42 5 2 42 5 2 42
5 2 42 5 2 43 5 2 43 5 2 43 5 2 43 5 2 43 5 2 43 5 2 43 5 2 43 5 2 43
5 2 43 5 2 44 5 2 44 5 2 44 5 2 44 5 2 44 5 2 44 5 2 44 5 2 44 5 2 44
5 2 44 5 2 44 5 2 44 5 2 45 5 2 45 5 2 45 5 2 45 5 2 45 5 2 45 5 2 45
5 2 45 5 2 45 5 2 45 5 2 45 5 2 45 6 2 45 6 2 45 6 2 46 6 2 46 6 2 46
6 2 46 6 2 46 6 2 46 6 2 46 6 2 46 6 2 46 6 2 46 6 2 46 6 2 46 6 2 46
6 2 46 6 2 46 6 2 46 6 2 46 6 2 46 6 2 46 6 2 46 6 2 46 6 2 46 6 2 46
6 2 46 6 2 46 6 2 47 6 2 47 6 2 47 6 2 47 6 2 47 6 2 47 6 2 47 6 2 47
6 2 47 6 2 47 6 2 47 6 2 47 6 2 47 6 2 47 6 2 47 6 2 47 6 2 47 6 2 47
6 2 47 6 2 47 6 2 46 6 2 46 6 2 46 6 2 46 6 2 46 6 2 46 6 2 46 6 2 46
6 2 46 6 2 46 6 2 46 6 2 46 6 2 46 6 2 46 6 2 46 6 2 46 6 2 46 6 2 46
6 2 46 6 2 46 6 2 46 6 2 46 6 2 46 6 2 46 6 2 45 6 2 45 6 2 45 5 2 45
5 2 45 5 2 45 5 2 45 5 2 45 5 2 45 5 2 45 5 2 45 5 2 45 5 2 45 5 2 45
5 2 45 5 2 44 5 2 44 5 2 44 5 2 44 5 2 44 5 2 44 5 2 44 5 2 44 5 2 44
5 2 44 5 2 44 5 2 44 5 2 43 5 2 43 5 2 43 5 2 43 5 2 43 5 2 43 5 2 43
5 2 43 5 2 43 5 2 43 5 2 42 5 2 42 5 2 42 5 2 42 5 2 42 5 2 42 5 2 42
5 2 42 5 2 42 5 2 42 5 2 42 5 2 41 5 1 41 5 1 41 5 1 41 5 1 41 5 1 41
5 1 41 5 1 41 5 1 41 5 1 41 5 1 40 5 1 40 5 1 40 5 1 40 5 1 40 5 1 40
5 1 40 5 1 40 5 1 40 5 1 39 5 1 39 5 1 39 5 1 39 5 1 39 5 1 39 5 1 39
5 1 39 5 1 39 5 1 39 5 1 38 5 1 38 5 1 38 5 1 38 5 1 38 5 1 38 5 1 38
5 1 38 5 1 38 5 1 38 5 1 37 5 1 37 5 1 37 5 1 37 4 1 37 4 1 37 4 1 37
4 1 37 4 1 37 4 1 37 4 1 36 4 1 36 4 1 36 4 1 36 4 1 36 4 1 36 4 1 36
4 1 36 4 1 36 4 1 36 4 1 36 4 1 35 4 1 35 4 1 35 4 1 35 4 1 35 4 1 35
4 1 35 4 1 35 4 1 35 4 1 35 4 1 35 8 4 79 8 4 80 8 4 79 8 4 78 8 4 76
8 4 74 7 4 71 7 4 69 7 4 66 7 3 62 3 7 61 3 7 62 3 7 62 3 7 61 3 7 61
3 7 60 3 7 60 3 6 59 3 6 59 3 6 58 3 6 57 3 6 56 3 6 56 3 6 55 3 6 54
3 6 54 3 6 53 3 6 52 3 6 51 3 6 51 3 5 50 3 5 49 3 5 48 2 5 48 2 5 47
2 5 46 2 5 45 2 5 45 2 5 44 2 5 43 2 5 43 2 5 42 2 4 41 2 4 40 2 4 40
2 4 39 2 4 38 2 4 38 2 4 37 2 4 36 2 4 36 2 4 35 2 4 34 2 4 34 2 4 33
2 4 32 2 3 32 2 3 31 2 3 30 2 3 30 2 3 29 1 3 28 1 3 28 1 3 27 1 3 26
1 3 26 1 3 25 1 3 25 1 3 24 1 3 23 1 2 23 1 2 22 1 2 21 1 2 21 1 2 20
1 2 20 1 2 19 1 2 18 1 2 18 1 2 17 1 2 16 1 2 16 1 2 15 1 2 15 1 2 14
1 1 14 1 1 13 1 1 12 1 1 12 1 1 11 1 1 11 1 1 10 0 1 9 0 1 9 0 1 9 0 1
9 0 1 9 0 1 9 0 1 9 0 1 9 0 1 9 0 1 9 0 1 9 0 1 9 0 1 9 0 1 9 0 1 9 0
1 9 0 1 9 0 1 9 0 1 9 0 1 9 0 1 9 0 1 9 0 1 9
4 1 37 4 1 37 4 1 37 5 1 37 5 1 37 5 1 37 5 1 37 5 1 38 5 1 38 5 1 38
5 1 38 5 1 38 5 1 38 5 1 38 5 1 38 5 1 38 5 1 39 5 1 39 5 1 39 5 1 39
5 1 39 5 1 39 5 1 39 5 1 39 5 1 39 5 1 39 5 1 40 5 1 40 5 1 40 5 1 40
5 1 40 5 1 40 5 1 40 5 1 40 5 1 40 5 1 40 5 1 41 5 1 41 5 1 41 5 1 41
5 1 41 5 1 41 5 1 41 5 1 41 5 2 41 5 2 42 5 2 42 5 2 42 5 2 42 5 2 42
5 2 42 5 2 42 5 2 42 5 2 42 5 2 42 5 2 43 5 2 43 5 2 43 5 2 43 5 2 43
5 2 43 5 2 43 5 2 43 5 2 43 5 2 43 5 2 44 5 2 44 5 2 44 5 2 44 5 2 44
5 2 44 5 2 44 5 2 44 5 2 44 5 2 44 5 2 44 5 2 45 5 2 45 5 2 45 5 2 45
5 2 45 5 2 45 5 2 45 5 2 45 5 2 45 5 2 45 6 2 45 6 2 45 6 2 46 6 2 46
6 2 46 6 2 46 6 2 46 6 2 46 6 2 46 6 2 46 6 2 46 6 2 46 6 2 46 6 2 46
6 2 46 6 2 46 6 2 46 6 2 46 6 2 47 6 2 47 6 2 47 6 2 47 6 2 47 6 2 47
6 2 47 6 2 47 6 2 47 6 2 47 6 2 47 6 2 47 6 2 47 6 2 47 6 2 47 6 2 47
6 2 47 6 2 47 6 2 47 6 2 47 6 2 47 6 2 47 6 2 47 6 2 47 6 2 47 6 2 47
6 2 47 6 2 47 6 2 47 6 2 47 6 2 47 6 2 47 6 2 47 6 2 47 6 2 47 6 2 47
6 2 47 6 2 47 6 2 47 6 2 47 6 2 47 6 2 47 6 2 47 6 2 47 6 2 47 6 2 47
6 2 47 6 2 47 6 2 47 6 2 47 6 2 47 6 2 47 6 2 47 6 2 47 6 2 47 6 2 46
6 2 46 6 2 46 6 2 46 6 2 46 6 2 46 6 2 46 6 2 46 6 2 46 6 2 46 6 2 46
6 2 46 6 2 46 6 2 46 6 2 46 6 2 46 6 2 45 6 2 45 5 2 45 5 2 45 5 2 45
5 2 45 5 2 45 5 2 45 5 2 45 5 2 45 5 2 45 5 2 45 5 2 44 5 2 44 5 2 44
5 2 44 5 2 44 5 2 44 5 2 44 5 2 44 5 2 44 5 2 44 5 2 44 5 2 43 5 2 43
5 2 43 5 2 43 5 2 43 5 2 43 5 2 43 5 2 43 5 2 43 5 2 43 5 2 42 5 2 42
5 2 42 5 2 42 5 2 42 5 2 42 5 2 42 5 2 42 5 2 42 5 2 42 5 2 41 5 1 41
5 1 41 5 1 41 5 1 41 5 1 41 5 1 41 5 1 41 5 1 41 5 1 40 5 1 40 5 1 40
5 1 40 5 1 40 5 1 40 5 1 40 5 1 40 5 1 40 5 1 40 5 1 39 5 1 39 5 1 39
5 1 39 5 1 39 5 1 39 5 1 39 5 1 39 5 1 39 5 1 39 5 1 38 5 1 38 5 1 38
5 1 38 5 1 38 5 1 38 5 1 38 5 1 38 5 1 38 5 1 37 5 1 37 5 1 37 5 1 37
4 1 37 4 1 37 4 1 37 4 1 37 4 1 37 4 1 37 4 1 36 4 1 36 4 1 36 4 1 36
4 1 36 4 1 36 4 1 36 4 1 36 4 1 36 4 1 36 4 1 36 4 1 35 4 1 35 4 1 35
4 1 35 4 1 35 4 1 35 4 1 35 9 4 82 9 5 84 9 5 83 9 4 82 8 4 80 8 4 78
8 4 76 8 4 73 7 4 71 7 4 68 7 3 64 3 7 62 3 7 62 3 7 62 3 7 62 3 7 61
3 7 60 3 7 60 3 6 59 3 6 59 3 6 58 3 6 57 3 6 56 3 6 56 3 6 55 3 6 54
3 6 54 3 6 53 3 6 52 3 6 51 3 6 51 3 5 50 3 5 49 3 5 48 2 5 48 2 5 47
2 5 46 2 5 45 2 5 45 2 5 44 2 5 43 2 5 43 2 5 42 2 4 41 2 4 40 2 4 40
2 4 39 2 4 38 2 4 38 2 4 37 2 4 36 2 4 36 2 4 35 2 4 34 2 4 34 2 4 33
2 4 32 2 3 32 2 3 31 2 3 30 2 3 30 2 3 29 1 3 28 1 3 28 1 3 27 1 3 26
1 3 26 1 3 25 1 3 25 1 3 24 1 3 23 1 2 23 1 2 22 1 2 21 1 2 21 1 2 20
1 2 20 1 2 19 1 2 18 1 2 18 1 2 17 1 2 17 1 2 16 1 2 15 1 2 15 1 2 14
1 1 14 1 1 13 1 1 12 1 1 12 1 1 11 1 1 11 1 1 10 0 1 9 0 1 9 0 1 9 0 1
9 0 1 9 0 1 9 0 1 9 0 1 9 0 1 9 0 1 9 0 1 9 0 1 9 0 1 9 0 1 9 0 1 9 0
1 9 0 1 9 0 1 9 0 1 9 0 1 9 0 1 9 0 1 9 0 1 9
5 1 37 5 1 37 5 1 38 5 1 38 5 1 38 5 1 38 5 1 38 5 1 38 5 1 38 5 1 38
5 1 38 5 1 38 5 1 39 5 1 39 5 1 39 5 1 39 5 1 39 5 1 39 5 1 39 5 1 39
5 1 39 5 1 39 5 1 40 5 1 40 5 1 40 5 1 40 5 1 40 5 1 40 5 1 40 5 1 40
5 1 40 5 1 41 5 1 41 5 1 41 5 1 41 5 1 41 5 1 41 5 1 41 5 1 41 5 2 41
5 2 42 5 2 42 5 2 42 5 2 42 5 2 42 5 2 42 5 2 42 5 2 42 5 2 42 5 2 43
5 2 43 5 2 43 5 2 43 5 2 43 5 2 43 5 2 43 5 2 43 5 2 43 5 2 43 5 2 44
5 2 44 5 2 44 5 2 44 5 2 44 5 2 44 5 2 44 5 2 44 5 2 44 5 2 44 5 2 45
5 2 45 5 2 45 5 2 45 5 2 45 5 2 45 5 2 45 5 2 45 5 2 45 6 2 45 6 2 45
6 2 46 6 2 46 6 2 46 6 2 46 6 2 46 6 2 46 6 2 46 6 2 46 6 2 46 6 2 46
6 2 46 6 2 46 6 2 46 6 2 47 6 2 47 6 2 47 6 2 47 6 2 47 6 2 47 6 2 47
6 2 47 6 2 47 6 2 47 6 2 47 6 2 47 6 2 47 6 2 47 6 2 47 6 2 47 6 2 47
6 2 48 6 2 48 6 2 48 6 2 48 6 2 48 6 2 48 6 2 48 6 2 48 6 2 48 6 2 48
6 2 48 6 2 48 6 2 48 6 2 48 6 2 48 6 2 48 6 2 48 6 2 48 6 2 48 6 2 48
6 2 48 6 2 48 6 2 48 6 2 48 6 2 48 6 2 48 6 2 48 6 2 48 6 2 48 6 2 48
6 2 48 6 2 48 6 2 48 6 2 48 6 2 48 6 2 48 6 2 48 6 2 48 6 2 48 6 2 48
6 2 48 6 2 47 6 2 47 6 2 47 6 2 47 6 2 47 6 2 47 6 2 47 6 2 47 6 2 47
6 2 47 6 2 47 6 2 47 6 2 47 6 2 47 6 2 47 6 2 47 6 2 47 6 2 47 6 2 46
6 2 46 6 2 46 6 2 46 6 2 46 6 2 46 6 2 46 6 2 46 6 2 46 6 2 46 6 2 46
6 2 46 6 2 46 6 2 45 6 2 45 5 2 45 5 2 45 5 2 45 5 2 45 5 2 45 5 2 45
5 2 45 5 2 45 5 2 45 5 2 44 5 2 44 5 2 44 5 2 44 5 2 44 5 2 44 5 2 44
5 2 44 5 2 44 5 2 44 5 2 43 5 2 43 5 2 43 5 2 43 5 2 43 5 2 43 5 2 43
5 2 43 5 2 43 5 2 42 5 2 42 5 2 42 5 2 42 5 2 42 5 2 42 5 2 42 5 2 42
5 2 42 5 2 42 5 2 41 5 1 41 5 1 41 5 1 41 5 1 41 5 1 41 5 1 41 5 1 41
5 1 41 5 1 40 5 1 40 5 1 40 5 1 40 5 1 40 5 1 40 5 1 40 5 1 40 5 1 40
5 1 39 5 1 39 5 1 39 5 1 39 5 1 39 5 1 39 5 1 39 5 1 39 5 1 39 5 1 39
5 1 38 5 1 38 5 1 38 5 1 38 5 1 38 5 1 38 5 1 38 5 1 38 5 1 38 5 1 37
5 1 37 5 1 37 5 1 37 4 1 37 4 1 37 4 1 37 4 1 37 4 1 37 4 1 37 4 1 36
4 1 36 4 1 36 4 1 36 4 1 36 4 1 36 4 1 36 4 1 36 4 1 36 4 1 36 4 1 36
4 1 35 4 1 35 4 1 35 9 5 84 9 5 86 9 5 86 9 5 85 9 5 84 9 4 82 8 4 80
8 4 78 8 4 75 8 4 72 7 4 69 7 4 66 3 7 62 3 7 62 3 7 62 3 7 62 3 7 61
3 7 61 3 7 60 3 6 59 3 6 59 3 6 58 3 6 57 3 6 56 3 6 56 3 6 55 3 6 54
3 6 54 3 6 53 3 6 52 3 6 51 3 6 51 3 5 50 3 5 49 3 5 49 2 5 48 2 5 47
2 5 46 2 5 45 2 5 45 2 5 44 2 5 43 2 5 43 2 5 42 2 4 41 2 4 40 2 4 40
2 4 39 2 4 38 2 4 38 2 4 37 2 4 36 2 4 36 2 4 35 2 4 34 2 4 34 2 4 33
2 4 32 2 3 32 2 3 31 2 3 30 2 3 30 2 3 29 1 3 28 1 3 28 1 3 27 1 3 26
1 3 26 1 3 25 1 3 24 1 3 24 1 3 23 1 2 23 1 2 22 1 2 21 1 2 21 1 2 20
1 2 20 1 2 19 1 2 18 1 2 18 1 2 17 1 2 16 1 2 16 1 2 15 1 2 15 1 2 14
1 1 14 1 1 13 1 1 12 1 1 12 1 1 11 1 1 11 1 1 10 0 1 9 0 1 9 0 1 9 0 1
9 0 1 9 0 1 9 0 1 9 0 1 9 0 1 9 0 1 9 0 1 9 0 1 9 0 1 9 0 1 9 0 1 9 0
1 9 0 1 9 0 1 9 0 1 9 0 1 9 0 1 9 0 1 9 0 1 9
5 1 38 5 1 38 5 1 38 5 1 38 5 1 38 5 1 38 5 1 38 5 1 38 5 1 39 5 1 39
5 1 39 5 1 39 5 1 39 5 1 39 5 1 39 5 1 39 5 1 39 5 1 40 5 1 40 5 1 40
5 1 40 5 1 40 5 1 40 5 1 40 5 1 40 5 1 40 5 1 41 5 1 41 5 1 41 5 1 41
5 1 41 5 1 41 5 1 41 5 1 41 5 2 41 5 2 42 5 2 42 5 2 42 5 2 42 5 2 42
5 2 42 5 2 42 5 2 42 5 2 42 5 2 43 5 2 43 5 2 43 5 2 43 5 2 43 5 2 43
5 2 43 5 2 43 5 2 43 5 2 43 5 2 44 5 2 44 5 2 44 5 2 44 5 2 44 5 2 44
5 2 44 5 2 44 5 2 44 5 2 45 5 2 45 5 2 45 5 2 45 5 2 45 5 2 45 5 2 45
5 2 45 6 2 45 6 2 45 6 2 46 6 2 46 6 2 46 6 2 46 6 2 46 6 2 46 6 2 46
6 2 46 6 2 46 6 2 46 6 2 46 6 2 47 6 2 47 6 2 47 6 2 47 6 2 47 6 2 47
6 2 47 6 2 47 6 2 47 6 2 47 6 2 47 6 2 47 6 2 47 6 2 47 6 2 48 6 2 48
6 2 48 6 2 48 6 2 48 6 2 48 6 2 48 6 2 48 6 2 48 6 2 48 6 2 48 6 2 48
6 2 48 6 2 48 6 2 48 6 2 48 6 2 48 6 2 48 6 2 48 6 2 48 6 2 48 6 2 48
6 2 49 6 2 49 6 2 49 6 2 49 6 2 49 6 2 49 6 2 49 6 2 49 6 2 49 6 2 49
6 2 49 6 2 49 6 2 49 6 2 49 6 2 49 6 2 49 6 2 49 6 2 49 6 2 49 6 2 49
6 2 48 6 2 48 6 2 48 6 2 48 6 2 48 6 2 48 6 2 48 6 2 48 6 2 48 6 2 48
6 2 48 6 2 48 6 2 48 6 2 48 6 2 48 6 2 48 6 2 48 6 2 48 6 2 48 6 2 48
6 2 48 6 2 48 6 2 48 6 2 47 6 2 47 6 2 47 6 2 47 6 2 47 6 2 47 6 2 47
6 2 47 6 2 47 6 2 47 6 2 47 6 2 47 6 2 47 6 2 47 6 2 46 6 2 46 6 2 46
6 2 46 6 2 46 6 2 46 6 2 46 6 2 46 6 2 46 6 2 46 6 2 46 6 2 45 5 2 45
5 2 45 5 2 45 5 2 45 5 2 45 5 2 45 5 2 45 5 2 45 5 2 45 5 2 44 5 2 44
5 2 44 5 2 44 5 2 44 5 2 44 5 2 44 5 2 44 5 2 44 5 2 43 5 2 43 5 2 43
5 2 43 5 2 43 5 2 43 5 2 43 5 2 43 5 2 43 5 2 42 5 2 42 5 2 42 5 2 42
5 2 42 5 2 42 5 2 42 5 2 42 5 2 42 5 2 41 5 2 41 5 1 41 5 1 41 5 1 41
5 1 41 5 1 41 5 1 41 5 1 41 5 1 40 5 1 40 5 1 40 5 1 40 5 1 40 5 1 40
5 1 40 5 1 40 5 1 40 5 1 40 5 1 39 5 1 39 5 1 39 5 1 39 5 1 39 5 1 39
5 1 39 5 1 39 5 1 39 5 1 38 5 1 38 5 1 38 5 1 38 5 1 38 5 1 38 5 1 38
5 1 38 5 1 38 5 1 37 5 1 37 5 1 37 5 1 37 4 1 37 4 1 37 4 1 37 4 1 37
4 1 37 4 1 37 4 1 36 4 1 36 4 1 36 4 1 36 4 1 36 4 1 36 4 1 36 4 1 36
4 1 36 4 1 36 9 5 83 9 5 88 9 5 89 9 5 88 9 5 87 9 5 86 9 5 84 9 4 81
8 4 79 8 4 76 8 4 73 7 4 70 7 4 67 3 7 62 3 7 62 3 7 62 3 7 62 3 7 61
3 7 61 3 7 60 3 6 59 3 6 59 3 6 58 3 6 57 3 6 56 3 6 56 3 6 55 3 6 54
3 6 54 3 6 53 3 6 52 3 6 51 3 6 51 3 5 50 3 5 49 3 5 49 2 5 48 2 5 47
2 5 46 2 5 45 2 5 45 2 5 44 2 5 43 2 5 43 2 5 42 2 4 41 2 4 40 2 4 40
2 4 39 2 4 38 2 4 38 2 4 37 2 4 36 2 4 36 2 4 35 2 4 34 2 4 34 2 4 33
2 4 32 2 3 32 2 3 31 2 3 30 2 3 30 2 3 29 1 3 28 1 3 28 1 3 27 1 3 26
1 3 26 1 3 25 1 3 24 1 3 24 1 3 23 1 2 23 1 2 22 1 2 21 1 2 21 1 2 20
1 2 20 1 2 19 1 2 18 1 2 18 1 2 17 1 2 16 1 2 16 1 2 15 1 2 15 1 2 14
1 1 14 1 1 13 1 1 12 1 1 12 1 1 11 1 1 11 1 1 10 0 1 9 0 1 9 0 1 9 0 1
9 0 1 9 0 1 9 0 1 9 0 1 9 0 1 9 0 1 9 0 1 9 0 1 9 0 1 9 0 1 9 0 1 9 0
1 9 0 1 9 0 1 9 0 1 9 0 1 9 0 1 9 0 1 9 0 1 9
5 1 38 5 1 38 5 1 38 5 1 38 5 1 39 5 1 39 5 1 39 5 1 39 5 1 39 5 1 39
5 1 39 5 1 39 5 1 39 5 1 40 5 1 40 5 1 40 5 1 40 5 1 40 5 1 40 5 1 40
5 1 40 5 1 40 5 1 41 5 1 41 5 1 41 5 1 41 5 1 41 5 1 41 5 1 41 5 2 41
5 2 41 5 2 42 5 2 42 5 2 42 5 2 42 5 2 42 5 2 42 5 2 42 5 2 42 5 2 42
5 2 43 5 2 43 5 2 43 5 2 43 5 2 43 5 2 43 5 2 43 5 2 43 5 2 44 5 2 44
5 2 44 5 2 44 5 2 44 5 2 44 5 2 44 5 2 44 5 2 44 5 2 45 5 2 45 5 2 45
5 2 45 5 2 45 5 2 45 5 2 45 5 2 45 6 2 45 6 2 45 6 2 46 6 2 46 6 2 46
6 2 46 6 2 46 6 2 46 6 2 46 6 2 46 6 2 46 6 2 46 6 2 47 6 2 47 6 2 47
6 2 47 6 2 47 6 2 47 6 2 47 6 2 47 6 2 47 6 2 47 6 2 47 6 2 48 6 2 48
6 2 48 6 2 48 6 2 48 6 2 48 6 2 48 6 2 48 6 2 48 6 2 48 6 2 48 6 2 48
6 2 48 6 2 48 6 2 48 6 2 49 6 2 49 6 2 49 6 2 49 6 2 49 6 2 49 6 2 49
6 2 49 6 2 49 6 2 49 6 2 49 6 2 49 6 2 49 6 2 49 6 2 49 6 2 49 6 2 49
6 2 49 6 2 49 6 2 49 6 2 49 6 2 49 6 2 49 6 2 49 6 2 49 6 2 49 6 2 49
6 2 49 6 2 49 6 2 49 6 2 49 6 2 49 6 2 49 6 2 49 6 2 49 6 2 49 6 2 49
6 2 49 6 2 49 6 2 49 6 2 49 6 2 49 6 2 49 6 2 49 6 2 49 6 2 49 6 2 49
6 2 49 6 2 49 6 2 49 6 2 49 6 2 49 6 2 49 6 2 49 6 2 48 6 2 48 6 2 48
6 2 48 6 2 48 6 2 48 6 2 48 6 2 48 6 2 48 6 2 48 6 2 48 6 2 48 6 2 48
6 2 48 6 2 48 6 2 47 6 2 47 6 2 47 6 2 47 6 2 47 6 2 47 6 2 47 6 2 47
6 2 47 6 2 47 6 2 47 6 2 46 6 2 46 6 2 46 6 2 46 6 2 46 6 2 46 6 2 46
6 2 46 6 2 46 6 2 46 6 2 45 5 2 45 5 2 45 5 2 45 5 2 45 5 2 45 5 2 45
5 2 45 5 2 45 5 2 44 5 2 44 5 2 44 5 2 44 5 2 44 5 2 44 5 2 44 5 2 44
5 2 44 5 2 43 5 2 43 5 2 43 5 2 43 5 2 43 5 2 43 5 2 43 5 2 43 5 2 43
5 2 42 5 2 42 5 2 42 5 2 42 5 2 42 5 2 42 5 2 42 5 2 42 5 2 42 5 2 41
5 1 41 5 1 41 5 1 41 5 1 41 5 1 41 5 1 41 5 1 41 5 1 41 5 1 40 5 1 40
5 1 40 5 1 40 5 1 40 5 1 40 5 1 40 5 1 40 5 1 40 5 1 39 5 1 39 5 1 39
5 1 39 5 1 39 5 1 39 5 1 39 5 1 39 5 1 39 5 1 38 5 1 38 5 1 38 5 1 38
5 1 38 5 1 38 5 1 38 5 1 38 5 1 38 5 1 37 5 1 37 5 1 37 5 1 37 4 1 37
4 1 37 4 1 37 4 1 37 4 1 37 4 1 37 4 1 36 4 1 36 4 1 36 4 1 36 4 1 36
4 1 36 4 1 36 9 5 88 9 5 90 9 5 90 9 5 90 9 5 88 9 5 87 9 5 85 9 4 82
8 4 80 8 4 77 8 4 74 7 4 71 7 4 68 3 7 62 3 7 62 3 7 62 3 7 62 3 7 61
3 7 61 3 7 60 3 6 59 3 6 59 3 6 58 3 6 57 3 6 56 3 6 56 3 6 55 3 6 54
3 6 54 3 6 53 3 6 52 3 6 52 3 6 51 3 5 50 3 5 50 3 5 49 3 5 48 2 5 47
2 5 46 2 5 45 2 5 45 2 5 44 2 5 43 2 5 43 2 5 42 2 4 41 2 4 40 2 4 40
2 4 39 2 4 38 2 4 38 2 4 37 2 4 36 2 4 36 2 4 35 2 4 34 2 4 34 2 4 33
2 4 32 2 3 32 2 3 31 2 3 30 2 3 30 2 3 29 1 3 28 1 3 28 1 3 27 1 3 26
1 3 26 1 3 25 1 3 24 1 3 24 1 3 23 1 2 23 1 2 22 1 2 21 1 2 21 1 2 20
1 2 20 1 2 19 1 2 18 1 2 18 1 2 17 1 2 16 1 2 16 1 2 15 1 2 15 1 2 14
1 1 14 1 1 13 1 1 12 1 1 12 1 1 11 1 1 11 1 1 10 0 1 9 0 1 9 0 1 9 0 1
9 0 1 9 0 1 9 0 1 9 0 1 9 0 1 9 0 1 9 0 1 9 0 1 9 0 1 9 0 1 9 0 1 9 0
1 9 0 1 9 0 1 9 0 1 9 0 1 9 0 1 9 0 1 9 0 1 9
5 1 39 5 1 39 5 1 39 5 1 39 5 1 39 5 1 39 5 1 39 5 1 39 5 1 39 5 1 40
5 1 40 5 1 40 5 1 40 5 1 40 5 1 40 5 1 40 5 1 40 5 1 40 5 1 41 5 1 41
5 1 41 5 1 41 5 1 41 5 1 41 5 1 41 5 2 41 5 2 42 5 2 42 5 2 42 5 2 42
5 2 42 5 2 42 5 2 42 5 2 42 5 2 42 5 2 43 5 2 43 5 2 43 5 2 43 5 2 43
5 2 43 5 2 43 5 2 43 5 2 43 5 2 44 5 2 44 5 2 44 5 2 44 5 2 44 5 2 44
5 2 44 5 2 44 5 2 45 5 2 45 5 2 45 5 2 45 5 2 45 5 2 45 5 2 45 5 2 45
6 2 45 6 2 46 6 2 46 6 2 46 6 2 46 6 2 46 6 2 46 6 2 46 6 2 46 6 2 46
6 2 47 6 2 47 6 2 47 6 2 47 6 2 47 6 2 47 6 2 47 6 2 47 6 2 47 6 2 47
6 2 48 6 2 48 6 2 48 6 2 48 6 2 48 6 2 48 6 2 48 6 2 48 6 2 48 6 2 48
6 2 48 6 2 48 6 2 49 6 2 49 6 2 49 6 2 49 6 2 49 6 2 49 6 2 49 6 2 49
6 2 49 6 2 49 6 2 49 6 2 49 6 2 49 6 2 49 6 2 49 6 2 49 6 2 50 6 2 50
6 2 50 6 2 50 6 2 50 6 2 50 6 2 50 6 2 50 6 2 50 6 2 50 6 2 50 6 2 50
6 2 50 6 2 50 6 2 50 6 2 50 6 2 50 6 2 50 6 2 50 6 2 50 6 2 50 6 2 50
6 2 50 6 2 50 6 2 50 6 2 50 6 2 50 6 2 50 6 2 50 6 2 50 6 2 50 6 2 50
6 2 50 6 2 50 6 2 50 6 2 50 6 2 50 6 2 50 6 2 50 6 2 50 6 2 50 6 2 50
6 2 50 6 2 49 6 2 49 6 2 49 6 2 49 6 2 49 6 2 49 6 2 49 6 2 49 6 2 49
6 2 49 6 2 49 6 2 49 6 2 49 6 2 49 6 2 49 6 2 48 6 2 48 6 2 48 6 2 48
6 2 48 6 2 48 6 2 48 6 2 48 6 2 48 6 2 48 6 2 48 6 2 48 6 2 47 6 2 47
6 2 47 6 2 47 6 2 47 6 2 47 6 2 47 6 2 47 6 2 47 6 2 47 6 2 46 6 2 46
6 2 46 6 2 46 6 2 46 6 2 46 6 2 46 6 2 46 6 2 46 6 2 46 6 2 45 5 2 45
5 2 45 5 2 45 5 2 45 5 2 45 5 2 45 5 2 45 5 2 44 5 2 44 5 2 44 5 2 44
5 2 44 5 2 44 5 2 44 5 2 44 5 2 44 5 2 43 5 2 43 5 2 43 5 2 43 5 2 43
5 2 43 5 2 43 5 2 43 5 2 43 5 2 42 5 2 42 5 2 42 5 2 42 5 2 42 5 2 42
5 2 42 5 2 42 5 2 41 5 2 41 5 1 41 5 1 41 5 1 41 5 1 41 5 1 41 5 1 41
5 1 41 5 1 40 5 1 40 5 1 40 5 1 40 5 1 40 5 1 40 5 1 40 5 1 40 5 1 40
5 1 39 5 1 39 5 1 39 5 1 39 5 1 39 5 1 39 5 1 39 5 1 39 5 1 39 5 1 38
5 1 38 5 1 38 5 1 38 5 1 38 5 1 38 5 1 38 5 1 38 5 1 38 5 1 37 5 1 37
5 1 37 5 1 37 4 1 37 4 1 37 4 1 37 4 1 37 4 1 37 4 1 37 4 1 36 4 1 36
4 1 36 4 1 36 9 5 91 10 5 92 10 5 92 9 5 91 9 5 89 9 5 88 9 5 85 9 5
83 8 4 81 8 4 78 8 4 75 8 4 72 3 7 62 3 7 63 3 7 62 3 7 62 3 7 62 3 7
61 3 7 61 3 7 60 3 6 59 3 6 59 3 6 58 3 6 57 3 6 56 3 6 56 3 6 55 3 6
54 3 6 53 3 6 53 3 6 52 3 6 52 3 6 51 3 6 51 3 5 51 3 5 50 3 5 49 2 5
47 2 5 46 2 5 45 2 5 45 2 5 44 2 5 43 2 5 43 2 5 42 2 4 41 2 4 40 2 4
40 2 4 39 2 4 38 2 4 38 2 4 37 2 4 36 2 4 36 2 4 35 2 4 34 2 4 34 2 4
33 2 4 32 2 3 32 2 3 31 2 3 30 2 3 30 2 3 29 1 3 28 1 3 28 1 3 27 1 3
26 1 3 26 1 3 25 1 3 24 1 3 24 1 3 23 1 2 23 1 2 22 1 2 21 1 2 21 1 2
20 1 2 20 1 2 19 1 2 18 1 2 18 1 2 17 1 2 16 1 2 16 1 2 15 1 2 15 1 2
14 1 1 13 1 1 13 1 1 12 1 1 12 1 1 11 1 1 11 1 1 10 0 1 9 0 1 9 0 1 9
0 1 9 0 1 9 0 1 9 0 1 9 0 1 9 0 1 9 0 1 9 0 1 9 0 1 9 0 1 9 0 1 9 0 1
9 0 1 9 0 1 9 0 1 9 0 1 9 0 1 9 0 1 9 0 1 9 0 1 9
5 1 39 5 1 39 5 1 39 5 1 39 5 1 39 5 1 40 5 1 40 5 1 40 5 1 40 5 1 40
5 1 40 5 1 40 5 1 40 5 1 40 5 1 41 5 1 41 5 1 41 5 1 41 5 1 41 5 1 41
5 1 41 5 2 41 5 2 42 5 2 42 5 2 42 5 2 42 5 2 42 5 2 42 5 2 42 5 2 42
5 2 42 5 2 43 5 2 43 5 2 43 5 2 43 5 2 43 5 2 43 5 2 43 5 2 43 5 2 44
5 2 44 5 2 44 5 2 44 5 2 44 5 2 44 5 2 44 5 2 44 5 2 45 5 2 45 5 2 45
5 2 45 5 2 45 5 2 45 5 2 45 6 2 45 6 2 45 6 2 46 6 2 46 6 2 46 6 2 46
6 2 46 6 2 46 6 2 46 6 2 46 6 2 47 6 2 47 6 2 47 6 2 47 6 2 47 6 2 47
6 2 47 6 2 47 6 2 47 6 2 47 6 2 48 6 2 48 6 2 48 6 2 48 6 2 48 6 2 48
6 2 48 6 2 48 6 2 48 6 2 48 6 2 49 6 2 49 6 2 49 6 2 49 6 2 49 6 2 49
6 2 49 6 2 49 6 2 49 6 2 49 6 2 49 6 2 49 6 2 50 6 2 50 6 2 50 6 2 50
6 2 50 6 2 50 6 2 50 6 2 50 6 2 50 6 2 50 6 2 50 6 2 50 6 2 50 6 2 50
6 2 50 6 2 50 6 2 50 6 2 50 6 2 50 6 2 51 6 2 51 6 2 51 6 2 51 6 2 51
6 2 51 6 2 51 6 2 51 6 2 51 6 2 51 6 2 51 6 2 51 6 2 51 6 2 51 6 2 51
6 2 51 6 2 51 6 2 51 6 2 51 6 2 51 6 2 51 6 2 51 6 2 51 6 2 51 6 2 51
6 2 51 6 2 51 6 2 51 6 2 50 6 2 50 6 2 50 6 2 50 6 2 50 6 2 50 6 2 50
6 2 50 6 2 50 6 2 50 6 2 50 6 2 50 6 2 50 6 2 50 6 2 50 6 2 50 6 2 50
6 2 50 6 2 50 6 2 49 6 2 49 6 2 49 6 2 49 6 2 49 6 2 49 6 2 49 6 2 49
6 2 49 6 2 49 6 2 49 6 2 49 6 2 48 6 2 48 6 2 48 6 2 48 6 2 48 6 2 48
6 2 48 6 2 48 6 2 48 6 2 48 6 2 47 6 2 47 6 2 47 6 2 47 6 2 47 6 2 47
6 2 47 6 2 47 6 2 47 6 2 46 6 2 46 6 2 46 6 2 46 6 2 46 6 2 46 6 2 46
6 2 46 6 2 46 6 2 45 5 2 45 5 2 45 5 2 45 5 2 45 5 2 45 5 2 45 5 2 45
5 2 44 5 2 44 5 2 44 5 2 44 5 2 44 5 2 44 5 2 44 5 2 44 5 2 44 5 2 43
5 2 43 5 2 43 5 2 43 5 2 43 5 2 43 5 2 43 5 2 43 5 2 42 5 2 42 5 2 42
5 2 42 5 2 42 5 2 42 5 2 42 5 2 42 5 2 41 5 2 41 5 1 41 5 1 41 5 1 41
5 1 41 5 1 41 5 1 41 5 1 41 5 1 40 5 1 40 5 1 40 5 1 40 5 1 40 5 1 40
5 1 40 5 1 40 5 1 39 5 1 39 5 1 39 5 1 39 5 1 39 5 1 39 5 1 39 5 1 39
5 1 39 5 1 38 5 1 38 5 1 38 5 1 38 5 1 38 5 1 38 5 1 38 5 1 38 5 1 38
5 1 38 5 1 37 5 1 37 5 1 37 5 1 37 4 1 37 4 1 37 4 1 37 4 1 37 4 1 37
4 1 36 9 5 88 10 5 92 10 5 93 10 5 93 10 5 92 9 5 90 9 5 88 9 5 86 9 5
84 8 4 81 8 4 78 8 4 75 8 4 72 3 7 62 3 7 63 3 7 63 3 7 62 3 7 62 3 7
61 3 7 61 3 7 60 3 6 59 3 6 59 3 6 58 3 6 57 3 6 56 3 6 56 3 6 55 3 6
54 3 6 53 3 6 53 3 6 52 3 6 52 3 6 52 3 6 52 3 6 52 3 5 51 3 5 49 2 5
48 2 5 47 2 5 46 2 5 45 2 5 44 2 5 43 2 5 42 2 5 42 2 4 41 2 4 40 2 4
40 2 4 39 2 4 38 2 4 38 2 4 37 2 4 36 2 4 36 2 4 35 2 4 34 2 4 34 2 4
33 2 4 32 2 3 32 2 3 31 2 3 30 2 3 30 2 3 29 1 3 28 1 3 28 1 3 27 1 3
26 1 3 26 1 3 25 1 3 24 1 3 24 1 3 23 1 2 23 1 2 22 1 2 21 1 2 21 1 2
20 1 2 19 1 2 19 1 2 18 1 2 18 1 2 17 1 2 16 1 2 16 1 2 15 1 2 15 1 2
14 1 1 13 1 1 13 1 1 12 1 1 12 1 1 11 1 1 11 1 1 10 0 1 9 0 1 9 0 1 9
0 1 9 0 1 9 0 1 9 0 1 9 0 1 9 0 1 9 0 1 9 0 1 9 0 1 9 0 1 9 0 1 9 0 1
9 0 1 9 0 1 9 0 1 9 0 1 9 0 1 9 0 1 9 0 1 9 0 1 9
5 1 39 5 1 40 5 1 40 5 1 40 5 1 40 5 1 40 5 1 40 5 1 40 5 1 40 5 1 40
5 1 41 5 1 41 5 1 41 5 1 41 5 1 41 5 1 41 5 1 41 5 2 41 5 2 42 5 2 42
5 2 42 5 2 42 5 2 42 5 2 42 5 2 42 5 2 42 5 2 43 5 2 43 5 2 43 5 2 43
5 2 43 5 2 43 5 2 43 5 2 43 5 2 44 5 2 44 5 2 44 5 2 44 5 2 44 5 2 44
5 2 44 5 2 44 5 2 44 5 2 45 5 2 45 5 2 45 5 2 45 5 2 45 5 2 45 6 2 45
6 2 45 6 2 46 6 2 46 6 2 46 6 2 46 6 2 46 6 2 46 6 2 46 6 2 46 6 2 47
6 2 47 6 2 47 6 2 47 6 2 47 6 2 47 6 2 47 6 2 47 6 2 47 6 2 48 6 2 48
6 2 48 6 2 48 6 2 48 6 2 48 6 2 48 6 2 48 6 2 48 6 2 49 6 2 49 6 2 49
6 2 49 6 2 49 6 2 49 6 2 49 6 2 49 6 2 49 6 2 49 6 2 50 6 2 50 6 2 50
6 2 50 6 2 50 6 2 50 6 2 50 6 2 50 6 2 50 6 2 50 6 2 50 6 2 50 6 2 50
6 2 51 6 2 51 6 2 51 6 2 51 6 2 51 6 2 51 6 2 51 6 2 51 6 2 51 6 2 51
6 2 51 6 2 51 6 2 51 6 2 51 6 2 51 6 2 51 6 2 51 6 2 51 6 2 51 6 2 51
6 2 51 6 2 51 6 2 51 6 2 51 6 2 51 6 2 51 6 2 51 6 2 51 6 2 51 6 2 51
6 2 51 6 2 51 6 2 51 6 2 51 6 2 51 6 2 51 6 2 51 6 2 51 6 2 51 6 2 51
6 2 51 6 2 51 6 2 51 6 2 51 6 2 51 6 2 51 6 2 51 6 2 51 6 2 51 6 2 51
6 2 51 6 2 51 6 2 51 6 2 51 6 2 51 6 2 51 6 2 50 6 2 50 6 2 50 6 2 50
6 2 50 6 2 50 6 2 50 6 2 50 6 2 50 6 2 50 6 2 50 6 2 50 6 2 50 6 2 49
6 2 49 6 2 49 6 2 49 6 2 49 6 2 49 6 2 49 6 2 49 6 2 49 6 2 49 6 2 49
6 2 48 6 2 48 6 2 48 6 2 48 6 2 48 6 2 48 6 2 48 6 2 48 6 2 48 6 2 47
6 2 47 6 2 47 6 2 47 6 2 47 6 2 47 6 2 47 6 2 47 6 2 47 6 2 46 6 2 46
6 2 46 6 2 46 6 2 46 6 2 46 6 2 46 6 2 46 6 2 45 5 2 45 5 2 45 5 2 45
5 2 45 5 2 45 5 2 45 5 2 45 5 2 44 5 2 44 5 2 44 5 2 44 5 2 44 5 2 44
5 2 44 5 2 44 5 2 43 5 2 43 5 2 43 5 2 43 5 2 43 5 2 43 5 2 43 5 2 43
5 2 42 5 2 42 5 2 42 5 2 42 5 2 42 5 2 42 5 2 42 5 2 42 5 2 41 5 2 41
5 1 41 5 1 41 5 1 41 5 1 41 5 1 41 5 1 41 5 1 41 5 1 40 5 1 40 5 1 40
5 1 40 5 1 40 5 1 40 5 1 40 5 1 40 5 1 39 5 1 39 5 1 39 5 1 39 5 1 39
5 1 39 5 1 39 5 1 39 5 1 39 5 1 38 5 1 38 5 1 38 5 1 38 5 1 38 5 1 38
5 1 38 5 1 38 5 1 38 5 1 37 5 1 37 5 1 37 5 1 37 4 1 37 4 1 37 4 1 37
4 1 37 9 5 90 10 5 93 10 5 94 10 5 93 10 5 92 9 5 90 9 5 89 9 5 87 9 5
84 8 4 81 8 4 79 8 4 76 8 4 72 3 7 62 3 7 63 3 7 63 3 7 62 3 7 62 3 7
61 3 7 60 3 7 60 3 6 59 3 6 58 3 6 58 3 6 57 3 6 56 3 6 56 3 6 55 3 6
54 3 6 53 3 6 53 3 6 53 3 6 53 3 6 53 3 6 53 3 6 53 3 6 52 3 5 50 3 5
48 2 5 47 2 5 46 2 5 45 2 5 44 2 5 43 2 5 42 2 5 42 2 4 41 2 4 40 2 4
40 2 4 39 2 4 38 2 4 38 2 4 37 2 4 36 2 4 35 2 4 35 2 4 34 2 4 33 2 4
33 2 4 32 2 3 31 2 3 31 2 3 30 2 3 30 1 3 29 1 3 28 1 3 28 1 3 27 1 3
26 1 3 26 1 3 25 1 3 24 1 3 24 1 3 23 1 2 23 1 2 22 1 2 21 1 2 21 1 2
20 1 2 19 1 2 19 1 2 18 1 2 18 1 2 17 1 2 16 1 2 16 1 2 15 1 2 15 1 2
14 1 1 13 1 1 13 1 1 12 1 1 12 1 1 11 1 1 11 1 1 10 0 1 9 0 1 9 0 1 9
0 1 9 0 1 9 0 1 9 0 1 9 0 1 9 0 1 9 0 1 9 0 1 9 0 1 9 0 1 9 0 1 9 0 1
9 0 1 9 0 1 9 0 1 9 0 1 9 0 1 9 0 1 9 0 1 9 0 1 9
5 1 40 5 1 40 5 1 40 5 1 40 5 1 40 5 1 40 5 1 41 5 1 41 5 1 41 5 1 41
5 1 41 5 1 41 5 1 41 5 2 41 5 2 42 5 2 42 5 2 42 5 2 42 5 2 42 5 2 42
5 2 42 5 2 42 5 2 43 5 2 43 5 2 43 5 2 43 5 2 43 5 2 43 5 2 43 5 2 43
5 2 44 5 2 44 5 2 44 5 2 44 5 2 44 5 2 44 5 2 44 5 2 44 5 2 45 5 2 45
5 2 45 5 2 45 5 2 45 5 2 45 5 2 45 6 2 45 6 2 46 6 2 46 6 2 46 6 2 46
6 2 46 6 2 46 6 2 46 6 2 46 6 2 47 6 2 47 6 2 47 6 2 47 6 2 47 6 2 47
6 2 47 6 2 47 6 2 48 6 2 48 6 2 48 6 2 48 6 2 48 6 2 48 6 2 48 6 2 48
6 2 48 6 2 49 6 2 49 6 2 49 6 2 49 6 2 49 6 2 49 6 2 49 6 2 49 6 2 49
6 2 50 6 2 50 6 2 50 6 2 50 6 2 50 6 2 50 6 2 50 6 2 50 6 2 50 6 2 50
6 2 51 6 2 51 6 2 51 6 2 51 6 2 51 6 2 51 6 2 51 6 2 51 6 2 51 6 2 51
6 2 51 6 2 51 6 2 51 6 2 51 6 2 52 6 2 52 6 2 52 6 2 52 6 2 52 6 2 52
6 2 52 6 2 52 6 2 52 6 2 52 6 2 52 6 2 52 6 2 52 6 2 52 6 2 52 6 2 52
6 2 52 6 2 52 6 2 52 6 2 52 6 2 52 6 2 52 6 2 52 6 2 52 6 2 52 6 2 52
6 2 52 6 2 52 6 2 52 6 2 52 6 2 52 6 2 52 6 2 52 6 2 52 6 2 52 6 2 52
6 2 52 6 2 52 6 2 52 6 2 52 6 2 52 6 2 52 6 2 52 6 2 52 6 2 52 6 2 52
6 2 52 6 2 51 6 2 51 6 2 51 6 2 51 6 2 51 6 2 51 6 2 51 6 2 51 6 2 51
6 2 51 6 2 51 6 2 51 6 2 51 6 2 51 6 2 50 6 2 50 6 2 50 6 2 50 6 2 50
6 2 50 6 2 50 6 2 50 6 2 50 6 2 50 6 2 50 6 2 49 6 2 49 6 2 49 6 2 49
6 2 49 6 2 49 6 2 49 6 2 49 6 2 49 6 2 48 6 2 48 6 2 48 6 2 48 6 2 48
6 2 48 6 2 48 6 2 48 6 2 47 6 2 47 6 2 47 6 2 47 6 2 47 6 2 47 6 2 47
6 2 47 6 2 47 6 2 46 6 2 46 6 2 46 6 2 46 6 2 46 6 2 46 6 2 46 6 2 46
6 2 45 5 2 45 5 2 45 5 2 45 5 2 45 5 2 45 5 2 45 5 2 44 5 2 44 5 2 44
5 2 44 5 2 44 5 2 44 5 2 44 5 2 44 5 2 43 5 2 43 5 2 43 5 2 43 5 2 43
5 2 43 5 2 43 5 2 43 5 2 42 5 2 42 5 2 42 5 2 42 5 2 42 5 2 42 5 2 42
5 2 42 5 2 41 5 2 41 5 1 41 5 1 41 5 1 41 5 1 41 5 1 41 5 1 41 5 1 40
5 1 40 5 1 40 5 1 40 5 1 40 5 1 40 5 1 40 5 1 40 5 1 40 5 1 39 5 1 39
5 1 39 5 1 39 5 1 39 5 1 39 5 1 39 5 1 39 5 1 39 5 1 38 5 1 38 5 1 38
5 1 38 5 1 38 5 1 38 5 1 38 5 1 38 5 1 38 5 1 37 5 1 37 5 1 37 5 1 37
4 1 37 9 5 91 10 5 93 10 5 94 10 5 93 10 5 92 9 5 90 10 6 98 12 9 131
9 5 84 9 4 81 8 4 79 8 4 76 8 4 73 3 7 62 3 7 63 3 7 63 3 7 62 3 7 62
3 7 61 3 7 60 3 7 60 3 6 59 3 6 58 3 6 58 3 6 57 3 6 56 3 6 56 3 6 55
3 6 54 3 6 53 3 6 53 3 6 53 3 6 54 3 6 55 3 6 55 3 6 55 3 6 53 3 5 51
3 5 49 2 5 47 2 5 46 2 5 45 2 5 44 2 5 43 2 5 42 2 5 42 2 4 41 2 4 40
2 4 40 2 4 39 2 4 38 2 4 38 2 4 37 2 4 36 2 4 35 2 4 35 2 4 34 2 4 33
2 4 33 2 3 32 2 3 31 2 3 31 2 3 30 2 3 29 1 3 29 1 3 28 1 3 28 1 3 27
1 3 26 1 3 26 1 3 25 1 3 24 1 3 24 1 3 23 1 2 23 1 2 22 1 2 21 1 2 21
1 2 20 1 2 19 1 2 19 1 2 18 1 2 18 1 2 17 1 2 16 1 2 16 1 2 15 1 2 15
1 2 14 1 1 13 1 1 13 1 1 12 1 1 12 1 1 11 1 1 11 1 1 10 0 1 9 0 1 9 0
1 9 0 1 9 0 1 9 0 1 9 0 1 9 0 1 9 0 1 9 0 1 9 0 1 9 0 1 9 0 1 9 0 1 9
0 1 9 0 1 9 0 1 9 0 1 9 0 1 9 0 1 9 0 1 9 0 1 9 0 1 9
5 1 40 5 1 40 5 1 41 5 1 41 5 1 41 5 1 41 5 1 41 5 1 41 5 1 41 5 2 41
5 2 42 5 2 42 5 2 42 5 2 42 5 2 42 5 2 42 5 2 42 5 2 42 5 2 43 5 2 43
5 2 43 5 2 43 5 2 43 5 2 43 5 2 43 5 2 43 5 2 44 5 2 44 5 2 44 5 2 44
5 2 44 5 2 44 5 2 44 5 2 44 5 2 45 5 2 45 5 2 45 5 2 45 5 2 45 5 2 45
6 2 45 6 2 46 6 2 46 6 2 46 6 2 46 6 2 46 6 2 46 6 2 46 6 2 46 6 2 47
6 2 47 6 2 47 6 2 47 6 2 47 6 2 47 6 2 47 6 2 47 6 2 48 6 2 48 6 2 48
6 2 48 6 2 48 6 2 48 6 2 48 6 2 48 6 2 49 6 2 49 6 2 49 6 2 49 6 2 49
6 2 49 6 2 49 6 2 49 6 2 50 6 2 50 6 2 50 6 2 50 6 2 50 6 2 50 6 2 50
6 2 50 6 2 50 6 2 50 6 2 51 6 2 51 6 2 51 6 2 51 6 2 51 6 2 51 6 2 51
6 2 51 6 2 51 6 2 51 6 2 52 6 2 52 6 2 52 6 2 52 6 2 52 6 2 52 6 2 52
6 2 52 6 2 52 6 2 52 6 2 52 6 2 52 6 2 52 6 2 52 6 2 52 6 2 52 6 2 53
6 2 53 6 2 53 6 2 53 6 2 53 6 2 53 6 2 53 6 2 53 6 2 53 6 2 53 6 2 53
6 2 53 6 2 53 6 2 53 6 2 53 6 2 53 6 2 53 6 2 53 6 2 53 6 2 53 6 2 53
6 2 53 6 2 53 6 2 53 6 2 53 6 2 53 6 2 53 6 2 53 6 2 53 6 2 53 6 2 53
6 2 53 6 2 53 6 2 53 6 2 53 6 2 53 6 2 53 6 2 52 6 2 52 6 2 52 6 2 52
6 2 52 6 2 52 6 2 52 6 2 52 6 2 52 6 2 52 6 2 52 6 2 52 6 2 52 6 2 52
6 2 52 6 2 51 6 2 51 6 2 51 6 2 51 6 2 51 6 2 51 6 2 51 6 2 51 6 2 51
6 2 51 6 2 51 6 2 50 6 2 50 6 2 50 6 2 50 6 2 50 6 2 50 6 2 50 6 2 50
6 2 50 6 2 49 6 2 49 6 2 49 6 2 49 6 2 49 6 2 49 6 2 49 6 2 49 6 2 49
6 2 48 6 2 48 6 2 48 6 2 48 6 2 48 6 2 48 6 2 48 6 2 48 6 2 47 6 2 47
6 2 47 6 2 47 6 2 47 6 2 47 6 2 47 6 2 46 6 2 46 6 2 46 6 2 46 6 2 46
6 2 46 6 2 46 6 2 46 6 2 45 5 2 45 5 2 45 5 2 45 5 2 45 5 2 45 5 2 45
5 2 45 5 2 44 5 2 44 5 2 44 5 2 44 5 2 44 5 2 44 5 2 44 5 2 43 5 2 43
5 2 43 5 2 43 5 2 43 5 2 43 5 2 43 5 2 43 5 2 42 5 2 42 5 2 42 5 2 42
5 2 42 5 2 42 5 2 42 5 2 42 5 2 41 5 1 41 5 1 41 5 1 41 5 1 41 5 1 41
5 1 41 5 1 41 5 1 40 5 1 40 5 1 40 5 1 40 5 1 40 5 1 40 5 1 40 5 1 40
5 1 40 5 1 39 5 1 39 5 1 39 5 1 39 5 1 39 5 1 39 5 1 39 5 1 39 5 1 38
5 1 38 5 1 38 5 1 38 5 1 38 5 1 38 5 1 38 5 1 38 5 1 38 5 1 37 5 1 37
5 1 37 9 5 91 10 5 93 10 5 94 10 5 93 10 5 92 9 5 90 10 6 102 12 9 139
9 5 84 8 4 81 8 4 78 8 4 75 8 4 72 3 7 63 3 7 63 3 7 63 3 7 62 3 7 62
3 7 61 3 7 60 3 7 60 3 6 59 3 6 58 3 6 58 3 6 57 3 6 56 3 6 56 3 6 55
3 6 54 3 6 53 3 6 53 3 6 53 3 6 54 3 6 56 3 6 57 3 6 56 3 6 54 3 6 51
3 5 49 2 5 47 2 5 46 2 5 45 2 5 44 2 5 43 2 5 42 2 5 42 2 4 41 2 4 40
2 4 40 2 4 39 2 4 38 2 4 37 2 4 37 2 4 36 2 4 35 2 4 35 2 4 34 2 4 33
2 4 33 2 3 32 2 3 31 2 3 31 2 3 30 2 3 29 1 3 29 1 3 28 1 3 28 1 3 27
1 3 26 1 3 26 1 3 25 1 3 24 1 3 24 1 3 23 1 2 22 1 2 22 1 2 21 1 2 21
1 2 20 1 2 19 1 2 19 1 2 18 1 2 18 1 2 17 1 2 16 1 2 16 1 2 15 1 2 15
1 2 14 1 1 13 1 1 13 1 1 12 1 1 12 1 1 11 1 1 10 1 1 10 0 1 9 0 1 9 0
1 9 0 1 9 0 1 9 0 1 9 0 1 9 0 1 9 0 1 9 0 1 9 0 1 9 0 1 9 0 1 9 0 1 9
0 1 9 0 1 9 0 1 9 0 1 9 0 1 9 0 1 9 0 1 9 0 1 9 0 1 9
5 1 41 5 1 41 5 1 41 5 1 41 5 1 41 5 2 41 5 2 41 5 2 42 5 2 42 5 2 42
5 2 42 5 2 42 5 2 42 5 2 42 5 2 43 5 2 43 5 2 43 5 2 43 5 2 43 5 2 43
5 2 43 5 2 43 5 2 44 5 2 44 5 2 44 5 2 44 5 2 44 5 2 44 5 2 44 5 2 44
5 2 45 5 2 45 5 2 45 5 2 45 5 2 45 5 2 45 6 2 45 6 2 46 6 2 46 6 2 46
6 2 46 6 2 46 6 2 46 6 2 46 6 2 47 6 2 47 6 2 47 6 2 47 6 2 47 6 2 47
6 2 47 6 2 47 6 2 48 6 2 48 6 2 48 6 2 48 6 2 48 6 2 48 6 2 48 6 2 48
6 2 49 6 2 49 6 2 49 6 2 49 6 2 49 6 2 49 6 2 49 6 2 50 6 2 50 6 2 50
6 2 50 6 2 50 6 2 50 6 2 50 6 2 50 6 2 50 6 2 51 6 2 51 6 2 51 6 2 51
6 2 51 6 2 51 6 2 51 6 2 51 6 2 51 6 2 52 6 2 52 6 2 52 6 2 52 6 2 52
6 2 52 6 2 52 6 2 52 6 2 52 6 2 52 6 2 52 6 2 52 6 2 53 6 2 53 6 2 53
6 2 53 6 2 53 6 2 53 6 2 53 6 2 53 6 2 53 6 2 53 6 2 53 6 2 53 6 2 53
6 2 53 6 2 53 6 2 53 6 2 53 6 2 54 6 2 54 6 2 54 7 2 54 7 2 54 7 2 54
7 2 54 7 2 54 7 2 54 7 2 54 7 2 54 7 2 54 7 2 54 7 2 54 7 2 54 7 2 54
7 2 54 7 2 54 7 2 54 7 2 54 7 2 54 7 2 54 6 2 54 6 2 54 6 2 54 6 2 53
6 2 53 6 2 53 6 2 53 6 2 53 6 2 53 6 2 53 6 2 53 6 2 53 6 2 53 6 2 53
6 2 53 6 2 53 6 2 53 6 2 53 6 2 53 6 2 53 6 2 53 6 2 52 6 2 52 6 2 52
6 2 52 6 2 52 6 2 52 6 2 52 6 2 52 6 2 52 6 2 52 6 2 52 6 2 51 6 2 51
6 2 51 6 2 51 6 2 51 6 2 51 6 2 51 6 2 51 6 2 51 6 2 50 6 2 50 6 2 50
6 2 50 6 2 50 6 2 50 6 2 50 6 2 50 6 2 50 6 2 49 6 2 49 6 2 49 6 2 49
6 2 49 6 2 49 6 2 49 6 2 49 6 2 48 6 2 48 6 2 48 6 2 48 6 2 48 6 2 48
6 2 48 6 2 47 6 2 47 6 2 47 6 2 47 6 2 47 6 2 47 6 2 47 6 2 47 6 2 46
6 2 46 6 2 46 6 2 46 6 2 46 6 2 46 6 2 46 6 2 45 5 2 45 5 2 45 5 2 45
5 2 45 5 2 45 5 2 45 5 2 45 5 2 44 5 2 44 5 2 44 5 2 44 5 2 44 5 2 44
5 2 44 5 2 43 5 2 43 5 2 43 5 2 43 5 2 43 5 2 43 5 2 43 5 2 43 5 2 42
5 2 42 5 2 42 5 2 42 5 2 42 5 2 42 5 2 42 5 2 42 5 2 41 5 1 41 5 1 41
5 1 41 5 1 41 5 1 41 5 1 41 5 1 41 5 1 40 5 1 40 5 1 40 5 1 40 5 1 40
5 1 40 5 1 40 5 1 40 5 1 39 5 1 39 5 1 39 5 1 39 5 1 39 5 1 39 5 1 39
5 1 39 5 1 39 5 1 38 5 1 38 5 1 38 5 1 38 5 1 38 5 1 38 5 1 38 5 1 38
5 1 38 9 5 90 10 5 93 10 5 93 10 5 93 10 5 92 9 5 90 9 5 88 9 5 86 9 5
83 8 4 81 8 4 78 8 4 75 8 4 72 3 7 63 3 7 63 3 7 62 3 7 62 3 7 62 3 7
61 3 7 60 3 7 60 3 6 59 3 6 58 3 6 58 3 6 57 3 6 56 3 6 55 3 6 55 3 6
54 3 6 53 3 6 53 3 6 54 3 6 55 3 6 57 3 6 58 3 6 57 3 6 55 3 6 52 3 5
49 2 5 47 2 5 46 2 5 45 2 5 44 2 5 43 2 5 42 2 5 42 2 4 41 2 4 40 2 4
39 2 4 39 2 4 38 2 4 37 2 4 37 2 4 36 2 4 35 2 4 35 2 4 34 2 4 33 2 4
33 2 3 32 2 3 31 2 3 31 2 3 30 2 3 29 1 3 29 1 3 28 1 3 27 1 3 27 1 3
26 1 3 26 1 3 25 1 3 24 1 3 24 1 3 23 1 2 22 1 2 22 1 2 21 1 2 21 1 2
20 1 2 19 1 2 19 1 2 18 1 2 18 1 2 17 1 2 16 1 2 16 1 2 15 1 2 15 1 2
14 1 1 13 1 1 13 1 1 12 1 1 12 1 1 11 1 1 10 1 1 10 0 1 9 0 1 9 0 1 9
0 1 9 0 1 9 0 1 9 0 1 9 0 1 9 0 1 9 0 1 9 0 1 9 0 1 9 0 1 9 0 1 9 0 1
9 0 1 9 0 1 9 0 1 9 0 1 9 0 1 9 0 1 9 0 1 9 0 1 9
5 1 41 5 1 41 5 2 41 5 2 42 5 2 42 5 2 42 5 2 42 5 2 42 5 2 42 5 2 42
5 2 42 5 2 43 5 2 43 5 2 43 5 2 43 5 2 43 5 2 43 5 2 43 5 2 44 5 2 44
5 2 44 5 2 44 5 2 44 5 2 44 5 2 44 5 2 44 5 2 45 5 2 45 5 2 45 5 2 45
5 2 45 5 2 45 6 2 45 6 2 46 6 2 46 6 2 46 6 2 46 6 2 46 6 2 46 6 2 46
6 2 47 6 2 47 6 2 47 6 2 47 6 2 47 6 2 47 6 2 47 6 2 48 6 2 48 6 2 48
6 2 48 6 2 48 6 2 48 6 2 48 6 2 48 6 2 49 6 2 49 6 2 49 6 2 49 6 2 49
6 2 49 6 2 49 6 2 50 6 2 50 6 2 50 6 2 50 6 2 50 6 2 50 6 2 50 6 2 50
6 2 51 6 2 51 6 2 51 6 2 51 6 2 51 6 2 51 6 2 51 6 2 51 6 2 52 6 2 52
6 2 52 6 2 52 6 2 52 6 2 52 6 2 52 6 2 52 6 2 52 6 2 52 6 2 53 6 2 53
6 2 53 6 2 53 6 2 53 6 2 53 6 2 53 6 2 53 6 2 53 6 2 53 6 2 53 6 2 53
6 2 54 7 2 54 7 2 54 7 2 54 7 2 54 7 2 54 7 2 54 7 2 54 7 2 54 7 2 54
7 2 54 7 2 54 7 2 54 7 2 54 7 2 54 7 2 54 7 2 54 7 2 54 7 2 54 7 2 54
7 2 54 7 2 54 7 2 54 7 2 54 7 2 54 7 2 55 7 2 55 7 2 54 7 2 54 7 2 54
7 2 54 7 2 54 7 2 54 7 2 54 7 2 54 7 2 54 7 2 54 7 2 54 7 2 54 7 2 54
7 2 54 7 2 54 7 2 54 7 2 54 7 2 54 7 2 54 7 2 54 7 2 54 7 2 54 7 2 54
7 2 54 7 2 54 6 2 54 6 2 53 6 2 53 6 2 53 6 2 53 6 2 53 6 2 53 6 2 53
6 2 53 6 2 53 6 2 53 6 2 53 6 2 52 6 2 52 6 2 52 6 2 52 6 2 52 6 2 52
6 2 52 6 2 52 6 2 52 6 2 52 6 2 51 6 2 51 6 2 51 6 2 51 6 2 51 6 2 51
6 2 51 6 2 51 6 2 50 6 2 50 6 2 50 6 2 50 6 2 50 6 2 50 6 2 50 6 2 50
6 2 49 6 2 49 6 2 49 6 2 49 6 2 49 6 2 49 6 2 49 6 2 49 6 2 48 6 2 48
6 2 48 6 2 48 6 2 48 6 2 48 6 2 48 6 2 47 6 2 47 6 2 47 6 2 47 6 2 47
6 2 47 6 2 47 6 2 46 6 2 46 6 2 46 6 2 46 6 2 46 6 2 46 6 2 46 6 2 45
6 2 45 5 2 45 5 2 45 5 2 45 5 2 45 5 2 45 5 2 45 5 2 44 5 2 44 5 2 44
5 2 44 5 2 44 5 2 44 5 2 44 5 2 43 5 2 43 5 2 43 5 2 43 5 2 43 5 2 43
5 2 43 5 2 43 5 2 42 5 2 42 5 2 42 5 2 42 5 2 42 5 2 42 5 2 42 5 2 41
5 2 41 5 1 41 5 1 41 5 1 41 5 1 41 5 1 41 5 1 41 5 1 40 5 1 40 5 1 40
5 1 40 5 1 40 5 1 40 5 1 40 5 1 40 5 1 39 5 1 39 5 1 39 5 1 39 5 1 39
5 1 39 5 1 39 5 1 39 5 1 39 5 1 38 5 1 38 5 1 38 5 1 38 5 1 38 5 1 38
5 1 38 9 5 89 10 5 92 10 5 92 10 5 92 9 5 91 9 5 89 9 5 87 9 5 85 9 4
83 8 4 80 8 4 78 8 4 75 7 4 72 3 7 63 3 7 63 3 7 62 3 7 62 3 7 61 3 7
61 3 7 60 3 6 60 3 6 59 3 6 58 3 6 58 3 6 57 3 6 56 3 6 55 3 6 55 3 6
54 3 6 53 3 6 53 3 6 54 3 6 55 3 6 57 3 6 58 3 6 57 3 6 55 3 6 52 3 5
49 2 5 47 2 5 46 2 5 45 2 5 44 2 5 43 2 5 42 2 5 42 2 4 41 2 4 40 2 4
39 2 4 39 2 4 38 2 4 37 2 4 37 2 4 36 2 4 35 2 4 35 2 4 34 2 4 33 2 4
33 2 3 32 2 3 31 2 3 31 2 3 30 2 3 29 1 3 29 1 3 28 1 3 27 1 3 27 1 3
26 1 3 26 1 3 25 1 3 24 1 3 24 1 3 23 1 2 22 1 2 22 1 2 21 1 2 21 1 2
20 1 2 19 1 2 19 1 2 18 1 2 18 1 2 17 1 2 16 1 2 16 1 2 15 1 2 15 1 2
14 1 1 13 1 1 13 1 1 12 1 1 12 1 1 11 1 1 10 1 1 10 0 1 9 0 1 9 0 1 9
0 1 9 0 1 9 0 1 9 0 1 9 0 1 9 0 1 9 0 1 9 0 1 9 0 1 9 0 1 9 0 1 9 0 1
9 0 1 9 0 1 9 0 1 9 0 1 9 0 1 9 0 1 9 0 1 9 0 1 9
5 2 42 5 2 42 5 2 42 5 2 42 5 2 42 5 2 42 5 2 42 5 2 43 5 2 43 5 2 43
5 2 43 5 2 43 5 2 43 5 2 43 5 2 43 5 2 44 5 2 44 5 2 44 5 2 44 5 2 44
5 2 44 5 2 44 5 2 45 5 2 45 5 2 45 5 2 45 5 2 45 5 2 45 6 2 45 6 2 46
6 2 46 6 2 46 6 2 46 6 2 46 6 2 46 6 2 46 6 2 47 6 2 47 6 2 47 6 2 47
6 2 47 6 2 47 6 2 47 6 2 48 6 2 48 6 2 48 6 2 48 6 2 48 6 2 48 6 2 48
6 2 49 6 2 49 6 2 49 6 2 49 6 2 49 6 2 49 6 2 49 6 2 50 6 2 50 6 2 50
6 2 50 6 2 50 6 2 50 6 2 50 6 2 51 6 2 51 6 2 51 6 2 51 6 2 51 6 2 51
6 2 51 6 2 51 6 2 52 6 2 52 6 2 52 6 2 52 6 2 52 6 2 52 6 2 52 6 2 52
6 2 52 6 2 53 6 2 53 6 2 53 6 2 53 6 2 53 6 2 53 6 2 53 6 2 53 6 2 53
6 2 54 7 2 54 7 2 54 7 2 54 7 2 54 7 2 54 7 2 54 7 2 54 7 2 54 7 2 54
7 2 54 7 2 54 7 2 55 7 2 55 7 2 55 7 2 55 7 2 55 7 2 55 7 2 55 7 2 55
7 2 55 7 2 55 7 2 55 7 2 55 7 2 55 7 2 55 7 2 55 7 2 55 7 2 55 7 2 55
7 2 55 7 2 55 7 2 55 7 2 55 7 2 55 7 2 55 7 2 55 7 2 55 7 2 55 7 2 55
7 2 55 7 2 55 7 2 55 7 2 55 7 2 55 7 2 55 7 2 55 7 2 55 7 2 55 7 2 55
7 2 55 7 2 55 7 2 55 7 2 55 7 2 55 7 2 55 7 2 55 7 2 55 7 2 55 7 2 54
7 2 54 7 2 54 7 2 54 7 2 54 7 2 54 7 2 54 7 2 54 7 2 54 7 2 54 7 2 54
6 2 54 6 2 53 6 2 53 6 2 53 6 2 53 6 2 53 6 2 53 6 2 53 6 2 53 6 2 53
6 2 53 6 2 52 6 2 52 6 2 52 6 2 52 6 2 52 6 2 52 6 2 52 6 2 52 6 2 51
6 2 51 6 2 51 6 2 51 6 2 51 6 2 51 6 2 51 6 2 51 6 2 50 6 2 50 6 2 50
6 2 50 6 2 50 6 2 50 6 2 50 6 2 49 6 2 49 6 2 49 6 2 49 6 2 49 6 2 49
6 2 49 6 2 48 6 2 48 6 2 48 6 2 48 6 2 48 6 2 48 6 2 48 6 2 47 6 2 47
6 2 47 6 2 47 6 2 47 6 2 47 6 2 47 6 2 46 6 2 46 6 2 46 6 2 46 6 2 46
6 2 46 6 2 46 6 2 45 5 2 45 5 2 45 5 2 45 5 2 45 5 2 45 5 2 45 5 2 44
5 2 44 5 2 44 5 2 44 5 2 44 5 2 44 5 2 44 5 2 44 5 2 43 5 2 43 5 2 43
5 2 43 5 2 43 5 2 43 5 2 43 5 2 42 5 2 42 5 2 42 5 2 42 5 2 42 5 2 42
5 2 42 5 2 42 5 2 41 5 1 41 5 1 41 5 1 41 5 1 41 5 1 41 5 1 41 5 1 41
5 1 40 5 1 40 5 1 40 5 1 40 5 1 40 5 1 40 5 1 40 5 1 40 5 1 39 5 1 39
5 1 39 5 1 39 5 1 39 5 1 39 5 1 39 5 1 39 5 1 38 5 1 38 5 1 38 5 1 38
5 1 38 9 5 86 9 5 90 10 5 91 10 5 91 9 5 90 9 5 88 9 5 87 9 5 85 9 4
82 8 4 80 8 4 77 8 4 74 7 4 71 3 7 63 3 7 63 3 7 62 3 7 62 3 7 61 3 7
61 3 7 60 3 6 60 3 6 59 3 6 58 3 6 57 3 6 57 3 6 56 3 6 55 3 6 55 3 6
54 3 6 53 3 6 53 3 6 54 3 6 55 3 6 57 3 6 58 3 6 57 3 6 54 3 6 51 3 5
49 2 5 47 2 5 45 2 5 44 2 5 44 2 5 43 2 5 42 2 5 41 2 4 41 2 4 40 2 4
39 2 4 39 2 4 38 2 4 37 2 4 37 2 4 36 2 4 35 2 4 35 2 4 34 2 4 33 2 4
33 2 3 32 2 3 31 2 3 31 2 3 30 2 3 29 1 3 29 1 3 28 1 3 27 1 3 27 1 3
26 1 3 25 1 3 25 1 3 24 1 3 24 1 3 23 1 2 22 1 2 22 1 2 21 1 2 21 1 2
20 1 2 19 1 2 19 1 2 18 1 2 17 1 2 17 1 2 16 1 2 16 1 2 15 1 2 15 1 2
14 1 1 13 1 1 13 1 1 12 1 1 12 1 1 11 1 1 10 1 1 10 0 1 9 0 1 9 0 1 9
0 1 9 0 1 9 0 1 9 0 1 9 0 1 9 0 1 9 0 1 9 0 1 9 0 1 9 0 1 9 0 1 9 0 1
9 0 1 9 0 1 9 0 1 9 0 1 9 0 1 9 0 1 9 0 1 9 0 1 9
5 2 42 5 2 42 5 2 42 5 2 42 5 2 43 5 2 43 5 2 43 5 2 43 5 2 43 5 2 43
5 2 43 5 2 44 5 2 44 5 2 44 5 2 44 5 2 44 5 2 44 5 2 44 5 2 45 5 2 45
5 2 45 5 2 45 5 2 45 5 2 45 6 2 45 6 2 46 6 2 46 6 2 46 6 2 46 6 2 46
6 2 46 6 2 46 6 2 47 6 2 47 6 2 47 6 2 47 6 2 47 6 2 47 6 2 47 6 2 48
6 2 48 6 2 48 6 2 48 6 2 48 6 2 48 6 2 48 6 2 49 6 2 49 6 2 49 6 2 49
6 2 49 6 2 49 6 2 50 6 2 50 6 2 50 6 2 50 6 2 50 6 2 50 6 2 50 6 2 51
6 2 51 6 2 51 6 2 51 6 2 51 6 2 51 6 2 51 6 2 51 6 2 52 6 2 52 6 2 52
6 2 52 6 2 52 6 2 52 6 2 52 6 2 53 6 2 53 6 2 53 6 2 53 6 2 53 6 2 53
6 2 53 6 2 53 6 2 53 6 2 54 7 2 54 7 2 54 7 2 54 7 2 54 7 2 54 7 2 54
7 2 54 7 2 54 7 2 55 7 2 55 7 2 55 7 2 55 7 2 55 7 2 55 7 2 55 7 2 55
7 2 55 7 2 55 7 2 55 7 2 55 7 2 55 7 2 55 7 2 56 7 2 56 7 2 56 7 2 56
7 2 56 7 2 56 7 2 56 7 2 56 7 2 56 7 2 56 7 2 56 7 2 56 7 2 56 7 2 56
7 2 56 7 2 56 7 2 56 7 2 56 7 2 56 7 2 56 7 2 56 7 2 56 7 2 56 7 2 56
7 2 56 7 2 56 7 2 56 7 2 56 7 2 56 7 2 56 7 2 56 7 2 56 7 2 56 7 2 56
7 2 56 7 2 56 7 2 56 7 2 56 7 2 56 7 2 55 7 2 55 7 2 55 7 2 55 7 2 55
7 2 55 7 2 55 7 2 55 7 2 55 7 2 55 7 2 55 7 2 55 7 2 55 7 2 54 7 2 54
7 2 54 7 2 54 7 2 54 7 2 54 7 2 54 7 2 54 7 2 54 6 2 53 6 2 53 6 2 53
6 2 53 6 2 53 6 2 53 6 2 53 6 2 53 6 2 53 6 2 52 6 2 52 6 2 52 6 2 52
6 2 52 6 2 52 6 2 52 6 2 51 6 2 51 6 2 51 6 2 51 6 2 51 6 2 51 6 2 51
6 2 51 6 2 50 6 2 50 6 2 50 6 2 50 6 2 50 6 2 50 6 2 50 6 2 49 6 2 49
6 2 49 6 2 49 6 2 49 6 2 49 6 2 49 6 2 48 6 2 48 6 2 48 6 2 48 6 2 48
6 2 48 6 2 47 6 2 47 6 2 47 6 2 47 6 2 47 6 2 47 6 2 47 6 2 46 6 2 46
6 2 46 6 2 46 6 2 46 6 2 46 6 2 46 6 2 45 5 2 45 5 2 45 5 2 45 5 2 45
5 2 45 5 2 45 5 2 44 5 2 44 5 2 44 5 2 44 5 2 44 5 2 44 5 2 44 5 2 43
5 2 43 5 2 43 5 2 43 5 2 43 5 2 43 5 2 43 5 2 43 5 2 42 5 2 42 5 2 42
5 2 42 5 2 42 5 2 42 5 2 42 5 2 41 5 1 41 5 1 41 5 1 41 5 1 41 5 1 41
5 1 41 5 1 41 5 1 40 5 1 40 5 1 40 5 1 40 5 1 40 5 1 40 5 1 40 5 1 40
5 1 39 5 1 39 5 1 39 5 1 39 5 1 39 5 1 39 5 1 39 5 1 39 5 1 39 5 1 38
5 1 38 5 1 38 9 5 88 9 5 90 9 5 90 9 5 89 9 5 87 9 5 86 9 5 84 8 4 81
8 4 79 8 4 76 8 4 73 7 4 70 3 7 62 3 7 63 3 7 62 3 7 62 3 7 61 3 7 61
3 7 60 3 6 59 3 6 59 3 6 58 3 6 57 3 6 57 3 6 56 3 6 55 3 6 55 3 6 54
3 6 53 3 6 53 3 6 53 3 6 54 3 6 56 3 6 56 3 6 56 3 6 53 3 5 51 3 5 48
2 5 47 2 5 45 2 5 44 2 5 44 2 5 43 2 5 42 2 5 41 2 4 41 2 4 40 2 4 39
2 4 39 2 4 38 2 4 37 2 4 37 2 4 36 2 4 35 2 4 35 2 4 34 2 4 33 2 4 33
2 3 32 2 3 31 2 3 31 2 3 30 2 3 29 1 3 29 1 3 28 1 3 27 1 3 27 1 3 26
1 3 25 1 3 25 1 3 24 1 3 24 1 2 23 1 2 22 1 2 22 1 2 21 1 2 20 1 2 20
1 2 19 1 2 19 1 2 18 1 2 17 1 2 17 1 2 16 1 2 16 1 2 15 1 2 14 1 2 14
1 1 13 1 1 13 1 1 12 1 1 12 1 1 11 1 1 10 1 1 10 0 1 9 0 1 9 0 1 9 0 1
9 0 1 9 0 1 9 0 1 9 0 1 9 0 1 9 0 1 9 0 1 9 0 1 9 0 1 9 0 1 9 0 1 9 0
1 9 0 1 9 0 1 9 0 1 9 0 1 9 0 1 9 0 1 9 0 1 9
5 2 43 5 2 43 5 2 43 5 2 43 5 2 43 5 2 43 5 2 43 5 2 44 5 2 44 5 2 44
5 2 44 5 2 44 5 2 44 5 2 44 5 2 45 5 2 45 5 2 45 5 2 45 5 2 45 5 2 45
6 2 45 6 2 46 6 2 46 6 2 46 6 2 46 6 2 46 6 2 46 6 2 46 6 2 47 6 2 47
6 2 47 6 2 47 6 2 47 6 2 47 6 2 47 6 2 48 6 2 48 6 2 48 6 2 48 6 2 48
6 2 48 6 2 49 6 2 49 6 2 49 6 2 49 6 2 49 6 2 49 6 2 49 6 2 50 6 2 50
6 2 50 6 2 50 6 2 50 6 2 50 6 2 50 6 2 51 6 2 51 6 2 51 6 2 51 6 2 51
6 2 51 6 2 51 6 2 52 6 2 52 6 2 52 6 2 52 6 2 52 6 2 52 6 2 52 6 2 53
6 2 53 6 2 53 6 2 53 6 2 53 6 2 53 6 2 53 6 2 54 7 2 54 7 2 54 7 2 54
7 2 54 7 2 54 7 2 54 7 2 54 7 2 54 7 2 55 7 2 55 7 2 55 7 2 55 7 2 55
7 2 55 7 2 55 7 2 55 7 2 55 7 2 55 7 2 56 7 2 56 7 2 56 7 2 56 7 2 56
7 2 56 7 2 56 7 2 56 7 2 56 7 2 56 7 2 56 7 2 56 7 2 56 7 2 56 7 2 57
7 2 57 7 2 57 7 2 57 7 2 57 7 2 57 7 2 57 7 2 57 7 2 57 7 2 57 7 2 57
7 2 57 7 2 57 7 2 57 7 2 57 7 2 57 7 2 57 7 2 57 7 2 57 7 2 57 7 2 57
7 2 57 7 2 57 7 2 57 7 2 57 7 2 57 7 2 57 7 2 57 7 2 57 7 2 57 7 2 57
7 2 56 7 2 56 7 2 56 7 2 56 7 2 56 7 2 56 7 2 56 7 2 56 7 2 56 7 2 56
7 2 56 7 2 56 7 2 56 7 2 56 7 2 55 7 2 55 7 2 55 7 2 55 7 2 55 7 2 55
7 2 55 7 2 55 7 2 55 7 2 55 7 2 54 7 2 54 7 2 54 7 2 54 7 2 54 7 2 54
7 2 54 7 2 54 6 2 54 6 2 53 6 2 53 6 2 53 6 2 53 6 2 53 6 2 53 6 2 53
6 2 52 6 2 52 6 2 52 6 2 52 6 2 52 6 2 52 6 2 52 6 2 52 6 2 51 6 2 51
6 2 51 6 2 51 6 2 51 6 2 51 6 2 50 6 2 50 6 2 50 6 2 50 6 2 50 6 2 50
6 2 50 6 2 49 6 2 49 6 2 49 6 2 49 6 2 49 6 2 49 6 2 49 6 2 48 6 2 48
6 2 48 6 2 48 6 2 48 6 2 48 6 2 47 6 2 47 6 2 47 6 2 47 6 2 47 6 2 47
6 2 47 6 2 46 6 2 46 6 2 46 6 2 46 6 2 46 6 2 46 6 2 46 6 2 45 5 2 45
5 2 45 5 2 45 5 2 45 5 2 45 5 2 45 5 2 44 5 2 44 5 2 44 5 2 44 5 2 44
5 2 44 5 2 44 5 2 43 5 2 43 5 2 43 5 2 43 5 2 43 5 2 43 5 2 43 5 2 42
5 2 42 5 2 42 5 2 42 5 2 42 5 2 42 5 2 42 5 2 41 5 2 41 5 1 41 5 1 41
5 1 41 5 1 41 5 1 41 5 1 41 5 1 40 5 1 40 5 1 40 5 1 40 5 1 40 5 1 40
5 1 40 5 1 40 5 1 39 5 1 39 5 1 39 5 1 39 5 1 39 5 1 39 5 1 39 5 1 39
5 1 39 5 1 38 9 5 85 9 5 88 9 5 88 9 5 87 9 5 86 9 5 84 9 4 82 8 4 80
8 4 77 8 4 75 8 4 72 7 4 69 3 7 62 3 7 62 3 7 62 3 7 62 3 7 61 3 7 61
3 7 60 3 6 59 3 6 59 3 6 58 3 6 57 3 6 57 3 6 56 3 6 55 3 6 54 3 6 54
3 6 53 3 6 53 3 6 53 3 6 53 3 6 54 3 6 55 3 6 54 3 6 52 3 5 50 2 5 48
2 5 46 2 5 45 2 5 44 2 5 43 2 5 43 2 5 42 2 5 41 2 4 41 2 4 40 2 4 39
2 4 39 2 4 38 2 4 37 2 4 37 2 4 36 2 4 35 2 4 34 2 4 34 2 4 33 2 4 32
2 3 32 2 3 31 2 3 31 2 3 30 2 3 29 1 3 29 1 3 28 1 3 27 1 3 27 1 3 26
1 3 25 1 3 25 1 3 24 1 3 24 1 2 23 1 2 22 1 2 22 1 2 21 1 2 20 1 2 20
1 2 19 1 2 19 1 2 18 1 2 17 1 2 17 1 2 16 1 2 16 1 2 15 1 2 14 1 2 14
1 1 13 1 1 13 1 1 12 1 1 12 1 1 11 1 1 10 1 1 10 0 1 9 0 1 9 0 1 9 0 1
9 0 1 9 0 1 9 0 1 9 0 1 9 0 1 9 0 1 9 0 1 9 0 1 9 0 1 9 0 1 9 0 1 9 0
1 9 0 1 9 0 1 9 0 1 9 0 1 9 0 1 9 0 1 9 0 1 9
5 2 43 5 2 43 5 2 43 5 2 43 5 2 44 5 2 44 5 2 44 5 2 44 5 2 44 5 2 44
5 2 44 5 2 45 5 2 45 5 2 45 5 2 45 5 2 45 5 2 45 6 2 45 6 2 46 6 2 46
6 2 46 6 2 46 6 2 46 6 2 46 6 2 47 6 2 47 6 2 47 6 2 47 6 2 47 6 2 47
6 2 47 6 2 48 6 2 48 6 2 48 6 2 48 6 2 48 6 2 48 6 2 49 6 2 49 6 2 49
6 2 49 6 2 49 6 2 49 6 2 49 6 2 50 6 2 50 6 2 50 6 2 50 6 2 50 6 2 50
6 2 51 6 2 51 6 2 51 6 2 51 6 2 51 6 2 51 6 2 51 6 2 52 6 2 52 6 2 52
6 2 52 6 2 52 6 2 52 6 2 52 6 2 53 6 2 53 6 2 53 6 2 53 6 2 53 6 2 53
6 2 53 7 2 54 7 2 54 7 2 54 7 2 54 7 2 54 7 2 54 7 2 54 7 2 55 7 2 55
7 2 55 7 2 55 7 2 55 7 2 55 7 2 55 7 2 55 7 2 55 7 2 56 7 2 56 7 2 56
7 2 56 7 2 56 7 2 56 7 2 56 7 2 56 7 2 56 7 2 56 7 2 57 7 2 57 7 2 57
7 2 57 7 2 57 7 2 57 7 2 57 7 2 57 7 2 57 7 2 57 7 2 57 7 2 57 7 2 57
7 2 57 7 2 57 7 2 58 7 2 58 7 2 58 7 2 58 7 2 58 7 2 58 7 2 58 7 2 58
7 2 58 7 2 58 7 2 58 7 2 58 7 2 58 7 2 58 7 2 58 7 2 58 7 2 58 7 2 58
7 2 58 7 2 58 7 2 58 7 2 58 7 2 58 7 2 58 7 2 57 7 2 57 7 2 57 7 2 57
7 2 57 7 2 57 7 2 57 7 2 57 7 2 57 7 2 57 7 2 57 7 2 57 7 2 57 7 2 57
7 2 57 7 2 56 7 2 56 7 2 56 7 2 56 7 2 56 7 2 56 7 2 56 7 2 56 7 2 56
7 2 56 7 2 56 7 2 55 7 2 55 7 2 55 7 2 55 7 2 55 7 2 55 7 2 55 7 2 55
7 2 54 7 2 54 7 2 54 7 2 54 7 2 54 7 2 54 7 2 54 6 2 53 6 2 53 6 2 53
6 2 53 6 2 53 6 2 53 6 2 53 6 2 53 6 2 52 6 2 52 6 2 52 6 2 52 6 2 52
6 2 52 6 2 51 6 2 51 6 2 51 6 2 51 6 2 51 6 2 51 6 2 51 6 2 50 6 2 50
6 2 50 6 2 50 6 2 50 6 2 50 6 2 49 6 2 49 6 2 49 6 2 49 6 2 49 6 2 49
6 2 49 6 2 48 6 2 48 6 2 48 6 2 48 6 2 48 6 2 48 6 2 47 6 2 47 6 2 47
6 2 47 6 2 47 6 2 47 6 2 47 6 2 46 6 2 46 6 2 46 6 2 46 6 2 46 6 2 46
6 2 45 5 2 45 5 2 45 5 2 45 5 2 45 5 2 45 5 2 45 5 2 44 5 2 44 5 2 44
5 2 44 5 2 44 5 2 44 5 2 44 5 2 43 5 2 43 5 2 43 5 2 43 5 2 43 5 2 43
5 2 43 5 2 42 5 2 42 5 2 42 5 2 42 5 2 42 5 2 42 5 2 42 5 2 42 5 2 41
5 1 41 5 1 41 5 1 41 5 1 41 5 1 41 5 1 41 5 1 40 5 1 40 5 1 40 5 1 40
5 1 40 5 1 40 5 1 40 5 1 40 5 1 39 5 1 39 5 1 39 5 1 39 5 1 39 5 1 39
5 1 39 5 1 39 8 4 80 9 5 85 9 5 86 9 5 85 9 5 84 9 4 83 8 4 81 8 4 79
8 4 76 8 4 73 7 4 71 7 4 68 3 7 62 3 7 62 3 7 62 3 7 62 3 7 61 3 7 61
3 7 60 3 6 59 3 6 59 3 6 58 3 6 57 3 6 57 3 6 56 3 6 55 3 6 54 3 6 54
3 6 53 3 6 52 3 6 52 3 6 53 3 6 53 3 6 53 3 6 52 3 5 51 3 5 49 2 5 47
2 5 46 2 5 45 2 5 44 2 5 43 2 5 43 2 5 42 2 4 41 2 4 41 2 4 40 2 4 39
2 4 38 2 4 38 2 4 37 2 4 36 2 4 36 2 4 35 2 4 34 2 4 34 2 4 33 2 4 32
2 3 32 2 3 31 2 3 30 2 3 30 2 3 29 1 3 29 1 3 28 1 3 27 1 3 27 1 3 26
1 3 25 1 3 25 1 3 24 1 3 23 1 2 23 1 2 22 1 2 22 1 2 21 1 2 20 1 2 20
1 2 19 1 2 19 1 2 18 1 2 17 1 2 17 1 2 16 1 2 16 1 2 15 1 2 14 1 2 14
1 1 13 1 1 13 1 1 12 1 1 11 1 1 11 1 1 10 1 1 10 0 1 9 0 1 9 0 1 9 0 1
9 0 1 9 0 1 9 0 1 9 0 1 9 0 1 9 0 1 9 0 1 9 0 1 9 0 1 9 0 1 9 0 1 9 0
1 9 0 1 9 0 1 9 0 1 9 0 1 9 0 1 9 0 1 9 0 1 9
5 2 43 5 2 44 5 2 44 5 2 44 5 2 44 5 2 44 5 2 44 5 2 45 5 2 45 5 2 45
5 2 45 5 2 45 5 2 45 6 2 45 6 2 46 6 2 46 6 2 46 6 2 46 6 2 46 6 2 46
6 2 46 6 2 47 6 2 47 6 2 47 6 2 47 6 2 47 6 2 47 6 2 48 6 2 48 6 2 48
6 2 48 6 2 48 6 2 48 6 2 49 6 2 49 6 2 49 6 2 49 6 2 49 6 2 49 6 2 49
6 2 50 6 2 50 6 2 50 6 2 50 6 2 50 6 2 50 6 2 51 6 2 51 6 2 51 6 2 51
6 2 51 6 2 51 6 2 52 6 2 52 6 2 52 6 2 52 6 2 52 6 2 52 6 2 52 6 2 53
6 2 53 6 2 53 6 2 53 6 2 53 6 2 53 6 2 54 7 2 54 7 2 54 7 2 54 7 2 54
7 2 54 7 2 54 7 2 55 7 2 55 7 2 55 7 2 55 7 2 55 7 2 55 7 2 55 7 2 55
7 2 56 7 2 56 7 2 56 7 2 56 7 2 56 7 2 56 7 2 56 7 2 56 7 2 57 7 2 57
7 2 57 7 2 57 7 2 57 7 2 57 7 2 57 7 2 57 7 2 57 7 2 57 7 2 57 7 2 58
7 2 58 7 2 58 7 2 58 7 2 58 7 2 58 7 2 58 7 2 58 7 2 58 7 2 58 7 2 58
7 2 58 7 2 58 7 2 58 7 2 58 7 2 58 7 2 58 7 2 58 7 2 58 7 2 59 7 2 59
7 2 59 7 2 59 7 2 59 7 2 59 7 2 59 7 2 59 7 2 59 7 2 59 7 2 59 7 2 58
7 2 58 7 2 58 7 2 58 7 2 58 7 2 58 7 2 58 7 2 58 7 2 58 7 2 58 7 2 58
7 2 58 7 2 58 7 2 58 7 2 58 7 2 58 7 2 58 7 2 58 7 2 58 7 2 57 7 2 57
7 2 57 7 2 57 7 2 57 7 2 57 7 2 57 7 2 57 7 2 57 7 2 57 7 2 57 7 2 56
7 2 56 7 2 56 7 2 56 7 2 56 7 2 56 7 2 56 7 2 56 7 2 55 7 2 55 7 2 55
7 2 55 7 2 55 7 2 55 7 2 55 7 2 55 7 2 54 7 2 54 7 2 54 7 2 54 7 2 54
7 2 54 6 2 54 6 2 53 6 2 53 6 2 53 6 2 53 6 2 53 6 2 53 6 2 52 6 2 52
6 2 52 6 2 52 6 2 52 6 2 52 6 2 52 6 2 51 6 2 51 6 2 51 6 2 51 6 2 51
6 2 51 6 2 50 6 2 50 6 2 50 6 2 50 6 2 50 6 2 50 6 2 49 6 2 49 6 2 49
6 2 49 6 2 49 6 2 49 6 2 49 6 2 48 6 2 48 6 2 48 6 2 48 6 2 48 6 2 48
6 2 47 6 2 47 6 2 47 6 2 47 6 2 47 6 2 47 6 2 46 6 2 46 6 2 46 6 2 46
6 2 46 6 2 46 6 2 46 6 2 45 5 2 45 5 2 45 5 2 45 5 2 45 5 2 45 5 2 45
5 2 44 5 2 44 5 2 44 5 2 44 5 2 44 5 2 44 5 2 43 5 2 43 5 2 43 5 2 43
5 2 43 5 2 43 5 2 43 5 2 43 5 2 42 5 2 42 5 2 42 5 2 42 5 2 42 5 2 42
5 2 42 5 2 41 5 1 41 5 1 41 5 1 41 5 1 41 5 1 41 5 1 41 5 1 41 5 1 40
5 1 40 5 1 40 5 1 40 5 1 40 5 1 40 5 1 40 5 1 40 5 1 39 5 1 39 5 1 39
5 1 39 5 1 39 5 1 39 8 4 81 9 4 83 9 4 83 9 4 82 8 4 81 8 4 79 8 4 77
8 4 74 8 4 72 7 4 69 7 4 66 3 7 62 3 7 62 3 7 62 3 7 62 3 7 61 3 7 60
3 7 60 3 6 59 3 6 59 3 6 58 3 6 57 3 6 56 3 6 56 3 6 55 3 6 54 3 6 54
3 6 53 3 6 52 3 6 52 3 6 52 3 6 52 3 6 51 3 5 51 3 5 50 3 5 48 2 5 47
2 5 46 2 5 45 2 5 44 2 5 43 2 5 43 2 5 42 2 4 41 2 4 41 2 4 40 2 4 39
2 4 38 2 4 38 2 4 37 2 4 36 2 4 36 2 4 35 2 4 34 2 4 34 2 4 33 2 4 32
2 3 32 2 3 31 2 3 30 2 3 30 2 3 29 1 3 28 1 3 28 1 3 27 1 3 27 1 3 26
1 3 25 1 3 25 1 3 24 1 3 23 1 2 23 1 2 22 1 2 22 1 2 21 1 2 20 1 2 20
1 2 19 1 2 19 1 2 18 1 2 17 1 2 17 1 2 16 1 2 16 1 2 15 1 2 14 1 1 14
1 1 13 1 1 13 1 1 12 1 1 11 1 1 11 1 1 10 1 1 10 0 1 9 0 1 9 0 1 9 0 1
9 0 1 9 0 1 9 0 1 9 0 1 9 0 1 9 0 1 9 0 1 9 0 1 9 0 1 9 0 1 9 0 1 9 0
1 9 0 1 9 0 1 9 0 1 9 0 1 9 0 1 9 0 1 9 0 1 9
5 2 44 5 2 44 5 2 44 5 2 44 5 2 45 5 2 45 5 2 45 5 2 45 5 2 45 5 2 45
6 2 45 6 2 46 6 2 46 6 2 46 6 2 46 6 2 46 6 2 46 6 2 47 6 2 47 6 2 47
6 2 47 6 2 47 6 2 47 6 2 48 6 2 48 6 2 48 6 2 48 6 2 48 6 2 48 6 2 48
6 2 49 6 2 49 6 2 49 6 2 49 6 2 49 6 2 49 6 2 50 6 2 50 6 2 50 6 2 50
6 2 50 6 2 50 6 2 51 6 2 51 6 2 51 6 2 51 6 2 51 6 2 51 6 2 52 6 2 52
6 2 52 6 2 52 6 2 52 6 2 52 6 2 53 6 2 53 6 2 53 6 2 53 6 2 53 6 2 53
6 2 54 7 2 54 7 2 54 7 2 54 7 2 54 7 2 54 7 2 54 7 2 55 7 2 55 7 2 55
7 2 55 7 2 55 7 2 55 7 2 55 7 2 56 7 2 56 7 2 56 7 2 56 7 2 56 7 2 56
7 2 56 7 2 57 7 2 57 7 2 57 7 2 57 7 2 57 7 2 57 7 2 57 7 2 57 7 2 57
7 2 58 7 2 58 7 2 58 7 2 58 7 2 58 7 2 58 7 2 58 7 2 58 7 2 58 7 2 58
7 2 59 7 2 59 7 2 59 7 2 59 7 2 59 7 2 59 7 2 59 7 2 59 7 2 59 7 2 59
7 2 59 7 2 59 7 2 59 7 2 59 7 2 59 7 2 59 7 2 59 7 2 59 7 2 59 7 2 59
7 2 59 7 2 59 7 2 59 7 2 59 7 2 59 7 2 59 7 2 59 7 2 59 7 2 59 7 2 59
7 2 59 7 2 59 7 2 59 7 2 59 7 2 59 7 2 59 7 2 59 7 2 59 7 2 59 7 2 59
7 2 59 7 2 59 7 2 59 7 2 59 7 2 59 7 2 58 7 2 58 7 2 58 7 2 58 7 2 58
7 2 58 7 2 58 7 2 58 7 2 58 7 2 58 7 2 58 7 2 57 7 2 57 7 2 57 7 2 57
7 2 57 7 2 57 7 2 57 7 2 57 7 2 57 7 2 56 7 2 56 7 2 56 7 2 56 7 2 56
7 2 56 7 2 56 7 2 55 7 2 55 7 2 55 7 2 55 7 2 55 7 2 55 7 2 55 7 2 54
7 2 54 7 2 54 7 2 54 7 2 54 7 2 54 6 2 53 6 2 53 6 2 53 6 2 53 6 2 53
6 2 53 6 2 53 6 2 52 6 2 52 6 2 52 6 2 52 6 2 52 6 2 52 6 2 51 6 2 51
6 2 51 6 2 51 6 2 51 6 2 51 6 2 50 6 2 50 6 2 50 6 2 50 6 2 50 6 2 50
6 2 49 6 2 49 6 2 49 6 2 49 6 2 49 6 2 49 6 2 48 6 2 48 6 2 48 6 2 48
6 2 48 6 2 48 6 2 47 6 2 47 6 2 47 6 2 47 6 2 47 6 2 47 6 2 47 6 2 46
6 2 46 6 2 46 6 2 46 6 2 46 6 2 46 6 2 45 5 2 45 5 2 45 5 2 45 5 2 45
5 2 45 5 2 45 5 2 44 5 2 44 5 2 44 5 2 44 5 2 44 5 2 44 5 2 44 5 2 43
5 2 43 5 2 43 5 2 43 5 2 43 5 2 43 5 2 43 5 2 42 5 2 42 5 2 42 5 2 42
5 2 42 5 2 42 5 2 42 5 2 41 5 1 41 5 1 41 5 1 41 5 1 41 5 1 41 5 1 41
5 1 41 5 1 40 5 1 40 5 1 40 5 1 40 5 1 40 5 1 40 5 1 40 5 1 40 5 1 39
5 1 39 5 1 39 5 1 39 5 1 39 8 4 79 8 4 80 8 4 79 8 4 78 8 4 77 8 4 75
8 4 72 7 4 70 7 4 67 7 3 64 3 7 62 3 7 62 3 7 62 3 7 61 3 7 61 3 7 60
3 7 60 3 6 59 3 6 58 3 6 58 3 6 57 3 6 56 3 6 56 3 6 55 3 6 54 3 6 53
3 6 53 3 6 52 3 6 52 3 6 51 3 6 51 3 5 50 3 5 50 3 5 49 2 5 48 2 5 46
2 5 46 2 5 45 2 5 44 2 5 43 2 5 43 2 5 42 2 4 41 2 4 40 2 4 40 2 4 39
2 4 38 2 4 38 2 4 37 2 4 36 2 4 36 2 4 35 2 4 34 2 4 34 2 4 33 2 4 32
2 3 32 2 3 31 2 3 30 2 3 30 2 3 29 1 3 28 1 3 28 1 3 27 1 3 26 1 3 26
1 3 25 1 3 25 1 3 24 1 3 23 1 2 23 1 2 22 1 2 22 1 2 21 1 2 20 1 2 20
1 2 19 1 2 18 1 2 18 1 2 17 1 2 17 1 2 16 1 2 15 1 2 15 1 2 14 1 1 14
1 1 13 1 1 13 1 1 12 1 1 11 1 1 11 1 1 10 1 1 10 0 1 9 0 1 9 0 1 9 0 1
9 0 1 9 0 1 9 0 1 9 0 1 9 0 1 9 0 1 9 0 1 9 0 1 9 0 1 9 0 1 9 0 1 9 0
1 9 0 1 9 0 1 9 0 1 9 0 1 9 0 1 9 0 1 9 0 1 9
5 2 44 5 2 45 5 2 45 5 2 45 5 2 45 5 2 45 6 2 45 6 2 46 6 2 46 6 2 46
6 2 46 6 2 46 6 2 46 6 2 46 6 2 47 6 2 47 6 2 47 6 2 47 6 2 47 6 2 47
6 2 48 6 2 48 6 2 48 6 2 48 6 2 48 6 2 48 6 2 49 6 2 49 6 2 49 6 2 49
6 2 49 6 2 49 6 2 50 6 2 50 6 2 50 6 2 50 6 2 50 6 2 50 6 2 51 6 2 51
6 2 51 6 2 51 6 2 51 6 2 51 6 2 52 6 2 52 6 2 52 6 2 52 6 2 52 6 2 52
6 2 53 6 2 53 6 2 53 6 2 53 6 2 53 6 2 53 6 2 54 7 2 54 7 2 54 7 2 54
7 2 54 7 2 54 7 2 55 7 2 55 7 2 55 7 2 55 7 2 55 7 2 55 7 2 55 7 2 56
7 2 56 7 2 56 7 2 56 7 2 56 7 2 56 7 2 57 7 2 57 7 2 57 7 2 57 7 2 57
7 2 57 7 2 57 7 2 57 7 2 58 7 2 58 7 2 58 7 2 58 7 2 58 7 2 58 7 2 58
7 2 58 7 2 59 7 2 59 7 2 59 7 2 59 7 2 59 7 2 59 7 2 59 7 2 59 7 2 59
7 2 59 7 2 59 7 2 60 7 2 60 7 2 60 7 2 60 7 2 60 7 2 60 7 2 60 7 2 60
7 2 60 7 2 60 7 2 60 7 2 60 7 2 60 7 2 60 7 2 60 7 2 60 7 2 60 7 2 60
7 2 60 7 2 60 7 2 60 7 2 60 7 2 60 7 2 60 7 2 60 7 2 60 7 2 60 7 2 60
7 2 60 7 2 60 7 2 60 7 2 60 7 2 60 7 2 60 7 2 60 7 2 60 7 2 60 7 2 60
7 2 60 7 2 60 7 2 60 7 2 59 7 2 59 7 2 59 7 2 59 7 2 59 7 2 59 7 2 59
7 2 59 7 2 59 7 2 59 7 2 59 7 2 58 7 2 58 7 2 58 7 2 58 7 2 58 7 2 58
7 2 58 7 2 58 7 2 57 7 2 57 7 2 57 7 2 57 7 2 57 7 2 57 7 2 57 7 2 57
7 2 56 7 2 56 7 2 56 7 2 56 7 2 56 7 2 56 7 2 55 7 2 55 7 2 55 7 2 55
7 2 55 7 2 55 7 2 55 7 2 54 7 2 54 7 2 54 7 2 54 7 2 54 6 2 54 6 2 53
6 2 53 6 2 53 6 2 53 6 2 53 6 2 53 6 2 52 6 2 52 6 2 52 6 2 52 6 2 52
6 2 52 6 2 51 6 2 51 6 2 51 6 2 51 6 2 51 6 2 51 6 2 50 6 2 50 6 2 50
6 2 50 6 2 50 6 2 50 6 2 49 6 2 49 6 2 49 6 2 49 6 2 49 6 2 49 6 2 48
6 2 48 6 2 48 6 2 48 6 2 48 6 2 48 6 2 47 6 2 47 6 2 47 6 2 47 6 2 47
6 2 47 6 2 46 6 2 46 6 2 46 6 2 46 6 2 46 6 2 46 6 2 45 5 2 45 5 2 45
5 2 45 5 2 45 5 2 45 5 2 45 5 2 44 5 2 44 5 2 44 5 2 44 5 2 44 5 2 44
5 2 44 5 2 43 5 2 43 5 2 43 5 2 43 5 2 43 5 2 43 5 2 43 5 2 42 5 2 42
5 2 42 5 2 42 5 2 42 5 2 42 5 2 42 5 2 41 5 1 41 5 1 41 5 1 41 5 1 41
5 1 41 5 1 41 5 1 41 5 1 40 5 1 40 5 1 40 5 1 40 5 1 40 5 1 40 5 1 40
5 1 40 5 1 39 5 1 39 5 1 39 7 4 71 8 4 75 8 4 76 8 4 75 8 4 74 8 4 72
7 4 70 7 4 67 7 3 65 7 3 62 3 7 62 3 7 62 3 7 62 3 7 61 3 7 61 3 7 60
3 6 60 3 6 59 3 6 58 3 6 58 3 6 57 3 6 56 3 6 55 3 6 55 3 6 54 3 6 53
3 6 53 3 6 52 3 6 51 3 6 51 3 5 50 3 5 50 3 5 49 2 5 48 2 5 47 2 5 46
2 5 45 2 5 45 2 5 44 2 5 43 2 5 42 2 5 42 2 4 41 2 4 40 2 4 40 2 4 39
2 4 38 2 4 38 2 4 37 2 4 36 2 4 36 2 4 35 2 4 34 2 4 34 2 4 33 2 4 32
2 3 32 2 3 31 2 3 30 2 3 30 2 3 29 1 3 28 1 3 28 1 3 27 1 3 26 1 3 26
1 3 25 1 3 25 1 3 24 1 3 23 1 2 23 1 2 22 1 2 21 1 2 21 1 2 20 1 2 20
1 2 19 1 2 18 1 2 18 1 2 17 1 2 17 1 2 16 1 2 15 1 2 15 1 2 14 1 1 14
1 1 13 1 1 12 1 1 12 1 1 11 1 1 11 1 1 10 0 1 10 0 1 9 0 1 9 0 1 9 0 1
9 0 1 9 0 1 9 0 1 9 0 1 9 0 1 9 0 1 9 0 1 9 0 1 9 0 1 9 0 1 9 0 1 9 0
1 9 0 1 9 0 1 9 0 1 9 0 1 9 0 1 9 0 1 9 0 1 9
5 2 45 5 2 45 5 2 45 6 2 45 6 2 46 6 2 46 6 2 46 6 2 46 6 2 46 6 2 46
6 2 47 6 2 47 6 2 47 6 2 47 6 2 47 6 2 47 6 2 47 6 2 48 6 2 48 6 2 48
6 2 48 6 2 48 6 2 48 6 2 49 6 2 49 6 2 49 6 2 49 6 2 49 6 2 49 6 2 50
6 2 50 6 2 50 6 2 50 6 2 50 6 2 51 6 2 51 6 2 51 6 2 51 6 2 51 6 2 51
6 2 52 6 2 52 6 2 52 6 2 52 6 2 52 6 2 52 6 2 53 6 2 53 6 2 53 6 2 53
6 2 53 6 2 53 7 2 54 7 2 54 7 2 54 7 2 54 7 2 54 7 2 54 7 2 55 7 2 55
7 2 55 7 2 55 7 2 55 7 2 55 7 2 56 7 2 56 7 2 56 7 2 56 7 2 56 7 2 56
7 2 57 7 2 57 7 2 57 7 2 57 7 2 57 7 2 57 7 2 57 7 2 58 7 2 58 7 2 58
7 2 58 7 2 58 7 2 58 7 2 58 7 2 59 7 2 59 7 2 59 7 2 59 7 2 59 7 2 59
7 2 59 7 2 59 7 2 60 7 2 60 7 2 60 7 2 60 7 2 60 7 2 60 7 2 60 7 2 60
7 2 60 7 2 60 7 2 60 7 2 60 7 2 61 7 2 61 7 2 61 7 2 61 7 2 61 7 2 61
7 2 61 7 2 61 7 2 61 7 2 61 7 2 61 7 2 61 7 2 61 7 2 61 7 2 61 7 2 61
7 2 61 7 2 61 7 2 61 7 2 61 7 2 61 7 2 61 7 2 61 7 2 61 7 2 61 7 2 61
7 2 61 7 2 61 7 2 61 7 2 61 7 2 61 7 2 61 7 2 61 7 2 61 7 2 61 7 2 61
7 2 60 7 2 60 7 2 60 7 2 60 7 2 60 7 2 60 7 2 60 7 2 60 7 2 60 7 2 60
7 2 60 7 2 59 7 2 59 7 2 59 7 2 59 7 2 59 7 2 59 7 2 59 7 2 59 7 2 59
7 2 58 7 2 58 7 2 58 7 2 58 7 2 58 7 2 58 7 2 58 7 2 57 7 2 57 7 2 57
7 2 57 7 2 57 7 2 57 7 2 57 7 2 56 7 2 56 7 2 56 7 2 56 7 2 56 7 2 56
7 2 55 7 2 55 7 2 55 7 2 55 7 2 55 7 2 55 7 2 54 7 2 54 7 2 54 7 2 54
7 2 54 7 2 54 6 2 53 6 2 53 6 2 53 6 2 53 6 2 53 6 2 53 6 2 52 6 2 52
6 2 52 6 2 52 6 2 52 6 2 52 6 2 51 6 2 51 6 2 51 6 2 51 6 2 51 6 2 50
6 2 50 6 2 50 6 2 50 6 2 50 6 2 50 6 2 49 6 2 49 6 2 49 6 2 49 6 2 49
6 2 49 6 2 48 6 2 48 6 2 48 6 2 48 6 2 48 6 2 48 6 2 47 6 2 47 6 2 47
6 2 47 6 2 47 6 2 47 6 2 46 6 2 46 6 2 46 6 2 46 6 2 46 6 2 46 6 2 46
6 2 45 5 2 45 5 2 45 5 2 45 5 2 45 5 2 45 5 2 44 5 2 44 5 2 44 5 2 44
5 2 44 5 2 44 5 2 44 5 2 43 5 2 43 5 2 43 5 2 43 5 2 43 5 2 43 5 2 43
5 2 42 5 2 42 5 2 42 5 2 42 5 2 42 5 2 42 5 2 42 5 2 41 5 1 41 5 1 41
5 1 41 5 1 41 5 1 41 5 1 41 5 1 41 5 1 40 5 1 40 5 1 40 5 1 40 5 1 40
5 1 40 5 1 40 5 1 40 5 1 39 5 1 39 7 4 67 7 4 71 7 4 71 7 4 70 7 4 69
7 4 67 7 3 65 7 3 62 6 3 59 3 7 61 3 7 62 3 7 61 3 7 61 3 7 61 3 7 60
3 6 59 3 6 59 3 6 58 3 6 57 3 6 57 3 6 56 3 6 55 3 6 55 3 6 54 3 6 53
3 6 52 3 6 52 3 6 51 3 5 50 3 5 50 3 5 49 3 5 48 2 5 48 2 5 47 2 5 46
2 5 45 2 5 44 2 5 44 2 5 43 2 5 42 2 5 42 2 4 41 2 4 40 2 4 40 2 4 39
2 4 38 2 4 38 2 4 37 2 4 36 2 4 35 2 4 35 2 4 34 2 4 33 2 4 33 2 4 32
2 3 31 2 3 31 2 3 30 2 3 30 2 3 29 1 3 28 1 3 28 1 3 27 1 3 26 1 3 26
1 3 25 1 3 24 1 3 24 1 3 23 1 2 23 1 2 22 1 2 21 1 2 21 1 2 20 1 2 20
1 2 19 1 2 18 1 2 18 1 2 17 1 2 17 1 2 16 1 2 15 1 2 15 1 2 14 1 1 14
1 1 13 1 1 12 1 1 12 1 1 11 1 1 11 1 1 10 0 1 10 0 1 9 0 1 9 0 1 9 0 1
9 0 1 9 0 1 9 0 1 9 0 1 9 0 1 9 0 1 9 0 1 9 0 1 9 0 1 9 0 1 9 0 1 9 0
1 9 0 1 9 0 1 9 0 1 9 0 1 9 0 1 9 0 1 9 0 1 9
6 2 45 6 2 46 6 2 46 6 2 46 6 2 46 6 2 46 6 2 46 6 2 47 6 2 47 6 2 47
6 2 47 6 2 47 6 2 47 6 2 48 6 2 48 6 2 48 6 2 48 6 2 48 6 2 48 6 2 49
6 2 49 6 2 49 6 2 49 6 2 49 6 2 49 6 2 50 6 2 50 6 2 50 6 2 50 6 2 50
6 2 50 6 2 51 6 2 51 6 2 51 6 2 51 6 2 51 6 2 52 6 2 52 6 2 52 6 2 52
6 2 52 6 2 52 6 2 53 6 2 53 6 2 53 6 2 53 6 2 53 6 2 53 7 2 54 7 2 54
7 2 54 7 2 54 7 2 54 7 2 55 7 2 55 7 2 55 7 2 55 7 2 55 7 2 55 7 2 56
7 2 56 7 2 56 7 2 56 7 2 56 7 2 56 7 2 57 7 2 57 7 2 57 7 2 57 7 2 57
7 2 57 7 2 58 7 2 58 7 2 58 7 2 58 7 2 58 7 2 58 7 2 58 7 2 59 7 2 59
7 2 59 7 2 59 7 2 59 7 2 59 7 2 59 7 2 60 7 2 60 7 2 60 7 2 60 7 2 60
7 2 60 7 2 60 7 2 60 7 2 60 7 2 61 7 2 61 7 2 61 7 2 61 7 2 61 7 2 61
7 2 61 7 2 61 7 2 61 7 2 61 7 2 61 7 2 61 7 2 62 7 2 62 7 2 62 7 2 62
7 2 62 7 2 62 8 2 62 8 2 62 8 2 62 8 2 62 8 2 62 8 2 62 8 2 62 8 2 62
8 2 62 8 2 62 8 2 62 8 2 62 8 2 62 8 2 62 8 2 62 8 2 62 8 2 62 8 2 62
8 2 62 7 2 62 7 2 62 7 2 62 7 2 62 7 2 62 7 2 62 7 2 61 7 2 61 7 2 61
7 2 61 7 2 61 7 2 61 7 2 61 7 2 61 7 2 61 7 2 61 7 2 61 7 2 61 7 2 60
7 2 60 7 2 60 7 2 60 7 2 60 7 2 60 7 2 60 7 2 60 7 2 60 7 2 59 7 2 59
7 2 59 7 2 59 7 2 59 7 2 59 7 2 59 7 2 58 7 2 58 7 2 58 7 2 58 7 2 58
7 2 58 7 2 58 7 2 57 7 2 57 7 2 57 7 2 57 7 2 57 7 2 57 7 2 56 7 2 56
7 2 56 7 2 56 7 2 56 7 2 56 7 2 55 7 2 55 7 2 55 7 2 55 7 2 55 7 2 54
7 2 54 7 2 54 7 2 54 7 2 54 7 2 54 6 2 53 6 2 53 6 2 53 6 2 53 6 2 53
6 2 53 6 2 52 6 2 52 6 2 52 6 2 52 6 2 52 6 2 51 6 2 51 6 2 51 6 2 51
6 2 51 6 2 51 6 2 50 6 2 50 6 2 50 6 2 50 6 2 50 6 2 50 6 2 49 6 2 49
6 2 49 6 2 49 6 2 49 6 2 49 6 2 48 6 2 48 6 2 48 6 2 48 6 2 48 6 2 47
6 2 47 6 2 47 6 2 47 6 2 47 6 2 47 6 2 47 6 2 46 6 2 46 6 2 46 6 2 46
6 2 46 6 2 46 6 2 45 5 2 45 5 2 45 5 2 45 5 2 45 5 2 45 5 2 44 5 2 44
5 2 44 5 2 44 5 2 44 5 2 44 5 2 44 5 2 43 5 2 43 5 2 43 5 2 43 5 2 43
5 2 43 5 2 43 5 2 42 5 2 42 5 2 42 5 2 42 5 2 42 5 2 42 5 2 42 5 2 41
5 1 41 5 1 41 5 1 41 5 1 41 5 1 41 5 1 41 5 1 41 5 1 40 5 1 40 5 1 40
5 1 40 5 1 40 5 1 40 5 1 40 5 1 40 5 1 39 5 1 39 7 4 65 7 4 66 7 3 65
7 3 63 6 3 61 6 3 59 6 3 56 3 7 61 3 7 61 3 7 61 3 7 61 3 7 60 3 7 60
3 6 59 3 6 59 3 6 58 3 6 57 3 6 57 3 6 56 3 6 55 3 6 55 3 6 54 3 6 53
3 6 52 3 6 52 3 6 51 3 5 50 3 5 50 3 5 49 2 5 48 2 5 47 2 5 47 2 5 46
2 5 45 2 5 44 2 5 44 2 5 43 2 5 42 2 5 42 2 4 41 2 4 40 2 4 39 2 4 39
2 4 38 2 4 37 2 4 37 2 4 36 2 4 35 2 4 35 2 4 34 2 4 33 2 4 33 2 3 32
2 3 31 2 3 31 2 3 30 2 3 29 1 3 29 1 3 28 1 3 28 1 3 27 1 3 26 1 3 26
1 3 25 1 3 24 1 3 24 1 3 23 1 2 23 1 2 22 1 2 21 1 2 21 1 2 20 1 2 19
1 2 19 1 2 18 1 2 18 1 2 17 1 2 16 1 2 16 1 2 15 1 2 15 1 2 14 1 1 14
1 1 13 1 1 12 1 1 12 1 1 11 1 1 11 1 1 10 0 1 9 0 1 9 0 1 9 0 1 9 0 1
9 0 1 9 0 1 9 0 1 9 0 1 9 0 1 9 0 1 9 0 1 9 0 1 9 0 1 9 0 1 9 0 1 9 0
1 9 0 1 9 0 1 9 0 1 9 0 1 9 0 1 9 0 1 9 0 1 9
6 2 46 6 2 46 6 2 46 6 2 46 6 2 47 6 2 47 6 2 47 6 2 47 6 2 47 6 2 47
6 2 48 6 2 48 6 2 48 6 2 48 6 2 48 6 2 48 6 2 49 6 2 49 6 2 49 6 2 49
6 2 49 6 2 49 6 2 50 6 2 50 6 2 50 6 2 50 6 2 50 6 2 51 6 2 51 6 2 51
6 2 51 6 2 51 6 2 51 6 2 52 6 2 52 6 2 52 6 2 52 6 2 52 6 2 53 6 2 53
6 2 53 6 2 53 6 2 53 6 2 53 7 2 54 7 2 54 7 2 54 7 2 54 7 2 54 7 2 55
7 2 55 7 2 55 7 2 55 7 2 55 7 2 55 7 2 56 7 2 56 7 2 56 7 2 56 7 2 56
7 2 57 7 2 57 7 2 57 7 2 57 7 2 57 7 2 57 7 2 58 7 2 58 7 2 58 7 2 58
7 2 58 7 2 58 7 2 59 7 2 59 7 2 59 7 2 59 7 2 59 7 2 59 7 2 59 7 2 60
7 2 60 7 2 60 7 2 60 7 2 60 7 2 60 7 2 60 7 2 61 7 2 61 7 2 61 7 2 61
7 2 61 7 2 61 7 2 61 7 2 61 7 2 61 7 2 62 7 2 62 7 2 62 8 2 62 8 2 62
8 2 62 8 2 62 8 2 62 8 2 62 8 2 62 8 2 62 8 2 62 8 2 63 8 2 63 8 2 63
8 2 63 8 2 63 8 2 63 8 2 63 8 2 63 8 2 63 8 2 63 8 2 63 8 2 63 8 2 63
8 2 63 8 2 63 8 2 63 8 2 63 8 2 63 8 2 63 8 2 63 8 2 63 8 2 63 8 2 63
8 2 63 8 2 63 8 2 63 8 2 63 8 2 63 8 2 62 8 2 62 8 2 62 8 2 62 8 2 62
8 2 62 8 2 62 8 2 62 7 2 62 7 2 62 7 2 62 7 2 62 7 2 61 7 2 61 7 2 61
7 2 61 7 2 61 7 2 61 7 2 61 7 2 61 7 2 61 7 2 60 7 2 60 7 2 60 7 2 60
7 2 60 7 2 60 7 2 60 7 2 59 7 2 59 7 2 59 7 2 59 7 2 59 7 2 59 7 2 58
7 2 58 7 2 58 7 2 58 7 2 58 7 2 58 7 2 57 7 2 57 7 2 57 7 2 57 7 2 57
7 2 57 7 2 56 7 2 56 7 2 56 7 2 56 7 2 56 7 2 56 7 2 55 7 2 55 7 2 55
7 2 55 7 2 55 7 2 54 7 2 54 7 2 54 7 2 54 7 2 54 6 2 54 6 2 53 6 2 53
6 2 53 6 2 53 6 2 53 6 2 52 6 2 52 6 2 52 6 2 52 6 2 52 6 2 52 6 2 51
6 2 51 6 2 51 6 2 51 6 2 51 6 2 50 6 2 50 6 2 50 6 2 50 6 2 50 6 2 50
6 2 49 6 2 49 6 2 49 6 2 49 6 2 49 6 2 49 6 2 48 6 2 48 6 2 48 6 2 48
6 2 48 6 2 48 6 2 47 6 2 47 6 2 47 6 2 47 6 2 47 6 2 47 6 2 46 6 2 46
6 2 46 6 2 46 6 2 46 6 2 46 6 2 45 5 2 45 5 2 45 5 2 45 5 2 45 5 2 45
5 2 44 5 2 44 5 2 44 5 2 44 5 2 44 5 2 44 5 2 44 5 2 43 5 2 43 5 2 43
5 2 43 5 2 43 5 2 43 5 2 43 5 2 42 5 2 42 5 2 42 5 2 42 5 2 42 5 2 42
5 2 42 5 2 41 5 1 41 5 1 41 5 1 41 5 1 41 5 1 41 5 1 41 5 1 40 5 1 40
5 1 40 5 1 40 5 1 40 5 1 40 5 1 40 5 1 40 5 1 39 5 1 39 6 3 57 6 3 59
6 3 58 6 3 57 6 3 54 5 3 52 3 7 61 3 7 61 3 7 61 3 7 61 3 7 60 3 7 60
3 6 59 3 6 58 3 6 58 3 6 57 3 6 56 3 6 56 3 6 55 3 6 54 3 6 54 3 6 53
3 6 52 3 6 51 3 6 51 3 5 50 3 5 49 3 5 49 2 5 48 2 5 47 2 5 46 2 5 46
2 5 45 2 5 44 2 5 44 2 5 43 2 5 42 2 5 41 2 4 41 2 4 40 2 4 39 2 4 39
2 4 38 2 4 37 2 4 37 2 4 36 2 4 35 2 4 35 2 4 34 2 4 33 2 4 33 2 3 32
2 3 31 2 3 31 2 3 30 2 3 29 1 3 29 1 3 28 1 3 27 1 3 27 1 3 26 1 3 26
1 3 25 1 3 24 1 3 24 1 3 23 1 2 22 1 2 22 1 2 21 1 2 21 1 2 20 1 2 19
1 2 19 1 2 18 1 2 18 1 2 17 1 2 16 1 2 16 1 2 15 1 2 15 1 2 14 1 1 13
1 1 13 1 1 12 1 1 12 1 1 11 1 1 11 1 1 10 0 1 9 0 1 9 0 1 9 0 1 9 0 1
9 0 1 9 0 1 9 0 1 9 0 1 9 0 1 9 0 1 9 0 1 9 0 1 9 0 1 9 0 1 9 0 1 9 0
1 9 0 1 9 0 1 9 0 1 9 0 1 9 0 1 9 0 1 9 0 1 9
6 2 46 6 2 47 6 2 47 6 2 47 6 2 47 6 2 47 6 2 47 6 2 48 6 2 48 6 2 48
6 2 48 6 2 48 6 2 48 6 2 49 6 2 49 6 2 49 6 2 49 6 2 49 6 2 50 6 2 50
6 2 50 6 2 50 6 2 50 6 2 50 6 2 51 6 2 51 6 2 51 6 2 51 6 2 51 6 2 52
6 2 52 6 2 52 6 2 52 6 2 52 6 2 52 6 2 53 6 2 53 6 2 53 6 2 53 6 2 53
6 2 54 7 2 54 7 2 54 7 2 54 7 2 54 7 2 55 7 2 55 7 2 55 7 2 55 7 2 55
7 2 55 7 2 56 7 2 56 7 2 56 7 2 56 7 2 56 7 2 57 7 2 57 7 2 57 7 2 57
7 2 57 7 2 57 7 2 58 7 2 58 7 2 58 7 2 58 7 2 58 7 2 59 7 2 59 7 2 59
7 2 59 7 2 59 7 2 59 7 2 60 7 2 60 7 2 60 7 2 60 7 2 60 7 2 60 7 2 60
7 2 61 7 2 61 7 2 61 7 2 61 7 2 61 7 2 61 7 2 61 7 2 62 7 2 62 7 2 62
8 2 62 8 2 62 8 2 62 8 2 62 8 2 62 8 2 62 8 2 63 8 2 63 8 2 63 8 2 63
8 2 63 8 2 63 8 2 63 8 2 63 8 2 63 8 2 63 8 2 63 8 2 63 8 2 63 8 2 64
8 2 64 8 2 64 8 2 64 8 2 64 8 2 64 8 2 64 8 2 64 8 2 64 8 2 64 8 2 64
8 2 64 8 2 64 8 2 64 8 2 64 8 2 64 8 2 64 8 2 64 8 2 64 8 2 64 8 2 64
8 2 64 8 2 64 8 2 63 8 2 63 8 2 63 8 2 63 8 2 63 8 2 63 8 2 63 8 2 63
8 2 63 8 2 63 8 2 63 8 2 63 8 2 63 8 2 62 8 2 62 8 2 62 8 2 62 8 2 62
8 2 62 7 2 62 7 2 62 7 2 62 7 2 61 7 2 61 7 2 61 7 2 61 7 2 61 7 2 61
7 2 61 7 2 60 7 2 60 7 2 60 7 2 60 7 2 60 7 2 60 7 2 59 7 2 59 7 2 59
7 2 59 7 2 59 7 2 59 7 2 58 7 2 58 7 2 58 7 2 58 7 2 58 7 2 58 7 2 57
7 2 57 7 2 57 7 2 57 7 2 57 7 2 56 7 2 56 7 2 56 7 2 56 7 2 56 7 2 56
7 2 55 7 2 55 7 2 55 7 2 55 7 2 55 7 2 54 7 2 54 7 2 54 7 2 54 7 2 54
6 2 54 6 2 53 6 2 53 6 2 53 6 2 53 6 2 53 6 2 52 6 2 52 6 2 52 6 2 52
6 2 52 6 2 51 6 2 51 6 2 51 6 2 51 6 2 51 6 2 51 6 2 50 6 2 50 6 2 50
6 2 50 6 2 50 6 2 49 6 2 49 6 2 49 6 2 49 6 2 49 6 2 49 6 2 48 6 2 48
6 2 48 6 2 48 6 2 48 6 2 48 6 2 47 6 2 47 6 2 47 6 2 47 6 2 47 6 2 47
6 2 46 6 2 46 6 2 46 6 2 46 6 2 46 6 2 46 6 2 45 5 2 45 5 2 45 5 2 45
5 2 45 5 2 45 5 2 44 5 2 44 5 2 44 5 2 44 5 2 44 5 2 44 5 2 44 5 2 43
5 2 43 5 2 43 5 2 43 5 2 43 5 2 43 5 2 43 5 2 42 5 2 42 5 2 42 5 2 42
5 2 42 5 2 42 5 2 42 5 2 41 5 1 41 5 1 41 5 1 41 5 1 41 5 1 41 5 1 41
5 1 40 5 1 40 5 1 40 5 1 40 5 1 40 5 1 40 5 1 40 5 1 40 5 1 39 5 1 39
5 1 39 5 3 49 5 3 48 5 2 46 3 7 60 3 7 61 3 7 61 3 7 61 3 7 60 3 6 60
3 6 59 3 6 58 3 6 58 3 6 57 3 6 56 3 6 56 3 6 55 3 6 54 3 6 54 3 6 53
3 6 52 3 6 51 3 6 51 3 5 50 3 5 49 3 5 48 2 5 48 2 5 47 2 5 46 2 5 46
2 5 45 2 5 44 2 5 43 2 5 43 2 5 42 2 5 41 2 4 41 2 4 40 2 4 39 2 4 39
2 4 38 2 4 37 2 4 37 2 4 36 2 4 35 2 4 35 2 4 34 2 4 33 2 4 33 2 3 32
2 3 31 2 3 31 2 3 30 2 3 29 1 3 29 1 3 28 1 3 27 1 3 27 1 3 26 1 3 25
1 3 25 1 3 24 1 3 24 1 3 23 1 2 22 1 2 22 1 2 21 1 2 21 1 2 20 1 2 19
1 2 19 1 2 18 1 2 18 1 2 17 1 2 16 1 2 16 1 2 15 1 2 15 1 2 14 1 1 13
1 1 13 1 1 12 1 1 12 1 1 11 1 1 11 1 1 10 0 1 9 0 1 9 0 1 9 0 1 9 0 1
9 0 1 9 0 1 9 0 1 9 0 1 9 0 1 9 0 1 9 0 1 9 0 1 9 0 1 9 0 1 9 0 1 9 0
1 9 0 1 9 0 1 9 0 1 9 0 1 9 0 1 9 0 1 9 0 1 9
6 2 47 6 2 47 6 2 47 6 2 47 6 2 48 6 2 48 6 2 48 6 2 48 6 2 48 6 2 48
6 2 49 6 2 49 6 2 49 6 2 49 6 2 49 6 2 50 6 2 50 6 2 50 6 2 50 6 2 50
6 2 50 6 2 51 6 2 51 6 2 51 6 2 51 6 2 51 6 2 52 6 2 52 6 2 52 6 2 52
6 2 52 6 2 53 6 2 53 6 2 53 6 2 53 6 2 53 6 2 53 7 2 54 7 2 54 7 2 54
7 2 54 7 2 54 7 2 55 7 2 55 7 2 55 7 2 55 7 2 55 7 2 56 7 2 56 7 2 56
7 2 56 7 2 56 7 2 57 7 2 57 7 2 57 7 2 57 7 2 57 7 2 58 7 2 58 7 2 58
7 2 58 7 2 58 7 2 58 7 2 59 7 2 59 7 2 59 7 2 59 7 2 59 7 2 60 7 2 60
7 2 60 7 2 60 7 2 60 7 2 60 7 2 61 7 2 61 7 2 61 7 2 61 7 2 61 7 2 61
7 2 61 7 2 62 7 2 62 8 2 62 8 2 62 8 2 62 8 2 62 8 2 62 8 2 63 8 2 63
8 2 63 8 2 63 8 2 63 8 2 63 8 2 63 8 2 63 8 2 63 8 2 64 8 2 64 8 2 64
8 2 64 8 2 64 8 2 64 8 2 64 8 2 64 8 2 64 8 2 64 8 2 64 8 2 64 8 2 64
8 2 65 8 2 65 8 2 65 8 2 65 8 2 65 8 2 65 8 2 65 8 2 65 8 2 65 8 2 65
8 2 65 8 2 65 8 2 65 8 2 65 8 2 65 8 2 65 8 2 65 8 2 65 8 2 65 8 2 64
8 2 64 8 2 64 8 2 64 8 2 64 8 2 64 8 2 64 8 2 64 8 2 64 8 2 64 8 2 64
8 2 64 8 2 64 8 2 64 8 2 63 8 2 63 8 2 63 8 2 63 8 2 63 8 2 63 8 2 63
8 2 63 8 2 63 8 2 62 8 2 62 8 2 62 8 2 62 8 2 62 7 2 62 7 2 62 7 2 61
7 2 61 7 2 61 7 2 61 7 2 61 7 2 61 7 2 60 7 2 60 7 2 60 7 2 60 7 2 60
7 2 60 7 2 59 7 2 59 7 2 59 7 2 59 7 2 59 7 2 59 7 2 58 7 2 58 7 2 58
7 2 58 7 2 58 7 2 57 7 2 57 7 2 57 7 2 57 7 2 57 7 2 56 7 2 56 7 2 56
7 2 56 7 2 56 7 2 56 7 2 55 7 2 55 7 2 55 7 2 55 7 2 55 7 2 54 7 2 54
7 2 54 7 2 54 7 2 54 6 2 53 6 2 53 6 2 53 6 2 53 6 2 53 6 2 52 6 2 52
6 2 52 6 2 52 6 2 52 6 2 51 6 2 51 6 2 51 6 2 51 6 2 51 6 2 51 6 2 50
6 2 50 6 2 50 6 2 50 6 2 50 6 2 49 6 2 49 6 2 49 6 2 49 6 2 49 6 2 49
6 2 48 6 2 48 6 2 48 6 2 48 6 2 48 6 2 48 6 2 47 6 2 47 6 2 47 6 2 47
6 2 47 6 2 47 6 2 46 6 2 46 6 2 46 6 2 46 6 2 46 6 2 46 6 2 45 5 2 45
5 2 45 5 2 45 5 2 45 5 2 45 5 2 44 5 2 44 5 2 44 5 2 44 5 2 44 5 2 44
5 2 44 5 2 43 5 2 43 5 2 43 5 2 43 5 2 43 5 2 43 5 2 42 5 2 42 5 2 42
5 2 42 5 2 42 5 2 42 5 2 42 5 2 42 5 2 41 5 1 41 5 1 41 5 1 41 5 1 41
5 1 41 5 1 41 5 1 40 5 1 40 5 1 40 5 1 40 5 1 40 5 1 40 5 1 40 5 1 40
5 1 39 5 1 39 5 1 39 5 1 39 3 7 60 3 7 61 3 7 61 3 7 60 3 7 60 3 6 59
3 6 59 3 6 58 3 6 58 3 6 57 3 6 56 3 6 55 3 6 55 3 6 54 3 6 53 3 6 53
3 6 52 3 6 51 3 6 51 3 5 50 3 5 49 3 5 48 2 5 48 2 5 47 2 5 46 2 5 45
2 5 45 2 5 44 2 5 43 2 5 43 2 5 42 2 4 41 2 4 41 2 4 40 2 4 39 2 4 38
2 4 38 2 4 37 2 4 36 2 4 36 2 4 35 2 4 34 2 4 34 2 4 33 2 4 32 2 3 32
2 3 31 2 3 31 2 3 30 2 3 29 1 3 29 1 3 28 1 3 27 1 3 27 1 3 26 1 3 25
1 3 25 1 3 24 1 3 24 1 2 23 1 2 22 1 2 22 1 2 21 1 2 20 1 2 20 1 2 19
1 2 19 1 2 18 1 2 17 1 2 17 1 2 16 1 2 16 1 2 15 1 2 15 1 2 14 1 1 13
1 1 13 1 1 12 1 1 12 1 1 11 1 1 10 1 1 10 0 1 9 0 1 9 0 1 9 0 1 9 0 1
9 0 1 9 0 1 9 0 1 9 0 1 9 0 1 9 0 1 9 0 1 9 0 1 9 0 1 9 0 1 9 0 1 9 0
1 9 0 1 9 0 1 9 0 1 9 0 1 9 0 1 9 0 1 9 0 1 9
6 2 47 6 2 48 6 2 48 6 2 48 6 2 48 6 2 48 6 2 48 6 2 49 6 2 49 6 2 49
6 2 49 6 2 49 6 2 50 6 2 50 6 2 50 6 2 50 6 2 50 6 2 50 6 2 51 6 2 51
6 2 51 6 2 51 6 2 51 6 2 52 6 2 52 6 2 52 6 2 52 6 2 52 6 2 53 6 2 53
6 2 53 6 2 53 6 2 53 6 2 54 7 2 54 7 2 54 7 2 54 7 2 54 7 2 55 7 2 55
7 2 55 7 2 55 7 2 55 7 2 56 7 2 56 7 2 56 7 2 56 7 2 56 7 2 57 7 2 57
7 2 57 7 2 57 7 2 57 7 2 58 7 2 58 7 2 58 7 2 58 7 2 58 7 2 58 7 2 59
7 2 59 7 2 59 7 2 59 7 2 59 7 2 60 7 2 60 7 2 60 7 2 60 7 2 60 7 2 61
7 2 61 7 2 61 7 2 61 7 2 61 7 2 61 7 2 62 7 2 62 8 2 62 8 2 62 8 2 62
8 2 62 8 2 63 8 2 63 8 2 63 8 2 63 8 2 63 8 2 63 8 2 63 8 2 63 8 2 64
8 2 64 8 2 64 8 2 64 8 2 64 8 2 64 8 2 64 8 2 64 8 2 65 8 2 65 8 2 65
8 2 65 8 2 65 8 2 65 8 2 65 8 2 65 8 2 65 8 2 65 8 2 65 8 2 65 8 2 65
8 2 65 8 2 65 8 2 66 8 2 66 8 2 66 8 2 66 8 2 66 8 2 66 8 2 66 8 2 66
8 2 66 8 2 66 8 2 66 8 2 66 8 2 66 8 2 66 8 2 65 8 2 65 8 2 65 8 2 65
8 2 65 8 2 65 8 2 65 8 2 65 8 2 65 8 2 65 8 2 65 8 2 65 8 2 65 8 2 65
8 2 65 8 2 64 8 2 64 8 2 64 8 2 64 8 2 64 8 2 64 8 2 64 8 2 64 8 2 64
8 2 63 8 2 63 8 2 63 8 2 63 8 2 63 8 2 63 8 2 63 8 2 62 8 2 62 8 2 62
8 2 62 7 2 62 7 2 62 7 2 61 7 2 61 7 2 61 7 2 61 7 2 61 7 2 61 7 2 60
7 2 60 7 2 60 7 2 60 7 2 60 7 2 60 7 2 59 7 2 59 7 2 59 7 2 59 7 2 59
7 2 58 7 2 58 7 2 58 7 2 58 7 2 58 7 2 57 7 2 57 7 2 57 7 2 57 7 2 57
7 2 56 7 2 56 7 2 56 7 2 56 7 2 56 7 2 55 7 2 55 7 2 55 7 2 55 7 2 55
7 2 54 7 2 54 7 2 54 7 2 54 7 2 54 6 2 53 6 2 53 6 2 53 6 2 53 6 2 53
6 2 52 6 2 52 6 2 52 6 2 52 6 2 52 6 2 52 6 2 51 6 2 51 6 2 51 6 2 51
6 2 51 6 2 50 6 2 50 6 2 50 6 2 50 6 2 50 6 2 49 6 2 49 6 2 49 6 2 49
6 2 49 6 2 49 6 2 48 6 2 48 6 2 48 6 2 48 6 2 48 6 2 48 6 2 47 6 2 47
6 2 47 6 2 47 6 2 47 6 2 46 6 2 46 6 2 46 6 2 46 6 2 46 6 2 46 6 2 45
5 2 45 5 2 45 5 2 45 5 2 45 5 2 45 5 2 45 5 2 44 5 2 44 5 2 44 5 2 44
5 2 44 5 2 44 5 2 43 5 2 43 5 2 43 5 2 43 5 2 43 5 2 43 5 2 43 5 2 42
5 2 42 5 2 42 5 2 42 5 2 42 5 2 42 5 2 42 5 2 41 5 2 41 5 1 41 5 1 41
5 1 41 5 1 41 5 1 41 5 1 41 5 1 40 5 1 40 5 1 40 5 1 40 5 1 40 5 1 40
5 1 40 5 1 40 5 1 39 5 1 39 3 6 59 3 7 60 3 7 60 3 7 60 3 6 60 3 6 59
3 6 59 3 6 58 3 6 57 3 6 57 3 6 56 3 6 55 3 6 55 3 6 54 3 6 53 3 6 53
3 6 52 3 6 51 3 5 50 3 5 50 3 5 49 3 5 48 2 5 48 2 5 47 2 5 46 2 5 45
2 5 45 2 5 44 2 5 43 2 5 43 2 5 42 2 4 41 2 4 40 2 4 40 2 4 39 2 4 38
2 4 38 2 4 37 2 4 36 2 4 36 2 4 35 2 4 34 2 4 34 2 4 33 2 4 32 2 3 32
2 3 31 2 3 30 2 3 30 2 3 29 1 3 28 1 3 28 1 3 27 1 3 27 1 3 26 1 3 25
1 3 25 1 3 24 1 3 23 1 2 23 1 2 22 1 2 22 1 2 21 1 2 20 1 2 20 1 2 19
1 2 19 1 2 18 1 2 17 1 2 17 1 2 16 1 2 16 1 2 15 1 2 14 1 2 14 1 1 13
1 1 13 1 1 12 1 1 12 1 1 11 1 1 10 1 1 10 0 1 9 0 1 9 0 1 9 0 1 9 0 1
9 0 1 9 0 1 9 0 1 9 0 1 9 0 1 9 0 1 9 0 1 9 0 1 9 0 1 9 0 1 9 0 1 9 0
1 9 0 1 9 0 1 9 0 1 9 0 1 9 0 1 9 0 1 9 0 1 9
6 2 48 6 2 48 6 2 48 6 2 48 6 2 49 6 2 49 6 2 49 6 2 49 6 2 49 6 2 50
6 2 50 6 2 50 6 2 50 6 2 50 6 2 50 6 2 51 6 2 51 6 2 51 6 2 51 6 2 51
6 2 52 6 2 52 6 2 52 6 2 52 6 2 52 6 2 53 6 2 53 6 2 53 6 2 53 6 2 53
7 2 54 7 2 54 7 2 54 7 2 54 7 2 54 7 2 55 7 2 55 7 2 55 7 2 55 7 2 55
7 2 56 7 2 56 7 2 56 7 2 56 7 2 56 7 2 57 7 2 57 7 2 57 7 2 57 7 2 57
7 2 58 7 2 58 7 2 58 7 2 58 7 2 58 7 2 59 7 2 59 7 2 59 7 2 59 7 2 59
7 2 60 7 2 60 7 2 60 7 2 60 7 2 60 7 2 61 7 2 61 7 2 61 7 2 61 7 2 61
7 2 62 7 2 62 8 2 62 8 2 62 8 2 62 8 2 62 8 2 63 8 2 63 8 2 63 8 2 63
8 2 63 8 2 63 8 2 64 8 2 64 8 2 64 8 2 64 8 2 64 8 2 64 8 2 64 8 2 65
8 2 65 8 2 65 8 2 65 8 2 65 8 2 65 8 2 65 8 2 65 8 2 65 8 2 66 8 2 66
8 2 66 8 2 66 8 2 66 8 2 66 8 2 66 8 2 66 8 2 66 8 2 66 8 2 66 8 2 66
8 2 66 8 2 66 8 2 66 8 2 66 8 2 67 8 2 67 8 2 67 8 2 67 8 2 67 8 2 67
8 2 67 8 2 67 8 2 67 8 2 66 8 2 66 8 2 66 8 2 66 8 2 66 8 2 66 8 2 66
8 2 66 8 2 66 8 2 66 8 2 66 8 2 66 8 2 66 8 2 66 8 2 66 8 2 66 8 2 66
8 2 65 8 2 65 8 2 65 8 2 65 8 2 65 8 2 65 8 2 65 8 2 65 8 2 64 8 2 64
8 2 64 8 2 64 8 2 64 8 2 64 8 2 64 8 2 63 8 2 63 8 2 63 8 2 63 8 2 63
8 2 63 8 2 63 8 2 62 8 2 62 8 2 62 7 2 62 7 2 62 7 2 61 7 2 61 7 2 61
7 2 61 7 2 61 7 2 61 7 2 60 7 2 60 7 2 60 7 2 60 7 2 60 7 2 59 7 2 59
7 2 59 7 2 59 7 2 59 7 2 58 7 2 58 7 2 58 7 2 58 7 2 58 7 2 57 7 2 57
7 2 57 7 2 57 7 2 57 7 2 56 7 2 56 7 2 56 7 2 56 7 2 56 7 2 55 7 2 55
7 2 55 7 2 55 7 2 55 7 2 54 7 2 54 7 2 54 7 2 54 6 2 54 6 2 53 6 2 53
6 2 53 6 2 53 6 2 53 6 2 52 6 2 52 6 2 52 6 2 52 6 2 52 6 2 51 6 2 51
6 2 51 6 2 51 6 2 51 6 2 50 6 2 50 6 2 50 6 2 50 6 2 50 6 2 49 6 2 49
6 2 49 6 2 49 6 2 49 6 2 49 6 2 48 6 2 48 6 2 48 6 2 48 6 2 48 6 2 47
6 2 47 6 2 47 6 2 47 6 2 47 6 2 47 6 2 46 6 2 46 6 2 46 6 2 46 6 2 46
6 2 46 6 2 45 5 2 45 5 2 45 5 2 45 5 2 45 5 2 45 5 2 45 5 2 44 5 2 44
5 2 44 5 2 44 5 2 44 5 2 44 5 2 43 5 2 43 5 2 43 5 2 43 5 2 43 5 2 43
5 2 43 5 2 42 5 2 42 5 2 42 5 2 42 5 2 42 5 2 42 5 2 42 5 2 41 5 1 41
5 1 41 5 1 41 5 1 41 5 1 41 5 1 41 5 1 41 5 1 40 5 1 40 5 1 40 5 1 40
5 1 40 5 1 40 5 1 40 6 5 69 6 5 69 3 7 60 3 7 60 3 7 60 3 6 59 3 6 59
3 6 58 3 6 58 3 6 57 3 6 57 3 6 56 3 6 55 3 6 54 3 6 54 3 6 53 3 6 52
3 6 52 3 6 51 3 5 50 3 5 50 3 5 49 2 5 48 2 5 47 2 5 47 2 5 46 2 5 45
2 5 45 2 5 44 2 5 43 2 5 42 2 5 42 2 4 41 2 4 40 2 4 40 2 4 39 2 4 38
2 4 38 2 4 37 2 4 36 2 4 36 2 4 35 2 4 34 2 4 34 2 4 33 2 4 32 2 3 32
2 3 31 2 3 30 2 3 30 2 3 29 1 3 28 1 3 28 1 3 27 1 3 26 1 3 26 1 3 25
1 3 25 1 3 24 1 3 23 1 2 23 1 2 22 1 2 22 1 2 21 1 2 20 1 2 20 1 2 19
1 2 19 1 2 18 1 2 17 1 2 17 1 2 16 1 2 16 1 2 15 1 2 14 1 2 14 1 1 13
1 1 13 1 1 12 1 1 11 1 1 11 1 1 10 1 1 10 0 1 9 0 1 9 0 1 9 0 1 9 0 1
9 0 1 9 0 1 9 0 1 9 0 1 9 0 1 9 0 1 9 0 1 9 0 1 9 0 1 9 0 1 9 0 1 9 0
1 9 0 1 9 0 1 9 0 1 9 0 1 9 0 1 9 0 1 9 0 1 9
6 2 48 6 2 49 6 2 49 6 2 49 6 2 49 6 2 49 6 2 50 6 2 50 6 2 50 6 2 50
6 2 50 6 2 50 6 2 51 6 2 51 6 2 51 6 2 51 6 2 51 6 2 52 6 2 52 6 2 52
6 2 52 6 2 52 6 2 53 6 2 53 6 2 53 6 2 53 6 2 53 7 2 54 7 2 54 7 2 54
7 2 54 7 2 54 7 2 55 7 2 55 7 2 55 7 2 55 7 2 56 7 2 56 7 2 56 7 2 56
7 2 56 7 2 57 7 2 57 7 2 57 7 2 57 7 2 57 7 2 58 7 2 58 7 2 58 7 2 58
7 2 58 7 2 59 7 2 59 7 2 59 7 2 59 7 2 59 7 2 60 7 2 60 7 2 60 7 2 60
7 2 60 7 2 61 7 2 61 7 2 61 7 2 61 7 2 61 7 2 62 8 2 62 8 2 62 8 2 62
8 2 62 8 2 63 8 2 63 8 2 63 8 2 63 8 2 63 8 2 63 8 2 64 8 2 64 8 2 64
8 2 64 8 2 64 8 2 64 8 2 65 8 2 65 8 2 65 8 2 65 8 2 65 8 2 65 8 2 65
8 2 66 8 2 66 8 2 66 8 2 66 8 2 66 8 2 66 8 2 66 8 2 66 8 2 67 8 2 67
8 2 67 8 2 67 8 2 67 8 2 67 8 2 67 8 2 67 8 2 67 8 2 67 8 2 67 8 2 67
8 2 67 8 2 67 8 2 67 8 2 67 8 2 67 8 2 67 8 2 67 8 2 67 8 2 67 8 2 67
8 2 67 8 2 67 8 2 67 8 2 67 8 2 67 8 2 67 8 2 67 8 2 67 8 2 67 8 2 67
8 2 67 8 2 67 8 2 67 8 2 67 8 2 67 8 2 67 8 2 67 8 2 67 8 2 66 8 2 66
8 2 66 8 2 66 8 2 66 8 2 66 8 2 66 8 2 66 8 2 66 8 2 65 8 2 65 8 2 65
8 2 65 8 2 65 8 2 65 8 2 65 8 2 64 8 2 64 8 2 64 8 2 64 8 2 64 8 2 64
8 2 63 8 2 63 8 2 63 8 2 63 8 2 63 8 2 62 8 2 62 8 2 62 8 2 62 7 2 62
7 2 62 7 2 61 7 2 61 7 2 61 7 2 61 7 2 61 7 2 60 7 2 60 7 2 60 7 2 60
7 2 60 7 2 59 7 2 59 7 2 59 7 2 59 7 2 59 7 2 58 7 2 58 7 2 58 7 2 58
7 2 57 7 2 57 7 2 57 7 2 57 7 2 57 7 2 56 7 2 56 7 2 56 7 2 56 7 2 56
7 2 55 7 2 55 7 2 55 7 2 55 7 2 55 7 2 54 7 2 54 7 2 54 7 2 54 6 2 54
6 2 53 6 2 53 6 2 53 6 2 53 6 2 53 6 2 52 6 2 52 6 2 52 6 2 52 6 2 52
6 2 51 6 2 51 6 2 51 6 2 51 6 2 51 6 2 50 6 2 50 6 2 50 6 2 50 6 2 50
6 2 49 6 2 49 6 2 49 6 2 49 6 2 49 6 2 49 6 2 48 6 2 48 6 2 48 6 2 48
6 2 48 6 2 47 6 2 47 6 2 47 6 2 47 6 2 47 6 2 47 6 2 46 6 2 46 6 2 46
6 2 46 6 2 46 6 2 46 6 2 45 5 2 45 5 2 45 5 2 45 5 2 45 5 2 45 5 2 44
5 2 44 5 2 44 5 2 44 5 2 44 5 2 44 5 2 44 5 2 43 5 2 43 5 2 43 5 2 43
5 2 43 5 2 43 5 2 43 5 2 42 5 2 42 5 2 42 5 2 42 5 2 42 5 2 42 5 2 42
5 2 41 5 1 41 5 1 41 5 1 41 5 1 41 5 1 41 5 1 41 5 1 40 5 1 40 5 1 40
5 1 40 6 5 67 6 5 70 6 5 71 6 5 70 3 6 60 3 7 60 3 6 60 3 6 59 3 6 59
3 6 58 3 6 58 3 6 57 3 6 56 3 6 56 3 6 55 3 6 54 3 6 54 3 6 53 3 6 52
3 6 52 3 6 51 3 5 50 3 5 49 3 5 49 2 5 48 2 5 47 2 5 47 2 5 46 2 5 45
2 5 44 2 5 44 2 5 43 2 5 42 2 5 42 2 4 41 2 4 40 2 4 40 2 4 39 2 4 38
2 4 37 2 4 37 2 4 36 2 4 35 2 4 35 2 4 34 2 4 33 2 4 33 2 4 32 2 3 32
2 3 31 2 3 30 2 3 30 2 3 29 1 3 28 1 3 28 1 3 27 1 3 26 1 3 26 1 3 25
1 3 25 1 3 24 1 3 23 1 2 23 1 2 22 1 2 21 1 2 21 1 2 20 1 2 20 1 2 19
1 2 18 1 2 18 1 2 17 1 2 17 1 2 16 1 2 15 1 2 15 1 2 14 1 1 14 1 1 13
1 1 13 1 1 12 1 1 11 1 1 11 1 1 10 1 1 10 0 1 9 0 1 9 0 1 9 0 1 9 0 1
9 0 1 9 0 1 9 0 1 9 0 1 9 0 1 9 0 1 9 0 1 9 0 1 9 0 1 9 0 1 9 0 1 9 0
1 9 0 1 9 0 1 9 0 1 9 0 1 9 0 1 9 0 1 9 0 1 9
6 2 49 6 2 49 6 2 49 6 2 50 6 2 50 6 2 50 6 2 50 6 2 50 6 2 50 6 2 51
6 2 51 6 2 51 6 2 51 6 2 51 6 2 52 6 2 52 6 2 52 6 2 52 6 2 52 6 2 53
6 2 53 6 2 53 6 2 53 6 2 53 7 2 54 7 2 54 7 2 54 7 2 54 7 2 55 7 2 55
7 2 55 7 2 55 7 2 55 7 2 56 7 2 56 7 2 56 7 2 56 7 2 56 7 2 57 7 2 57
7 2 57 7 2 57 7 2 57 7 2 58 7 2 58 7 2 58 7 2 58 7 2 59 7 2 59 7 2 59
7 2 59 7 2 59 7 2 60 7 2 60 7 2 60 7 2 60 7 2 60 7 2 61 7 2 61 7 2 61
7 2 61 7 2 62 7 2 62 8 2 62 8 2 62 8 2 62 8 2 63 8 2 63 8 2 63 8 2 63
8 2 63 8 2 63 8 2 64 8 2 64 8 2 64 8 2 64 8 2 64 8 2 65 8 2 65 8 2 65
8 2 65 8 2 65 8 2 65 8 2 66 8 2 66 8 2 66 8 2 66 8 2 66 8 2 66 8 2 66
8 2 67 8 2 67 8 2 67 8 2 67 8 2 67 8 2 67 8 2 67 8 2 67 8 2 67 8 2 68
8 2 68 8 2 68 8 2 68 8 2 68 8 2 68 8 2 68 8 2 68 8 2 68 8 2 68 8 2 68
8 2 68 8 2 68 8 2 68 8 2 68 8 2 68 8 2 68 8 2 68 8 2 68 8 2 68 8 2 68
8 2 68 8 2 68 8 2 68 8 2 68 8 2 68 8 2 68 8 2 68 8 2 68 8 2 68 8 2 68
8 2 68 8 2 68 8 2 68 8 2 68 8 2 68 8 2 68 8 2 68 8 2 67 8 2 67 8 2 67
8 2 67 8 2 67 8 2 67 8 2 67 8 2 67 8 2 66 8 2 66 8 2 66 8 2 66 8 2 66
8 2 66 8 2 66 8 2 65 8 2 65 8 2 65 8 2 65 8 2 65 8 2 65 8 2 64 8 2 64
8 2 64 8 2 64 8 2 64 8 2 64 8 2 63 8 2 63 8 2 63 8 2 63 8 2 63 8 2 62
8 2 62 8 2 62 7 2 62 7 2 62 7 2 61 7 2 61 7 2 61 7 2 61 7 2 61 7 2 60
7 2 60 7 2 60 7 2 60 7 2 59 7 2 59 7 2 59 7 2 59 7 2 59 7 2 58 7 2 58
7 2 58 7 2 58 7 2 58 7 2 57 7 2 57 7 2 57 7 2 57 7 2 56 7 2 56 7 2 56
7 2 56 7 2 56 7 2 55 7 2 55 7 2 55 7 2 55 7 2 55 7 2 54 7 2 54 7 2 54
7 2 54 6 2 54 6 2 53 6 2 53 6 2 53 6 2 53 6 2 53 6 2 52 6 2 52 6 2 52
6 2 52 6 2 52 6 2 51 6 2 51 6 2 51 6 2 51 6 2 51 6 2 50 6 2 50 6 2 50
6 2 50 6 2 50 6 2 49 6 2 49 6 2 49 6 2 49 6 2 49 6 2 48 6 2 48 6 2 48
6 2 48 6 2 48 6 2 48 6 2 47 6 2 47 6 2 47 6 2 47 6 2 47 6 2 47 6 2 46
6 2 46 6 2 46 6 2 46 6 2 46 6 2 46 6 2 45 5 2 45 5 2 45 5 2 45 5 2 45
5 2 45 5 2 44 5 2 44 5 2 44 5 2 44 5 2 44 5 2 44 5 2 43 5 2 43 5 2 43
5 2 43 5 2 43 5 2 43 5 2 43 5 2 42 5 2 42 5 2 42 5 2 42 5 2 42 5 2 42
5 2 42 5 2 41 5 2 41 5 1 41 5 1 41 5 1 41 5 1 41 5 1 41 5 1 41 5 1 40
6 5 69 6 5 72 6 5 72 6 5 72 6 5 71 3 6 59 3 6 59 3 6 59 3 6 59 3 6 58
3 6 58 3 6 57 3 6 57 3 6 56 3 6 55 3 6 55 3 6 54 3 6 53 3 6 53 3 6 52
3 6 51 3 6 51 3 5 50 3 5 49 3 5 49 2 5 48 2 5 47 2 5 46 2 5 46 2 5 45
2 5 44 2 5 44 2 5 43 2 5 42 2 5 41 2 4 41 2 4 40 2 4 39 2 4 39 2 4 38
2 4 37 2 4 37 2 4 36 2 4 35 2 4 35 2 4 34 2 4 33 2 4 33 2 3 32 2 3 31
2 3 31 2 3 30 2 3 29 1 3 29 1 3 28 1 3 28 1 3 27 1 3 26 1 3 26 1 3 25
1 3 24 1 3 24 1 3 23 1 2 23 1 2 22 1 2 21 1 2 21 1 2 20 1 2 20 1 2 19
1 2 18 1 2 18 1 2 17 1 2 17 1 2 16 1 2 15 1 2 15 1 2 14 1 1 14 1 1 13
1 1 12 1 1 12 1 1 11 1 1 11 1 1 10 0 1 10 0 1 9 0 1 9 0 1 9 0 1 9 0 1
9 0 1 9 0 1 9 0 1 9 0 1 9 0 1 9 0 1 9 0 1 9 0 1 9 0 1 9 0 1 9 0 1 9 0
1 9 0 1 9 0 1 9 0 1 9 0 1 9 0 1 9 0 1 9 0 1 9
6 2 49 6 2 50 6 2 50 6 2 50 6 2 50 6 2 50 6 2 51 6 2 51 6 2 51 6 2 51
6 2 51 6 2 52 6 2 52 6 2 52 6 2 52 6 2 52 6 2 53 6 2 53 6 2 53 6 2 53
6 2 53 7 2 54 7 2 54 7 2 54 7 2 54 7 2 55 7 2 55 7 2 55 7 2 55 7 2 55
7 2 56 7 2 56 7 2 56 7 2 56 7 2 56 7 2 57 7 2 57 7 2 57 7 2 57 7 2 58
7 2 58 7 2 58 7 2 58 7 2 58 7 2 59 7 2 59 7 2 59 7 2 59 7 2 60 7 2 60
7 2 60 7 2 60 7 2 60 7 2 61 7 2 61 7 2 61 7 2 61 7 2 61 7 2 62 8 2 62
8 2 62 8 2 62 8 2 63 8 2 63 8 2 63 8 2 63 8 2 63 8 2 64 8 2 64 8 2 64
8 2 64 8 2 64 8 2 65 8 2 65 8 2 65 8 2 65 8 2 65 8 2 65 8 2 66 8 2 66
8 2 66 8 2 66 8 2 66 8 2 66 8 2 67 8 2 67 8 2 67 8 2 67 8 2 67 8 2 67
8 2 68 8 2 68 8 2 68 8 2 68 8 2 68 8 2 68 8 2 68 8 2 68 8 2 68 8 2 69
8 2 69 8 2 69 8 2 69 8 2 69 8 3 69 8 3 69 8 3 69 8 3 69 8 3 69 8 3 69
8 3 69 8 3 69 8 3 69 8 3 69 8 3 69 8 3 69 8 3 69 8 3 69 8 3 69 8 3 69
8 3 69 8 3 69 8 3 69 8 3 69 8 3 69 8 3 69 8 3 69 8 3 69 8 3 69 8 3 69
8 2 69 8 2 69 8 2 69 8 2 69 8 2 69 8 2 68 8 2 68 8 2 68 8 2 68 8 2 68
8 2 68 8 2 68 8 2 68 8 2 68 8 2 67 8 2 67 8 2 67 8 2 67 8 2 67 8 2 67
8 2 67 8 2 66 8 2 66 8 2 66 8 2 66 8 2 66 8 2 66 8 2 65 8 2 65 8 2 65
8 2 65 8 2 65 8 2 64 8 2 64 8 2 64 8 2 64 8 2 64 8 2 63 8 2 63 8 2 63
8 2 63 8 2 63 8 2 62 8 2 62 8 2 62 7 2 62 7 2 62 7 2 61 7 2 61 7 2 61
7 2 61 7 2 60 7 2 60 7 2 60 7 2 60 7 2 60 7 2 59 7 2 59 7 2 59 7 2 59
7 2 58 7 2 58 7 2 58 7 2 58 7 2 58 7 2 57 7 2 57 7 2 57 7 2 57 7 2 57
7 2 56 7 2 56 7 2 56 7 2 56 7 2 55 7 2 55 7 2 55 7 2 55 7 2 55 7 2 54
7 2 54 7 2 54 7 2 54 6 2 54 6 2 53 6 2 53 6 2 53 6 2 53 6 2 52 6 2 52
6 2 52 6 2 52 6 2 52 6 2 51 6 2 51 6 2 51 6 2 51 6 2 51 6 2 50 6 2 50
6 2 50 6 2 50 6 2 50 6 2 50 6 2 49 6 2 49 6 2 49 6 2 49 6 2 49 6 2 48
6 2 48 6 2 48 6 2 48 6 2 48 6 2 48 6 2 47 6 2 47 6 2 47 6 2 47 6 2 47
6 2 46 6 2 46 6 2 46 6 2 46 6 2 46 6 2 46 6 2 45 5 2 45 5 2 45 5 2 45
5 2 45 5 2 45 5 2 45 5 2 44 5 2 44 5 2 44 5 2 44 5 2 44 5 2 44 5 2 43
5 2 43 5 2 43 5 2 43 5 2 43 5 2 43 5 2 43 5 2 42 5 2 42 5 2 42 5 2 42
5 2 42 5 2 42 5 2 42 5 2 41 5 1 41 5 1 41 5 1 41 5 1 41 5 1 41 5 1 41
6 5 73 6 5 73 6 5 73 6 5 73 6 5 72 3 6 58 3 6 59 3 6 59 3 6 59 3 6 58
3 6 58 3 6 57 3 6 57 3 6 56 3 6 55 3 6 55 3 6 54 3 6 53 3 6 53 3 6 52
3 6 51 3 5 50 3 5 50 3 5 49 3 5 48 2 5 48 2 5 47 2 5 46 2 5 46 2 5 45
2 5 44 2 5 43 2 5 43 2 5 42 2 5 41 2 4 41 2 4 40 2 4 39 2 4 39 2 4 38
2 4 37 2 4 37 2 4 36 2 4 35 2 4 35 2 4 34 2 4 33 2 4 33 2 3 32 2 3 31
2 3 31 2 3 30 2 3 29 1 3 29 1 3 28 1 3 27 1 3 27 1 3 26 1 3 26 1 3 25
1 3 24 1 3 24 1 3 23 1 2 22 1 2 22 1 2 21 1 2 21 1 2 20 1 2 19 1 2 19
1 2 18 1 2 18 1 2 17 1 2 16 1 2 16 1 2 15 1 2 15 1 2 14 1 1 14 1 1 13
1 1 12 1 1 12 1 1 11 1 1 11 1 1 10 0 1 9 0 1 9 0 1 9 0 1 9 0 1 9 0 1 9
0 1 9 0 1 9 0 1 9 0 1 9 0 1 9 0 1 9 0 1 9 0 1 9 0 1 9 0 1 9 0 1 9 0 1
9 0 1 9 0 1 9 0 1 9 0 1 9 0 1 9 0 1 9 0 1 9
6 2 50 6 2 50 6 2 50 6 2 51 6 2 51 6 2 51 6 2 51 6 2 51 6 2 52 6 2 52
6 2 52 6 2 52 6 2 52 6 2 53 6 2 53 6 2 53 6 2 53 6 2 53 7 2 54 7 2 54
7 2 54 7 2 54 7 2 55 7 2 55 7 2 55 7 2 55 7 2 55 7 2 56 7 2 56 7 2 56
7 2 56 7 2 56 7 2 57 7 2 57 7 2 57 7 2 57 7 2 58 7 2 58 7 2 58 7 2 58
7 2 58 7 2 59 7 2 59 7 2 59 7 2 59 7 2 60 7 2 60 7 2 60 7 2 60 7 2 61
7 2 61 7 2 61 7 2 61 7 2 61 7 2 62 8 2 62 8 2 62 8 2 62 8 2 63 8 2 63
8 2 63 8 2 63 8 2 63 8 2 64 8 2 64 8 2 64 8 2 64 8 2 64 8 2 65 8 2 65
8 2 65 8 2 65 8 2 65 8 2 66 8 2 66 8 2 66 8 2 66 8 2 66 8 2 67 8 2 67
8 2 67 8 2 67 8 2 67 8 2 67 8 2 68 8 2 68 8 2 68 8 2 68 8 2 68 8 2 68
8 2 68 8 2 69 8 2 69 8 2 69 8 3 69 8 3 69 8 3 69 8 3 69 8 3 69 8 3 70
8 3 70 8 3 70 8 3 70 8 3 70 8 3 70 8 3 70 8 3 70 9 3 70 9 3 70 9 3 70
9 3 70 9 3 70 9 3 70 9 3 70 9 3 70 9 3 70 9 3 70 9 3 70 9 3 70 9 3 70
9 3 70 9 3 70 9 3 70 9 3 70 9 3 70 9 3 70 8 3 70 8 3 70 8 3 70 8 3 70
8 3 70 8 3 70 8 3 70 8 3 70 8 3 69 8 3 69 8 3 69 8 3 69 8 3 69 8 2 69
8 2 69 8 2 69 8 2 68 8 2 68 8 2 68 8 2 68 8 2 68 8 2 68 8 2 68 8 2 67
8 2 67 8 2 67 8 2 67 8 2 67 8 2 67 8 2 66 8 2 66 8 2 66 8 2 66 8 2 66
8 2 65 8 2 65 8 2 65 8 2 65 8 2 65 8 2 64 8 2 64 8 2 64 8 2 64 8 2 64
8 2 63 8 2 63 8 2 63 8 2 63 8 2 63 8 2 62 8 2 62 8 2 62 7 2 62 7 2 61
7 2 61 7 2 61 7 2 61 7 2 61 7 2 60 7 2 60 7 2 60 7 2 60 7 2 59 7 2 59
7 2 59 7 2 59 7 2 59 7 2 58 7 2 58 7 2 58 7 2 58 7 2 57 7 2 57 7 2 57
7 2 57 7 2 57 7 2 56 7 2 56 7 2 56 7 2 56 7 2 55 7 2 55 7 2 55 7 2 55
7 2 55 7 2 54 7 2 54 7 2 54 7 2 54 6 2 53 6 2 53 6 2 53 6 2 53 6 2 53
6 2 52 6 2 52 6 2 52 6 2 52 6 2 52 6 2 51 6 2 51 6 2 51 6 2 51 6 2 51
6 2 50 6 2 50 6 2 50 6 2 50 6 2 50 6 2 49 6 2 49 6 2 49 6 2 49 6 2 49
6 2 49 6 2 48 6 2 48 6 2 48 6 2 48 6 2 48 6 2 47 6 2 47 6 2 47 6 2 47
6 2 47 6 2 47 6 2 46 6 2 46 6 2 46 6 2 46 6 2 46 6 2 46 6 2 45 5 2 45
5 2 45 5 2 45 5 2 45 5 2 45 5 2 44 5 2 44 5 2 44 5 2 44 5 2 44 5 2 44
5 2 44 5 2 43 5 2 43 5 2 43 5 2 43 5 2 43 5 2 43 5 2 42 5 2 42 5 2 42
5 2 42 5 2 42 5 2 42 5 2 42 5 2 41 5 2 41 5 1 41 5 1 41 5 1 41 6 5 74
6 6 75 6 6 75 6 6 74 6 5 74 6 5 73 3 6 57 3 6 59 3 6 59 3 6 58 3 6 58
3 6 57 3 6 57 3 6 56 3 6 56 3 6 55 3 6 54 3 6 54 3 6 53 3 6 52 3 6 52
3 6 51 3 5 50 3 5 50 3 5 49 3 5 48 2 5 47 2 5 47 2 5 46 2 5 45 2 5 45
2 5 44 2 5 43 2 5 43 2 5 42 2 4 41 2 4 41 2 4 40 2 4 39 2 4 38 2 4 38
2 4 37 2 4 36 2 4 36 2 4 35 2 4 34 2 4 34 2 4 33 2 4 32 2 3 32 2 3 31
2 3 31 2 3 30 2 3 29 1 3 29 1 3 28 1 3 27 1 3 27 1 3 26 1 3 25 1 3 25
1 3 24 1 3 24 1 3 23 1 2 22 1 2 22 1 2 21 1 2 21 1 2 20 1 2 19 1 2 19
1 2 18 1 2 18 1 2 17 1 2 16 1 2 16 1 2 15 1 2 15 1 2 14 1 1 13 1 1 13
1 1 12 1 1 12 1 1 11 1 1 11 1 1 10 0 1 9 0 1 9 0 1 9 0 1 9 0 1 9 0 1 9
0 1 9 0 1 9 0 1 9 0 1 9 0 1 9 0 1 9 0 1 9 0 1 9 0 1 9 0 1 9 0 1 9 0 1
9 0 1 9 0 1 9 0 1 9 0 1 9 0 1 9 0 1 9 0 1 9
6 2 51 6 2 51 6 2 51 6 2 51 6 2 51 6 2 52 6 2 52 6 2 52 6 2 52 6 2 52
6 2 53 6 2 53 6 2 53 6 2 53 6 2 53 7 2 54 7 2 54 7 2 54 7 2 54 7 2 54
7 2 55 7 2 55 7 2 55 7 2 55 7 2 56 7 2 56 7 2 56 7 2 56 7 2 56 7 2 57
7 2 57 7 2 57 7 2 57 7 2 58 7 2 58 7 2 58 7 2 58 7 2 59 7 2 59 7 2 59
7 2 59 7 2 59 7 2 60 7 2 60 7 2 60 7 2 60 7 2 61 7 2 61 7 2 61 7 2 61
7 2 62 7 2 62 8 2 62 8 2 62 8 2 62 8 2 63 8 2 63 8 2 63 8 2 63 8 2 64
8 2 64 8 2 64 8 2 64 8 2 64 8 2 65 8 2 65 8 2 65 8 2 65 8 2 66 8 2 66
8 2 66 8 2 66 8 2 66 8 2 67 8 2 67 8 2 67 8 2 67 8 2 67 8 2 67 8 2 68
8 2 68 8 2 68 8 2 68 8 2 68 8 2 69 8 2 69 8 2 69 8 3 69 8 3 69 8 3 69
8 3 69 8 3 70 8 3 70 8 3 70 8 3 70 8 3 70 9 3 70 9 3 70 9 3 70 9 3 70
9 3 71 9 3 71 9 3 71 9 3 71 9 3 71 9 3 71 9 3 71 9 3 71 9 3 71 9 3 71
9 3 71 9 3 71 9 3 71 9 3 71 9 3 71 9 3 71 9 3 71 9 3 71 9 3 71 9 3 71
9 3 71 9 3 71 9 3 71 9 3 71 9 3 71 9 3 71 9 3 71 9 3 71 9 3 71 9 3 71
9 3 71 9 3 71 9 3 70 9 3 70 9 3 70 9 3 70 9 3 70 8 3 70 8 3 70 8 3 70
8 3 70 8 3 69 8 3 69 8 3 69 8 3 69 8 2 69 8 2 69 8 2 69 8 2 68 8 2 68
8 2 68 8 2 68 8 2 68 8 2 68 8 2 67 8 2 67 8 2 67 8 2 67 8 2 67 8 2 66
8 2 66 8 2 66 8 2 66 8 2 66 8 2 65 8 2 65 8 2 65 8 2 65 8 2 64 8 2 64
8 2 64 8 2 64 8 2 64 8 2 63 8 2 63 8 2 63 8 2 63 8 2 62 8 2 62 8 2 62
7 2 62 7 2 62 7 2 61 7 2 61 7 2 61 7 2 61 7 2 60 7 2 60 7 2 60 7 2 60
7 2 59 7 2 59 7 2 59 7 2 59 7 2 59 7 2 58 7 2 58 7 2 58 7 2 58 7 2 57
7 2 57 7 2 57 7 2 57 7 2 57 7 2 56 7 2 56 7 2 56 7 2 56 7 2 55 7 2 55
7 2 55 7 2 55 7 2 55 7 2 54 7 2 54 7 2 54 7 2 54 6 2 53 6 2 53 6 2 53
6 2 53 6 2 53 6 2 52 6 2 52 6 2 52 6 2 52 6 2 52 6 2 51 6 2 51 6 2 51
6 2 51 6 2 51 6 2 50 6 2 50 6 2 50 6 2 50 6 2 50 6 2 49 6 2 49 6 2 49
6 2 49 6 2 49 6 2 48 6 2 48 6 2 48 6 2 48 6 2 48 6 2 48 6 2 47 6 2 47
6 2 47 6 2 47 6 2 47 6 2 46 6 2 46 6 2 46 6 2 46 6 2 46 6 2 46 6 2 45
5 2 45 5 2 45 5 2 45 5 2 45 5 2 45 5 2 45 5 2 44 5 2 44 5 2 44 5 2 44
5 2 44 5 2 44 5 2 43 5 2 43 5 2 43 5 2 43 5 2 43 5 2 43 5 2 43 5 2 42
5 2 42 5 2 42 5 2 42 5 2 42 5 2 42 5 2 42 5 2 41 5 1 41 6 6 75 6 6 76
6 6 76 6 6 75 6 6 75 6 6 74 6 5 73 6 5 73 3 6 58 3 6 58 3 6 58 3 6 58
3 6 57 3 6 57 3 6 56 3 6 55 3 6 55 3 6 54 3 6 54 3 6 53 3 6 52 3 6 52
3 6 51 3 5 50 3 5 49 3 5 49 2 5 48 2 5 47 2 5 47 2 5 46 2 5 45 2 5 45
2 5 44 2 5 43 2 5 42 2 5 42 2 4 41 2 4 40 2 4 40 2 4 39 2 4 38 2 4 38
2 4 37 2 4 36 2 4 36 2 4 35 2 4 34 2 4 34 2 4 33 2 4 32 2 3 32 2 3 31
2 3 30 2 3 30 2 3 29 1 3 29 1 3 28 1 3 27 1 3 27 1 3 26 1 3 25 1 3 25
1 3 24 1 3 24 1 2 23 1 2 22 1 2 22 1 2 21 1 2 20 1 2 20 1 2 19 1 2 19
1 2 18 1 2 17 1 2 17 1 2 16 1 2 16 1 2 15 1 2 15 1 2 14 1 1 13 1 1 13
1 1 12 1 1 12 1 1 11 1 1 10 1 1 10 0 1 9 0 1 9 0 1 9 0 1 9 0 1 9 0 1 9
0 1 9 0 1 9 0 1 9 0 1 9 0 1 9 0 1 9 0 1 9 0 1 9 0 1 9 0 1 9 0 1 9 0 1
9 0 1 9 0 1 9 0 1 9 0 1 9 0 1 9 0 1 9 0 1 9
6 2 51 6 2 51 6 2 51 6 2 52 6 2 52 6 2 52 6 2 52 6 2 52 6 2 53 6 2 53
6 2 53 6 2 53 6 2 54 7 2 54 7 2 54 7 2 54 7 2 54 7 2 55 7 2 55 7 2 55
7 2 55 7 2 56 7 2 56 7 2 56 7 2 56 7 2 56 7 2 57 7 2 57 7 2 57 7 2 57
7 2 58 7 2 58 7 2 58 7 2 58 7 2 59 7 2 59 7 2 59 7 2 59 7 2 59 7 2 60
7 2 60 7 2 60 7 2 60 7 2 61 7 2 61 7 2 61 7 2 61 7 2 62 8 2 62 8 2 62
8 2 62 8 2 63 8 2 63 8 2 63 8 2 63 8 2 64 8 2 64 8 2 64 8 2 64 8 2 64
8 2 65 8 2 65 8 2 65 8 2 65 8 2 66 8 2 66 8 2 66 8 2 66 8 2 66 8 2 67
8 2 67 8 2 67 8 2 67 8 2 67 8 2 68 8 2 68 8 2 68 8 2 68 8 2 68 8 2 69
8 2 69 8 3 69 8 3 69 8 3 69 8 3 69 8 3 70 8 3 70 8 3 70 9 3 70 9 3 70
9 3 70 9 3 71 9 3 71 9 3 71 9 3 71 9 3 71 9 3 71 9 3 71 9 3 71 9 3 71
9 3 72 9 3 72 9 3 72 9 3 72 9 3 72 9 3 72 9 3 72 9 3 72 9 3 72 9 3 72
9 3 72 9 3 72 9 3 72 9 3 72 9 3 72 9 3 72 9 3 72 9 3 72 9 3 72 9 3 72
9 3 72 9 3 72 9 3 72 9 3 72 9 3 72 9 3 72 9 3 72 9 3 72 9 3 72 9 3 72
9 3 72 9 3 71 9 3 71 9 3 71 9 3 71 9 3 71 9 3 71 9 3 71 9 3 71 9 3 71
9 3 70 9 3 70 9 3 70 8 3 70 8 3 70 8 3 70 8 3 70 8 3 69 8 3 69 8 3 69
8 2 69 8 2 69 8 2 68 8 2 68 8 2 68 8 2 68 8 2 68 8 2 67 8 2 67 8 2 67
8 2 67 8 2 67 8 2 66 8 2 66 8 2 66 8 2 66 8 2 66 8 2 65 8 2 65 8 2 65
8 2 65 8 2 64 8 2 64 8 2 64 8 2 64 8 2 64 8 2 63 8 2 63 8 2 63 8 2 63
8 2 62 8 2 62 8 2 62 7 2 62 7 2 61 7 2 61 7 2 61 7 2 61 7 2 60 7 2 60
7 2 60 7 2 60 7 2 60 7 2 59 7 2 59 7 2 59 7 2 59 7 2 58 7 2 58 7 2 58
7 2 58 7 2 57 7 2 57 7 2 57 7 2 57 7 2 56 7 2 56 7 2 56 7 2 56 7 2 56
7 2 55 7 2 55 7 2 55 7 2 55 7 2 54 7 2 54 7 2 54 7 2 54 6 2 54 6 2 53
6 2 53 6 2 53 6 2 53 6 2 53 6 2 52 6 2 52 6 2 52 6 2 52 6 2 51 6 2 51
6 2 51 6 2 51 6 2 51 6 2 50 6 2 50 6 2 50 6 2 50 6 2 50 6 2 49 6 2 49
6 2 49 6 2 49 6 2 49 6 2 49 6 2 48 6 2 48 6 2 48 6 2 48 6 2 48 6 2 47
6 2 47 6 2 47 6 2 47 6 2 47 6 2 47 6 2 46 6 2 46 6 2 46 6 2 46 6 2 46
6 2 46 6 2 45 5 2 45 5 2 45 5 2 45 5 2 45 5 2 45 5 2 44 5 2 44 5 2 44
5 2 44 5 2 44 5 2 44 5 2 44 5 2 43 5 2 43 5 2 43 5 2 43 5 2 43 5 2 43
5 2 42 5 2 42 5 2 42 5 2 42 5 2 42 5 2 42 5 2 42 6 6 76 7 6 77 7 6 77
7 6 77 6 6 76 6 6 75 6 6 75 6 5 74 6 5 73 3 6 57 3 6 58 3 6 58 3 6 57
3 6 57 3 6 56 3 6 56 3 6 55 3 6 55 3 6 54 3 6 53 3 6 53 3 6 52 3 6 51
3 6 51 3 5 50 3 5 49 3 5 49 2 5 48 2 5 47 2 5 46 2 5 46 2 5 45 2 5 44
2 5 44 2 5 43 2 5 42 2 5 42 2 4 41 2 4 40 2 4 40 2 4 39 2 4 38 2 4 38
2 4 37 2 4 36 2 4 36 2 4 35 2 4 34 2 4 34 2 4 33 2 4 32 2 3 32 2 3 31
2 3 30 2 3 30 2 3 29 1 3 28 1 3 28 1 3 27 1 3 26 1 3 26 1 3 25 1 3 25
1 3 24 1 3 23 1 2 23 1 2 22 1 2 22 1 2 21 1 2 20 1 2 20 1 2 19 1 2 19
1 2 18 1 2 17 1 2 17 1 2 16 1 2 16 1 2 15 1 2 14 1 2 14 1 1 13 1 1 13
1 1 12 1 1 12 1 1 11 1 1 10 1 1 10 0 1 9 0 1 9 0 1 9 0 1 9 0 1 9 0 1 9
0 1 9 0 1 9 0 1 9 0 1 9 0 1 9 0 1 9 0 1 9 0 1 9 0 1 9 0 1 9 0 1 9 0 1
9 0 1 9 0 1 9 0 1 9 0 1 9 0 1 9 0 1 9 0 1 9
6 2 52 6 2 52 6 2 52 6 2 52 6 2 52 6 2 53 6 2 53 6 2 53 6 2 53 6 2 53
7 2 54 7 2 54 7 2 54 7 2 54 7 2 55 7 2 55 7 2 55 7 2 55 7 2 55 7 2 56
7 2 56 7 2 56 7 2 56 7 2 57 7 2 57 7 2 57 7 2 57 7 2 58 7 2 58 7 2 58
7 2 58 7 2 59 7 2 59 7 2 59 7 2 59 7 2 59 7 2 60 7 2 60 7 2 60 7 2 60
7 2 61 7 2 61 7 2 61 7 2 61 7 2 62 8 2 62 8 2 62 8 2 62 8 2 63 8 2 63
8 2 63 8 2 63 8 2 64 8 2 64 8 2 64 8 2 64 8 2 65 8 2 65 8 2 65 8 2 65
8 2 66 8 2 66 8 2 66 8 2 66 8 2 66 8 2 67 8 2 67 8 2 67 8 2 67 8 2 68
8 2 68 8 2 68 8 2 68 8 2 68 8 2 69 8 2 69 8 3 69 8 3 69 8 3 69 8 3 70
8 3 70 8 3 70 9 3 70 9 3 70 9 3 70 9 3 71 9 3 71 9 3 71 9 3 71 9 3 71
9 3 71 9 3 72 9 3 72 9 3 72 9 3 72 9 3 72 9 3 72 9 3 72 9 3 72 9 3 72
9 3 73 9 3 73 9 3 73 9 3 73 9 3 73 9 3 73 9 3 73 9 3 73 9 3 73 9 3 73
9 3 73 9 3 73 9 3 73 9 3 73 9 3 73 9 3 73 9 3 73 9 3 73 9 3 73 9 3 73
9 3 73 9 3 73 9 3 73 9 3 73 9 3 73 9 3 73 9 3 73 9 3 73 9 3 73 9 3 73
9 3 72 9 3 72 9 3 72 9 3 72 9 3 72 9 3 72 9 3 72 9 3 72 9 3 72 9 3 71
9 3 71 9 3 71 9 3 71 9 3 71 9 3 71 9 3 70 9 3 70 9 3 70 8 3 70 8 3 70
8 3 70 8 3 69 8 3 69 8 3 69 8 2 69 8 2 69 8 2 68 8 2 68 8 2 68 8 2 68
8 2 68 8 2 67 8 2 67 8 2 67 8 2 67 8 2 66 8 2 66 8 2 66 8 2 66 8 2 66
8 2 65 8 2 65 8 2 65 8 2 65 8 2 64 8 2 64 8 2 64 8 2 64 8 2 63 8 2 63
8 2 63 8 2 63 8 2 62 8 2 62 8 2 62 7 2 62 7 2 61 7 2 61 7 2 61 7 2 61
7 2 60 7 2 60 7 2 60 7 2 60 7 2 59 7 2 59 7 2 59 7 2 59 7 2 59 7 2 58
7 2 58 7 2 58 7 2 58 7 2 57 7 2 57 7 2 57 7 2 57 7 2 56 7 2 56 7 2 56
7 2 56 7 2 56 7 2 55 7 2 55 7 2 55 7 2 55 7 2 54 7 2 54 7 2 54 7 2 54
6 2 54 6 2 53 6 2 53 6 2 53 6 2 53 6 2 52 6 2 52 6 2 52 6 2 52 6 2 52
6 2 51 6 2 51 6 2 51 6 2 51 6 2 51 6 2 50 6 2 50 6 2 50 6 2 50 6 2 50
6 2 49 6 2 49 6 2 49 6 2 49 6 2 49 6 2 48 6 2 48 6 2 48 6 2 48 6 2 48
6 2 48 6 2 47 6 2 47 6 2 47 6 2 47 6 2 47 6 2 46 6 2 46 6 2 46 6 2 46
6 2 46 6 2 46 6 2 45 5 2 45 5 2 45 5 2 45 5 2 45 5 2 45 5 2 45 5 2 44
5 2 44 5 2 44 5 2 44 5 2 44 5 2 44 5 2 43 5 2 43 5 2 43 5 2 43 5 2 43
5 2 43 5 2 43 5 2 42 5 2 42 5 2 42 5 2 42 6 6 76 7 6 78 7 6 78 7 6 78
7 6 77 7 6 77 6 6 76 6 6 75 6 6 74 6 5 73 3 6 57 3 6 57 3 6 57 3 6 57
3 6 57 3 6 56 3 6 56 3 6 55 3 6 54 3 6 54 3 6 53 3 6 52 3 6 52 3 6 51
3 5 50 3 5 50 3 5 49 3 5 48 2 5 48 2 5 47 2 5 46 2 5 46 2 5 45 2 5 44
2 5 44 2 5 43 2 5 42 2 5 41 2 4 41 2 4 40 2 4 39 2 4 39 2 4 38 2 4 37
2 4 37 2 4 36 2 4 35 2 4 35 2 4 34 2 4 33 2 4 33 2 3 32 2 3 31 2 3 31
2 3 30 2 3 30 2 3 29 1 3 28 1 3 28 1 3 27 1 3 26 1 3 26 1 3 25 1 3 25
1 3 24 1 3 23 1 2 23 1 2 22 1 2 21 1 2 21 1 2 20 1 2 20 1 2 19 1 2 18
1 2 18 1 2 17 1 2 17 1 2 16 1 2 15 1 2 15 1 2 14 1 1 14 1 1 13 1 1 13
1 1 12 1 1 11 1 1 11 1 1 10 1 1 10 0 1 9 0 1 9 0 1 9 0 1 9 0 1 9 0 1 9
0 1 9 0 1 9 0 1 9 0 1 9 0 1 9 0 1 9 0 1 9 0 1 9 0 1 9 0 1 9 0 1 9 0 1
9 0 1 9 0 1 9 0 1 9 0 1 9 0 1 9 0 1 9 0 1 9
6 2 52 6 2 52 6 2 53 6 2 53 6 2 53 6 2 53 6 2 53 7 2 54 7 2 54 7 2 54
7 2 54 7 2 55 7 2 55 7 2 55 7 2 55 7 2 55 7 2 56 7 2 56 7 2 56 7 2 56
7 2 57 7 2 57 7 2 57 7 2 57 7 2 58 7 2 58 7 2 58 7 2 58 7 2 58 7 2 59
7 2 59 7 2 59 7 2 59 7 2 60 7 2 60 7 2 60 7 2 60 7 2 61 7 2 61 7 2 61
7 2 61 7 2 62 8 2 62 8 2 62 8 2 62 8 2 63 8 2 63 8 2 63 8 2 63 8 2 64
8 2 64 8 2 64 8 2 64 8 2 65 8 2 65 8 2 65 8 2 65 8 2 66 8 2 66 8 2 66
8 2 66 8 2 67 8 2 67 8 2 67 8 2 67 8 2 68 8 2 68 8 2 68 8 2 68 8 2 68
8 2 69 8 2 69 8 3 69 8 3 69 8 3 70 8 3 70 8 3 70 9 3 70 9 3 70 9 3 71
9 3 71 9 3 71 9 3 71 9 3 71 9 3 71 9 3 72 9 3 72 9 3 72 9 3 72 9 3 72
9 3 72 9 3 73 9 3 73 9 3 73 9 3 73 9 3 73 9 3 73 9 3 73 9 3 73 9 3 73
9 3 74 9 3 74 9 3 74 9 3 74 9 3 74 9 3 74 9 3 74 9 3 74 9 3 74 9 3 74
9 3 74 9 3 74 9 3 74 9 3 74 9 3 74 9 3 74 9 3 74 9 3 74 9 3 74 9 3 74
9 3 74 9 3 74 9 3 74 9 3 74 9 3 74 9 3 74 9 3 74 9 3 74 9 3 74 9 3 73
9 3 73 9 3 73 9 3 73 9 3 73 9 3 73 9 3 73 9 3 73 9 3 73 9 3 72 9 3 72
9 3 72 9 3 72 9 3 72 9 3 72 9 3 71 9 3 71 9 3 71 9 3 71 9 3 71 9 3 71
9 3 70 9 3 70 8 3 70 8 3 70 8 3 70 8 3 69 8 3 69 8 2 69 8 2 69 8 2 68
8 2 68 8 2 68 8 2 68 8 2 68 8 2 67 8 2 67 8 2 67 8 2 67 8 2 66 8 2 66
8 2 66 8 2 66 8 2 65 8 2 65 8 2 65 8 2 65 8 2 64 8 2 64 8 2 64 8 2 64
8 2 63 8 2 63 8 2 63 8 2 63 8 2 62 8 2 62 8 2 62 7 2 62 7 2 61 7 2 61
7 2 61 7 2 61 7 2 60 7 2 60 7 2 60 7 2 60 7 2 59 7 2 59 7 2 59 7 2 59
7 2 58 7 2 58 7 2 58 7 2 58 7 2 58 7 2 57 7 2 57 7 2 57 7 2 57 7 2 56
7 2 56 7 2 56 7 2 56 7 2 55 7 2 55 7 2 55 7 2 55 7 2 55 7 2 54 7 2 54
7 2 54 7 2 54 6 2 53 6 2 53 6 2 53 6 2 53 6 2 53 6 2 52 6 2 52 6 2 52
6 2 52 6 2 51 6 2 51 6 2 51 6 2 51 6 2 51 6 2 50 6 2 50 6 2 50 6 2 50
6 2 50 6 2 49 6 2 49 6 2 49 6 2 49 6 2 49 6 2 49 6 2 48 6 2 48 6 2 48
6 2 48 6 2 48 6 2 47 6 2 47 6 2 47 6 2 47 6 2 47 6 2 47 6 2 46 6 2 46
6 2 46 6 2 46 6 2 46 6 2 46 6 2 45 5 2 45 5 2 45 5 2 45 5 2 45 5 2 45
5 2 44 5 2 44 5 2 44 5 2 44 5 2 44 5 2 44 5 2 43 5 2 43 5 2 43 5 2 43
5 2 43 5 2 43 5 2 43 5 2 42 5 2 42 6 6 76 7 6 78 7 6 79 7 6 79 7 6 78
7 6 78 7 6 77 6 6 76 6 6 75 6 6 74 6 5 73 6 5 72 3 6 57 3 6 57 3 6 57
3 6 56 3 6 56 3 6 55 3 6 55 3 6 54 3 6 54 3 6 53 3 6 52 3 6 52 3 6 51
3 5 50 3 5 50 3 5 49 3 5 48 2 5 48 2 5 47 2 5 46 2 5 45 2 5 45 2 5 44
2 5 43 2 5 43 2 5 42 2 4 41 2 4 41 2 4 40 2 4 39 2 4 39 2 4 38 2 4 37
2 4 37 2 4 36 2 4 35 2 4 35 2 4 34 2 4 33 2 4 33 2 3 32 2 3 31 2 3 31
2 3 30 2 3 29 1 3 29 1 3 28 1 3 28 1 3 27 1 3 26 1 3 26 1 3 25 1 3 24
1 3 24 1 3 23 1 2 23 1 2 22 1 2 21 1 2 21 1 2 20 1 2 20 1 2 19 1 2 18
1 2 18 1 2 17 1 2 17 1 2 16 1 2 15 1 2 15 1 2 14 1 1 14 1 1 13 1 1 12
1 1 12 1 1 11 1 1 11 1 1 10 0 1 10 0 1 9 0 1 9 0 1 9 0 1 9 0 1 9 0 1 9
0 1 9 0 1 9 0 1 9 0 1 9 0 1 9 0 1 9 0 1 9 0 1 9 0 1 9 0 1 9 0 1 9 0 1
9 0 1 9 0 1 9 0 1 9 0 1 9 0 1 9 0 1 9 0 1 9
6 2 53 6 2 53 6 2 53 6 2 53 6 2 54 7 2 54 7 2 54 7 2 54 7 2 54 7 2 55
7 2 55 7 2 55 7 2 55 7 2 56 7 2 56 7 2 56 7 2 56 7 2 57 7 2 57 7 2 57
7 2 57 7 2 57 7 2 58 7 2 58 7 2 58 7 2 58 7 2 59 7 2 59 7 2 59 7 2 59
7 2 60 7 2 60 7 2 60 7 2 60 7 2 61 7 2 61 7 2 61 7 2 61 7 2 62 8 2 62
8 2 62 8 2 62 8 2 63 8 2 63 8 2 63 8 2 63 8 2 64 8 2 64 8 2 64 8 2 64
8 2 65 8 2 65 8 2 65 8 2 65 8 2 66 8 2 66 8 2 66 8 2 66 8 2 67 8 2 67
8 2 67 8 2 67 8 2 68 8 2 68 8 2 68 8 2 68 8 2 69 8 3 69 8 3 69 8 3 69
8 3 70 8 3 70 8 3 70 9 3 70 9 3 70 9 3 71 9 3 71 9 3 71 9 3 71 9 3 71
9 3 72 9 3 72 9 3 72 9 3 72 9 3 72 9 3 73 9 3 73 9 3 73 9 3 73 9 3 73
9 3 73 9 3 74 9 3 74 9 3 74 9 3 74 9 3 74 9 3 74 9 3 74 9 3 74 9 3 74
9 3 75 9 3 75 9 3 75 9 3 75 9 3 75 9 3 75 9 3 75 9 3 75 9 3 75 9 3 75
9 3 75 9 3 75 9 3 75 9 3 75 9 3 75 9 3 75 9 3 75 9 3 75 9 3 75 9 3 75
9 3 75 9 3 75 9 3 75 9 3 75 9 3 75 9 3 75 9 3 75 9 3 75 9 3 74 9 3 74
9 3 74 9 3 74 9 3 74 9 3 74 9 3 74 9 3 74 9 3 74 9 3 73 9 3 73 9 3 73
9 3 73 9 3 73 9 3 73 9 3 72 9 3 72 9 3 72 9 3 72 9 3 72 9 3 71 9 3 71
9 3 71 9 3 71 9 3 71 9 3 70 9 3 70 8 3 70 8 3 70 8 3 70 8 3 69 8 3 69
8 2 69 8 2 69 8 2 68 8 2 68 8 2 68 8 2 68 8 2 67 8 2 67 8 2 67 8 2 67
8 2 66 8 2 66 8 2 66 8 2 66 8 2 65 8 2 65 8 2 65 8 2 65 8 2 64 8 2 64
8 2 64 8 2 64 8 2 63 8 2 63 8 2 63 8 2 63 8 2 62 8 2 62 8 2 62 7 2 62
7 2 61 7 2 61 7 2 61 7 2 61 7 2 60 7 2 60 7 2 60 7 2 60 7 2 59 7 2 59
7 2 59 7 2 59 7 2 58 7 2 58 7 2 58 7 2 58 7 2 57 7 2 57 7 2 57 7 2 57
7 2 56 7 2 56 7 2 56 7 2 56 7 2 56 7 2 55 7 2 55 7 2 55 7 2 55 7 2 54
7 2 54 7 2 54 7 2 54 6 2 54 6 2 53 6 2 53 6 2 53 6 2 53 6 2 52 6 2 52
6 2 52 6 2 52 6 2 52 6 2 51 6 2 51 6 2 51 6 2 51 6 2 51 6 2 50 6 2 50
6 2 50 6 2 50 6 2 50 6 2 49 6 2 49 6 2 49 6 2 49 6 2 49 6 2 48 6 2 48
6 2 48 6 2 48 6 2 48 6 2 48 6 2 47 6 2 47 6 2 47 6 2 47 6 2 47 6 2 46
6 2 46 6 2 46 6 2 46 6 2 46 6 2 46 6 2 45 5 2 45 5 2 45 5 2 45 5 2 45
5 2 45 5 2 44 5 2 44 5 2 44 5 2 44 5 2 44 5 2 44 5 2 44 5 2 43 5 2 43
5 2 43 5 2 43 5 2 43 5 2 43 5 2 43 7 6 79 7 6 80 7 6 80 7 6 79 7 6 79
7 6 78 7 6 77 7 6 76 6 6 76 6 6 75 6 5 74 6 5 73 3 6 56 3 6 56 3 6 56
3 6 56 3 6 56 3 6 55 3 6 54 3 6 54 3 6 53 3 6 53 3 6 52 3 6 51 3 6 51
3 5 50 3 5 49 3 5 49 2 5 48 2 5 47 2 5 47 2 5 46 2 5 45 2 5 45 2 5 44
2 5 43 2 5 43 2 5 42 2 4 41 2 4 40 2 4 40 2 4 39 2 4 38 2 4 38 2 4 37
2 4 36 2 4 36 2 4 35 2 4 34 2 4 34 2 4 33 2 4 32 2 3 32 2 3 31 2 3 31
2 3 30 2 3 29 1 3 29 1 3 28 1 3 27 1 3 27 1 3 26 1 3 26 1 3 25 1 3 24
1 3 24 1 3 23 1 2 22 1 2 22 1 2 21 1 2 21 1 2 20 1 2 19 1 2 19 1 2 18
1 2 18 1 2 17 1 2 16 1 2 16 1 2 15 1 2 15 1 2 14 1 1 14 1 1 13 1 1 12
1 1 12 1 1 11 1 1 11 1 1 10 0 1 9 0 1 9 0 1 9 0 1 9 0 1 9 0 1 9 0 1 9
0 1 9 0 1 9 0 1 9 0 1 9 0 1 9 0 1 9 0 1 9 0 1 9 0 1 9 0 1 9 0 1 9 0 1
9 0 1 9 0 1 9 0 1 9 0 1 9 0 1 9 0 1 9 0 1 9
6 2 53 6 2 53 7 2 54 7 2 54 7 2 54 7 2 54 7 2 55 7 2 55 7 2 55 7 2 55
7 2 55 7 2 56 7 2 56 7 2 56 7 2 56 7 2 57 7 2 57 7 2 57 7 2 57 7 2 58
7 2 58 7 2 58 7 2 58 7 2 59 7 2 59 7 2 59 7 2 59 7 2 60 7 2 60 7 2 60
7 2 60 7 2 61 7 2 61 7 2 61 7 2 61 7 2 62 8 2 62 8 2 62 8 2 62 8 2 63
8 2 63 8 2 63 8 2 63 8 2 64 8 2 64 8 2 64 8 2 65 8 2 65 8 2 65 8 2 65
8 2 66 8 2 66 8 2 66 8 2 66 8 2 67 8 2 67 8 2 67 8 2 67 8 2 68 8 2 68
8 2 68 8 2 68 8 2 69 8 2 69 8 3 69 8 3 69 8 3 70 8 3 70 8 3 70 9 3 70
9 3 71 9 3 71 9 3 71 9 3 71 9 3 71 9 3 72 9 3 72 9 3 72 9 3 72 9 3 72
9 3 73 9 3 73 9 3 73 9 3 73 9 3 73 9 3 74 9 3 74 9 3 74 9 3 74 9 3 74
9 3 74 9 3 75 9 3 75 9 3 75 9 3 75 9 3 75 9 3 75 9 3 75 9 3 75 9 3 75
9 3 76 9 3 76 9 3 76 9 3 76 9 3 76 9 3 76 9 3 76 9 3 76 9 3 76 9 3 76
9 3 76 9 3 76 9 3 76 9 3 76 9 3 76 9 3 76 9 3 76 9 3 76 9 3 76 9 3 76
9 3 76 9 3 76 9 3 76 9 3 76 9 3 76 9 3 76 9 3 76 9 3 75 9 3 75 9 3 75
9 3 75 9 3 75 9 3 75 9 3 75 9 3 75 9 3 74 9 3 74 9 3 74 9 3 74 9 3 74
9 3 74 9 3 74 9 3 73 9 3 73 9 3 73 9 3 73 9 3 73 9 3 72 9 3 72 9 3 72
9 3 72 9 3 72 9 3 71 9 3 71 9 3 71 9 3 71 9 3 70 9 3 70 8 3 70 8 3 70
8 3 70 8 3 69 8 3 69 8 2 69 8 2 69 8 2 68 8 2 68 8 2 68 8 2 68 8 2 67
8 2 67 8 2 67 8 2 67 8 2 66 8 2 66 8 2 66 8 2 66 8 2 65 8 2 65 8 2 65
8 2 64 8 2 64 8 2 64 8 2 64 8 2 63 8 2 63 8 2 63 8 2 63 8 2 62 8 2 62
8 2 62 7 2 62 7 2 61 7 2 61 7 2 61 7 2 61 7 2 60 7 2 60 7 2 60 7 2 60
7 2 59 7 2 59 7 2 59 7 2 59 7 2 58 7 2 58 7 2 58 7 2 58 7 2 57 7 2 57
7 2 57 7 2 57 7 2 56 7 2 56 7 2 56 7 2 56 7 2 55 7 2 55 7 2 55 7 2 55
7 2 55 7 2 54 7 2 54 7 2 54 7 2 54 6 2 53 6 2 53 6 2 53 6 2 53 6 2 53
6 2 52 6 2 52 6 2 52 6 2 52 6 2 51 6 2 51 6 2 51 6 2 51 6 2 51 6 2 50
6 2 50 6 2 50 6 2 50 6 2 50 6 2 49 6 2 49 6 2 49 6 2 49 6 2 49 6 2 48
6 2 48 6 2 48 6 2 48 6 2 48 6 2 48 6 2 47 6 2 47 6 2 47 6 2 47 6 2 47
6 2 47 6 2 46 6 2 46 6 2 46 6 2 46 6 2 46 6 2 45 5 2 45 5 2 45 5 2 45
5 2 45 5 2 45 5 2 45 5 2 44 5 2 44 5 2 44 5 2 44 5 2 44 5 2 44 5 2 43
5 2 43 5 2 43 5 2 43 5 2 43 7 6 79 7 6 80 7 6 81 7 6 80 7 6 80 7 6 79
7 6 78 7 6 78 7 6 77 6 6 76 6 6 75 6 5 74 6 5 73 6 5 72 3 6 56 3 6 56
3 6 56 3 6 55 3 6 55 3 6 54 3 6 54 3 6 53 3 6 52 3 6 52 3 6 51 3 5 50
3 5 50 3 5 49 3 5 48 2 5 48 2 5 47 2 5 46 2 5 46 2 5 45 2 5 44 2 5 44
2 5 43 2 5 42 2 5 42 2 4 41 2 4 40 2 4 40 2 4 39 2 4 38 2 4 38 2 4 37
2 4 36 2 4 36 2 4 35 2 4 34 2 4 34 2 4 33 2 4 32 2 3 32 2 3 31 2 3 30
2 3 30 2 3 29 1 3 29 1 3 28 1 3 27 1 3 27 1 3 26 1 3 25 1 3 25 1 3 24
1 3 24 1 2 23 1 2 22 1 2 22 1 2 21 1 2 20 1 2 20 1 2 19 1 2 19 1 2 18
1 2 18 1 2 17 1 2 16 1 2 16 1 2 15 1 2 15 1 2 14 1 1 13 1 1 13 1 1 12
1 1 12 1 1 11 1 1 11 1 1 10 0 1 9 0 1 9 0 1 9 0 1 9 0 1 9 0 1 9 0 1 9
0 1 9 0 1 9 0 1 9 0 1 9 0 1 9 0 1 9 0 1 9 0 1 9 0 1 9 0 1 9 0 1 9 0 1
9 0 1 9 0 1 9 0 1 9 0 1 9 0 1 9 0 1 9 0 1 9
7 2 54 7 2 54 7 2 54 7 2 54 7 2 55 7 2 55 7 2 55 7 2 55 7 2 56 7 2 56
7 2 56 7 2 56 7 2 57 7 2 57 7 2 57 7 2 57 7 2 57 7 2 58 7 2 58 7 2 58
7 2 58 7 2 59 7 2 59 7 2 59 7 2 60 7 2 60 7 2 60 7 2 60 7 2 61 7 2 61
7 2 61 7 2 61 7 2 62 8 2 62 8 2 62 8 2 62 8 2 63 8 2 63 8 2 63 8 2 63
8 2 64 8 2 64 8 2 64 8 2 64 8 2 65 8 2 65 8 2 65 8 2 66 8 2 66 8 2 66
8 2 66 8 2 67 8 2 67 8 2 67 8 2 67 8 2 68 8 2 68 8 2 68 8 2 68 8 2 69
8 3 69 8 3 69 8 3 69 8 3 70 8 3 70 9 3 70 9 3 70 9 3 71 9 3 71 9 3 71
9 3 71 9 3 72 9 3 72 9 3 72 9 3 72 9 3 73 9 3 73 9 3 73 9 3 73 9 3 73
9 3 74 9 3 74 9 3 74 9 3 74 9 3 74 9 3 75 9 3 75 9 3 75 9 3 75 9 3 75
9 3 75 9 3 76 9 3 76 9 3 76 9 3 76 9 3 76 9 3 76 9 3 76 9 3 76 9 3 76
9 3 77 9 3 77 9 3 77 9 3 77 9 3 77 9 3 77 9 3 77 9 3 77 9 3 77 9 3 77
9 3 77 9 3 77 9 3 77 9 3 77 9 3 77 9 3 77 9 3 77 9 3 77 9 3 77 9 3 77
9 3 77 9 3 77 9 3 77 9 3 77 9 3 77 9 3 77 9 3 76 9 3 76 9 3 76 9 3 76
9 3 76 9 3 76 9 3 76 9 3 76 9 3 75 9 3 75 9 3 75 9 3 75 9 3 75 9 3 75
9 3 75 9 3 74 9 3 74 9 3 74 9 3 74 9 3 74 9 3 73 9 3 73 9 3 73 9 3 73
9 3 73 9 3 72 9 3 72 9 3 72 9 3 72 9 3 71 9 3 71 9 3 71 9 3 71 9 3 70
9 3 70 8 3 70 8 3 70 8 3 69 8 3 69 8 3 69 8 2 69 8 2 68 8 2 68 8 2 68
8 2 68 8 2 67 8 2 67 8 2 67 8 2 67 8 2 66 8 2 66 8 2 66 8 2 66 8 2 65
8 2 65 8 2 65 8 2 64 8 2 64 8 2 64 8 2 64 8 2 63 8 2 63 8 2 63 8 2 63
8 2 62 8 2 62 7 2 62 7 2 62 7 2 61 7 2 61 7 2 61 7 2 60 7 2 60 7 2 60
7 2 60 7 2 59 7 2 59 7 2 59 7 2 59 7 2 58 7 2 58 7 2 58 7 2 58 7 2 57
7 2 57 7 2 57 7 2 57 7 2 56 7 2 56 7 2 56 7 2 56 7 2 56 7 2 55 7 2 55
7 2 55 7 2 55 7 2 54 7 2 54 7 2 54 7 2 54 6 2 53 6 2 53 6 2 53 6 2 53
6 2 53 6 2 52 6 2 52 6 2 52 6 2 52 6 2 52 6 2 51 6 2 51 6 2 51 6 2 51
6 2 50 6 2 50 6 2 50 6 2 50 6 2 50 6 2 50 6 2 49 6 2 49 6 2 49 6 2 49
6 2 49 6 2 48 6 2 48 6 2 48 6 2 48 6 2 48 6 2 47 6 2 47 6 2 47 6 2 47
6 2 47 6 2 47 6 2 46 6 2 46 6 2 46 6 2 46 6 2 46 6 2 46 6 2 45 5 2 45
5 2 45 5 2 45 5 2 45 5 2 45 5 2 44 5 2 44 5 2 44 5 2 44 5 2 44 5 2 44
5 2 43 5 2 43 5 2 43 7 6 78 7 6 81 7 6 81 7 6 81 7 6 81 7 6 80 7 6 79
7 6 79 7 6 78 7 6 77 6 6 76 6 6 75 6 5 74 6 5 73 6 5 72 3 6 55 3 6 55
3 6 55 3 6 55 3 6 54 3 6 54 3 6 53 3 6 53 3 6 52 3 6 52 3 6 51 3 5 50
3 5 50 3 5 49 3 5 48 2 5 48 2 5 47 2 5 46 2 5 46 2 5 45 2 5 44 2 5 44
2 5 43 2 5 42 2 5 41 2 4 41 2 4 40 2 4 39 2 4 39 2 4 38 2 4 37 2 4 37
2 4 36 2 4 35 2 4 35 2 4 34 2 4 34 2 4 33 2 4 32 2 3 32 2 3 31 2 3 30
2 3 30 2 3 29 1 3 28 1 3 28 1 3 27 1 3 26 1 3 26 1 3 25 1 3 25 1 3 24
1 3 23 1 2 23 1 2 22 1 2 22 1 2 21 1 2 20 1 2 20 1 2 19 1 2 19 1 2 18
1 2 17 1 2 17 1 2 16 1 2 16 1 2 15 1 2 14 1 2 14 1 1 13 1 1 13 1 1 12
1 1 12 1 1 11 1 1 10 1 1 10 0 1 9 0 1 9 0 1 9 0 1 9 0 1 9 0 1 9 0 1 9
0 1 9 0 1 9 0 1 9 0 1 9 0 1 9 0 1 9 0 1 9 0 1 9 0 1 9 0 1 9 0 1 9 0 1
9 0 1 9 0 1 9 0 1 9 0 1 9 0 1 9 0 1 9 0 1 9
7 2 54 7 2 55 7 2 55 7 2 55 7 2 55 7 2 55 7 2 56 7 2 56 7 2 56 7 2 56
7 2 57 7 2 57 7 2 57 7 2 57 7 2 58 7 2 58 7 2 58 7 2 58 7 2 59 7 2 59
7 2 59 7 2 59 7 2 60 7 2 60 7 2 60 7 2 60 7 2 61 7 2 61 7 2 61 7 2 61
7 2 62 8 2 62 8 2 62 8 2 63 8 2 63 8 2 63 8 2 63 8 2 64 8 2 64 8 2 64
8 2 64 8 2 65 8 2 65 8 2 65 8 2 66 8 2 66 8 2 66 8 2 66 8 2 67 8 2 67
8 2 67 8 2 67 8 2 68 8 2 68 8 2 68 8 2 69 8 2 69 8 3 69 8 3 69 8 3 70
8 3 70 9 3 70 9 3 70 9 3 71 9 3 71 9 3 71 9 3 71 9 3 72 9 3 72 9 3 72
9 3 72 9 3 73 9 3 73 9 3 73 9 3 73 9 3 74 9 3 74 9 3 74 9 3 74 9 3 74
9 3 75 9 3 75 9 3 75 9 3 75 9 3 75 9 3 76 9 3 76 9 3 76 9 3 76 9 3 76
9 3 76 9 3 76 9 3 77 9 3 77 9 3 77 9 3 77 9 3 77 9 3 77 9 3 77 9 3 77
9 3 78 9 3 78 9 3 78 9 3 78 9 3 78 9 3 78 9 3 78 9 3 78 9 3 78 9 3 78
9 3 78 9 3 78 9 3 78 9 3 78 9 3 78 9 3 78 9 3 78 9 3 78 9 3 78 9 3 78
9 3 78 9 3 78 9 3 78 9 3 78 9 3 78 9 3 77 9 3 77 9 3 77 9 3 77 9 3 77
9 3 77 9 3 77 9 3 77 9 3 76 9 3 76 9 3 76 9 3 76 9 3 76 9 3 76 9 3 75
9 3 75 9 3 75 9 3 75 9 3 75 9 3 75 9 3 74 9 3 74 9 3 74 9 3 74 9 3 73
9 3 73 9 3 73 9 3 73 9 3 73 9 3 72 9 3 72 9 3 72 9 3 72 9 3 71 9 3 71
9 3 71 9 3 71 9 3 70 8 3 70 8 3 70 8 3 70 8 3 69 8 3 69 8 2 69 8 2 68
8 2 68 8 2 68 8 2 68 8 2 67 8 2 67 8 2 67 8 2 67 8 2 66 8 2 66 8 2 66
8 2 65 8 2 65 8 2 65 8 2 65 8 2 64 8 2 64 8 2 64 8 2 64 8 2 63 8 2 63
8 2 63 8 2 62 8 2 62 8 2 62 7 2 62 7 2 61 7 2 61 7 2 61 7 2 61 7 2 60
7 2 60 7 2 60 7 2 60 7 2 59 7 2 59 7 2 59 7 2 59 7 2 58 7 2 58 7 2 58
7 2 58 7 2 57 7 2 57 7 2 57 7 2 57 7 2 56 7 2 56 7 2 56 7 2 56 7 2 55
7 2 55 7 2 55 7 2 55 7 2 54 7 2 54 7 2 54 7 2 54 6 2 54 6 2 53 6 2 53
6 2 53 6 2 53 6 2 52 6 2 52 6 2 52 6 2 52 6 2 52 6 2 51 6 2 51 6 2 51
6 2 51 6 2 51 6 2 50 6 2 50 6 2 50 6 2 50 6 2 50 6 2 49 6 2 49 6 2 49
6 2 49 6 2 49 6 2 48 6 2 48 6 2 48 6 2 48 6 2 48 6 2 47 6 2 47 6 2 47
6 2 47 6 2 47 6 2 47 6 2 46 6 2 46 6 2 46 6 2 46 6 2 46 6 2 46 6 2 45
5 2 45 5 2 45 5 2 45 5 2 45 5 2 45 5 2 44 5 2 44 5 2 44 5 2 44 5 2 44
5 2 44 5 2 44 5 2 43 7 6 81 7 6 82 7 6 82 7 6 82 7 6 81 7 6 80 7 6 80
7 6 79 7 6 78 7 6 77 6 6 76 6 6 75 6 5 74 6 5 73 6 5 72 6 5 71 3 6 55
3 6 55 3 6 54 3 6 54 3 6 54 3 6 53 3 6 52 3 6 52 3 6 51 3 6 51 3 5 50
3 5 49 3 5 49 2 5 48 2 5 47 2 5 47 2 5 46 2 5 45 2 5 45 2 5 44 2 5 43
2 5 43 2 5 42 2 4 41 2 4 41 2 4 40 2 4 39 2 4 39 2 4 38 2 4 37 2 4 37
2 4 36 2 4 35 2 4 35 2 4 34 2 4 33 2 4 33 2 3 32 2 3 31 2 3 31 2 3 30
2 3 29 1 3 29 1 3 28 1 3 28 1 3 27 1 3 26 1 3 26 1 3 25 1 3 24 1 3 24
1 3 23 1 2 23 1 2 22 1 2 21 1 2 21 1 2 20 1 2 20 1 2 19 1 2 18 1 2 18
1 2 17 1 2 17 1 2 16 1 2 16 1 2 15 1 2 14 1 1 14 1 1 13 1 1 13 1 1 12
1 1 11 1 1 11 1 1 10 1 1 10 0 1 9 0 1 9 0 1 9 0 1 9 0 1 9 0 1 9 0 1 9
0 1 9 0 1 9 0 1 9 0 1 9 0 1 9 0 1 9 0 1 9 0 1 9 0 1 9 0 1 9 0 1 9 0 1
9 0 1 9 0 1 9 0 1 9 0 1 9 0 1 9 0 1 9 0 1 9
7 2 55 7 2 55 7 2 55 7 2 56 7 2 56 7 2 56 7 2 56 7 2 56 7 2 57 7 2 57
7 2 57 7 2 57 7 2 58 7 2 58 7 2 58 7 2 58 7 2 59 7 2 59 7 2 59 7 2 60
7 2 60 7 2 60 7 2 60 7 2 61 7 2 61 7 2 61 7 2 61 7 2 62 8 2 62 8 2 62
8 2 62 8 2 63 8 2 63 8 2 63 8 2 64 8 2 64 8 2 64 8 2 64 8 2 65 8 2 65
8 2 65 8 2 65 8 2 66 8 2 66 8 2 66 8 2 67 8 2 67 8 2 67 8 2 67 8 2 68
8 2 68 8 2 68 8 2 69 8 2 69 8 3 69 8 3 69 8 3 70 8 3 70 9 3 70 9 3 70
9 3 71 9 3 71 9 3 71 9 3 72 9 3 72 9 3 72 9 3 72 9 3 73 9 3 73 9 3 73
9 3 73 9 3 74 9 3 74 9 3 74 9 3 74 9 3 74 9 3 75 9 3 75 9 3 75 9 3 75
9 3 76 9 3 76 9 3 76 9 3 76 9 3 76 9 3 77 9 3 77 9 3 77 9 3 77 9 3 77
9 3 77 9 3 77 9 3 78 9 3 78 9 3 78 9 3 78 9 3 78 9 3 78 10 3 78 10 3
78 10 3 79 10 3 79 10 3 79 10 3 79 10 3 79 10 3 79 10 3 79 10 3 79 10
3 79 10 3 79 10 3 79 10 3 79 10 3 79 10 3 79 10 3 79 10 3 79 10 3 79
10 3 79 10 3 79 10 3 79 10 3 79 10 3 79 10 3 79 10 3 79 10 3 78 9 3 78
9 3 78 9 3 78 9 3 78 9 3 78 9 3 78 9 3 78 9 3 77 9 3 77 9 3 77 9 3 77
9 3 77 9 3 77 9 3 76 9 3 76 9 3 76 9 3 76 9 3 76 9 3 75 9 3 75 9 3 75
9 3 75 9 3 75 9 3 74 9 3 74 9 3 74 9 3 74 9 3 73 9 3 73 9 3 73 9 3 73
9 3 72 9 3 72 9 3 72 9 3 72 9 3 71 9 3 71 9 3 71 9 3 71 9 3 70 9 3 70
8 3 70 8 3 70 8 3 69 8 3 69 8 2 69 8 2 68 8 2 68 8 2 68 8 2 68 8 2 67
8 2 67 8 2 67 8 2 67 8 2 66 8 2 66 8 2 66 8 2 65 8 2 65 8 2 65 8 2 65
8 2 64 8 2 64 8 2 64 8 2 63 8 2 63 8 2 63 8 2 63 8 2 62 8 2 62 7 2 62
7 2 62 7 2 61 7 2 61 7 2 61 7 2 60 7 2 60 7 2 60 7 2 60 7 2 59 7 2 59
7 2 59 7 2 59 7 2 58 7 2 58 7 2 58 7 2 58 7 2 57 7 2 57 7 2 57 7 2 57
7 2 56 7 2 56 7 2 56 7 2 56 7 2 55 7 2 55 7 2 55 7 2 55 7 2 55 7 2 54
7 2 54 7 2 54 7 2 54 6 2 53 6 2 53 6 2 53 6 2 53 6 2 52 6 2 52 6 2 52
6 2 52 6 2 52 6 2 51 6 2 51 6 2 51 6 2 51 6 2 51 6 2 50 6 2 50 6 2 50
6 2 50 6 2 50 6 2 49 6 2 49 6 2 49 6 2 49 6 2 49 6 2 48 6 2 48 6 2 48
6 2 48 6 2 48 6 2 48 6 2 47 6 2 47 6 2 47 6 2 47 6 2 47 6 2 46 6 2 46
6 2 46 6 2 46 6 2 46 6 2 46 6 2 45 5 2 45 5 2 45 5 2 45 5 2 45 5 2 45
5 2 44 5 2 44 5 2 44 5 2 44 5 2 44 5 2 44 7 6 81 7 6 82 7 6 83 7 6 82
7 6 82 7 6 81 7 6 81 7 6 80 7 6 79 7 6 78 7 6 77 6 6 76 6 6 75 6 5 74
6 5 73 6 5 72 6 5 71 3 6 54 3 6 54 3 6 54 3 6 54 3 6 53 3 6 53 3 6 52
3 6 52 3 6 51 3 5 50 3 5 50 3 5 49 3 5 48 2 5 48 2 5 47 2 5 46 2 5 46
2 5 45 2 5 44 2 5 44 2 5 43 2 5 42 2 5 42 2 4 41 2 4 40 2 4 40 2 4 39
2 4 38 2 4 38 2 4 37 2 4 36 2 4 36 2 4 35 2 4 34 2 4 34 2 4 33 2 4 33
2 3 32 2 3 31 2 3 31 2 3 30 2 3 29 1 3 29 1 3 28 1 3 27 1 3 27 1 3 26
1 3 26 1 3 25 1 3 24 1 3 24 1 3 23 1 2 23 1 2 22 1 2 21 1 2 21 1 2 20
1 2 20 1 2 19 1 2 18 1 2 18 1 2 17 1 2 17 1 2 16 1 2 15 1 2 15 1 2 14
1 1 14 1 1 13 1 1 12 1 1 12 1 1 11 1 1 11 1 1 10 0 1 10 0 1 9 0 1 9 0
1 9 0 1 9 0 1 9 0 1 9 0 1 9 0 1 9 0 1 9 0 1 9 0 1 9 0 1 9 0 1 9 0 1 9
0 1 9 0 1 9 0 1 9 0 1 9 0 1 9 0 1 9 0 1 9 0 1 9 0 1 9 0 1 9 0 1 9 0 1
9
7 2 55 7 2 56 7 2 56 7 2 56 7 2 56 7 2 57 7 2 57 7 2 57 7 2 57 7 2 58
7 2 58 7 2 58 7 2 58 7 2 59 7 2 59 7 2 59 7 2 59 7 2 60 7 2 60 7 2 60
7 2 60 7 2 61 7 2 61 7 2 61 7 2 61 7 2 62 8 2 62 8 2 62 8 2 63 8 2 63
8 2 63 8 2 63 8 2 64 8 2 64 8 2 64 8 2 65 8 2 65 8 2 65 8 2 65 8 2 66
8 2 66 8 2 66 8 2 67 8 2 67 8 2 67 8 2 67 8 2 68 8 2 68 8 2 68 8 2 69
8 2 69 8 3 69 8 3 69 8 3 70 8 3 70 9 3 70 9 3 71 9 3 71 9 3 71 9 3 71
9 3 72 9 3 72 9 3 72 9 3 72 9 3 73 9 3 73 9 3 73 9 3 73 9 3 74 9 3 74
9 3 74 9 3 74 9 3 75 9 3 75 9 3 75 9 3 75 9 3 76 9 3 76 9 3 76 9 3 76
9 3 77 9 3 77 9 3 77 9 3 77 9 3 77 9 3 77 9 3 78 9 3 78 9 3 78 9 3 78
10 3 78 10 3 78 10 3 79 10 3 79 10 3 79 10 3 79 10 3 79 10 3 79 10 3
79 10 3 79 10 3 80 10 3 80 10 3 80 10 3 80 10 3 80 10 3 80 10 3 80 10
3 80 10 3 80 10 3 80 10 3 80 10 3 80 10 3 80 10 3 80 10 3 80 10 3 80
10 3 80 10 3 80 10 3 80 10 3 80 10 3 80 10 3 80 10 3 79 10 3 79 10 3
79 10 3 79 10 3 79 10 3 79 10 3 79 10 3 79 10 3 79 10 3 78 9 3 78 9 3
78 9 3 78 9 3 78 9 3 78 9 3 77 9 3 77 9 3 77 9 3 77 9 3 77 9 3 76 9 3
76 9 3 76 9 3 76 9 3 76 9 3 75 9 3 75 9 3 75 9 3 75 9 3 74 9 3 74 9 3
74 9 3 74 9 3 73 9 3 73 9 3 73 9 3 73 9 3 72 9 3 72 9 3 72 9 3 72 9 3
71 9 3 71 9 3 71 9 3 70 9 3 70 8 3 70 8 3 70 8 3 69 8 3 69 8 2 69 8 2
68 8 2 68 8 2 68 8 2 68 8 2 67 8 2 67 8 2 67 8 2 66 8 2 66 8 2 66 8 2
66 8 2 65 8 2 65 8 2 65 8 2 64 8 2 64 8 2 64 8 2 64 8 2 63 8 2 63 8 2
63 8 2 62 8 2 62 8 2 62 7 2 62 7 2 61 7 2 61 7 2 61 7 2 61 7 2 60 7 2
60 7 2 60 7 2 60 7 2 59 7 2 59 7 2 59 7 2 58 7 2 58 7 2 58 7 2 58 7 2
57 7 2 57 7 2 57 7 2 57 7 2 56 7 2 56 7 2 56 7 2 56 7 2 56 7 2 55 7 2
55 7 2 55 7 2 55 7 2 54 7 2 54 7 2 54 7 2 54 6 2 53 6 2 53 6 2 53 6 2
53 6 2 53 6 2 52 6 2 52 6 2 52 6 2 52 6 2 51 6 2 51 6 2 51 6 2 51 6 2
51 6 2 50 6 2 50 6 2 50 6 2 50 6 2 50 6 2 49 6 2 49 6 2 49 6 2 49 6 2
49 6 2 48 6 2 48 6 2 48 6 2 48 6 2 48 6 2 48 6 2 47 6 2 47 6 2 47 6 2
47 6 2 47 6 2 47 6 2 46 6 2 46 6 2 46 6 2 46 6 2 46 6 2 45 5 2 45 5 2
45 5 2 45 5 2 45 5 2 45 5 2 45 5 2 44 5 2 44 5 2 44 5 2 44 7 6 82 7 6
83 7 6 83 7 6 83 7 6 82 7 6 82 7 6 81 7 6 80 7 6 79 7 6 78 7 6 77 6 6
76 6 6 75 6 5 74 6 5 73 6 5 72 6 5 70 6 5 69 3 6 54 3 6 54 3 6 53 3 6
53 3 6 52 3 6 52 3 6 51 3 6 51 3 5 50 3 5 49 3 5 49 3 5 48 2 5 48 2 5
47 2 5 46 2 5 46 2 5 45 2 5 44 2 5 44 2 5 43 2 5 42 2 5 42 2 4 41 2 4
40 2 4 40 2 4 39 2 4 38 2 4 38 2 4 37 2 4 36 2 4 36 2 4 35 2 4 34 2 4
34 2 4 33 2 4 32 2 3 32 2 3 31 2 3 30 2 3 30 2 3 29 1 3 29 1 3 28 1 3
27 1 3 27 1 3 26 1 3 25 1 3 25 1 3 24 1 3 24 1 3 23 1 2 22 1 2 22 1 2
21 1 2 21 1 2 20 1 2 19 1 2 19 1 2 18 1 2 18 1 2 17 1 2 16 1 2 16 1 2
15 1 2 15 1 2 14 1 1 13 1 1 13 1 1 12 1 1 12 1 1 11 1 1 11 1 1 10 0 1
9 0 1 9 0 1 9 0 1 9 0 1 9 0 1 9 0 1 9 0 1 9 0 1 9 0 1 9 0 1 9 0 1 9 0
1 9 0 1 9 0 1 9 0 1 9 0 1 9 0 1 9 0 1 9 0 1 9 0 1 9 0 1 9 0 1 9 0 1 9
0 1 9 0 1 9 0 1 9
7 2 56 7 2 56 7 2 56 7 2 57 7 2 57 7 2 57 7 2 57 7 2 58 7 2 58 7 2 58
7 2 58 7 2 59 7 2 59 7 2 59 7 2 59 7 2 60 7 2 60 7 2 60 7 2 61 7 2 61
7 2 61 7 2 61 7 2 62 8 2 62 8 2 62 8 2 62 8 2 63 8 2 63 8 2 63 8 2 64
8 2 64 8 2 64 8 2 64 8 2 65 8 2 65 8 2 65 8 2 66 8 2 66 8 2 66 8 2 66
8 2 67 8 2 67 8 2 67 8 2 68 8 2 68 8 2 68 8 2 68 8 2 69 8 3 69 8 3 69
8 3 70 8 3 70 9 3 70 9 3 71 9 3 71 9 3 71 9 3 71 9 3 72 9 3 72 9 3 72
9 3 72 9 3 73 9 3 73 9 3 73 9 3 74 9 3 74 9 3 74 9 3 74 9 3 75 9 3 75
9 3 75 9 3 75 9 3 76 9 3 76 9 3 76 9 3 76 9 3 77 9 3 77 9 3 77 9 3 77
9 3 77 9 3 78 9 3 78 9 3 78 9 3 78 10 3 78 10 3 79 10 3 79 10 3 79 10
3 79 10 3 79 10 3 79 10 3 80 10 3 80 10 3 80 10 3 80 10 3 80 10 3 80
10 3 80 10 3 80 10 3 81 10 3 81 10 3 81 10 3 81 10 3 81 10 3 81 10 3
81 10 3 81 10 3 81 10 3 81 10 3 81 10 3 81 10 3 81 10 3 81 10 3 81 10
3 81 10 3 81 10 3 81 10 3 81 10 3 81 10 3 81 10 3 80 10 3 80 10 3 80
10 3 80 10 3 80 10 3 80 10 3 80 10 3 80 10 3 80 10 3 79 10 3 79 10 3
79 10 3 79 10 3 79 10 3 79 10 3 78 9 3 78 9 3 78 9 3 78 9 3 78 9 3 77
9 3 77 9 3 77 9 3 77 9 3 77 9 3 76 9 3 76 9 3 76 9 3 76 9 3 75 9 3 75
9 3 75 9 3 75 9 3 74 9 3 74 9 3 74 9 3 73 9 3 73 9 3 73 9 3 73 9 3 72
9 3 72 9 3 72 9 3 72 9 3 71 9 3 71 9 3 71 9 3 70 9 3 70 8 3 70 8 3 70
8 3 69 8 3 69 8 2 69 8 2 68 8 2 68 8 2 68 8 2 67 8 2 67 8 2 67 8 2 67
8 2 66 8 2 66 8 2 66 8 2 65 8 2 65 8 2 65 8 2 65 8 2 64 8 2 64 8 2 64
8 2 63 8 2 63 8 2 63 8 2 63 8 2 62 8 2 62 7 2 62 7 2 61 7 2 61 7 2 61
7 2 61 7 2 60 7 2 60 7 2 60 7 2 60 7 2 59 7 2 59 7 2 59 7 2 59 7 2 58
7 2 58 7 2 58 7 2 58 7 2 57 7 2 57 7 2 57 7 2 57 7 2 56 7 2 56 7 2 56
7 2 56 7 2 55 7 2 55 7 2 55 7 2 55 7 2 54 7 2 54 7 2 54 7 2 54 6 2 53
6 2 53 6 2 53 6 2 53 6 2 53 6 2 52 6 2 52 6 2 52 6 2 52 6 2 52 6 2 51
6 2 51 6 2 51 6 2 51 6 2 50 6 2 50 6 2 50 6 2 50 6 2 50 6 2 49 6 2 49
6 2 49 6 2 49 6 2 49 6 2 49 6 2 48 6 2 48 6 2 48 6 2 48 6 2 48 6 2 47
6 2 47 6 2 47 6 2 47 6 2 47 6 2 47 6 2 46 6 2 46 6 2 46 6 2 46 6 2 46
6 2 46 6 2 45 5 2 45 5 2 45 5 2 45 5 2 45 5 2 45 5 2 44 5 2 44 7 6 82
7 6 83 7 6 84 7 6 84 7 6 83 7 6 83 7 6 82 7 6 81 7 6 80 7 6 79 7 6 78
7 6 77 6 6 76 6 6 75 6 5 74 6 5 73 6 5 72 6 5 70 6 5 69 6 5 68 3 6 53
3 6 53 3 6 52 3 6 52 3 6 52 3 6 51 3 5 50 3 5 50 3 5 49 3 5 49 2 5 48
2 5 47 2 5 47 2 5 46 2 5 45 2 5 45 2 5 44 2 5 43 2 5 43 2 5 42 2 5 41
2 4 41 2 4 40 2 4 39 2 4 39 2 4 38 2 4 37 2 4 37 2 4 36 2 4 35 2 4 35
2 4 34 2 4 34 2 4 33 2 4 32 2 3 32 2 3 31 2 3 30 2 3 30 2 3 29 1 3 28
1 3 28 1 3 27 1 3 27 1 3 26 1 3 25 1 3 25 1 3 24 1 3 23 1 2 23 1 2 22
1 2 22 1 2 21 1 2 20 1 2 20 1 2 19 1 2 19 1 2 18 1 2 17 1 2 17 1 2 16
1 2 16 1 2 15 1 2 15 1 2 14 1 1 13 1 1 13 1 1 12 1 1 12 1 1 11 1 1 10
1 1 10 0 1 9 0 1 9 0 1 9 0 1 9 0 1 9 0 1 9 0 1 9 0 1 9 0 1 9 0 1 9 0 1
9 0 1 9 0 1 9 0 1 9 0 1 9 0 1 9 0 1 9 0 1 9 0 1 9 0 1 9 0 1 9 0 1 9 0
1 9 0 1 9 0 1 9 0 1 9 0 1 9
7 2 56 7 2 57 7 2 57 7 2 57 7 2 57 7 2 58 7 2 58 7 2 58 7 2 58 7 2 59
7 2 59 7 2 59 7 2 60 7 2 60 7 2 60 7 2 60 7 2 61 7 2 61 7 2 61 7 2 61
7 2 62 8 2 62 8 2 62 8 2 63 8 2 63 8 2 63 8 2 63 8 2 64 8 2 64 8 2 64
8 2 65 8 2 65 8 2 65 8 2 65 8 2 66 8 2 66 8 2 66 8 2 67 8 2 67 8 2 67
8 2 67 8 2 68 8 2 68 8 2 68 8 2 69 8 3 69 8 3 69 8 3 70 8 3 70 9 3 70
9 3 70 9 3 71 9 3 71 9 3 71 9 3 72 9 3 72 9 3 72 9 3 73 9 3 73 9 3 73
9 3 73 9 3 74 9 3 74 9 3 74 9 3 74 9 3 75 9 3 75 9 3 75 9 3 76 9 3 76
9 3 76 9 3 76 9 3 77 9 3 77 9 3 77 9 3 77 9 3 78 9 3 78 9 3 78 9 3 78
10 3 78 10 3 79 10 3 79 10 3 79 10 3 79 10 3 79 10 3 80 10 3 80 10 3
80 10 3 80 10 3 80 10 3 80 10 3 81 10 3 81 10 3 81 10 3 81 10 3 81 10
3 81 10 3 81 10 3 81 10 3 81 10 3 82 10 3 82 10 3 82 10 3 82 10 3 82
10 3 82 10 3 82 10 3 82 10 3 82 10 3 82 10 3 82 10 3 82 10 3 82 10 3
82 10 3 82 10 3 82 10 3 82 10 3 82 10 3 82 10 3 81 10 3 81 10 3 81 10
3 81 10 3 81 10 3 81 10 3 81 10 3 81 10 3 81 10 3 80 10 3 80 10 3 80
10 3 80 10 3 80 10 3 80 10 3 79 10 3 79 10 3 79 10 3 79 10 3 79 10 3
78 9 3 78 9 3 78 9 3 78 9 3 77 9 3 77 9 3 77 9 3 77 9 3 76 9 3 76 9 3
76 9 3 76 9 3 75 9 3 75 9 3 75 9 3 75 9 3 74 9 3 74 9 3 74 9 3 74 9 3
73 9 3 73 9 3 73 9 3 72 9 3 72 9 3 72 9 3 71 9 3 71 9 3 71 9 3 71 9 3
70 8 3 70 8 3 70 8 3 69 8 3 69 8 2 69 8 2 69 8 2 68 8 2 68 8 2 68 8 2
67 8 2 67 8 2 67 8 2 66 8 2 66 8 2 66 8 2 66 8 2 65 8 2 65 8 2 65 8 2
64 8 2 64 8 2 64 8 2 64 8 2 63 8 2 63 8 2 63 8 2 62 8 2 62 8 2 62 7 2
62 7 2 61 7 2 61 7 2 61 7 2 60 7 2 60 7 2 60 7 2 60 7 2 59 7 2 59 7 2
59 7 2 59 7 2 58 7 2 58 7 2 58 7 2 58 7 2 57 7 2 57 7 2 57 7 2 57 7 2
56 7 2 56 7 2 56 7 2 56 7 2 55 7 2 55 7 2 55 7 2 55 7 2 54 7 2 54 7 2
54 7 2 54 6 2 53 6 2 53 6 2 53 6 2 53 6 2 53 6 2 52 6 2 52 6 2 52 6 2
52 6 2 52 6 2 51 6 2 51 6 2 51 6 2 51 6 2 50 6 2 50 6 2 50 6 2 50 6 2
50 6 2 50 6 2 49 6 2 49 6 2 49 6 2 49 6 2 49 6 2 48 6 2 48 6 2 48 6 2
48 6 2 48 6 2 47 6 2 47 6 2 47 6 2 47 6 2 47 6 2 47 6 2 46 6 2 46 6 2
46 6 2 46 6 2 46 6 2 46 6 2 45 5 2 45 5 2 45 5 2 45 5 2 45 5 2 45 5 2
44 7 6 83 7 6 84 7 6 84 7 6 84 7 6 83 7 6 83 7 6 82 7 6 81 7 6 80 7 6
79 7 6 78 7 6 77 6 6 76 6 6 75 6 5 74 6 5 73 6 5 71 6 5 70 6 5 69 6 5
68 3 6 53 3 6 52 3 6 52 3 6 52 3 6 51 3 6 51 3 5 50 3 5 50 3 5 49 3 5
48 2 5 48 2 5 47 2 5 46 2 5 46 2 5 45 2 5 44 2 5 44 2 5 43 2 5 42 2 5
42 2 4 41 2 4 41 2 4 40 2 4 39 2 4 39 2 4 38 2 4 37 2 4 37 2 4 36 2 4
35 2 4 35 2 4 34 2 4 33 2 4 33 2 3 32 2 3 31 2 3 31 2 3 30 2 3 30 1 3
29 1 3 28 1 3 28 1 3 27 1 3 26 1 3 26 1 3 25 1 3 25 1 3 24 1 3 23 1 2
23 1 2 22 1 2 21 1 2 21 1 2 20 1 2 20 1 2 19 1 2 19 1 2 18 1 2 17 1 2
17 1 2 16 1 2 16 1 2 15 1 2 14 1 2 14 1 1 13 1 1 13 1 1 12 1 1 12 1 1
11 1 1 10 1 1 10 0 1 9 0 1 9 0 1 9 0 1 9 0 1 9 0 1 9 0 1 9 0 1 9 0 1 9
0 1 9 0 1 9 0 1 9 0 1 9 0 1 9 0 1 9 0 1 9 0 1 9 0 1 9 0 1 9 0 1 9 0 1
9 0 1 9 0 1 9 0 1 9 0 1 9 0 1 9 0 1 9
7 2 57 7 2 57 7 2 58 7 2 58 7 2 58 7 2 58 7 2 59 7 2 59 7 2 59 7 2 59
7 2 60 7 2 60 7 2 60 7 2 60 7 2 61 7 2 61 7 2 61 7 2 62 7 2 62 8 2 62
8 2 62 8 2 63 8 2 63 8 2 63 8 2 63 8 2 64 8 2 64 8 2 64 8 2 65 8 2 65
8 2 65 8 2 66 8 2 66 8 2 66 8 2 66 8 2 67 8 2 67 8 2 67 8 2 68 8 2 68
8 2 68 8 2 69 8 2 69 8 3 69 8 3 69 8 3 70 8 3 70 9 3 70 9 3 71 9 3 71
9 3 71 9 3 72 9 3 72 9 3 72 9 3 72 9 3 73 9 3 73 9 3 73 9 3 74 9 3 74
9 3 74 9 3 75 9 3 75 9 3 75 9 3 75 9 3 76 9 3 76 9 3 76 9 3 76 9 3 77
9 3 77 9 3 77 9 3 78 9 3 78 9 3 78 9 3 78 10 3 79 10 3 79 10 3 79 10 3
79 10 3 79 10 3 80 10 3 80 10 3 80 10 3 80 10 3 80 10 3 81 10 3 81 10
3 81 10 3 81 10 3 81 10 3 81 10 3 82 10 3 82 10 3 82 10 3 82 10 3 82
10 3 82 10 3 82 10 3 82 10 3 82 10 3 83 10 3 83 10 3 83 10 3 83 10 3
83 10 3 83 10 3 83 10 3 83 10 3 83 10 3 83 10 3 83 10 3 83 10 3 83 10
3 83 10 3 83 10 3 83 10 3 83 10 3 82 10 3 82 10 3 82 10 3 82 10 3 82
10 3 82 10 3 82 10 3 82 10 3 82 10 3 81 10 3 81 10 3 81 10 3 81 10 3
81 10 3 81 10 3 81 10 3 80 10 3 80 10 3 80 10 3 80 10 3 80 10 3 79 10
3 79 10 3 79 10 3 79 10 3 78 9 3 78 9 3 78 9 3 78 9 3 77 9 3 77 9 3 77
9 3 77 9 3 76 9 3 76 9 3 76 9 3 76 9 3 75 9 3 75 9 3 75 9 3 74 9 3 74
9 3 74 9 3 74 9 3 73 9 3 73 9 3 73 9 3 72 9 3 72 9 3 72 9 3 71 9 3 71
9 3 71 9 3 71 9 3 70 8 3 70 8 3 70 8 3 69 8 3 69 8 2 69 8 2 68 8 2 68
8 2 68 8 2 67 8 2 67 8 2 67 8 2 67 8 2 66 8 2 66 8 2 66 8 2 65 8 2 65
8 2 65 8 2 65 8 2 64 8 2 64 8 2 64 8 2 63 8 2 63 8 2 63 8 2 62 8 2 62
8 2 62 7 2 62 7 2 61 7 2 61 7 2 61 7 2 61 7 2 60 7 2 60 7 2 60 7 2 59
7 2 59 7 2 59 7 2 59 7 2 58 7 2 58 7 2 58 7 2 58 7 2 57 7 2 57 7 2 57
7 2 57 7 2 56 7 2 56 7 2 56 7 2 56 7 2 55 7 2 55 7 2 55 7 2 55 7 2 54
7 2 54 7 2 54 7 2 54 6 2 54 6 2 53 6 2 53 6 2 53 6 2 53 6 2 52 6 2 52
6 2 52 6 2 52 6 2 52 6 2 51 6 2 51 6 2 51 6 2 51 6 2 51 6 2 50 6 2 50
6 2 50 6 2 50 6 2 50 6 2 49 6 2 49 6 2 49 6 2 49 6 2 49 6 2 48 6 2 48
6 2 48 6 2 48 6 2 48 6 2 47 6 2 47 6 2 47 6 2 47 6 2 47 6 2 47 6 2 46
6 2 46 6 2 46 6 2 46 6 2 46 6 2 46 6 2 45 5 2 45 5 2 45 5 2 45 5 2 45
7 6 83 7 6 84 7 6 85 7 6 84 7 6 84 7 6 83 7 6 83 7 6 82 7 6 81 7 6 80
7 6 79 7 6 78 7 6 77 6 6 76 6 6 75 6 5 74 6 5 73 6 5 71 6 5 70 6 5 69
6 5 68 6 5 67 3 6 52 3 6 52 3 6 51 3 6 51 3 5 50 3 5 50 3 5 49 3 5 49
2 5 48 2 5 47 2 5 47 2 5 46 2 5 46 2 5 45 2 5 44 2 5 44 2 5 43 2 5 42
2 5 42 2 4 41 2 4 40 2 4 40 2 4 39 2 4 38 2 4 38 2 4 37 2 4 36 2 4 36
2 4 35 2 4 34 2 4 34 2 4 33 2 4 33 2 3 32 2 3 31 2 3 31 2 3 30 2 3 29
1 3 29 1 3 28 1 3 27 1 3 27 1 3 26 1 3 26 1 3 25 1 3 24 1 3 24 1 3 23
1 2 23 1 2 22 1 2 21 1 2 21 1 2 20 1 2 20 1 2 19 1 2 18 1 2 18 1 2 17
1 2 17 1 2 16 1 2 15 1 2 15 1 2 14 1 1 14 1 1 13 1 1 13 1 1 12 1 1 11
1 1 11 1 1 10 1 1 10 0 1 9 0 1 9 0 1 9 0 1 9 0 1 9 0 1 9 0 1 9 0 1 9 0
1 9 0 1 9 0 1 9 0 1 9 0 1 9 0 1 9 0 1 9 0 1 9 0 1 9 0 1 9 0 1 9 0 1 9
0 1 9 0 1 9 0 1 9 0 1 9 0 1 9 0 1 9 0 1 9
7 2 58 7 2 58 7 2 58 7 2 58 7 2 59 7 2 59 7 2 59 7 2 59 7 2 60 7 2 60
7 2 60 7 2 60 7 2 61 7 2 61 7 2 61 7 2 62 8 2 62 8 2 62 8 2 62 8 2 63
8 2 63 8 2 63 8 2 64 8 2 64 8 2 64 8 2 64 8 2 65 8 2 65 8 2 65 8 2 66
8 2 66 8 2 66 8 2 67 8 2 67 8 2 67 8 2 67 8 2 68 8 2 68 8 2 68 8 2 69
8 3 69 8 3 69 8 3 70 8 3 70 9 3 70 9 3 71 9 3 71 9 3 71 9 3 71 9 3 72
9 3 72 9 3 72 9 3 73 9 3 73 9 3 73 9 3 74 9 3 74 9 3 74 9 3 75 9 3 75
9 3 75 9 3 75 9 3 76 9 3 76 9 3 76 9 3 77 9 3 77 9 3 77 9 3 77 9 3 78
9 3 78 9 3 78 10 3 78 10 3 79 10 3 79 10 3 79 10 3 79 10 3 80 10 3 80
10 3 80 10 3 80 10 3 81 10 3 81 10 3 81 10 3 81 10 3 81 10 3 82 10 3
82 10 3 82 10 3 82 10 3 82 10 3 82 10 3 83 10 3 83 10 3 83 10 3 83 10
3 83 10 3 83 10 3 83 10 3 83 10 3 83 10 3 83 10 3 84 10 3 84 10 3 84
10 3 84 10 3 84 10 3 84 10 3 84 10 3 84 10 3 84 10 3 84 10 3 84 10 3
84 10 3 84 10 3 84 10 3 83 10 3 83 10 3 83 10 3 83 10 3 83 10 3 83 10
3 83 10 3 83 10 3 83 10 3 83 10 3 82 10 3 82 10 3 82 10 3 82 10 3 82
10 3 82 10 3 81 10 3 81 10 3 81 10 3 81 10 3 81 10 3 80 10 3 80 10 3
80 10 3 80 10 3 80 10 3 79 10 3 79 10 3 79 10 3 79 9 3 78 9 3 78 9 3
78 9 3 77 9 3 77 9 3 77 9 3 77 9 3 76 9 3 76 9 3 76 9 3 76 9 3 75 9 3
75 9 3 75 9 3 74 9 3 74 9 3 74 9 3 73 9 3 73 9 3 73 9 3 73 9 3 72 9 3
72 9 3 72 9 3 71 9 3 71 9 3 71 9 3 70 8 3 70 8 3 70 8 3 69 8 3 69 8 2
69 8 2 69 8 2 68 8 2 68 8 2 68 8 2 67 8 2 67 8 2 67 8 2 66 8 2 66 8 2
66 8 2 65 8 2 65 8 2 65 8 2 65 8 2 64 8 2 64 8 2 64 8 2 63 8 2 63 8 2
63 8 2 63 8 2 62 8 2 62 7 2 62 7 2 61 7 2 61 7 2 61 7 2 61 7 2 60 7 2
60 7 2 60 7 2 59 7 2 59 7 2 59 7 2 59 7 2 58 7 2 58 7 2 58 7 2 58 7 2
57 7 2 57 7 2 57 7 2 57 7 2 56 7 2 56 7 2 56 7 2 56 7 2 55 7 2 55 7 2
55 7 2 55 7 2 54 7 2 54 7 2 54 7 2 54 6 2 54 6 2 53 6 2 53 6 2 53 6 2
53 6 2 52 6 2 52 6 2 52 6 2 52 6 2 52 6 2 51 6 2 51 6 2 51 6 2 51 6 2
51 6 2 50 6 2 50 6 2 50 6 2 50 6 2 50 6 2 49 6 2 49 6 2 49 6 2 49 6 2
49 6 2 48 6 2 48 6 2 48 6 2 48 6 2 48 6 2 47 6 2 47 6 2 47 6 2 47 6 2
47 6 2 47 6 2 46 6 2 46 6 2 46 6 2 46 6 2 46 6 2 46 6 2 45 5 2 45 5 2
45 5 2 45 7 6 84 7 6 85 7 6 85 7 6 85 7 6 84 7 6 84 7 6 83 7 6 82 7 6
81 7 6 80 7 6 79 7 6 78 7 6 77 6 6 76 6 6 75 6 5 74 6 5 72 6 5 71 6 5
70 6 5 69 6 5 68 6 5 67 6 5 65 3 6 51 3 6 51 3 5 50 3 5 50 3 5 49 3 5
49 3 5 48 2 5 48 2 5 47 2 5 47 2 5 46 2 5 45 2 5 45 2 5 44 2 5 43 2 5
43 2 5 42 2 5 41 2 4 41 2 4 40 2 4 39 2 4 39 2 4 38 2 4 37 2 4 37 2 4
36 2 4 36 2 4 35 2 4 34 2 4 34 2 4 33 2 4 32 2 3 32 2 3 31 2 3 30 2 3
30 2 3 29 1 3 29 1 3 28 1 3 27 1 3 27 1 3 26 1 3 25 1 3 25 1 3 24 1 3
24 1 3 23 1 2 22 1 2 22 1 2 21 1 2 21 1 2 20 1 2 19 1 2 19 1 2 18 1 2
18 1 2 17 1 2 16 1 2 16 1 2 15 1 2 15 1 2 14 1 1 14 1 1 13 1 1 12 1 1
12 1 1 11 1 1 11 1 1 10 0 1 10 0 1 9 0 1 9 0 1 9 0 1 9 0 1 9 0 1 9 0 1
9 0 1 9 0 1 9 0 1 9 0 1 9 0 1 9 0 1 9 0 1 9 0 1 9 0 1 9 0 1 9 0 1 9 0
1 9 0 1 9 0 1 9 0 1 9 0 1 9 0 1 9 0 1 9 0 1 9 0 1 9
7 2 58 7 2 58 7 2 59 7 2 59 7 2 59 7 2 59 7 2 60 7 2 60 7 2 60 7 2 60
7 2 61 7 2 61 7 2 61 7 2 62 8 2 62 8 2 62 8 2 62 8 2 63 8 2 63 8 2 63
8 2 64 8 2 64 8 2 64 8 2 65 8 2 65 8 2 65 8 2 65 8 2 66 8 2 66 8 2 66
8 2 67 8 2 67 8 2 67 8 2 68 8 2 68 8 2 68 8 2 69 8 2 69 8 3 69 8 3 69
8 3 70 9 3 70 9 3 70 9 3 71 9 3 71 9 3 71 9 3 72 9 3 72 9 3 72 9 3 73
9 3 73 9 3 73 9 3 74 9 3 74 9 3 74 9 3 74 9 3 75 9 3 75 9 3 75 9 3 76
9 3 76 9 3 76 9 3 77 9 3 77 9 3 77 9 3 77 9 3 78 9 3 78 9 3 78 10 3 79
10 3 79 10 3 79 10 3 79 10 3 80 10 3 80 10 3 80 10 3 80 10 3 81 10 3
81 10 3 81 10 3 81 10 3 82 10 3 82 10 3 82 10 3 82 10 3 82 10 3 83 10
3 83 10 3 83 10 3 83 10 3 83 10 3 83 10 3 83 10 3 84 10 3 84 10 3 84
10 3 84 10 3 84 10 3 84 10 3 84 10 3 84 10 3 84 10 3 84 10 3 85 10 3
85 10 3 85 10 3 85 10 3 85 10 3 85 10 3 85 10 3 85 10 3 85 10 3 85 10
3 85 10 3 84 10 3 84 10 3 84 10 3 84 10 3 84 10 3 84 10 3 84 10 3 84
10 3 84 10 3 84 10 3 84 10 3 83 10 3 83 10 3 83 10 3 83 10 3 83 10 3
83 10 3 82 10 3 82 10 3 82 10 3 82 10 3 82 10 3 81 10 3 81 10 3 81 10
3 81 10 3 80 10 3 80 10 3 80 10 3 80 10 3 79 10 3 79 10 3 79 10 3 79
10 3 78 9 3 78 9 3 78 9 3 78 9 3 77 9 3 77 9 3 77 9 3 76 9 3 76 9 3 76
9 3 75 9 3 75 9 3 75 9 3 75 9 3 74 9 3 74 9 3 74 9 3 73 9 3 73 9 3 73
9 3 72 9 3 72 9 3 72 9 3 71 9 3 71 9 3 71 9 3 71 9 3 70 8 3 70 8 3 70
8 3 69 8 3 69 8 2 69 8 2 68 8 2 68 8 2 68 8 2 67 8 2 67 8 2 67 8 2 66
8 2 66 8 2 66 8 2 66 8 2 65 8 2 65 8 2 65 8 2 64 8 2 64 8 2 64 8 2 63
8 2 63 8 2 63 8 2 63 8 2 62 8 2 62 7 2 62 7 2 61 7 2 61 7 2 61 7 2 61
7 2 60 7 2 60 7 2 60 7 2 59 7 2 59 7 2 59 7 2 59 7 2 58 7 2 58 7 2 58
7 2 58 7 2 57 7 2 57 7 2 57 7 2 57 7 2 56 7 2 56 7 2 56 7 2 56 7 2 55
7 2 55 7 2 55 7 2 55 7 2 54 7 2 54 7 2 54 7 2 54 6 2 54 6 2 53 6 2 53
6 2 53 6 2 53 6 2 52 6 2 52 6 2 52 6 2 52 6 2 52 6 2 51 6 2 51 6 2 51
6 2 51 6 2 51 6 2 50 6 2 50 6 2 50 6 2 50 6 2 50 6 2 49 6 2 49 6 2 49
6 2 49 6 2 49 6 2 48 6 2 48 6 2 48 6 2 48 6 2 48 6 2 47 6 2 47 6 2 47
6 2 47 6 2 47 6 2 47 6 2 46 6 2 46 6 2 46 6 2 46 6 2 46 6 2 46 6 2 45
5 2 45 7 6 83 7 6 85 7 6 85 7 6 85 7 6 85 7 6 84 7 6 84 7 6 83 7 6 82
7 6 81 7 6 80 7 6 79 7 6 78 7 6 77 6 6 76 6 6 75 6 5 73 6 5 72 6 5 71
6 5 70 6 5 69 6 5 68 6 5 66 6 5 65 5 5 64 3 5 50 3 5 50 3 5 50 3 5 49
3 5 49 2 5 48 2 5 47 2 5 47 2 5 46 2 5 46 2 5 45 2 5 44 2 5 44 2 5 43
2 5 42 2 5 42 2 4 41 2 4 40 2 4 40 2 4 39 2 4 39 2 4 38 2 4 37 2 4 37
2 4 36 2 4 35 2 4 35 2 4 34 2 4 33 2 4 33 2 3 32 2 3 31 2 3 31 2 3 30
2 3 30 2 3 29 1 3 28 1 3 28 1 3 27 1 3 26 1 3 26 1 3 25 1 3 25 1 3 24
1 3 23 1 2 23 1 2 22 1 2 22 1 2 21 1 2 20 1 2 20 1 2 19 1 2 19 1 2 18
1 2 17 1 2 17 1 2 16 1 2 16 1 2 15 1 2 15 1 2 14 1 1 13 1 1 13 1 1 12
1 1 12 1 1 11 1 1 11 1 1 10 0 1 9 0 1 9 0 1 9 0 1 9 0 1 9 0 1 9 0 1 9
0 1 9 0 1 9 0 1 9 0 1 9 0 1 9 0 1 9 0 1 9 0 1 9 0 1 9 0 1 9 0 1 9 0 1
9 0 1 9 0 1 9 0 1 9 0 1 9 0 1 9 0 1 9 0 1 9 0 1 9 0 1 9
7 2 59 7 2 59 7 2 59 7 2 59 7 2 60 7 2 60 7 2 60 7 2 61 7 2 61 7 2 61
7 2 61 7 2 62 8 2 62 8 2 62 8 2 63 8 2 63 8 2 63 8 2 63 8 2 64 8 2 64
8 2 64 8 2 65 8 2 65 8 2 65 8 2 65 8 2 66 8 2 66 8 2 66 8 2 67 8 2 67
8 2 67 8 2 68 8 2 68 8 2 68 8 2 69 8 3 69 8 3 69 8 3 70 8 3 70 9 3 70
9 3 71 9 3 71 9 3 71 9 3 71 9 3 72 9 3 72 9 3 72 9 3 73 9 3 73 9 3 73
9 3 74 9 3 74 9 3 74 9 3 75 9 3 75 9 3 75 9 3 76 9 3 76 9 3 76 9 3 77
9 3 77 9 3 77 9 3 77 9 3 78 9 3 78 10 3 78 10 3 79 10 3 79 10 3 79 10
3 79 10 3 80 10 3 80 10 3 80 10 3 81 10 3 81 10 3 81 10 3 81 10 3 82
10 3 82 10 3 82 10 3 82 10 3 82 10 3 83 10 3 83 10 3 83 10 3 83 10 3
83 10 3 84 10 3 84 10 3 84 10 3 84 10 3 84 10 3 84 10 3 85 10 3 85 10
3 85 10 3 85 10 3 85 10 3 85 10 3 85 10 3 85 10 3 85 10 3 85 10 3 85
10 3 85 10 3 85 10 3 86 10 3 86 10 3 86 10 3 86 10 3 86 10 3 85 10 3
85 10 3 85 10 3 85 10 3 85 10 3 85 10 3 85 10 3 85 10 3 85 10 3 85 10
3 85 10 3 85 10 3 84 10 3 84 10 3 84 10 3 84 10 3 84 10 3 84 10 3 84
10 3 83 10 3 83 10 3 83 10 3 83 10 3 83 10 3 82 10 3 82 10 3 82 10 3
82 10 3 81 10 3 81 10 3 81 10 3 81 10 3 80 10 3 80 10 3 80 10 3 80 10
3 79 10 3 79 10 3 79 10 3 78 9 3 78 9 3 78 9 3 78 9 3 77 9 3 77 9 3 77
9 3 76 9 3 76 9 3 76 9 3 75 9 3 75 9 3 75 9 3 74 9 3 74 9 3 74 9 3 73
9 3 73 9 3 73 9 3 73 9 3 72 9 3 72 9 3 72 9 3 71 9 3 71 9 3 71 9 3 70
8 3 70 8 3 70 8 3 69 8 3 69 8 2 69 8 2 68 8 2 68 8 2 68 8 2 67 8 2 67
8 2 67 8 2 66 8 2 66 8 2 66 8 2 66 8 2 65 8 2 65 8 2 65 8 2 64 8 2 64
8 2 64 8 2 63 8 2 63 8 2 63 8 2 63 8 2 62 8 2 62 7 2 62 7 2 61 7 2 61
7 2 61 7 2 61 7 2 60 7 2 60 7 2 60 7 2 60 7 2 59 7 2 59 7 2 59 7 2 58
7 2 58 7 2 58 7 2 58 7 2 57 7 2 57 7 2 57 7 2 57 7 2 56 7 2 56 7 2 56
7 2 56 7 2 55 7 2 55 7 2 55 7 2 55 7 2 54 7 2 54 7 2 54 7 2 54 6 2 54
6 2 53 6 2 53 6 2 53 6 2 53 6 2 52 6 2 52 6 2 52 6 2 52 6 2 52 6 2 51
6 2 51 6 2 51 6 2 51 6 2 51 6 2 50 6 2 50 6 2 50 6 2 50 6 2 50 6 2 49
6 2 49 6 2 49 6 2 49 6 2 49 6 2 48 6 2 48 6 2 48 6 2 48 6 2 48 6 2 47
6 2 47 6 2 47 6 2 47 6 2 47 6 2 47 6 2 46 6 2 46 6 2 46 6 2 46 6 2 46
6 2 46 6 2 45 7 6 84 7 6 85 7 6 86 7 6 85 7 6 85 7 6 84 7 6 84 7 6 83
7 6 82 7 6 81 7 6 80 7 6 79 7 6 78 7 6 77 6 6 76 6 6 74 6 5 73 6 5 72
6 5 71 6 5 70 6 5 69 6 5 67 6 5 66 6 5 65 5 5 64 5 5 63 3 5 49 3 5 49
3 5 49 3 5 48 2 5 48 2 5 47 2 5 46 2 5 46 2 5 45 2 5 45 2 5 44 2 5 43
2 5 43 2 5 42 2 5 42 2 4 41 2 4 40 2 4 40 2 4 39 2 4 38 2 4 38 2 4 37
2 4 36 2 4 36 2 4 35 2 4 34 2 4 34 2 4 33 2 4 33 2 3 32 2 3 31 2 3 31
2 3 30 2 3 29 1 3 29 1 3 28 1 3 28 1 3 27 1 3 26 1 3 26 1 3 25 1 3 24
1 3 24 1 3 23 1 2 23 1 2 22 1 2 21 1 2 21 1 2 20 1 2 20 1 2 19 1 2 18
1 2 18 1 2 17 1 2 17 1 2 16 1 2 16 1 2 15 1 2 14 1 2 14 1 1 13 1 1 13
1 1 12 1 1 11 1 1 11 1 1 10 1 1 10 0 1 9 0 1 9 0 1 9 0 1 9 0 1 9 0 1 9
0 1 9 0 1 9 0 1 9 0 1 9 0 1 9 0 1 9 0 1 9 0 1 9 0 1 9 0 1 9 0 1 9 0 1
9 0 1 9 0 1 9 0 1 9 0 1 9 0 1 9 0 1 9 0 1 9 0 1 9 0 1 9 0 1 9
7 2 59 7 2 59 7 2 60 7 2 60 7 2 60 7 2 61 7 2 61 7 2 61 7 2 61 7 2 62
8 2 62 8 2 62 8 2 63 8 2 63 8 2 63 8 2 63 8 2 64 8 2 64 8 2 64 8 2 65
8 2 65 8 2 65 8 2 66 8 2 66 8 2 66 8 2 66 8 2 67 8 2 67 8 2 67 8 2 68
8 2 68 8 2 68 8 2 69 8 3 69 8 3 69 8 3 70 8 3 70 9 3 70 9 3 71 9 3 71
9 3 71 9 3 72 9 3 72 9 3 72 9 3 73 9 3 73 9 3 73 9 3 74 9 3 74 9 3 74
9 3 75 9 3 75 9 3 75 9 3 75 9 3 76 9 3 76 9 3 76 9 3 77 9 3 77 9 3 77
9 3 78 9 3 78 9 3 78 10 3 79 10 3 79 10 3 79 10 3 80 10 3 80 10 3 80
10 3 80 10 3 81 10 3 81 10 3 81 10 3 81 10 3 82 10 3 82 10 3 82 10 3
82 10 3 83 10 3 83 10 3 83 10 3 83 10 3 84 10 3 84 10 3 84 10 3 84 10
3 84 10 3 85 10 3 85 10 3 85 10 3 85 10 3 85 10 3 85 10 3 85 10 3 86
10 3 86 10 3 86 10 3 86 10 3 86 10 3 86 10 3 86 10 3 86 10 3 86 10 3
86 10 3 86 10 3 86 10 3 86 10 3 86 10 3 86 10 3 86 10 3 86 10 3 86 10
3 86 10 3 86 10 3 86 10 3 86 10 3 86 10 3 86 10 3 86 10 3 86 10 3 86
10 3 86 10 3 85 10 3 85 10 3 85 10 3 85 10 3 85 10 3 85 10 3 84 10 3
84 10 3 84 10 3 84 10 3 84 10 3 83 10 3 83 10 3 83 10 3 83 10 3 83 10
3 82 10 3 82 10 3 82 10 3 82 10 3 81 10 3 81 10 3 81 10 3 80 10 3 80
10 3 80 10 3 80 10 3 79 10 3 79 10 3 79 10 3 78 9 3 78 9 3 78 9 3 77 9
3 77 9 3 77 9 3 77 9 3 76 9 3 76 9 3 76 9 3 75 9 3 75 9 3 75 9 3 74 9
3 74 9 3 74 9 3 73 9 3 73 9 3 73 9 3 72 9 3 72 9 3 72 9 3 71 9 3 71 9
3 71 9 3 70 8 3 70 8 3 70 8 3 69 8 3 69 8 2 69 8 2 68 8 2 68 8 2 68 8
2 67 8 2 67 8 2 67 8 2 67 8 2 66 8 2 66 8 2 66 8 2 65 8 2 65 8 2 65 8
2 64 8 2 64 8 2 64 8 2 63 8 2 63 8 2 63 8 2 63 8 2 62 8 2 62 7 2 62 7
2 61 7 2 61 7 2 61 7 2 61 7 2 60 7 2 60 7 2 60 7 2 59 7 2 59 7 2 59 7
2 59 7 2 58 7 2 58 7 2 58 7 2 58 7 2 57 7 2 57 7 2 57 7 2 57 7 2 56 7
2 56 7 2 56 7 2 56 7 2 55 7 2 55 7 2 55 7 2 55 7 2 54 7 2 54 7 2 54 7
2 54 6 2 54 6 2 53 6 2 53 6 2 53 6 2 53 6 2 52 6 2 52 6 2 52 6 2 52 6
2 52 6 2 51 6 2 51 6 2 51 6 2 51 6 2 51 6 2 50 6 2 50 6 2 50 6 2 50 6
2 50 6 2 49 6 2 49 6 2 49 6 2 49 6 2 49 6 2 48 6 2 48 6 2 48 6 2 48 6
2 48 6 2 47 6 2 47 6 2 47 6 2 47 6 2 47 6 2 47 6 2 46 6 2 46 6 2 46 6
2 46 6 2 46 7 6 81 7 6 85 7 6 86 7 6 86 7 6 85 7 6 85 7 6 84 7 6 83 7
6 83 7 6 82 7 6 81 7 6 80 7 6 79 7 6 78 7 6 77 6 6 75 6 6 74 6 5 73 6
5 72 6 5 71 6 5 70 6 5 68 6 5 67 6 5 66 6 5 65 5 5 64 5 5 63 5 5 61 3
5 49 3 5 48 2 5 48 2 5 47 2 5 47 2 5 46 2 5 46 2 5 45 2 5 44 2 5 44 2
5 43 2 5 43 2 5 42 2 4 41 2 4 41 2 4 40 2 4 39 2 4 39 2 4 38 2 4 37 2
4 37 2 4 36 2 4 36 2 4 35 2 4 34 2 4 34 2 4 33 2 4 32 2 3 32 2 3 31 2
3 30 2 3 30 2 3 29 1 3 29 1 3 28 1 3 27 1 3 27 1 3 26 1 3 26 1 3 25 1
3 24 1 3 24 1 3 23 1 2 22 1 2 22 1 2 21 1 2 21 1 2 20 1 2 19 1 2 19 1
2 18 1 2 18 1 2 17 1 2 17 1 2 16 1 2 15 1 2 15 1 2 14 1 1 14 1 1 13 1
1 12 1 1 12 1 1 11 1 1 11 1 1 10 0 1 10 0 1 9 0 1 9 0 1 9 0 1 9 0 1 9
0 1 9 0 1 9 0 1 9 0 1 9 0 1 9 0 1 9 0 1 9 0 1 9 0 1 9 0 1 9 0 1 9 0 1
9 0 1 9 0 1 9 0 1 9 0 1 9 0 1 9 0 1 9 0 1 9 0 1 9 0 1 9 0 1 9 0 1 9
7 2 60 7 2 60 7 2 60 7 2 61 7 2 61 7 2 61 7 2 61 7 2 62 8 2 62 8 2 62
8 2 63 8 2 63 8 2 63 8 2 63 8 2 64 8 2 64 8 2 64 8 2 65 8 2 65 8 2 65
8 2 66 8 2 66 8 2 66 8 2 66 8 2 67 8 2 67 8 2 67 8 2 68 8 2 68 8 2 68
8 2 69 8 3 69 8 3 69 8 3 70 8 3 70 9 3 70 9 3 71 9 3 71 9 3 71 9 3 72
9 3 72 9 3 72 9 3 73 9 3 73 9 3 73 9 3 74 9 3 74 9 3 74 9 3 75 9 3 75
9 3 75 9 3 76 9 3 76 9 3 76 9 3 77 9 3 77 9 3 77 9 3 78 9 3 78 9 3 78
10 3 79 10 3 79 10 3 79 10 3 79 10 3 80 10 3 80 10 3 80 10 3 81 10 3
81 10 3 81 10 3 82 10 3 82 10 3 82 10 3 82 10 3 83 10 3 83 10 3 83 10
3 83 10 3 84 10 3 84 10 3 84 10 3 84 10 3 85 10 3 85 10 3 85 10 3 85
10 3 85 10 3 85 10 3 86 10 3 86 10 3 86 10 3 86 10 3 86 10 3 86 10 3
87 11 3 87 11 3 87 11 3 87 11 3 87 11 3 87 11 3 87 11 3 87 11 3 87 11
3 87 11 3 87 11 3 87 11 3 87 11 3 87 11 3 87 11 3 87 11 3 87 11 3 87
11 3 87 11 3 87 11 3 87 11 3 87 11 3 87 11 3 87 11 3 87 10 3 87 10 3
86 10 3 86 10 3 86 10 3 86 10 3 86 10 3 86 10 3 86 10 3 85 10 3 85 10
3 85 10 3 85 10 3 85 10 3 84 10 3 84 10 3 84 10 3 84 10 3 83 10 3 83
10 3 83 10 3 83 10 3 82 10 3 82 10 3 82 10 3 82 10 3 81 10 3 81 10 3
81 10 3 80 10 3 80 10 3 80 10 3 80 10 3 79 10 3 79 10 3 79 9 3 78 9 3
78 9 3 78 9 3 77 9 3 77 9 3 77 9 3 76 9 3 76 9 3 76 9 3 75 9 3 75 9 3
75 9 3 74 9 3 74 9 3 74 9 3 73 9 3 73 9 3 73 9 3 72 9 3 72 9 3 72 9 3
71 9 3 71 9 3 71 9 3 70 9 3 70 8 3 70 8 3 69 8 3 69 8 2 69 8 2 68 8 2
68 8 2 68 8 2 67 8 2 67 8 2 67 8 2 67 8 2 66 8 2 66 8 2 66 8 2 65 8 2
65 8 2 65 8 2 64 8 2 64 8 2 64 8 2 63 8 2 63 8 2 63 8 2 63 8 2 62 8 2
62 7 2 62 7 2 61 7 2 61 7 2 61 7 2 61 7 2 60 7 2 60 7 2 60 7 2 59 7 2
59 7 2 59 7 2 59 7 2 58 7 2 58 7 2 58 7 2 58 7 2 57 7 2 57 7 2 57 7 2
57 7 2 56 7 2 56 7 2 56 7 2 56 7 2 55 7 2 55 7 2 55 7 2 55 7 2 54 7 2
54 7 2 54 7 2 54 6 2 53 6 2 53 6 2 53 6 2 53 6 2 53 6 2 52 6 2 52 6 2
52 6 2 52 6 2 52 6 2 51 6 2 51 6 2 51 6 2 51 6 2 51 6 2 50 6 2 50 6 2
50 6 2 50 6 2 50 6 2 49 6 2 49 6 2 49 6 2 49 6 2 49 6 2 48 6 2 48 6 2
48 6 2 48 6 2 48 6 2 47 6 2 47 6 2 47 6 2 47 6 2 47 6 2 47 6 2 46 6 2
46 6 2 46 6 2 46 7 6 84 7 6 86 7 6 86 7 6 86 7 6 85 7 6 85 7 6 84 7 6
83 7 6 82 7 6 82 7 6 81 7 6 80 7 6 78 7 6 77 6 6 76 6 6 75 6 5 74 6 5
73 6 5 72 6 5 71 6 5 69 6 5 68 6 5 67 6 5 66 6 5 65 5 5 64 5 5 62 5 5
61 5 4 60 2 5 48 2 5 47 2 5 47 2 5 46 2 5 46 2 5 45 2 5 45 2 5 44 2 5
43 2 5 43 2 5 42 2 5 42 2 4 41 2 4 40 2 4 40 2 4 39 2 4 38 2 4 38 2 4
37 2 4 37 2 4 36 2 4 35 2 4 35 2 4 34 2 4 33 2 4 33 2 4 32 2 3 32 2 3
31 2 3 30 2 3 30 2 3 29 1 3 28 1 3 28 1 3 27 1 3 27 1 3 26 1 3 25 1 3
25 1 3 24 1 3 24 1 2 23 1 2 22 1 2 22 1 2 21 1 2 21 1 2 20 1 2 19 1 2
19 1 2 18 1 2 18 1 2 17 1 2 16 1 2 16 1 2 15 1 2 15 1 2 14 1 1 13 1 1
13 1 1 12 1 1 12 1 1 11 1 1 11 1 1 10 0 1 9 0 1 9 0 1 9 0 1 9 0 1 9 0
1 9 0 1 9 0 1 9 0 1 9 0 1 9 0 1 9 0 1 9 0 1 9 0 1 9 0 1 9 0 1 9 0 1 9
0 1 9 0 1 9 0 1 9 0 1 9 0 1 9 0 1 9 0 1 9 0 1 9 0 1 9 0 1 9 0 1 9 0 1
9
7 2 60 7 2 61 7 2 61 7 2 61 7 2 61 7 2 62 8 2 62 8 2 62 8 2 63 8 2 63
8 2 63 8 2 63 8 2 64 8 2 64 8 2 64 8 2 65 8 2 65 8 2 65 8 2 66 8 2 66
8 2 66 8 2 67 8 2 67 8 2 67 8 2 67 8 2 68 8 2 68 8 2 68 8 2 69 8 3 69
8 3 69 8 3 70 8 3 70 9 3 70 9 3 71 9 3 71 9 3 71 9 3 72 9 3 72 9 3 72
9 3 73 9 3 73 9 3 73 9 3 74 9 3 74 9 3 74 9 3 75 9 3 75 9 3 75 9 3 76
9 3 76 9 3 76 9 3 77 9 3 77 9 3 77 9 3 78 9 3 78 10 3 78 10 3 79 10 3
79 10 3 79 10 3 80 10 3 80 10 3 80 10 3 81 10 3 81 10 3 81 10 3 82 10
3 82 10 3 82 10 3 82 10 3 83 10 3 83 10 3 83 10 3 83 10 3 84 10 3 84
10 3 84 10 3 85 10 3 85 10 3 85 10 3 85 10 3 85 10 3 86 10 3 86 10 3
86 10 3 86 10 3 86 10 3 87 11 3 87 11 3 87 11 3 87 11 3 87 11 3 87 11
3 87 11 3 88 11 3 88 11 3 88 11 3 88 11 3 88 11 3 88 11 3 88 11 3 88
11 3 88 11 3 88 11 3 88 11 3 88 11 3 88 11 3 88 11 3 88 11 3 88 11 3
88 11 3 88 11 3 88 11 3 88 11 3 88 11 3 88 11 3 88 11 3 87 11 3 87 11
3 87 11 3 87 11 3 87 11 3 87 10 3 87 10 3 86 10 3 86 10 3 86 10 3 86
10 3 86 10 3 85 10 3 85 10 3 85 10 3 85 10 3 85 10 3 84 10 3 84 10 3
84 10 3 84 10 3 83 10 3 83 10 3 83 10 3 82 10 3 82 10 3 82 10 3 82 10
3 81 10 3 81 10 3 81 10 3 80 10 3 80 10 3 80 10 3 79 10 3 79 10 3 79
10 3 78 9 3 78 9 3 78 9 3 77 9 3 77 9 3 77 9 3 76 9 3 76 9 3 76 9 3 75
9 3 75 9 3 75 9 3 74 9 3 74 9 3 74 9 3 73 9 3 73 9 3 73 9 3 72 9 3 72
9 3 72 9 3 71 9 3 71 9 3 71 9 3 70 9 3 70 8 3 70 8 3 69 8 3 69 8 2 69
8 2 68 8 2 68 8 2 68 8 2 67 8 2 67 8 2 67 8 2 67 8 2 66 8 2 66 8 2 66
8 2 65 8 2 65 8 2 65 8 2 64 8 2 64 8 2 64 8 2 63 8 2 63 8 2 63 8 2 63
8 2 62 8 2 62 7 2 62 7 2 61 7 2 61 7 2 61 7 2 61 7 2 60 7 2 60 7 2 60
7 2 59 7 2 59 7 2 59 7 2 59 7 2 58 7 2 58 7 2 58 7 2 58 7 2 57 7 2 57
7 2 57 7 2 57 7 2 56 7 2 56 7 2 56 7 2 56 7 2 55 7 2 55 7 2 55 7 2 55
7 2 54 7 2 54 7 2 54 7 2 54 6 2 53 6 2 53 6 2 53 6 2 53 6 2 53 6 2 52
6 2 52 6 2 52 6 2 52 6 2 52 6 2 51 6 2 51 6 2 51 6 2 51 6 2 50 6 2 50
6 2 50 6 2 50 6 2 50 6 2 49 6 2 49 6 2 49 6 2 49 6 2 49 6 2 49 6 2 48
6 2 48 6 2 48 6 2 48 6 2 48 6 2 47 6 2 47 6 2 47 6 2 47 6 2 47 6 2 47
6 2 46 6 2 46 6 2 46 7 6 85 7 6 86 7 6 86 7 6 86 7 6 85 7 6 85 7 6 84
7 6 83 7 6 82 7 6 81 7 6 80 7 6 79 7 6 78 7 6 77 6 6 76 6 6 75 6 5 74
6 5 73 6 5 72 6 5 70 6 5 69 6 5 68 6 5 67 6 5 66 5 5 65 5 5 63 5 5 62
5 5 61 5 4 60 5 4 59 2 5 47 2 5 46 2 5 46 2 5 45 2 5 45 2 5 44 2 5 44
2 5 43 2 5 43 2 5 42 2 5 41 2 4 41 2 4 40 2 4 39 2 4 39 2 4 38 2 4 38
2 4 37 2 4 36 2 4 36 2 4 35 2 4 34 2 4 34 2 4 33 2 4 33 2 3 32 2 3 31
2 3 31 2 3 30 2 3 29 1 3 29 1 3 28 1 3 28 1 3 27 1 3 26 1 3 26 1 3 25
1 3 25 1 3 24 1 3 23 1 2 23 1 2 22 1 2 22 1 2 21 1 2 20 1 2 20 1 2 19
1 2 19 1 2 18 1 2 17 1 2 17 1 2 16 1 2 16 1 2 15 1 2 14 1 2 14 1 1 13
1 1 13 1 1 12 1 1 12 1 1 11 1 1 10 1 1 10 0 1 9 0 1 9 0 1 9 0 1 9 0 1
9 0 1 9 0 1 9 0 1 9 0 1 9 0 1 9 0 1 9 0 1 9 0 1 9 0 1 9 0 1 9 0 1 9 0
1 9 0 1 9 0 1 9 0 1 9 0 1 9 0 1 9 0 1 9 0 1 9 0 1 9 0 1 9 0 1 9 0 1 9
0 1 9
7 2 61 7 2 61 7 2 61 7 2 62 8 2 62 8 2 62 8 2 63 8 2 63 8 2 63 8 2 63
8 2 64 8 2 64 8 2 64 8 2 65 8 2 65 8 2 65 8 2 66 8 2 66 8 2 66 8 2 66
8 2 67 8 2 67 8 2 67 8 2 68 8 2 68 8 2 68 8 2 69 8 3 69 8 3 69 8 3 70
9 3 70 9 3 70 9 3 71 9 3 71 9 3 71 9 3 72 9 3 72 9 3 72 9 3 73 9 3 73
9 3 73 9 3 74 9 3 74 9 3 75 9 3 75 9 3 75 9 3 76 9 3 76 9 3 76 9 3 77
9 3 77 9 3 77 9 3 78 9 3 78 9 3 78 10 3 79 10 3 79 10 3 79 10 3 80 10
3 80 10 3 80 10 3 81 10 3 81 10 3 81 10 3 81 10 3 82 10 3 82 10 3 82
10 3 83 10 3 83 10 3 83 10 3 84 10 3 84 10 3 84 10 3 84 10 3 85 10 3
85 10 3 85 10 3 85 10 3 86 10 3 86 10 3 86 10 3 86 10 3 86 11 3 87 11
3 87 11 3 87 11 3 87 11 3 87 11 3 88 11 3 88 11 3 88 11 3 88 11 3 88
11 3 88 11 3 88 11 3 88 11 3 89 11 3 89 11 3 89 11 3 89 11 3 89 11 3
89 11 3 89 11 3 89 11 3 89 11 3 89 11 3 89 11 3 89 11 3 89 11 3 89 11
3 89 11 3 89 11 3 89 11 3 89 11 3 88 11 3 88 11 3 88 11 3 88 11 3 88
11 3 88 11 3 88 11 3 88 11 3 87 11 3 87 11 3 87 11 3 87 11 3 87 10 3
87 10 3 86 10 3 86 10 3 86 10 3 86 10 3 85 10 3 85 10 3 85 10 3 85 10
3 84 10 3 84 10 3 84 10 3 84 10 3 83 10 3 83 10 3 83 10 3 82 10 3 82
10 3 82 10 3 81 10 3 81 10 3 81 10 3 81 10 3 80 10 3 80 10 3 80 10 3
79 10 3 79 10 3 79 9 3 78 9 3 78 9 3 78 9 3 77 9 3 77 9 3 77 9 3 76 9
3 76 9 3 76 9 3 75 9 3 75 9 3 75 9 3 74 9 3 74 9 3 73 9 3 73 9 3 73 9
3 72 9 3 72 9 3 72 9 3 71 9 3 71 9 3 71 9 3 70 9 3 70 8 3 70 8 3 69 8
3 69 8 2 69 8 2 68 8 2 68 8 2 68 8 2 67 8 2 67 8 2 67 8 2 67 8 2 66 8
2 66 8 2 66 8 2 65 8 2 65 8 2 65 8 2 64 8 2 64 8 2 64 8 2 63 8 2 63 8
2 63 8 2 63 8 2 62 8 2 62 7 2 62 7 2 61 7 2 61 7 2 61 7 2 61 7 2 60 7
2 60 7 2 60 7 2 59 7 2 59 7 2 59 7 2 59 7 2 58 7 2 58 7 2 58 7 2 58 7
2 57 7 2 57 7 2 57 7 2 57 7 2 56 7 2 56 7 2 56 7 2 56 7 2 55 7 2 55 7
2 55 7 2 55 7 2 54 7 2 54 7 2 54 7 2 54 6 2 53 6 2 53 6 2 53 6 2 53 6
2 53 6 2 52 6 2 52 6 2 52 6 2 52 6 2 51 6 2 51 6 2 51 6 2 51 6 2 51 6
2 50 6 2 50 6 2 50 6 2 50 6 2 50 6 2 49 6 2 49 6 2 49 6 2 49 6 2 49 6
2 49 6 2 48 6 2 48 6 2 48 6 2 48 6 2 48 6 2 47 6 2 47 6 2 47 6 2 47 6
2 47 6 2 47 6 2 46 6 2 46 7 6 85 7 6 86 7 6 86 7 6 86 7 6 85 7 6 85 7
6 84 7 6 83 7 6 82 7 6 81 7 6 80 7 6 79 7 6 78 7 6 77 6 6 76 6 6 75 6
5 74 6 5 73 6 5 71 6 5 70 6 5 69 6 5 68 6 5 67 6 5 66 5 5 64 5 5 63 5
5 62 5 5 61 5 4 60 5 4 58 5 4 57 2 5 46 2 5 46 2 5 45 2 5 45 2 5 44 2
5 43 2 5 43 2 5 42 2 5 42 2 4 41 2 4 40 2 4 40 2 4 39 2 4 39 2 4 38 2
4 37 2 4 37 2 4 36 2 4 35 2 4 35 2 4 34 2 4 34 2 4 33 2 4 32 2 3 32 2
3 31 2 3 30 2 3 30 2 3 29 1 3 29 1 3 28 1 3 27 1 3 27 1 3 26 1 3 26 1
3 25 1 3 24 1 3 24 1 3 23 1 2 23 1 2 22 1 2 21 1 2 21 1 2 20 1 2 20 1
2 19 1 2 18 1 2 18 1 2 17 1 2 17 1 2 16 1 2 15 1 2 15 1 2 14 1 1 14 1
1 13 1 1 13 1 1 12 1 1 11 1 1 11 1 1 10 1 1 10 0 1 9 0 1 9 0 1 9 0 1 9
0 1 9 0 1 9 0 1 9 0 1 9 0 1 9 0 1 9 0 1 9 0 1 9 0 1 9 0 1 9 0 1 9 0 1
9 0 1 9 0 1 9 0 1 9 0 1 9 0 1 9 0 1 9 0 1 9 0 1 9 0 1 9 0 1 9 0 1 9 0
1 9 0 1 9
7 2 61 7 2 62 8 2 62 8 2 62 8 2 62 8 2 63 8 2 63 8 2 63 8 2 64 8 2 64
8 2 64 8 2 65 8 2 65 8 2 65 8 2 66 8 2 66 8 2 66 8 2 66 8 2 67 8 2 67
8 2 67 8 2 68 8 2 68 8 2 68 8 2 69 8 3 69 8 3 69 8 3 70 9 3 70 9 3 70
9 3 71 9 3 71 9 3 71 9 3 72 9 3 72 9 3 72 9 3 73 9 3 73 9 3 74 9 3 74
9 3 74 9 3 75 9 3 75 9 3 75 9 3 76 9 3 76 9 3 76 9 3 77 9 3 77 9 3 77
9 3 78 9 3 78 10 3 78 10 3 79 10 3 79 10 3 79 10 3 80 10 3 80 10 3 80
10 3 81 10 3 81 10 3 81 10 3 82 10 3 82 10 3 82 10 3 83 10 3 83 10 3
83 10 3 84 10 3 84 10 3 84 10 3 84 10 3 85 10 3 85 10 3 85 10 3 85 10
3 86 10 3 86 10 3 86 10 3 86 11 3 87 11 3 87 11 3 87 11 3 87 11 3 88
11 3 88 11 3 88 11 3 88 11 3 88 11 3 88 11 3 89 11 3 89 11 3 89 11 3
89 11 3 89 11 3 89 11 3 89 11 3 89 11 3 89 11 3 90 11 3 90 11 3 90 11
3 90 11 3 90 11 3 90 11 3 90 11 3 90 11 3 90 11 3 90 11 3 90 11 3 90
11 3 90 11 3 89 11 3 89 11 3 89 11 3 89 11 3 89 11 3 89 11 3 89 11 3
89 11 3 89 11 3 88 11 3 88 11 3 88 11 3 88 11 3 88 11 3 88 11 3 87 11
3 87 11 3 87 11 3 87 10 3 86 10 3 86 10 3 86 10 3 86 10 3 85 10 3 85
10 3 85 10 3 85 10 3 84 10 3 84 10 3 84 10 3 84 10 3 83 10 3 83 10 3
83 10 3 82 10 3 82 10 3 82 10 3 81 10 3 81 10 3 81 10 3 80 10 3 80 10
3 80 10 3 79 10 3 79 10 3 79 10 3 78 9 3 78 9 3 78 9 3 77 9 3 77 9 3
77 9 3 76 9 3 76 9 3 76 9 3 75 9 3 75 9 3 75 9 3 74 9 3 74 9 3 74 9 3
73 9 3 73 9 3 72 9 3 72 9 3 72 9 3 71 9 3 71 9 3 71 9 3 70 9 3 70 8 3
70 8 3 69 8 3 69 8 2 69 8 2 68 8 2 68 8 2 68 8 2 67 8 2 67 8 2 67 8 2
66 8 2 66 8 2 66 8 2 66 8 2 65 8 2 65 8 2 65 8 2 64 8 2 64 8 2 64 8 2
63 8 2 63 8 2 63 8 2 62 8 2 62 8 2 62 7 2 62 7 2 61 7 2 61 7 2 61 7 2
60 7 2 60 7 2 60 7 2 60 7 2 59 7 2 59 7 2 59 7 2 59 7 2 58 7 2 58 7 2
58 7 2 57 7 2 57 7 2 57 7 2 57 7 2 56 7 2 56 7 2 56 7 2 56 7 2 55 7 2
55 7 2 55 7 2 55 7 2 55 7 2 54 7 2 54 7 2 54 7 2 54 6 2 53 6 2 53 6 2
53 6 2 53 6 2 53 6 2 52 6 2 52 6 2 52 6 2 52 6 2 51 6 2 51 6 2 51 6 2
51 6 2 51 6 2 50 6 2 50 6 2 50 6 2 50 6 2 50 6 2 49 6 2 49 6 2 49 6 2
49 6 2 49 6 2 48 6 2 48 6 2 48 6 2 48 6 2 48 6 2 48 6 2 47 6 2 47 6 2
47 6 2 47 6 2 47 6 2 47 7 6 84 7 6 86 7 6 86 7 6 86 7 6 86 7 6 85 7 6
84 7 6 84 7 6 83 7 6 82 7 6 81 7 6 80 7 6 79 7 6 78 7 6 77 6 6 76 6 6
75 6 5 73 6 5 72 6 5 71 6 5 70 6 5 69 6 5 68 6 5 67 6 5 65 5 5 64 5 5
63 5 5 62 5 4 61 5 4 59 5 4 58 5 4 57 5 4 56 2 5 45 2 5 45 2 5 44 2 5
44 2 5 43 2 5 42 2 5 42 2 5 41 2 4 41 2 4 40 2 4 40 2 4 39 2 4 38 2 4
38 2 4 37 2 4 36 2 4 36 2 4 35 2 4 35 2 4 34 2 4 33 2 4 33 2 3 32 2 3
31 2 3 31 2 3 30 2 3 30 2 3 29 1 3 28 1 3 28 1 3 27 1 3 27 1 3 26 1 3
25 1 3 25 1 3 24 1 3 24 1 2 23 1 2 22 1 2 22 1 2 21 1 2 21 1 2 20 1 2
19 1 2 19 1 2 18 1 2 18 1 2 17 1 2 16 1 2 16 1 2 15 1 2 15 1 2 14 1 1
14 1 1 13 1 1 12 1 1 12 1 1 11 1 1 11 1 1 10 0 1 10 0 1 9 0 1 9 0 1 9
0 1 9 0 1 9 0 1 9 0 1 9 0 1 9 0 1 9 0 1 9 0 1 9 0 1 9 0 1 9 0 1 9 0 1
9 0 1 9 0 1 9 0 1 9 0 1 9 0 1 9 0 1 9 0 1 9 0 1 9 0 1 9 0 1 9 0 1 9 0
1 9 0 1 9 0 1 9
7 2 62 8 2 62 8 2 62 8 2 63 8 2 63 8 2 63 8 2 64 8 2 64 8 2 64 8 2 65
8 2 65 8 2 65 8 2 65 8 2 66 8 2 66 8 2 66 8 2 67 8 2 67 8 2 67 8 2 68
8 2 68 8 2 68 8 2 69 8 3 69 8 3 69 8 3 70 8 3 70 9 3 70 9 3 71 9 3 71
9 3 71 9 3 72 9 3 72 9 3 72 9 3 73 9 3 73 9 3 74 9 3 74 9 3 74 9 3 75
9 3 75 9 3 75 9 3 76 9 3 76 9 3 76 9 3 77 9 3 77 9 3 77 9 3 78 9 3 78
10 3 78 10 3 79 10 3 79 10 3 79 10 3 80 10 3 80 10 3 80 10 3 81 10 3
81 10 3 82 10 3 82 10 3 82 10 3 82 10 3 83 10 3 83 10 3 83 10 3 84 10
3 84 10 3 84 10 3 85 10 3 85 10 3 85 10 3 86 10 3 86 10 3 86 10 3 86
11 3 87 11 3 87 11 3 87 11 3 87 11 3 88 11 3 88 11 3 88 11 3 88 11 3
88 11 3 89 11 3 89 11 3 89 11 3 89 11 3 89 11 3 89 11 3 90 11 3 90 11
3 90 11 3 90 11 3 90 11 3 90 11 3 90 11 3 90 11 3 90 11 3 90 11 3 90
11 3 90 11 3 90 11 3 90 11 3 90 11 3 90 11 3 90 11 3 90 11 3 90 11 3
90 11 3 90 11 3 90 11 3 90 11 3 90 11 3 90 11 3 90 11 3 90 11 3 90 11
3 89 11 3 89 11 3 89 11 3 89 11 3 89 11 3 89 11 3 88 11 3 88 11 3 88
11 3 88 11 3 88 11 3 87 11 3 87 11 3 87 10 3 87 10 3 86 10 3 86 10 3
86 10 3 85 10 3 85 10 3 85 10 3 85 10 3 84 10 3 84 10 3 84 10 3 83 10
3 83 10 3 83 10 3 82 10 3 82 10 3 82 10 3 81 10 3 81 10 3 81 10 3 80
10 3 80 10 3 80 10 3 79 10 3 79 10 3 79 10 3 78 9 3 78 9 3 78 9 3 77 9
3 77 9 3 77 9 3 76 9 3 76 9 3 76 9 3 75 9 3 75 9 3 75 9 3 74 9 3 74 9
3 73 9 3 73 9 3 73 9 3 72 9 3 72 9 3 72 9 3 71 9 3 71 9 3 71 9 3 70 8
3 70 8 3 70 8 3 69 8 3 69 8 2 69 8 2 68 8 2 68 8 2 68 8 2 67 8 2 67 8
2 67 8 2 66 8 2 66 8 2 66 8 2 65 8 2 65 8 2 65 8 2 65 8 2 64 8 2 64 8
2 64 8 2 63 8 2 63 8 2 63 8 2 62 8 2 62 7 2 62 7 2 62 7 2 61 7 2 61 7
2 61 7 2 60 7 2 60 7 2 60 7 2 60 7 2 59 7 2 59 7 2 59 7 2 58 7 2 58 7
2 58 7 2 58 7 2 57 7 2 57 7 2 57 7 2 57 7 2 56 7 2 56 7 2 56 7 2 56 7
2 55 7 2 55 7 2 55 7 2 55 7 2 54 7 2 54 7 2 54 7 2 54 6 2 54 6 2 53 6
2 53 6 2 53 6 2 53 6 2 52 6 2 52 6 2 52 6 2 52 6 2 52 6 2 51 6 2 51 6
2 51 6 2 51 6 2 51 6 2 50 6 2 50 6 2 50 6 2 50 6 2 50 6 2 49 6 2 49 6
2 49 6 2 49 6 2 49 6 2 48 6 2 48 6 2 48 6 2 48 6 2 48 6 2 48 6 2 47 6
2 47 6 2 47 6 2 47 6 2 47 7 6 85 7 6 86 7 6 86 7 6 86 7 6 86 7 6 85 7
6 84 7 6 84 7 6 83 7 6 82 7 6 81 7 6 80 7 6 79 7 6 78 7 6 77 6 6 75 6
6 74 6 5 73 6 5 72 6 5 72 6 5 72 6 5 71 6 5 69 6 5 67 6 5 65 5 5 64 5
5 63 5 5 61 5 4 60 5 4 59 5 4 58 5 4 57 5 4 56 5 4 54 2 5 44 2 5 44 2
5 43 2 5 43 2 5 42 2 5 42 2 4 41 2 4 40 2 4 40 2 4 39 2 4 39 2 4 38 2
4 37 2 4 37 2 4 36 2 4 36 2 4 35 2 4 34 2 4 34 2 4 33 2 4 32 2 3 32 2
3 31 2 3 31 2 3 30 2 3 29 1 3 29 1 3 28 1 3 28 1 3 27 1 3 26 1 3 26 1
3 25 1 3 25 1 3 24 1 3 23 1 2 23 1 2 22 1 2 22 1 2 21 1 2 20 1 2 20 1
2 19 1 2 19 1 2 18 1 2 17 1 2 17 1 2 16 1 2 16 1 2 15 1 2 14 1 2 14 1
1 13 1 1 13 1 1 12 1 1 12 1 1 11 1 1 10 1 1 10 0 1 9 0 1 9 0 1 9 0 1 9
0 1 9 0 1 9 0 1 9 0 1 9 0 1 9 0 1 9 0 1 9 0 1 9 0 1 9 0 1 9 0 1 9 0 1
9 0 1 9 0 1 9 0 1 9 0 1 9 0 1 9 0 1 9 0 1 9 0 1 9 0 1 9 0 1 9 0 1 9 0
1 9 0 1 9 0 1 9
8 2 62 8 2 63 8 2 63 8 2 63 8 2 64 8 2 64 8 2 64 8 2 64 8 2 65 8 2 65
8 2 65 8 2 66 8 2 66 8 2 66 8 2 67 8 2 67 8 2 67 8 2 68 8 2 68 8 2 68
8 2 69 8 3 69 8 3 69 8 3 70 8 3 70 9 3 70 9 3 71 9 3 71 9 3 71 9 3 72
9 3 72 9 3 72 9 3 73 9 3 73 9 3 73 9 3 74 9 3 74 9 3 75 9 3 75 9 3 75
9 3 76 9 3 76 9 3 76 9 3 77 9 3 77 9 3 77 9 3 78 9 3 78 10 3 78 10 3
79 10 3 79 10 3 80 10 3 80 10 3 80 10 3 81 10 3 81 10 3 81 10 3 82 10
3 82 10 3 82 10 3 83 10 3 83 10 3 83 10 3 84 10 3 84 10 3 84 10 3 85
10 3 85 10 3 85 10 3 85 10 3 86 10 3 86 10 3 86 11 3 87 11 3 87 11 3
87 11 3 87 11 3 88 11 3 88 11 3 88 11 3 88 11 3 89 11 3 89 11 3 89 11
3 89 11 3 89 11 3 90 11 3 90 11 3 90 11 3 90 11 3 90 11 3 90 11 3 90
11 3 91 11 3 91 11 3 91 11 3 91 11 3 91 11 3 91 11 3 91 11 3 91 11 3
91 11 3 91 11 3 91 11 3 91 11 3 91 11 3 91 11 3 91 11 3 91 11 3 91 11
3 91 11 3 91 11 3 91 11 3 91 11 3 91 11 3 91 11 3 90 11 3 90 11 3 90
11 3 90 11 3 90 11 3 90 11 3 90 11 3 89 11 3 89 11 3 89 11 3 89 11 3
89 11 3 88 11 3 88 11 3 88 11 3 88 11 3 87 11 3 87 11 3 87 10 3 87 10
3 86 10 3 86 10 3 86 10 3 85 10 3 85 10 3 85 10 3 85 10 3 84 10 3 84
10 3 84 10 3 83 10 3 83 10 3 83 10 3 82 10 3 82 10 3 82 10 3 81 10 3
81 10 3 81 10 3 80 10 3 80 10 3 79 10 3 79 10 3 79 10 3 78 9 3 78 9 3
78 9 3 77 9 3 77 9 3 77 9 3 76 9 3 76 9 3 76 9 3 75 9 3 75 9 3 75 9 3
74 9 3 74 9 3 73 9 3 73 9 3 73 9 3 72 9 3 72 9 3 72 9 3 71 9 3 71 9 3
71 9 3 70 8 3 70 8 3 70 8 3 69 8 3 69 8 2 69 8 2 68 8 2 68 8 2 68 8 2
67 8 2 67 8 2 67 8 2 66 8 2 66 8 2 66 8 2 65 8 2 65 8 2 65 8 2 64 8 2
64 8 2 64 8 2 64 8 2 63 8 2 63 8 2 63 8 2 62 8 2 62 7 2 62 7 2 61 7 2
61 7 2 61 7 2 61 7 2 60 7 2 60 7 2 60 7 2 59 7 2 59 7 2 59 7 2 59 7 2
58 7 2 58 7 2 58 7 2 58 7 2 57 7 2 57 7 2 57 7 2 57 7 2 56 7 2 56 7 2
56 7 2 56 7 2 55 7 2 55 7 2 55 7 2 55 7 2 54 7 2 54 7 2 54 7 2 54 6 2
54 6 2 53 6 2 53 6 2 53 6 2 53 6 2 52 6 2 52 6 2 52 6 2 52 6 2 52 6 2
51 6 2 51 6 2 51 6 2 51 6 2 51 6 2 50 6 2 50 6 2 50 6 2 50 6 2 50 6 2
49 6 2 49 6 2 49 6 2 49 6 2 49 6 2 48 6 2 48 6 2 48 6 2 48 6 2 48 6 2
48 6 2 47 6 2 47 6 2 47 6 2 47 7 6 85 7 6 86 7 6 86 7 6 86 7 6 85 7 6
85 7 6 84 7 6 83 7 6 82 7 6 81 7 6 80 7 6 79 7 6 78 7 6 77 6 6 76 6 6
75 6 5 74 6 5 73 6 5 73 6 6 74 6 6 77 6 6 77 6 6 73 6 5 68 6 5 65 5 5
64 5 5 62 5 5 61 5 4 60 5 4 59 5 4 58 5 4 57 5 4 55 5 4 54 5 4 53 2 5
43 2 5 43 2 5 42 2 5 42 2 4 41 2 4 41 2 4 40 2 4 39 2 4 39 2 4 38 2 4
38 2 4 37 2 4 36 2 4 36 2 4 35 2 4 35 2 4 34 2 4 33 2 4 33 2 4 32 2 3
32 2 3 31 2 3 30 2 3 30 2 3 29 1 3 29 1 3 28 1 3 27 1 3 27 1 3 26 1 3
26 1 3 25 1 3 24 1 3 24 1 3 23 1 2 23 1 2 22 1 2 21 1 2 21 1 2 20 1 2
20 1 2 19 1 2 18 1 2 18 1 2 17 1 2 17 1 2 16 1 2 15 1 2 15 1 2 14 1 1
14 1 1 13 1 1 13 1 1 12 1 1 11 1 1 11 1 1 10 1 1 10 0 1 9 0 1 9 0 1 9
0 1 9 0 1 9 0 1 9 0 1 9 0 1 9 0 1 9 0 1 9 0 1 9 0 1 9 0 1 9 0 1 9 0 1
9 0 1 9 0 1 9 0 1 9 0 1 9 0 1 9 0 1 9 0 1 9 0 1 9 0 1 9 0 1 9 0 1 9 0
1 9 0 1 9 0 1 9 0 1 9
8 2 63 8 2 63 8 2 63 8 2 64 8 2 64 8 2 64 8 2 65 8 2 65 8 2 65 8 2 66
8 2 66 8 2 66 8 2 67 8 2 67 8 2 67 8 2 68 8 2 68 8 2 68 8 2 69 8 3 69
8 3 69 8 3 70 8 3 70 9 3 70 9 3 71 9 3 71 9 3 71 9 3 72 9 3 72 9 3 72
9 3 73 9 3 73 9 3 73 9 3 74 9 3 74 9 3 75 9 3 75 9 3 75 9 3 76 9 3 76
9 3 76 9 3 77 9 3 77 9 3 77 9 3 78 9 3 78 10 3 78 10 3 79 10 3 79 10 3
80 10 3 80 10 3 80 10 3 81 10 3 81 10 3 81 10 3 82 10 3 82 10 3 82 10
3 83 10 3 83 10 3 83 10 3 84 10 3 84 10 3 84 10 3 85 10 3 85 10 3 85
10 3 86 10 3 86 10 3 86 10 3 87 11 3 87 11 3 87 11 3 87 11 3 88 11 3
88 11 3 88 11 3 88 11 3 89 11 3 89 11 3 89 11 3 89 11 3 90 11 3 90 11
3 90 11 3 90 11 3 90 11 3 91 11 3 91 11 3 91 11 3 91 11 3 91 11 3 91
11 3 91 11 3 91 11 3 92 11 3 92 11 3 92 11 3 92 11 3 92 11 3 92 11 3
92 11 3 92 11 3 92 11 3 92 11 3 92 11 3 92 11 3 92 11 3 92 11 3 92 11
3 92 11 3 92 11 3 92 11 3 91 11 3 91 11 3 91 11 3 91 11 3 91 11 3 91
11 3 91 11 3 91 11 3 90 11 3 90 11 3 90 11 3 90 11 3 90 11 3 89 11 3
89 11 3 89 11 3 89 11 3 88 11 3 88 11 3 88 11 3 88 11 3 87 11 3 87 11
3 87 10 3 86 10 3 86 10 3 86 10 3 86 10 3 85 10 3 85 10 3 85 10 3 84
10 3 84 10 3 84 10 3 83 10 3 83 10 3 83 10 3 82 10 3 82 10 3 82 10 3
81 10 3 81 10 3 81 10 3 80 10 3 80 10 3 79 10 3 79 10 3 79 10 3 78 9 3
78 9 3 78 9 3 77 9 3 77 9 3 77 9 3 76 9 3 76 9 3 76 9 3 75 9 3 75 9 3
74 9 3 74 9 3 74 9 3 73 9 3 73 9 3 73 9 3 72 9 3 72 9 3 72 9 3 71 9 3
71 9 3 71 9 3 70 8 3 70 8 3 70 8 3 69 8 2 69 8 2 69 8 2 68 8 2 68 8 2
68 8 2 67 8 2 67 8 2 67 8 2 66 8 2 66 8 2 66 8 2 65 8 2 65 8 2 65 8 2
64 8 2 64 8 2 64 8 2 63 8 2 63 8 2 63 8 2 63 8 2 62 8 2 62 7 2 62 7 2
61 7 2 61 7 2 61 7 2 61 7 2 60 7 2 60 7 2 60 7 2 59 7 2 59 7 2 59 7 2
59 7 2 58 7 2 58 7 2 58 7 2 58 7 2 57 7 2 57 7 2 57 7 2 57 7 2 56 7 2
56 7 2 56 7 2 56 7 2 55 7 2 55 7 2 55 7 2 55 7 2 54 7 2 54 7 2 54 7 2
54 6 2 53 6 2 53 6 2 53 6 2 53 6 2 53 6 2 52 6 2 52 6 2 52 6 2 52 6 2
52 6 2 51 6 2 51 6 2 51 6 2 51 6 2 50 6 2 50 6 2 50 6 2 50 6 2 50 6 2
50 6 2 49 6 2 49 6 2 49 6 2 49 6 2 49 6 2 48 6 2 48 6 2 48 6 2 48 6 2
48 6 2 47 6 2 47 6 2 47 7 6 81 7 6 85 7 6 86 7 6 86 7 6 86 7 6 85 7 6
85 7 6 84 7 6 83 7 6 82 7 6 81 7 6 80 7 6 79 7 6 78 7 6 77 6 6 76 6 6
75 6 5 74 6 5 73 6 6 75 7 6 81 7 7 89 7 7 90 7 6 81 6 5 71 6 5 66 5 5
64 5 5 62 5 5 61 5 4 60 5 4 59 5 4 57 5 4 56 5 4 55 5 4 54 4 4 53 4 4
52 2 5 42 2 5 42 2 5 41 2 4 41 2 4 40 2 4 40 2 4 39 2 4 39 2 4 38 2 4
37 2 4 37 2 4 36 2 4 36 2 4 35 2 4 34 2 4 34 2 4 33 2 4 33 2 3 32 2 3
31 2 3 31 2 3 30 2 3 30 2 3 29 1 3 28 1 3 28 1 3 27 1 3 26 1 3 26 1 3
25 1 3 25 1 3 24 1 3 23 1 2 23 1 2 22 1 2 22 1 2 21 1 2 21 1 2 20 1 2
19 1 2 19 1 2 18 1 2 18 1 2 17 1 2 16 1 2 16 1 2 15 1 2 15 1 2 14 1 1
14 1 1 13 1 1 12 1 1 12 1 1 11 1 1 11 1 1 10 0 1 10 0 1 9 0 1 9 0 1 9
0 1 9 0 1 9 0 1 9 0 1 9 0 1 9 0 1 9 0 1 9 0 1 9 0 1 9 0 1 9 0 1 9 0 1
9 0 1 9 0 1 9 0 1 9 0 1 9 0 1 9 0 1 9 0 1 9 0 1 9 0 1 9 0 1 9 0 1 9 0
1 9 0 1 9 0 1 9 0 1 9
8 2 63 8 2 64 8 2 64 8 2 64 8 2 65 8 2 65 8 2 65 8 2 66 8 2 66 8 2 66
8 2 67 8 2 67 8 2 67 8 2 68 8 2 68 8 2 68 8 2 69 8 2 69 8 3 69 8 3 70
8 3 70 9 3 70 9 3 71 9 3 71 9 3 71 9 3 72 9 3 72 9 3 72 9 3 73 9 3 73
9 3 73 9 3 74 9 3 74 9 3 74 9 3 75 9 3 75 9 3 76 9 3 76 9 3 76 9 3 77
9 3 77 9 3 77 9 3 78 9 3 78 10 3 78 10 3 79 10 3 79 10 3 80 10 3 80 10
3 80 10 3 81 10 3 81 10 3 81 10 3 82 10 3 82 10 3 82 10 3 83 10 3 83
10 3 83 10 3 84 10 3 84 10 3 84 10 3 85 10 3 85 10 3 85 10 3 86 10 3
86 10 3 86 11 3 87 11 3 87 11 3 87 11 3 88 11 3 88 11 3 88 11 3 88 11
3 89 11 3 89 11 3 89 11 3 89 11 3 90 11 3 90 11 3 90 11 3 90 11 3 91
11 3 91 11 3 91 11 3 91 11 3 91 11 3 91 11 3 92 11 3 92 11 3 92 11 3
92 11 3 92 11 3 92 11 3 92 11 3 92 11 3 92 11 3 93 11 3 93 11 3 93 11
3 93 11 3 93 11 3 93 11 3 93 11 3 93 11 3 93 11 3 93 11 3 92 11 3 92
11 3 92 11 3 92 11 3 92 11 3 92 11 3 92 11 3 92 11 3 92 11 3 92 11 3
91 11 3 91 11 3 91 11 3 91 11 3 91 11 3 91 11 3 90 11 3 90 11 3 90 11
3 90 11 3 89 11 3 89 11 3 89 11 3 89 11 3 88 11 3 88 11 3 88 11 3 88
11 3 87 11 3 87 11 3 87 10 3 86 10 3 86 10 3 86 10 3 85 10 3 85 10 3
85 10 3 84 10 3 84 10 3 84 10 3 83 10 3 83 10 3 83 10 3 82 10 3 82 10
3 82 10 3 81 10 3 81 10 3 81 10 3 80 10 3 80 10 3 79 10 3 79 10 3 79
10 3 78 9 3 78 9 3 78 9 3 77 9 3 77 9 3 77 9 3 76 9 3 76 9 3 75 9 3 75
9 3 75 9 3 74 9 3 74 9 3 74 9 3 73 9 3 73 9 3 73 9 3 72 9 3 72 9 3 72
9 3 71 9 3 71 9 3 70 9 3 70 8 3 70 8 3 69 8 3 69 8 2 69 8 2 68 8 2 68
8 2 68 8 2 67 8 2 67 8 2 67 8 2 66 8 2 66 8 2 66 8 2 65 8 2 65 8 2 65
8 2 65 8 2 64 8 2 64 8 2 64 8 2 63 8 2 63 8 2 63 8 2 62 8 2 62 7 2 62
7 2 62 7 2 61 7 2 61 7 2 61 7 2 60 7 2 60 7 2 60 7 2 60 7 2 59 7 2 59
7 2 59 7 2 58 7 2 58 7 2 58 7 2 58 7 2 57 7 2 57 7 2 57 7 2 57 7 2 56
7 2 56 7 2 56 7 2 56 7 2 55 7 2 55 7 2 55 7 2 55 7 2 55 7 2 54 7 2 54
7 2 54 7 2 54 6 2 53 6 2 53 6 2 53 6 2 53 6 2 53 6 2 52 6 2 52 6 2 52
6 2 52 6 2 51 6 2 51 6 2 51 6 2 51 6 2 51 6 2 50 6 2 50 6 2 50 6 2 50
6 2 50 6 2 49 6 2 49 6 2 49 6 2 49 6 2 49 6 2 49 6 2 48 6 2 48 6 2 48
6 2 48 6 2 48 6 2 47 6 2 47 7 6 83 7 6 85 7 6 86 7 6 86 7 6 85 7 6 85
7 6 84 7 6 84 7 6 83 7 6 82 7 6 81 7 6 80 7 6 79 7 6 78 7 6 77 6 6 76
6 6 75 6 5 74 6 5 74 7 6 79 7 7 94 8 9 110 8 9 109 7 7 91 6 6 74 6 5
66 5 5 63 5 5 62 5 5 61 5 4 60 5 4 58 5 4 57 5 4 56 5 4 55 5 4 54 4 4
53 4 4 51 4 4 50 2 5 41 2 4 41 2 4 40 2 4 40 2 4 39 2 4 39 2 4 38 2 4
38 2 4 37 2 4 36 2 4 36 2 4 35 2 4 35 2 4 34 2 4 33 2 4 33 2 4 32 2 3
32 2 3 31 2 3 30 2 3 30 2 3 29 1 3 29 1 3 28 1 3 27 1 3 27 1 3 26 1 3
26 1 3 25 1 3 24 1 3 24 1 3 23 1 2 23 1 2 22 1 2 21 1 2 21 1 2 20 1 2
20 1 2 19 1 2 19 1 2 18 1 2 17 1 2 17 1 2 16 1 2 16 1 2 15 1 2 14 1 2
14 1 1 13 1 1 13 1 1 12 1 1 12 1 1 11 1 1 10 1 1 10 0 1 9 0 1 9 0 1 9
0 1 9 0 1 9 0 1 9 0 1 9 0 1 9 0 1 9 0 1 9 0 1 9 0 1 9 0 1 9 0 1 9 0 1
9 0 1 9 0 1 9 0 1 9 0 1 9 0 1 9 0 1 9 0 1 9 0 1 9 0 1 9 0 1 9 0 1 9 0
1 9 0 1 9 0 1 9 0 1 9 0 1 9
8 2 64 8 2 64 8 2 65 8 2 65 8 2 65 8 2 65 8 2 66 8 2 66 8 2 66 8 2 67
8 2 67 8 2 67 8 2 68 8 2 68 8 2 68 8 2 69 8 3 69 8 3 69 8 3 70 9 3 70
9 3 70 9 3 71 9 3 71 9 3 72 9 3 72 9 3 72 9 3 73 9 3 73 9 3 73 9 3 74
9 3 74 9 3 74 9 3 75 9 3 75 9 3 75 9 3 76 9 3 76 9 3 77 9 3 77 9 3 77
9 3 78 9 3 78 10 3 78 10 3 79 10 3 79 10 3 80 10 3 80 10 3 80 10 3 81
10 3 81 10 3 81 10 3 82 10 3 82 10 3 82 10 3 83 10 3 83 10 3 83 10 3
84 10 3 84 10 3 85 10 3 85 10 3 85 10 3 86 10 3 86 10 3 86 10 3 87 11
3 87 11 3 87 11 3 87 11 3 88 11 3 88 11 3 88 11 3 89 11 3 89 11 3 89
11 3 89 11 3 90 11 3 90 11 3 90 11 3 90 11 3 91 11 3 91 11 3 91 11 3
91 11 3 91 11 3 92 11 3 92 11 3 92 11 3 92 11 3 92 11 3 92 11 3 93 11
3 93 11 3 93 11 3 93 11 3 93 11 3 93 11 3 93 11 3 93 11 3 93 11 3 93
11 3 93 11 3 93 11 3 93 11 3 93 11 3 93 11 3 93 11 3 93 11 3 93 11 3
93 11 3 93 11 3 93 11 3 93 11 3 93 11 3 93 11 3 92 11 3 92 11 3 92 11
3 92 11 3 92 11 3 92 11 3 91 11 3 91 11 3 91 11 3 91 11 3 91 11 3 90
11 3 90 11 3 90 11 3 90 11 3 89 11 3 89 11 3 89 11 3 89 11 3 88 11 3
88 11 3 88 11 3 87 11 3 87 11 3 87 10 3 86 10 3 86 10 3 86 10 3 85 10
3 85 10 3 85 10 3 84 10 3 84 10 3 84 10 3 83 10 3 83 10 3 83 10 3 82
10 3 82 10 3 82 10 3 81 10 3 81 10 3 81 10 3 80 10 3 80 10 3 79 10 3
79 10 3 79 9 3 78 9 3 78 9 3 78 9 3 77 9 3 77 9 3 76 9 3 76 9 3 76 9 3
75 9 3 75 9 3 75 9 3 74 9 3 74 9 3 74 9 3 73 9 3 73 9 3 72 9 3 72 9 3
72 9 3 71 9 3 71 9 3 71 9 3 70 8 3 70 8 3 70 8 3 69 8 3 69 8 2 69 8 2
68 8 2 68 8 2 68 8 2 67 8 2 67 8 2 67 8 2 66 8 2 66 8 2 66 8 2 65 8 2
65 8 2 65 8 2 64 8 2 64 8 2 64 8 2 63 8 2 63 8 2 63 8 2 63 8 2 62 8 2
62 7 2 62 7 2 61 7 2 61 7 2 61 7 2 61 7 2 60 7 2 60 7 2 60 7 2 59 7 2
59 7 2 59 7 2 59 7 2 58 7 2 58 7 2 58 7 2 58 7 2 57 7 2 57 7 2 57 7 2
57 7 2 56 7 2 56 7 2 56 7 2 56 7 2 55 7 2 55 7 2 55 7 2 55 7 2 54 7 2
54 7 2 54 7 2 54 6 2 54 6 2 53 6 2 53 6 2 53 6 2 53 6 2 52 6 2 52 6 2
52 6 2 52 6 2 52 6 2 51 6 2 51 6 2 51 6 2 51 6 2 51 6 2 50 6 2 50 6 2
50 6 2 50 6 2 50 6 2 49 6 2 49 6 2 49 6 2 49 6 2 49 6 2 48 6 2 48 6 2
48 6 2 48 6 2 48 6 2 48 6 2 47 7 6 84 7 6 85 7 6 86 7 6 86 7 6 85 7 6
85 7 6 84 7 6 83 7 6 82 7 6 82 7 6 81 7 6 80 7 6 79 7 6 78 7 6 76 6 6
75 6 6 74 6 5 73 6 6 75 7 7 85 8 9 110 10 11 132 9 10 126 8 8 99 6 6
76 6 5 66 5 5 63 5 5 62 5 4 60 5 4 59 5 4 58 5 4 57 5 4 56 5 4 55 5 4
53 4 4 52 4 4 51 4 4 50 4 4 49 4 4 48 2 4 40 2 4 39 2 4 39 2 4 38 2 4
38 2 4 37 2 4 37 2 4 36 2 4 36 2 4 35 2 4 34 2 4 34 2 4 33 2 4 33 2 3
32 2 3 31 2 3 31 2 3 30 2 3 30 2 3 29 1 3 28 1 3 28 1 3 27 1 3 27 1 3
26 1 3 25 1 3 25 1 3 24 1 3 24 1 3 23 1 2 22 1 2 22 1 2 21 1 2 21 1 2
20 1 2 19 1 2 19 1 2 18 1 2 18 1 2 17 1 2 17 1 2 16 1 2 15 1 2 15 1 2
14 1 1 14 1 1 13 1 1 13 1 1 12 1 1 11 1 1 11 1 1 10 1 1 10 0 1 9 0 1 9
0 1 9 0 1 9 0 1 9 0 1 9 0 1 9 0 1 9 0 1 9 0 1 9 0 1 9 0 1 9 0 1 9 0 1
9 0 1 9 0 1 9 0 1 9 0 1 9 0 1 9 0 1 9 0 1 9 0 1 9 0 1 9 0 1 9 0 1 9 0
1 9 0 1 9 0 1 9 0 1 9 0 1 9 0 1 9
8 2 64 8 2 65 8 2 65 8 2 65 8 2 66 8 2 66 8 2 66 8 2 67 8 2 67 8 2 67
8 2 68 8 2 68 8 2 68 8 2 69 8 3 69 8 3 69 8 3 70 8 3 70 9 3 70 9 3 71
9 3 71 9 3 71 9 3 72 9 3 72 9 3 72 9 3 73 9 3 73 9 3 74 9 3 74 9 3 74
9 3 75 9 3 75 9 3 75 9 3 76 9 3 76 9 3 76 9 3 77 9 3 77 9 3 78 9 3 78
10 3 78 10 3 79 10 3 79 10 3 79 10 3 80 10 3 80 10 3 81 10 3 81 10 3
81 10 3 82 10 3 82 10 3 82 10 3 83 10 3 83 10 3 83 10 3 84 10 3 84 10
3 85 10 3 85 10 3 85 10 3 86 10 3 86 10 3 86 11 3 87 11 3 87 11 3 87
11 3 88 11 3 88 11 3 88 11 3 88 11 3 89 11 3 89 11 3 89 11 3 90 11 3
90 11 3 90 11 3 90 11 3 91 11 3 91 11 3 91 11 3 91 11 3 92 11 3 92 11
3 92 11 3 92 11 3 92 11 3 93 11 3 93 11 3 93 11 3 93 11 3 93 11 3 93
11 3 93 11 3 93 11 3 94 11 3 94 11 3 94 11 3 94 11 3 94 11 3 94 11 3
94 11 3 94 11 3 94 11 3 94 11 3 94 11 3 94 11 3 94 11 3 94 11 3 94 11
3 94 11 3 94 11 3 93 11 3 93 11 3 93 11 3 93 11 3 93 11 3 93 11 3 93
11 3 92 11 3 92 11 3 92 11 3 92 11 3 92 11 3 92 11 3 91 11 3 91 11 3
91 11 3 91 11 3 90 11 3 90 11 3 90 11 3 90 11 3 89 11 3 89 11 3 89 11
3 88 11 3 88 11 3 88 11 3 87 11 3 87 11 3 87 10 3 86 10 3 86 10 3 86
10 3 85 10 3 85 10 3 85 10 3 84 10 3 84 10 3 84 10 3 83 10 3 83 10 3
83 10 3 82 10 3 82 10 3 82 10 3 81 10 3 81 10 3 80 10 3 80 10 3 80 10
3 79 10 3 79 10 3 79 9 3 78 9 3 78 9 3 77 9 3 77 9 3 77 9 3 76 9 3 76
9 3 76 9 3 75 9 3 75 9 3 74 9 3 74 9 3 74 9 3 73 9 3 73 9 3 73 9 3 72
9 3 72 9 3 72 9 3 71 9 3 71 9 3 71 9 3 70 8 3 70 8 3 70 8 3 69 8 2 69
8 2 68 8 2 68 8 2 68 8 2 67 8 2 67 8 2 67 8 2 67 8 2 66 8 2 66 8 2 66
8 2 65 8 2 65 8 2 65 8 2 64 8 2 64 8 2 64 8 2 63 8 2 63 8 2 63 8 2 62
8 2 62 8 2 62 7 2 62 7 2 61 7 2 61 7 2 61 7 2 60 7 2 60 7 2 60 7 2 60
7 2 59 7 2 59 7 2 59 7 2 59 7 2 58 7 2 58 7 2 58 7 2 58 7 2 57 7 2 57
7 2 57 7 2 57 7 2 56 7 2 56 7 2 56 7 2 56 7 2 55 7 2 55 7 2 55 7 2 55
7 2 54 7 2 54 7 2 54 7 2 54 6 2 53 6 2 53 6 2 53 6 2 53 6 2 53 6 2 52
6 2 52 6 2 52 6 2 52 6 2 52 6 2 51 6 2 51 6 2 51 6 2 51 6 2 51 6 2 50
6 2 50 6 2 50 6 2 50 6 2 50 6 2 49 6 2 49 6 2 49 6 2 49 6 2 49 6 2 48
6 2 48 6 2 48 6 2 48 6 2 48 6 2 48 7 6 84 7 6 85 7 6 85 7 6 85 7 6 85
7 6 84 7 6 84 7 6 83 7 6 82 7 6 81 7 6 80 7 6 79 7 6 78 7 6 77 6 6 76
6 6 75 6 5 74 6 5 73 6 6 76 7 7 90 9 10 119 10 12 141 9 11 130 8 8 99
6 6 75 6 5 66 5 5 63 5 5 61 5 4 60 5 4 59 5 4 58 5 4 57 5 4 55 5 4 54
5 4 53 4 4 52 4 4 51 4 4 50 4 4 48 4 4 47 4 3 46 2 4 39 2 4 39 2 4 38
2 4 37 2 4 37 2 4 36 2 4 36 2 4 35 2 4 35 2 4 34 2 4 33 2 4 33 2 4 32
2 3 32 2 3 31 2 3 30 2 3 30 2 3 29 1 3 29 1 3 28 1 3 28 1 3 27 1 3 26
1 3 26 1 3 25 1 3 25 1 3 24 1 3 23 1 2 23 1 2 22 1 2 22 1 2 21 1 2 20
1 2 20 1 2 19 1 2 19 1 2 18 1 2 18 1 2 17 1 2 16 1 2 16 1 2 15 1 2 15
1 2 14 1 1 13 1 1 13 1 1 12 1 1 12 1 1 11 1 1 11 1 1 10 0 1 9 0 1 9 0
1 9 0 1 9 0 1 9 0 1 9 0 1 9 0 1 9 0 1 9 0 1 9 0 1 9 0 1 9 0 1 9 0 1 9
0 1 9 0 1 9 0 1 9 0 1 9 0 1 9 0 1 9 0 1 9 0 1 9 0 1 9 0 1 9 0 1 9 0 1
9 0 1 9 0 1 9 0 1 9 0 1 9 0 1 9 0 1 9
8 2 65 8 2 65 8 2 66 8 2 66 8 2 66 8 2 66 8 2 67 8 2 67 8 2 67 8 2 68
8 2 68 8 2 68 8 2 69 8 3 69 8 3 70 8 3 70 9 3 70 9 3 71 9 3 71 9 3 71
9 3 72 9 3 72 9 3 72 9 3 73 9 3 73 9 3 73 9 3 74 9 3 74 9 3 75 9 3 75
9 3 75 9 3 76 9 3 76 9 3 76 9 3 77 9 3 77 9 3 77 9 3 78 9 3 78 10 3 79
10 3 79 10 3 79 10 3 80 10 3 80 10 3 80 10 3 81 10 3 81 10 3 82 10 3
82 10 3 82 10 3 83 10 3 83 10 3 83 10 3 84 10 3 84 10 3 85 10 3 85 10
3 85 10 3 86 10 3 86 10 3 86 11 3 87 11 3 87 11 3 87 11 3 88 11 3 88
11 3 88 11 3 89 11 3 89 11 3 89 11 3 89 11 3 90 11 3 90 11 3 90 11 3
91 11 3 91 11 3 91 11 3 91 11 3 92 11 3 92 11 3 92 11 3 92 11 3 92 11
3 93 11 3 93 11 3 93 11 3 93 11 3 93 11 3 94 11 3 94 11 3 94 11 3 94
11 3 94 11 3 94 11 3 94 11 3 94 11 3 94 11 3 94 11 3 94 11 3 94 11 3
94 11 3 94 11 3 94 11 3 94 11 3 94 11 3 94 11 3 94 11 3 94 11 3 94 11
3 94 11 3 94 11 3 94 11 3 94 11 3 94 11 3 94 11 3 93 11 3 93 11 3 93
11 3 93 11 3 93 11 3 93 11 3 92 11 3 92 11 3 92 11 3 92 11 3 91 11 3
91 11 3 91 11 3 91 11 3 90 11 3 90 11 3 90 11 3 90 11 3 89 11 3 89 11
3 89 11 3 88 11 3 88 11 3 88 11 3 87 11 3 87 11 3 87 10 3 86 10 3 86
10 3 86 10 3 85 10 3 85 10 3 85 10 3 84 10 3 84 10 3 84 10 3 83 10 3
83 10 3 83 10 3 82 10 3 82 10 3 81 10 3 81 10 3 81 10 3 80 10 3 80 10
3 80 10 3 79 10 3 79 10 3 78 9 3 78 9 3 78 9 3 77 9 3 77 9 3 77 9 3 76
9 3 76 9 3 75 9 3 75 9 3 75 9 3 74 9 3 74 9 3 74 9 3 73 9 3 73 9 3 73
9 3 72 9 3 72 9 3 71 9 3 71 9 3 71 9 3 70 8 3 70 8 3 70 8 3 69 8 3 69
8 2 69 8 2 68 8 2 68 8 2 68 8 2 67 8 2 67 8 2 67 8 2 66 8 2 66 8 2 66
8 2 65 8 2 65 8 2 65 8 2 64 8 2 64 8 2 64 8 2 64 8 2 63 8 2 63 8 2 63
8 2 62 8 2 62 7 2 62 7 2 61 7 2 61 7 2 61 7 2 61 7 2 60 7 2 60 7 2 60
7 2 60 7 2 59 7 2 59 7 2 59 7 2 58 7 2 58 7 2 58 7 2 58 7 2 57 7 2 57
7 2 57 7 2 57 7 2 56 7 2 56 7 2 56 7 2 56 7 2 55 7 2 55 7 2 55 7 2 55
7 2 54 7 2 54 7 2 54 7 2 54 6 2 54 6 2 53 6 2 53 6 2 53 6 2 53 6 2 52
6 2 52 6 2 52 6 2 52 6 2 52 6 2 51 6 2 51 6 2 51 6 2 51 6 2 51 6 2 50
6 2 50 6 2 50 6 2 50 6 2 50 6 2 49 6 2 49 6 2 49 6 2 49 6 2 49 6 2 49
6 2 48 6 2 48 6 2 48 6 2 48 6 2 48 7 6 84 7 6 85 7 6 85 7 6 85 7 6 85
7 6 84 7 6 83 7 6 83 7 6 82 7 6 81 7 6 80 7 6 79 7 6 78 7 6 77 6 6 76
6 6 75 6 5 74 6 5 73 6 6 76 7 7 89 9 9 115 10 11 131 9 10 118 7 7 91 6
5 72 5 5 65 5 5 62 5 5 61 5 4 60 5 4 59 5 4 58 5 4 56 5 4 55 5 4 54 4
4 53 4 4 52 4 4 51 4 4 49 4 4 48 4 3 47 4 3 46 4 3 45 2 4 38 2 4 38 2
4 37 2 4 37 2 4 36 2 4 35 2 4 35 2 4 34 2 4 34 2 4 33 2 4 33 2 3 32 2
3 31 2 3 31 2 3 30 2 3 30 2 3 29 1 3 28 1 3 28 1 3 27 1 3 27 1 3 26 1
3 25 1 3 25 1 3 24 1 3 24 1 3 23 1 2 23 1 2 22 1 2 21 1 2 21 1 2 20 1
2 20 1 2 19 1 2 18 1 2 18 1 2 17 1 2 17 1 2 16 1 2 16 1 2 15 1 2 14 1
2 14 1 1 13 1 1 13 1 1 12 1 1 12 1 1 11 1 1 10 1 1 10 0 1 9 0 1 9 0 1
9 0 1 9 0 1 9 0 1 9 0 1 9 0 1 9 0 1 9 0 1 9 0 1 9 0 1 9 0 1 9 0 1 9 0
1 9 0 1 9 0 1 9 0 1 9 0 1 9 0 1 9 0 1 9 0 1 9 0 1 9 0 1 9 0 1 9 0 1 9
0 1 9 0 1 9 0 1 9 0 1 9 0 1 9 0 1 9
8 2 65 8 2 66 8 2 66 8 2 66 8 2 67 8 2 67 8 2 67 8 2 68 8 2 68 8 2 68
8 2 69 8 3 69 8 3 69 8 3 70 8 3 70 9 3 70 9 3 71 9 3 71 9 3 71 9 3 72
9 3 72 9 3 73 9 3 73 9 3 73 9 3 74 9 3 74 9 3 74 9 3 75 9 3 75 9 3 75
9 3 76 9 3 76 9 3 77 9 3 77 9 3 77 9 3 78 9 3 78 10 3 78 10 3 79 10 3
79 10 3 80 10 3 80 10 3 80 10 3 81 10 3 81 10 3 81 10 3 82 10 3 82 10
3 83 10 3 83 10 3 83 10 3 84 10 3 84 10 3 84 10 3 85 10 3 85 10 3 86
10 3 86 10 3 86 11 3 87 11 3 87 11 3 87 11 3 88 11 3 88 11 3 88 11 3
89 11 3 89 11 3 89 11 3 90 11 3 90 11 3 90 11 3 90 11 3 91 11 3 91 11
3 91 11 3 92 11 3 92 11 3 92 11 3 92 11 3 92 11 3 93 11 3 93 11 3 93
11 3 93 11 3 94 11 3 94 11 3 94 11 3 94 11 3 94 11 3 94 11 3 94 11 3
95 11 3 95 11 3 95 11 3 95 12 3 95 12 3 95 12 3 95 12 3 95 12 3 95 12
3 95 12 3 95 12 3 95 12 3 95 12 3 95 12 3 95 12 3 95 12 3 95 11 3 95
11 3 95 11 3 95 11 3 94 11 3 94 11 3 94 11 3 94 11 3 94 11 3 94 11 3
94 11 3 93 11 3 93 11 3 93 11 3 93 11 3 93 11 3 92 11 3 92 11 3 92 11
3 92 11 3 91 11 3 91 11 3 91 11 3 91 11 3 90 11 3 90 11 3 90 11 3 89
11 3 89 11 3 89 11 3 88 11 3 88 11 3 88 11 3 87 11 3 87 11 3 87 10 3
86 10 3 86 10 3 86 10 3 85 10 3 85 10 3 85 10 3 84 10 3 84 10 3 84 10
3 83 10 3 83 10 3 82 10 3 82 10 3 82 10 3 81 10 3 81 10 3 81 10 3 80
10 3 80 10 3 79 10 3 79 10 3 79 9 3 78 9 3 78 9 3 78 9 3 77 9 3 77 9 3
76 9 3 76 9 3 76 9 3 75 9 3 75 9 3 75 9 3 74 9 3 74 9 3 73 9 3 73 9 3
73 9 3 72 9 3 72 9 3 72 9 3 71 9 3 71 9 3 71 9 3 70 8 3 70 8 3 70 8 3
69 8 2 69 8 2 69 8 2 68 8 2 68 8 2 68 8 2 67 8 2 67 8 2 67 8 2 66 8 2
66 8 2 66 8 2 65 8 2 65 8 2 65 8 2 64 8 2 64 8 2 64 8 2 63 8 2 63 8 2
63 8 2 62 8 2 62 8 2 62 7 2 62 7 2 61 7 2 61 7 2 61 7 2 60 7 2 60 7 2
60 7 2 60 7 2 59 7 2 59 7 2 59 7 2 59 7 2 58 7 2 58 7 2 58 7 2 58 7 2
57 7 2 57 7 2 57 7 2 57 7 2 56 7 2 56 7 2 56 7 2 56 7 2 55 7 2 55 7 2
55 7 2 55 7 2 54 7 2 54 7 2 54 7 2 54 6 2 53 6 2 53 6 2 53 6 2 53 6 2
53 6 2 52 6 2 52 6 2 52 6 2 52 6 2 52 6 2 51 6 2 51 6 2 51 6 2 51 6 2
51 6 2 50 6 2 50 6 2 50 6 2 50 6 2 50 6 2 49 6 2 49 6 2 49 6 2 49 6 2
49 6 2 48 6 2 48 6 2 48 6 2 48 6 2 48 7 6 84 7 6 85 7 6 85 7 6 85 7 6
84 7 6 84 7 6 83 7 6 82 7 6 81 7 6 80 7 6 80 7 6 79 7 6 78 7 6 76 6 6
75 6 6 74 6 5 73 6 5 73 6 6 74 7 6 84 8 8 101 8 9 109 8 8 99 6 6 80 6
5 69 5 5 64 5 5 62 5 5 61 5 4 60 5 4 58 5 4 57 5 4 56 5 4 55 5 4 54 4
4 53 4 4 51 4 4 50 4 4 49 4 4 48 4 3 47 4 3 46 4 3 45 4 3 43 4 3 42 2
4 37 2 4 36 2 4 36 2 4 35 2 4 34 2 4 34 2 4 33 2 4 33 2 4 32 2 3 32 2
3 31 2 3 30 2 3 30 2 3 29 1 3 29 1 3 28 1 3 28 1 3 27 1 3 26 1 3 26 1
3 25 1 3 25 1 3 24 1 3 23 1 2 23 1 2 22 1 2 22 1 2 21 1 2 21 1 2 20 1
2 19 1 2 19 1 2 18 1 2 18 1 2 17 1 2 16 1 2 16 1 2 15 1 2 15 1 2 14 1
1 14 1 1 13 1 1 12 1 1 12 1 1 11 1 1 11 1 1 10 0 1 10 0 1 9 0 1 9 0 1
9 0 1 9 0 1 9 0 1 9 0 1 9 0 1 9 0 1 9 0 1 9 0 1 9 0 1 9 0 1 9 0 1 9 0
1 9 0 1 9 0 1 9 0 1 9 0 1 9 0 1 9 0 1 9 0 1 9 0 1 9 0 1 9 0 1 9 0 1 9
0 1 9 0 1 9 0 1 9 0 1 9 0 1 9 0 1 9
8 2 66 8 2 66 8 2 67 8 2 67 8 2 67 8 2 68 8 2 68 8 2 68 8 2 69 8 2 69
8 3 69 8 3 70 8 3 70 9 3 70 9 3 71 9 3 71 9 3 71 9 3 72 9 3 72 9 3 72
9 3 73 9 3 73 9 3 73 9 3 74 9 3 74 9 3 75 9 3 75 9 3 75 9 3 76 9 3 76
9 3 76 9 3 77 9 3 77 9 3 78 9 3 78 9 3 78 10 3 79 10 3 79 10 3 79 10 3
80 10 3 80 10 3 81 10 3 81 10 3 81 10 3 82 10 3 82 10 3 82 10 3 83 10
3 83 10 3 84 10 3 84 10 3 84 10 3 85 10 3 85 10 3 85 10 3 86 10 3 86
10 3 87 11 3 87 11 3 87 11 3 88 11 3 88 11 3 88 11 3 89 11 3 89 11 3
89 11 3 90 11 3 90 11 3 90 11 3 90 11 3 91 11 3 91 11 3 91 11 3 92 11
3 92 11 3 92 11 3 92 11 3 93 11 3 93 11 3 93 11 3 93 11 3 94 11 3 94
11 3 94 11 3 94 11 3 94 11 3 94 11 3 95 11 3 95 12 3 95 12 3 95 12 3
95 12 3 95 12 3 95 12 3 95 12 3 95 12 3 95 12 3 96 12 3 96 12 3 96 12
3 96 12 3 96 12 3 96 12 3 96 12 3 95 12 3 95 12 3 95 12 3 95 12 3 95
12 3 95 12 3 95 12 3 95 11 3 95 11 3 95 11 3 95 11 3 94 11 3 94 11 3
94 11 3 94 11 3 94 11 3 93 11 3 93 11 3 93 11 3 93 11 3 93 11 3 92 11
3 92 11 3 92 11 3 91 11 3 91 11 3 91 11 3 91 11 3 90 11 3 90 11 3 90
11 3 89 11 3 89 11 3 89 11 3 88 11 3 88 11 3 88 11 3 87 11 3 87 11 3
87 10 3 86 10 3 86 10 3 86 10 3 85 10 3 85 10 3 85 10 3 84 10 3 84 10
3 83 10 3 83 10 3 83 10 3 82 10 3 82 10 3 82 10 3 81 10 3 81 10 3 80
10 3 80 10 3 80 10 3 79 10 3 79 10 3 78 9 3 78 9 3 78 9 3 77 9 3 77 9
3 77 9 3 76 9 3 76 9 3 75 9 3 75 9 3 75 9 3 74 9 3 74 9 3 74 9 3 73 9
3 73 9 3 73 9 3 72 9 3 72 9 3 71 9 3 71 9 3 71 9 3 70 8 3 70 8 3 70 8
3 69 8 3 69 8 2 69 8 2 68 8 2 68 8 2 68 8 2 67 8 2 67 8 2 67 8 2 66 8
2 66 8 2 66 8 2 65 8 2 65 8 2 65 8 2 64 8 2 64 8 2 64 8 2 64 8 2 63 8
2 63 8 2 63 8 2 62 8 2 62 7 2 62 7 2 61 7 2 61 7 2 61 7 2 61 7 2 60 7
2 60 7 2 60 7 2 60 7 2 59 7 2 59 7 2 59 7 2 58 7 2 58 7 2 58 7 2 58 7
2 57 7 2 57 7 2 57 7 2 57 7 2 56 7 2 56 7 2 56 7 2 56 7 2 55 7 2 55 7
2 55 7 2 55 7 2 55 7 2 54 7 2 54 7 2 54 7 2 54 6 2 53 6 2 53 6 2 53 6
2 53 6 2 53 6 2 52 6 2 52 6 2 52 6 2 52 6 2 51 6 2 51 6 2 51 6 2 51 6
2 51 6 2 50 6 2 50 6 2 50 6 2 50 6 2 50 6 2 50 6 2 49 6 2 49 6 2 49 6
2 49 6 2 49 6 2 48 6 2 48 6 2 48 6 2 48 7 6 84 7 6 84 7 6 85 7 6 84 7
6 84 7 6 83 7 6 83 7 6 82 7 6 81 7 6 80 7 6 79 7 6 78 7 6 77 6 6 76 6
6 75 6 5 74 6 5 73 6 5 72 6 5 73 6 6 77 7 7 85 7 7 88 7 6 82 6 5 72 6
5 66 5 5 63 5 5 62 5 4 60 5 4 59 5 4 58 5 4 57 5 4 56 5 4 55 5 4 53 4
4 52 4 4 51 4 4 50 4 4 49 4 4 48 4 3 47 4 3 45 4 3 44 4 3 43 4 3 42 3
3 41 2 4 36 2 4 35 2 4 35 2 4 34 2 4 34 2 4 33 2 4 32 2 3 32 2 3 31 2
3 31 2 3 30 2 3 30 2 3 29 1 3 28 1 3 28 1 3 27 1 3 27 1 3 26 1 3 25 1
3 25 1 3 24 1 3 24 1 3 23 1 2 23 1 2 22 1 2 21 1 2 21 1 2 20 1 2 20 1
2 19 1 2 19 1 2 18 1 2 17 1 2 17 1 2 16 1 2 16 1 2 15 1 2 14 1 2 14 1
1 13 1 1 13 1 1 12 1 1 12 1 1 11 1 1 11 1 1 10 0 1 9 0 1 9 0 1 9 0 1 9
0 1 9 0 1 9 0 1 9 0 1 9 0 1 9 0 1 9 0 1 9 0 1 9 0 1 9 0 1 9 0 1 9 0 1
9 0 1 9 0 1 9 0 1 9 0 1 9 0 1 9 0 1 9 0 1 9 0 1 9 0 1 9 0 1 9 0 1 9 0
1 9 0 1 9 0 1 9 0 1 9 0 1 9 0 1 9
8 2 66 8 2 67 8 2 67 8 2 67 8 2 68 8 2 68 8 2 68 8 2 69 8 3 69 8 3 69
8 3 70 8 3 70 9 3 70 9 3 71 9 3 71 9 3 71 9 3 72 9 3 72 9 3 73 9 3 73
9 3 73 9 3 74 9 3 74 9 3 74 9 3 75 9 3 75 9 3 75 9 3 76 9 3 76 9 3 77
9 3 77 9 3 77 9 3 78 9 3 78 10 3 79 10 3 79 10 3 79 10 3 80 10 3 80 10
3 80 10 3 81 10 3 81 10 3 82 10 3 82 10 3 82 10 3 83 10 3 83 10 3 83
10 3 84 10 3 84 10 3 85 10 3 85 10 3 85 10 3 86 10 3 86 10 3 86 11 3
87 11 3 87 11 3 88 11 3 88 11 3 88 11 3 89 11 3 89 11 3 89 11 3 90 11
3 90 11 3 90 11 3 90 11 3 91 11 3 91 11 3 91 11 3 92 11 3 92 11 3 92
11 3 92 11 3 93 11 3 93 11 3 93 11 3 93 11 3 94 11 3 94 11 3 94 11 3
94 11 3 94 11 3 95 12 3 95 12 3 95 12 3 95 12 3 95 12 3 95 12 3 96 12
3 96 12 3 96 12 3 96 12 3 96 12 3 96 12 3 96 12 3 96 12 3 96 12 3 96
12 3 96 12 3 96 12 3 96 12 3 96 12 3 96 12 3 96 12 3 96 12 3 96 12 3
96 12 3 96 12 3 95 12 3 95 12 3 95 12 3 95 12 3 95 11 3 95 11 3 95 11
3 94 11 3 94 11 3 94 11 3 94 11 3 94 11 3 93 11 3 93 11 3 93 11 3 93
11 3 92 11 3 92 11 3 92 11 3 91 11 3 91 11 3 91 11 3 91 11 3 90 11 3
90 11 3 90 11 3 89 11 3 89 11 3 89 11 3 88 11 3 88 11 3 88 11 3 87 11
3 87 11 3 87 10 3 86 10 3 86 10 3 85 10 3 85 10 3 85 10 3 84 10 3 84
10 3 84 10 3 83 10 3 83 10 3 82 10 3 82 10 3 82 10 3 81 10 3 81 10 3
81 10 3 80 10 3 80 10 3 79 10 3 79 10 3 79 9 3 78 9 3 78 9 3 78 9 3 77
9 3 77 9 3 76 9 3 76 9 3 76 9 3 75 9 3 75 9 3 75 9 3 74 9 3 74 9 3 73
9 3 73 9 3 73 9 3 72 9 3 72 9 3 72 9 3 71 9 3 71 9 3 71 9 3 70 8 3 70
8 3 69 8 3 69 8 2 69 8 2 68 8 2 68 8 2 68 8 2 67 8 2 67 8 2 67 8 2 66
8 2 66 8 2 66 8 2 66 8 2 65 8 2 65 8 2 65 8 2 64 8 2 64 8 2 64 8 2 63
8 2 63 8 2 63 8 2 62 8 2 62 8 2 62 7 2 62 7 2 61 7 2 61 7 2 61 7 2 60
7 2 60 7 2 60 7 2 60 7 2 59 7 2 59 7 2 59 7 2 59 7 2 58 7 2 58 7 2 58
7 2 58 7 2 57 7 2 57 7 2 57 7 2 57 7 2 56 7 2 56 7 2 56 7 2 56 7 2 55
7 2 55 7 2 55 7 2 55 7 2 54 7 2 54 7 2 54 7 2 54 6 2 54 6 2 53 6 2 53
6 2 53 6 2 53 6 2 52 6 2 52 6 2 52 6 2 52 6 2 52 6 2 51 6 2 51 6 2 51
6 2 51 6 2 51 6 2 50 6 2 50 6 2 50 6 2 50 6 2 50 6 2 49 6 2 49 6 2 49
6 2 49 6 2 49 6 2 49 6 2 48 6 2 48 7 6 80 7 6 83 7 6 84 7 6 84 7 6 84
7 6 84 7 6 83 7 6 82 7 6 81 7 6 81 7 6 80 7 6 79 7 6 78 7 6 77 6 6 76
6 6 75 6 5 74 6 5 73 6 5 72 6 5 71 6 5 72 6 6 75 6 6 75 6 5 72 6 5 67
5 5 64 5 5 62 5 5 61 5 4 60 5 4 59 5 4 58 5 4 57 5 4 55 5 4 54 5 4 53
4 4 52 4 4 51 4 4 50 4 4 49 4 4 47 4 3 46 4 3 45 4 3 44 4 3 43 4 3 42
3 3 41 3 3 39 3 3 38 2 4 34 2 4 34 2 4 33 2 4 33 2 3 32 2 3 31 2 3 31
2 3 30 2 3 30 2 3 29 1 3 29 1 3 28 1 3 28 1 3 27 1 3 26 1 3 26 1 3 25
1 3 25 1 3 24 1 3 23 1 2 23 1 2 22 1 2 22 1 2 21 1 2 21 1 2 20 1 2 19
1 2 19 1 2 18 1 2 18 1 2 17 1 2 17 1 2 16 1 2 15 1 2 15 1 2 14 1 1 14
1 1 13 1 1 13 1 1 12 1 1 11 1 1 11 1 1 10 1 1 10 0 1 9 0 1 9 0 1 9 0 1
9 0 1 9 0 1 9 0 1 9 0 1 9 0 1 9 0 1 9 0 1 9 0 1 9 0 1 9 0 1 9 0 1 9 0
1 9 0 1 9 0 1 9 0 1 9 0 1 9 0 1 9 0 1 9 0 1 9 0 1 9 0 1 9 0 1 9 0 1 9
0 1 9 0 1 9 0 1 9 0 1 9 0 1 9 0 1 9
8 2 67 8 2 67 8 2 67 8 2 68 8 2 68 8 2 68 8 2 69 8 3 69 8 3 70 8 3 70
9 3 70 9 3 71 9 3 71 9 3 71 9 3 72 9 3 72 9 3 72 9 3 73 9 3 73 9 3 73
9 3 74 9 3 74 9 3 75 9 3 75 9 3 75 9 3 76 9 3 76 9 3 76 9 3 77 9 3 77
9 3 78 9 3 78 9 3 78 10 3 79 10 3 79 10 3 79 10 3 80 10 3 80 10 3 81
10 3 81 10 3 81 10 3 82 10 3 82 10 3 83 10 3 83 10 3 83 10 3 84 10 3
84 10 3 84 10 3 85 10 3 85 10 3 86 10 3 86 10 3 86 11 3 87 11 3 87 11
3 87 11 3 88 11 3 88 11 3 88 11 3 89 11 3 89 11 3 89 11 3 90 11 3 90
11 3 90 11 3 91 11 3 91 11 3 91 11 3 92 11 3 92 11 3 92 11 3 93 11 3
93 11 3 93 11 3 93 11 3 94 11 3 94 11 3 94 11 3 94 11 3 94 11 3 95 12
3 95 12 3 95 12 3 95 12 3 95 12 3 96 12 3 96 12 3 96 12 3 96 12 3 96
12 3 96 12 3 96 12 3 96 12 3 96 12 3 96 12 3 96 12 4 96 12 4 96 12 4
96 12 4 96 12 4 96 12 4 96 12 3 96 12 3 96 12 3 96 12 3 96 12 3 96 12
3 96 12 3 96 12 3 96 12 3 96 12 3 96 12 3 95 12 3 95 12 3 95 12 3 95
11 3 95 11 3 95 11 3 94 11 3 94 11 3 94 11 3 94 11 3 93 11 3 93 11 3
93 11 3 93 11 3 92 11 3 92 11 3 92 11 3 91 11 3 91 11 3 91 11 3 91 11
3 90 11 3 90 11 3 90 11 3 89 11 3 89 11 3 89 11 3 88 11 3 88 11 3 88
11 3 87 11 3 87 10 3 86 10 3 86 10 3 86 10 3 85 10 3 85 10 3 85 10 3
84 10 3 84 10 3 83 10 3 83 10 3 83 10 3 82 10 3 82 10 3 82 10 3 81 10
3 81 10 3 80 10 3 80 10 3 80 10 3 79 10 3 79 10 3 78 9 3 78 9 3 78 9 3
77 9 3 77 9 3 77 9 3 76 9 3 76 9 3 75 9 3 75 9 3 75 9 3 74 9 3 74 9 3
74 9 3 73 9 3 73 9 3 72 9 3 72 9 3 72 9 3 71 9 3 71 9 3 71 9 3 70 8 3
70 8 3 70 8 3 69 8 3 69 8 2 69 8 2 68 8 2 68 8 2 68 8 2 67 8 2 67 8 2
67 8 2 66 8 2 66 8 2 66 8 2 65 8 2 65 8 2 65 8 2 64 8 2 64 8 2 64 8 2
63 8 2 63 8 2 63 8 2 63 8 2 62 8 2 62 7 2 62 7 2 61 7 2 61 7 2 61 7 2
61 7 2 60 7 2 60 7 2 60 7 2 59 7 2 59 7 2 59 7 2 59 7 2 58 7 2 58 7 2
58 7 2 58 7 2 57 7 2 57 7 2 57 7 2 57 7 2 56 7 2 56 7 2 56 7 2 56 7 2
55 7 2 55 7 2 55 7 2 55 7 2 55 7 2 54 7 2 54 7 2 54 7 2 54 6 2 53 6 2
53 6 2 53 6 2 53 6 2 53 6 2 52 6 2 52 6 2 52 6 2 52 6 2 52 6 2 51 6 2
51 6 2 51 6 2 51 6 2 51 6 2 50 6 2 50 6 2 50 6 2 50 6 2 50 6 2 49 6 2
49 6 2 49 6 2 49 6 2 49 6 2 48 6 2 48 7 6 80 7 6 83 7 6 84 7 6 84 7 6
84 7 6 83 7 6 83 7 6 82 7 6 81 7 6 80 7 6 79 7 6 78 7 6 77 6 6 76 6 6
75 6 6 74 6 5 73 6 5 72 6 5 71 6 5 70 6 5 70 6 5 70 6 5 69 6 5 67 6 5
65 5 5 63 5 5 62 5 5 61 5 4 60 5 4 59 5 4 57 5 4 56 5 4 55 5 4 54 4 4
53 4 4 52 4 4 50 4 4 49 4 4 48 4 3 47 4 3 46 4 3 45 4 3 44 4 3 43 4 3
41 3 3 40 3 3 39 3 3 38 3 3 37 2 4 33 2 4 33 2 4 32 2 3 32 2 3 31 2 3
31 2 3 30 2 3 29 1 3 29 1 3 28 1 3 28 1 3 27 1 3 27 1 3 26 1 3 25 1 3
25 1 3 24 1 3 24 1 3 23 1 2 23 1 2 22 1 2 21 1 2 21 1 2 20 1 2 20 1 2
19 1 2 19 1 2 18 1 2 17 1 2 17 1 2 16 1 2 16 1 2 15 1 2 15 1 2 14 1 1
13 1 1 13 1 1 12 1 1 12 1 1 11 1 1 11 1 1 10 0 1 9 0 1 9 0 1 9 0 1 9 0
1 9 0 1 9 0 1 9 0 1 9 0 1 9 0 1 9 0 1 9 0 1 9 0 1 9 0 1 9 0 1 9 0 1 9
0 1 9 0 1 9 0 1 9 0 1 9 0 1 9 0 1 9 0 1 9 0 1 9 0 1 9 0 1 9 0 1 9 0 1
9 0 1 9 0 1 9 0 1 9 0 1 9 0 1 9 0 1 9
8 2 67 8 2 68 8 2 68 8 2 68 8 2 69 8 3 69 8 3 69 8 3 70 8 3 70 9 3 70
9 3 71 9 3 71 9 3 71 9 3 72 9 3 72 9 3 72 9 3 73 9 3 73 9 3 74 9 3 74
9 3 74 9 3 75 9 3 75 9 3 75 9 3 76 9 3 76 9 3 77 9 3 77 9 3 77 9 3 78
9 3 78 10 3 78 10 3 79 10 3 79 10 3 80 10 3 80 10 3 80 10 3 81 10 3 81
10 3 82 10 3 82 10 3 82 10 3 83 10 3 83 10 3 83 10 3 84 10 3 84 10 3
85 10 3 85 10 3 85 10 3 86 10 3 86 10 3 86 11 3 87 11 3 87 11 3 88 11
3 88 11 3 88 11 3 89 11 3 89 11 3 89 11 3 90 11 3 90 11 3 90 11 3 91
11 3 91 11 3 91 11 3 92 11 3 92 11 3 92 11 3 93 11 3 93 11 3 93 11 3
93 11 3 94 11 3 94 11 3 94 11 3 94 11 3 95 11 3 95 12 3 95 12 3 95 12
3 95 12 3 96 12 3 96 12 3 96 12 3 96 12 3 96 12 3 96 12 3 96 12 4 96
12 4 97 12 4 97 12 4 97 12 4 97 12 4 97 12 4 97 12 4 97 12 4 97 12 4
97 12 4 97 12 4 97 12 4 97 12 4 97 12 4 97 12 4 97 12 4 97 12 4 97 12
3 96 12 3 96 12 3 96 12 3 96 12 3 96 12 3 96 12 3 96 12 3 95 12 3 95
12 3 95 11 3 95 11 3 95 11 3 94 11 3 94 11 3 94 11 3 94 11 3 93 11 3
93 11 3 93 11 3 93 11 3 92 11 3 92 11 3 92 11 3 91 11 3 91 11 3 91 11
3 90 11 3 90 11 3 90 11 3 89 11 3 89 11 3 89 11 3 88 11 3 88 11 3 88
11 3 87 11 3 87 11 3 87 10 3 86 10 3 86 10 3 85 10 3 85 10 3 85 10 3
84 10 3 84 10 3 84 10 3 83 10 3 83 10 3 82 10 3 82 10 3 82 10 3 81 10
3 81 10 3 80 10 3 80 10 3 80 10 3 79 10 3 79 10 3 79 9 3 78 9 3 78 9 3
77 9 3 77 9 3 77 9 3 76 9 3 76 9 3 76 9 3 75 9 3 75 9 3 74 9 3 74 9 3
74 9 3 73 9 3 73 9 3 73 9 3 72 9 3 72 9 3 71 9 3 71 9 3 71 9 3 70 8 3
70 8 3 70 8 3 69 8 3 69 8 2 69 8 2 68 8 2 68 8 2 68 8 2 67 8 2 67 8 2
67 8 2 66 8 2 66 8 2 66 8 2 65 8 2 65 8 2 65 8 2 65 8 2 64 8 2 64 8 2
64 8 2 63 8 2 63 8 2 63 8 2 62 8 2 62 7 2 62 7 2 62 7 2 61 7 2 61 7 2
61 7 2 60 7 2 60 7 2 60 7 2 60 7 2 59 7 2 59 7 2 59 7 2 59 7 2 58 7 2
58 7 2 58 7 2 58 7 2 57 7 2 57 7 2 57 7 2 57 7 2 56 7 2 56 7 2 56 7 2
56 7 2 55 7 2 55 7 2 55 7 2 55 7 2 54 7 2 54 7 2 54 7 2 54 6 2 54 6 2
53 6 2 53 6 2 53 6 2 53 6 2 52 6 2 52 6 2 52 6 2 52 6 2 52 6 2 51 6 2
51 6 2 51 6 2 51 6 2 51 6 2 50 6 2 50 6 2 50 6 2 50 6 2 50 6 2 49 6 2
49 6 2 49 6 2 49 6 2 49 6 2 49 6 2 48 7 6 80 7 6 83 7 6 83 7 6 83 7 6
83 7 6 83 7 6 82 7 6 81 7 6 81 7 6 80 7 6 79 7 6 78 7 6 77 6 6 76 6 6
75 6 5 74 6 5 73 6 5 72 6 5 71 6 5 70 6 5 69 6 5 68 6 5 67 6 5 65 5 5
64 5 5 63 5 5 62 5 4 60 5 4 59 5 4 58 5 4 57 5 4 56 5 4 55 5 4 54 4 4
52 4 4 51 4 4 50 4 4 49 4 4 48 4 3 47 4 3 46 4 3 44 4 3 43 4 3 42 3 3
41 3 3 40 3 3 39 3 3 38 3 3 37 3 3 35 2 4 32 2 3 32 2 3 31 2 3 31 2 3
30 2 3 30 2 3 29 1 3 29 1 3 28 1 3 27 1 3 27 1 3 26 1 3 26 1 3 25 1 3
25 1 3 24 1 3 23 1 2 23 1 2 22 1 2 22 1 2 21 1 2 21 1 2 20 1 2 19 1 2
19 1 2 18 1 2 18 1 2 17 1 2 17 1 2 16 1 2 15 1 2 15 1 2 14 1 1 14 1 1
13 1 1 13 1 1 12 1 1 11 1 1 11 1 1 10 1 1 10 0 1 9 0 1 9 0 1 9 0 1 9 0
1 9 0 1 9 0 1 9 0 1 9 0 1 9 0 1 9 0 1 9 0 1 9 0 1 9 0 1 9 0 1 9 0 1 9
0 1 9 0 1 9 0 1 9 0 1 9 0 1 9 0 1 9 0 1 9 0 1 9 0 1 9 0 1 9 0 1 9 0 1
9 0 1 9 0 1 9 0 1 9 0 1 9 0 1 9 0 1 9
8 2 68 8 2 68 8 2 68 8 2 69 8 3 69 8 3 69 8 3 70 9 3 70 9 3 70 9 3 71
9 3 71 9 3 72 9 3 72 9 3 72 9 3 73 9 3 73 9 3 73 9 3 74 9 3 74 9 3 74
9 3 75 9 3 75 9 3 76 9 3 76 9 3 76 9 3 77 9 3 77 9 3 77 9 3 78 9 3 78
10 3 79 10 3 79 10 3 79 10 3 80 10 3 80 10 3 81 10 3 81 10 3 81 10 3
82 10 3 82 10 3 82 10 3 83 10 3 83 10 3 84 10 3 84 10 3 84 10 3 85 10
3 85 10 3 86 10 3 86 10 3 86 11 3 87 11 3 87 11 3 87 11 3 88 11 3 88
11 3 88 11 3 89 11 3 89 11 3 90 11 3 90 11 3 90 11 3 91 11 3 91 11 3
91 11 3 92 11 3 92 11 3 92 11 3 92 11 3 93 11 3 93 11 3 93 11 3 94 11
3 94 11 3 94 11 3 94 11 3 95 11 3 95 12 3 95 12 3 95 12 3 95 12 3 96
12 3 96 12 3 96 12 3 96 12 3 96 12 3 96 12 4 97 12 4 97 12 4 97 12 4
97 12 4 97 12 4 97 12 4 97 12 4 97 12 4 97 12 4 97 12 4 97 12 4 97 12
4 97 12 4 97 12 4 97 12 4 97 12 4 97 12 4 97 12 4 97 12 4 97 12 4 97
12 4 97 12 4 97 12 4 96 12 3 96 12 3 96 12 3 96 12 3 96 12 3 96 12 3
95 12 3 95 12 3 95 12 3 95 11 3 95 11 3 94 11 3 94 11 3 94 11 3 94 11
3 93 11 3 93 11 3 93 11 3 92 11 3 92 11 3 92 11 3 92 11 3 91 11 3 91
11 3 91 11 3 90 11 3 90 11 3 90 11 3 89 11 3 89 11 3 89 11 3 88 11 3
88 11 3 87 11 3 87 11 3 87 10 3 86 10 3 86 10 3 86 10 3 85 10 3 85 10
3 84 10 3 84 10 3 84 10 3 83 10 3 83 10 3 83 10 3 82 10 3 82 10 3 81
10 3 81 10 3 81 10 3 80 10 3 80 10 3 79 10 3 79 10 3 79 9 3 78 9 3 78
9 3 78 9 3 77 9 3 77 9 3 76 9 3 76 9 3 76 9 3 75 9 3 75 9 3 75 9 3 74
9 3 74 9 3 73 9 3 73 9 3 73 9 3 72 9 3 72 9 3 72 9 3 71 9 3 71 9 3 71
9 3 70 8 3 70 8 3 69 8 3 69 8 2 69 8 2 68 8 2 68 8 2 68 8 2 67 8 2 67
8 2 67 8 2 66 8 2 66 8 2 66 8 2 66 8 2 65 8 2 65 8 2 65 8 2 64 8 2 64
8 2 64 8 2 63 8 2 63 8 2 63 8 2 63 8 2 62 8 2 62 7 2 62 7 2 61 7 2 61
7 2 61 7 2 61 7 2 60 7 2 60 7 2 60 7 2 59 7 2 59 7 2 59 7 2 59 7 2 58
7 2 58 7 2 58 7 2 58 7 2 57 7 2 57 7 2 57 7 2 57 7 2 56 7 2 56 7 2 56
7 2 56 7 2 55 7 2 55 7 2 55 7 2 55 7 2 55 7 2 54 7 2 54 7 2 54 7 2 54
6 2 53 6 2 53 6 2 53 6 2 53 6 2 53 6 2 52 6 2 52 6 2 52 6 2 52 6 2 52
6 2 51 6 2 51 6 2 51 6 2 51 6 2 51 6 2 50 6 2 50 6 2 50 6 2 50 6 2 50
6 2 49 6 2 49 6 2 49 6 2 49 6 2 49 6 2 49 7 6 80 7 6 82 7 6 83 7 6 83
7 6 83 7 6 82 7 6 82 7 6 81 7 6 80 7 6 79 7 6 78 7 6 77 7 6 76 6 6 75
6 6 74 6 5 73 6 5 72 6 5 71 6 5 70 6 5 69 6 5 68 6 5 67 6 5 66 5 5 65
5 5 64 5 5 62 5 5 61 5 4 60 5 4 59 5 4 58 5 4 57 5 4 56 5 4 54 5 4 53
4 4 52 4 4 51 4 4 50 4 4 49 4 4 48 4 3 46 4 3 45 4 3 44 4 3 43 4 3 42
3 3 41 3 3 40 3 3 39 3 3 37 3 3 36 3 3 35 3 3 34 3 2 33 2 3 31 2 3 30
2 3 30 2 3 29 1 3 29 1 3 28 1 3 28 1 3 27 1 3 26 1 3 26 1 3 25 1 3 25
1 3 24 1 3 24 1 3 23 1 2 23 1 2 22 1 2 21 1 2 21 1 2 20 1 2 20 1 2 19
1 2 19 1 2 18 1 2 17 1 2 17 1 2 16 1 2 16 1 2 15 1 2 15 1 2 14 1 1 13
1 1 13 1 1 12 1 1 12 1 1 11 1 1 11 1 1 10 0 1 10 0 1 9 0 1 9 0 1 9 0 1
9 0 1 9 0 1 9 0 1 9 0 1 9 0 1 9 0 1 9 0 1 9 0 1 9 0 1 9 0 1 9 0 1 9 0
1 9 0 1 9 0 1 9 0 1 9 0 1 9 0 1 9 0 1 9 0 1 9 0 1 9 0 1 9 0 1 9 0 1 9
0 1 9 0 1 9 0 1 9 0 1 9 0 1 9 0 1 9 0 1 9
8 2 68 8 2 69 8 2 69 8 3 69 8 3 70 8 3 70 9 3 70 9 3 71 9 3 71 9 3 71
9 3 72 9 3 72 9 3 72 9 3 73 9 3 73 9 3 73 9 3 74 9 3 74 9 3 75 9 3 75
9 3 75 9 3 76 9 3 76 9 3 76 9 3 77 9 3 77 9 3 78 9 3 78 9 3 78 10 3 79
10 3 79 10 3 79 10 3 80 10 3 80 10 3 81 10 3 81 10 3 81 10 3 82 10 3
82 10 3 83 10 3 83 10 3 83 10 3 84 10 3 84 10 3 85 10 3 85 10 3 85 10
3 86 10 3 86 10 3 86 11 3 87 11 3 87 11 3 88 11 3 88 11 3 88 11 3 89
11 3 89 11 3 89 11 3 90 11 3 90 11 3 90 11 3 91 11 3 91 11 3 91 11 3
92 11 3 92 11 3 92 11 3 93 11 3 93 11 3 93 11 3 93 11 3 94 11 3 94 11
3 94 11 3 95 11 3 95 12 3 95 12 3 95 12 3 95 12 3 96 12 3 96 12 3 96
12 3 96 12 3 96 12 4 97 12 4 97 12 4 97 12 4 97 12 4 97 12 4 97 12 4
97 12 4 97 12 4 97 12 4 97 12 4 98 12 4 98 12 4 98 12 4 98 12 4 98 12
4 98 12 4 98 12 4 98 12 4 97 12 4 97 12 4 97 12 4 97 12 4 97 12 4 97
12 4 97 12 4 97 12 4 97 12 4 97 12 3 96 12 3 96 12 3 96 12 3 96 12 3
96 12 3 95 12 3 95 12 3 95 12 3 95 11 3 95 11 3 94 11 3 94 11 3 94 11
3 94 11 3 93 11 3 93 11 3 93 11 3 92 11 3 92 11 3 92 11 3 91 11 3 91
11 3 91 11 3 90 11 3 90 11 3 90 11 3 89 11 3 89 11 3 89 11 3 88 11 3
88 11 3 88 11 3 87 11 3 87 10 3 86 10 3 86 10 3 86 10 3 85 10 3 85 10
3 85 10 3 84 10 3 84 10 3 83 10 3 83 10 3 83 10 3 82 10 3 82 10 3 81
10 3 81 10 3 81 10 3 80 10 3 80 10 3 80 10 3 79 10 3 79 10 3 78 9 3 78
9 3 78 9 3 77 9 3 77 9 3 76 9 3 76 9 3 76 9 3 75 9 3 75 9 3 75 9 3 74
9 3 74 9 3 73 9 3 73 9 3 73 9 3 72 9 3 72 9 3 72 9 3 71 9 3 71 9 3 71
9 3 70 8 3 70 8 3 70 8 3 69 8 3 69 8 2 69 8 2 68 8 2 68 8 2 68 8 2 67
8 2 67 8 2 67 8 2 66 8 2 66 8 2 66 8 2 65 8 2 65 8 2 65 8 2 64 8 2 64
8 2 64 8 2 63 8 2 63 8 2 63 8 2 63 8 2 62 8 2 62 7 2 62 7 2 61 7 2 61
7 2 61 7 2 61 7 2 60 7 2 60 7 2 60 7 2 60 7 2 59 7 2 59 7 2 59 7 2 58
7 2 58 7 2 58 7 2 58 7 2 57 7 2 57 7 2 57 7 2 57 7 2 56 7 2 56 7 2 56
7 2 56 7 2 56 7 2 55 7 2 55 7 2 55 7 2 55 7 2 54 7 2 54 7 2 54 7 2 54
6 2 53 6 2 53 6 2 53 6 2 53 6 2 53 6 2 52 6 2 52 6 2 52 6 2 52 6 2 52
6 2 51 6 2 51 6 2 51 6 2 51 6 2 51 6 2 50 6 2 50 6 2 50 6 2 50 6 2 50
6 2 50 6 2 49 6 2 49 6 2 49 6 2 49 6 2 49 7 6 79 7 6 82 7 6 82 7 6 82
7 6 82 7 6 82 7 6 81 7 6 80 7 6 80 7 6 79 7 6 78 7 6 77 6 6 76 6 6 75
6 5 74 6 5 73 6 5 72 6 5 71 6 5 70 6 5 69 6 5 68 6 5 66 6 5 65 5 5 64
5 5 63 5 5 62 5 5 61 5 4 60 5 4 59 5 4 57 5 4 56 5 4 55 5 4 54 4 4 53
4 4 52 4 4 51 4 4 49 4 4 48 4 4 47 4 3 46 4 3 45 4 3 44 4 3 43 4 3 42
3 3 40 3 3 39 3 3 38 3 3 37 3 3 36 3 3 35 3 3 34 3 2 33 3 2 32 3 2 30
2 3 29 1 3 29 1 3 28 1 3 28 1 3 27 1 3 27 1 3 26 1 3 26 1 3 25 1 3 24
1 3 24 1 3 23 1 2 23 1 2 22 1 2 22 1 2 21 1 2 20 1 2 20 1 2 19 1 2 19
1 2 18 1 2 18 1 2 17 1 2 17 1 2 16 1 2 15 1 2 15 1 2 14 1 1 14 1 1 13
1 1 13 1 1 12 1 1 11 1 1 11 1 1 10 1 1 10 0 1 9 0 1 9 0 1 9 0 1 9 0 1
9 0 1 9 0 1 9 0 1 9 0 1 9 0 1 9 0 1 9 0 1 9 0 1 9 0 1 9 0 1 9 0 1 9 0
1 9 0 1 9 0 1 9 0 1 9 0 1 9 0 1 9 0 1 9 0 1 9 0 1 9 0 1 9 0 1 9 0 1 9
0 1 9 0 1 9 0 1 9 0 1 9 0 1 9 0 1 9 0 1 9
8 2 69 8 3 69 8 3 69 8 3 70 8 3 70 9 3 70 9 3 71 9 3 71 9 3 71 9 3 72
9 3 72 9 3 72 9 3 73 9 3 73 9 3 74 9 3 74 9 3 74 9 3 75 9 3 75 9 3 75
9 3 76 9 3 76 9 3 77 9 3 77 9 3 77 9 3 78 9 3 78 10 3 78 10 3 79 10 3
79 10 3 80 10 3 80 10 3 80 10 3 81 10 3 81 10 3 82 10 3 82 10 3 82 10
3 83 10 3 83 10 3 83 10 3 84 10 3 84 10 3 85 10 3 85 10 3 85 10 3 86
10 3 86 10 3 87 11 3 87 11 3 87 11 3 88 11 3 88 11 3 88 11 3 89 11 3
89 11 3 89 11 3 90 11 3 90 11 3 91 11 3 91 11 3 91 11 3 92 11 3 92 11
3 92 11 3 92 11 3 93 11 3 93 11 3 93 11 3 94 11 3 94 11 3 94 11 3 94
11 3 95 12 3 95 12 3 95 12 3 95 12 3 96 12 3 96 12 3 96 12 3 96 12 3
96 12 4 97 12 4 97 12 4 97 12 4 97 12 4 97 12 4 97 12 4 97 12 4 98 12
4 98 12 4 98 12 4 98 12 4 98 12 4 98 12 4 98 12 4 98 12 4 98 12 4 98
12 4 98 12 4 98 12 4 98 12 4 98 12 4 98 12 4 98 12 4 98 12 4 97 12 4
97 12 4 97 12 4 97 12 4 97 12 4 97 12 4 97 12 4 96 12 3 96 12 3 96 12
3 96 12 3 96 12 3 95 12 3 95 12 3 95 11 3 95 11 3 94 11 3 94 11 3 94
11 3 94 11 3 93 11 3 93 11 3 93 11 3 92 11 3 92 11 3 92 11 3 92 11 3
91 11 3 91 11 3 91 11 3 90 11 3 90 11 3 90 11 3 89 11 3 89 11 3 88 11
3 88 11 3 88 11 3 87 11 3 87 11 3 87 10 3 86 10 3 86 10 3 85 10 3 85
10 3 85 10 3 84 10 3 84 10 3 84 10 3 83 10 3 83 10 3 82 10 3 82 10 3
82 10 3 81 10 3 81 10 3 80 10 3 80 10 3 80 10 3 79 10 3 79 10 3 78 9 3
78 9 3 78 9 3 77 9 3 77 9 3 77 9 3 76 9 3 76 9 3 75 9 3 75 9 3 75 9 3
74 9 3 74 9 3 74 9 3 73 9 3 73 9 3 72 9 3 72 9 3 72 9 3 71 9 3 71 9 3
71 9 3 70 8 3 70 8 3 70 8 3 69 8 3 69 8 2 69 8 2 68 8 2 68 8 2 68 8 2
67 8 2 67 8 2 67 8 2 66 8 2 66 8 2 66 8 2 65 8 2 65 8 2 65 8 2 64 8 2
64 8 2 64 8 2 64 8 2 63 8 2 63 8 2 63 8 2 62 8 2 62 7 2 62 7 2 62 7 2
61 7 2 61 7 2 61 7 2 60 7 2 60 7 2 60 7 2 60 7 2 59 7 2 59 7 2 59 7 2
59 7 2 58 7 2 58 7 2 58 7 2 58 7 2 57 7 2 57 7 2 57 7 2 57 7 2 56 7 2
56 7 2 56 7 2 56 7 2 55 7 2 55 7 2 55 7 2 55 7 2 54 7 2 54 7 2 54 7 2
54 6 2 54 6 2 53 6 2 53 6 2 53 6 2 53 6 2 53 6 2 52 6 2 52 6 2 52 6 2
52 6 2 52 6 2 51 6 2 51 6 2 51 6 2 51 6 2 51 6 2 50 6 2 50 6 2 50 6 2
50 6 2 50 6 2 49 6 2 49 6 2 49 6 2 49 6 2 49 7 6 79 7 6 81 7 6 82 7 6
82 7 6 82 7 6 81 7 6 81 7 6 80 7 6 79 7 6 78 7 6 77 7 6 77 6 6 76 6 6
75 6 5 74 6 5 73 6 5 71 6 5 70 6 5 69 6 5 68 6 5 67 6 5 66 6 5 65 5 5
64 5 5 63 5 5 62 5 4 60 5 4 59 5 4 58 5 4 57 5 4 56 5 4 55 5 4 54 4 4
53 4 4 51 4 4 50 4 4 49 4 4 48 4 3 47 4 3 46 4 3 45 4 3 44 4 3 42 4 3
41 3 3 40 3 3 39 3 3 38 3 3 37 3 3 36 3 3 35 3 2 34 3 2 32 3 2 31 3 2
30 2 2 29 1 3 28 1 3 28 1 3 27 1 3 27 1 3 26 1 3 26 1 3 25 1 3 25 1 3
24 1 3 23 1 2 23 1 2 22 1 2 22 1 2 21 1 2 21 1 2 20 1 2 20 1 2 19 1 2
18 1 2 18 1 2 17 1 2 17 1 2 16 1 2 16 1 2 15 1 2 15 1 2 14 1 1 13 1 1
13 1 1 12 1 1 12 1 1 11 1 1 11 1 1 10 0 1 10 0 1 9 0 1 9 0 1 9 0 1 9 0
1 9 0 1 9 0 1 9 0 1 9 0 1 9 0 1 9 0 1 9 0 1 9 0 1 9 0 1 9 0 1 9 0 1 9
0 1 9 0 1 9 0 1 9 0 1 9 0 1 9 0 1 9 0 1 9 0 1 9 0 1 9 0 1 9 0 1 9 0 1
9 0 1 9 0 1 9 0 1 9 0 1 9 0 1 9 0 1 9 0 1 9
8 3 69 8 3 69 8 3 70 8 3 70 9 3 70 9 3 71 9 3 71 9 3 71 9 3 72 9 3 72
9 3 73 9 3 73 9 3 73 9 3 74 9 3 74 9 3 74 9 3 75 9 3 75 9 3 75 9 3 76
9 3 76 9 3 77 9 3 77 9 3 77 9 3 78 9 3 78 10 3 78 10 3 79 10 3 79 10 3
80 10 3 80 10 3 80 10 3 81 10 3 81 10 3 82 10 3 82 10 3 82 10 3 83 10
3 83 10 3 84 10 3 84 10 3 84 10 3 85 10 3 85 10 3 85 10 3 86 10 3 86
11 3 87 11 3 87 11 3 87 11 3 88 11 3 88 11 3 88 11 3 89 11 3 89 11 3
90 11 3 90 11 3 90 11 3 91 11 3 91 11 3 91 11 3 92 11 3 92 11 3 92 11
3 93 11 3 93 11 3 93 11 3 93 11 3 94 11 3 94 11 3 94 11 3 95 12 3 95
12 3 95 12 3 95 12 3 96 12 3 96 12 3 96 12 3 96 12 3 96 12 4 97 12 4
97 12 4 97 12 4 97 12 4 97 12 4 97 12 4 98 12 4 98 12 4 98 12 4 98 12
4 98 12 4 98 12 4 98 12 4 98 12 4 98 12 4 98 12 4 98 12 4 98 12 4 98
12 4 98 12 4 98 12 4 98 12 4 98 12 4 98 12 4 98 12 4 98 12 4 98 12 4
98 12 4 97 12 4 97 12 4 97 12 4 97 12 4 97 12 4 97 12 3 96 12 3 96 12
3 96 12 3 96 12 3 96 12 3 95 12 3 95 12 3 95 11 3 95 11 3 94 11 3 94
11 3 94 11 3 93 11 3 93 11 3 93 11 3 93 11 3 92 11 3 92 11 3 92 11 3
91 11 3 91 11 3 91 11 3 90 11 3 90 11 3 90 11 3 89 11 3 89 11 3 89 11
3 88 11 3 88 11 3 87 11 3 87 11 3 87 10 3 86 10 3 86 10 3 85 10 3 85
10 3 85 10 3 84 10 3 84 10 3 84 10 3 83 10 3 83 10 3 82 10 3 82 10 3
82 10 3 81 10 3 81 10 3 80 10 3 80 10 3 80 10 3 79 10 3 79 10 3 79 9 3
78 9 3 78 9 3 77 9 3 77 9 3 77 9 3 76 9 3 76 9 3 75 9 3 75 9 3 75 9 3
74 9 3 74 9 3 74 9 3 73 9 3 73 9 3 73 9 3 72 9 3 72 9 3 71 9 3 71 9 3
71 9 3 70 8 3 70 8 3 70 8 3 69 8 3 69 8 2 69 8 2 68 8 2 68 8 2 68 8 2
67 8 2 67 8 2 67 8 2 66 8 2 66 8 2 66 8 2 65 8 2 65 8 2 65 8 2 65 8 2
64 8 2 64 8 2 64 8 2 63 8 2 63 8 2 63 8 2 62 8 2 62 8 2 62 7 2 62 7 2
61 7 2 61 7 2 61 7 2 60 7 2 60 7 2 60 7 2 60 7 2 59 7 2 59 7 2 59 7 2
59 7 2 58 7 2 58 7 2 58 7 2 58 7 2 57 7 2 57 7 2 57 7 2 57 7 2 56 7 2
56 7 2 56 7 2 56 7 2 55 7 2 55 7 2 55 7 2 55 7 2 55 7 2 54 7 2 54 7 2
54 7 2 54 6 2 53 6 2 53 6 2 53 6 2 53 6 2 53 6 2 52 6 2 52 6 2 52 6 2
52 6 2 52 6 2 51 6 2 51 6 2 51 6 2 51 6 2 51 6 2 50 6 2 50 6 2 50 6 2
50 6 2 50 6 2 50 6 2 49 6 2 49 6 2 49 6 2 49 7 6 78 7 6 81 7 6 81 7 6
81 7 6 81 7 6 81 7 6 80 7 6 79 7 6 79 7 6 78 7 6 77 6 6 76 6 6 75 6 5
74 6 5 73 6 5 72 6 5 71 6 5 70 6 5 69 6 5 68 6 5 67 6 5 66 5 5 65 5 5
63 5 5 62 5 5 61 5 4 60 5 4 59 5 4 58 5 4 57 5 4 56 5 4 54 5 4 53 4 4
52 4 4 51 4 4 50 4 4 49 4 4 48 4 3 47 4 3 45 4 3 44 4 3 43 4 3 42 3 3
41 3 3 40 3 3 39 3 3 38 3 3 37 3 3 35 3 3 34 3 2 33 3 2 32 3 2 31 3 2
30 2 2 29 2 2 28 2 2 27 1 3 27 1 3 26 1 3 26 1 3 25 1 3 25 1 3 24 1 3
24 1 3 23 1 2 23 1 2 22 1 2 21 1 2 21 1 2 20 1 2 20 1 2 19 1 2 19 1 2
18 1 2 18 1 2 17 1 2 16 1 2 16 1 2 15 1 2 15 1 2 14 1 1 14 1 1 13 1 1
13 1 1 12 1 1 11 1 1 11 1 1 10 1 1 10 0 1 9 0 1 9 0 1 9 0 1 9 0 1 9 0
1 9 0 1 9 0 1 9 0 1 9 0 1 9 0 1 9 0 1 9 0 1 9 0 1 9 0 1 9 0 1 9 0 1 9
0 1 9 0 1 9 0 1 9 0 1 9 0 1 9 0 1 9 0 1 9 0 1 9 0 1 9 0 1 9 0 1 9 0 1
9 0 1 9 0 1 9 0 1 9 0 1 9 0 1 9 0 1 9 0 1 9
8 3 69 8 3 70 9 3 70 9 3 70 9 3 71 9 3 71 9 3 72 9 3 72 9 3 72 9 3 73
9 3 73 9 3 73 9 3 74 9 3 74 9 3 74 9 3 75 9 3 75 9 3 76 9 3 76 9 3 76
9 3 77 9 3 77 9 3 77 9 3 78 9 3 78 10 3 79 10 3 79 10 3 79 10 3 80 10
3 80 10 3 80 10 3 81 10 3 81 10 3 82 10 3 82 10 3 82 10 3 83 10 3 83
10 3 84 10 3 84 10 3 84 10 3 85 10 3 85 10 3 86 10 3 86 10 3 86 11 3
87 11 3 87 11 3 87 11 3 88 11 3 88 11 3 89 11 3 89 11 3 89 11 3 90 11
3 90 11 3 90 11 3 91 11 3 91 11 3 91 11 3 92 11 3 92 11 3 92 11 3 93
11 3 93 11 3 93 11 3 94 11 3 94 11 3 94 11 3 94 11 3 95 12 3 95 12 3
95 12 3 95 12 3 96 12 3 96 12 3 96 12 3 96 12 4 97 12 4 97 12 4 97 12
4 97 12 4 97 12 4 97 12 4 98 12 4 98 12 4 98 12 4 98 12 4 98 12 4 98
12 4 98 12 4 98 12 4 98 12 4 98 12 4 98 12 4 98 12 4 98 12 4 98 12 4
98 12 4 98 12 4 98 12 4 98 12 4 98 12 4 98 12 4 98 12 4 98 12 4 98 12
4 98 12 4 98 12 4 97 12 4 97 12 4 97 12 4 97 12 4 97 12 4 97 12 3 96
12 3 96 12 3 96 12 3 96 12 3 95 12 3 95 12 3 95 11 3 95 11 3 94 11 3
94 11 3 94 11 3 94 11 3 93 11 3 93 11 3 93 11 3 92 11 3 92 11 3 92 11
3 91 11 3 91 11 3 91 11 3 90 11 3 90 11 3 90 11 3 89 11 3 89 11 3 89
11 3 88 11 3 88 11 3 87 11 3 87 11 3 87 10 3 86 10 3 86 10 3 86 10 3
85 10 3 85 10 3 84 10 3 84 10 3 84 10 3 83 10 3 83 10 3 82 10 3 82 10
3 82 10 3 81 10 3 81 10 3 80 10 3 80 10 3 80 10 3 79 10 3 79 10 3 79 9
3 78 9 3 78 9 3 77 9 3 77 9 3 77 9 3 76 9 3 76 9 3 76 9 3 75 9 3 75 9
3 74 9 3 74 9 3 74 9 3 73 9 3 73 9 3 73 9 3 72 9 3 72 9 3 72 9 3 71 9
3 71 9 3 70 9 3 70 8 3 70 8 3 69 8 3 69 8 2 69 8 2 68 8 2 68 8 2 68 8
2 67 8 2 67 8 2 67 8 2 66 8 2 66 8 2 66 8 2 66 8 2 65 8 2 65 8 2 65 8
2 64 8 2 64 8 2 64 8 2 63 8 2 63 8 2 63 8 2 63 8 2 62 8 2 62 7 2 62 7
2 61 7 2 61 7 2 61 7 2 61 7 2 60 7 2 60 7 2 60 7 2 59 7 2 59 7 2 59 7
2 59 7 2 58 7 2 58 7 2 58 7 2 58 7 2 57 7 2 57 7 2 57 7 2 57 7 2 56 7
2 56 7 2 56 7 2 56 7 2 56 7 2 55 7 2 55 7 2 55 7 2 55 7 2 54 7 2 54 7
2 54 7 2 54 6 2 54 6 2 53 6 2 53 6 2 53 6 2 53 6 2 52 6 2 52 6 2 52 6
2 52 6 2 52 6 2 51 6 2 51 6 2 51 6 2 51 6 2 51 6 2 51 6 2 50 6 2 50 6
2 50 6 2 50 6 2 50 6 2 49 6 2 49 6 2 49 6 2 49 7 6 77 7 6 80 7 6 81 7
6 81 7 6 81 7 6 80 7 6 80 7 6 79 7 6 78 7 6 77 6 6 76 6 6 76 6 6 75 6
5 74 6 5 73 6 5 72 6 5 71 6 5 69 6 5 68 6 5 67 6 5 66 6 5 65 5 5 64 5
5 63 5 5 62 5 5 61 5 4 60 5 4 59 5 4 57 5 4 56 5 4 55 5 4 54 4 4 53 4
4 52 4 4 51 4 4 50 4 4 48 4 4 47 4 3 46 4 3 45 4 3 44 4 3 43 4 3 42 3
3 41 3 3 40 3 3 38 3 3 37 3 3 36 3 3 35 3 3 34 3 2 33 3 2 32 3 2 31 3
2 30 2 2 29 2 2 27 2 2 26 2 2 25 2 2 24 1 3 25 1 3 25 1 3 24 1 3 24 1
3 23 1 2 23 1 2 22 1 2 22 1 2 21 1 2 21 1 2 20 1 2 19 1 2 19 1 2 18 1
2 18 1 2 17 1 2 17 1 2 16 1 2 16 1 2 15 1 2 14 1 2 14 1 1 13 1 1 13 1
1 12 1 1 12 1 1 11 1 1 11 1 1 10 0 1 9 0 1 9 0 1 9 0 1 9 0 1 9 0 1 9 0
1 9 0 1 9 0 1 9 0 1 9 0 1 9 0 1 9 0 1 9 0 1 9 0 1 9 0 1 9 0 1 9 0 1 9
0 1 9 0 1 9 0 1 9 0 1 9 0 1 9 0 1 9 0 1 9 0 1 9 0 1 9 0 1 9 0 1 9 0 1
9 0 1 9 0 1 9 0 1 9 0 1 9 0 1 9 0 1 9 0 1 9
8 3 70 9 3 70 9 3 71 9 3 71 9 3 71 9 3 72 9 3 72 9 3 72 9 3 73 9 3 73
9 3 73 9 3 74 9 3 74 9 3 74 9 3 75 9 3 75 9 3 76 9 3 76 9 3 76 9 3 77
9 3 77 9 3 77 9 3 78 9 3 78 10 3 79 10 3 79 10 3 79 10 3 80 10 3 80 10
3 81 10 3 81 10 3 81 10 3 82 10 3 82 10 3 82 10 3 83 10 3 83 10 3 84
10 3 84 10 3 84 10 3 85 10 3 85 10 3 86 10 3 86 10 3 86 11 3 87 11 3
87 11 3 87 11 3 88 11 3 88 11 3 89 11 3 89 11 3 89 11 3 90 11 3 90 11
3 90 11 3 91 11 3 91 11 3 91 11 3 92 11 3 92 11 3 92 11 3 93 11 3 93
11 3 93 11 3 94 11 3 94 11 3 94 11 3 94 11 3 95 12 3 95 12 3 95 12 3
96 12 3 96 12 3 96 12 3 96 12 3 96 12 4 97 12 4 97 12 4 97 12 4 97 12
4 97 12 4 98 12 4 98 12 4 98 12 4 98 12 4 98 12 4 98 12 4 98 12 4 98
12 4 98 12 4 98 12 4 98 12 4 99 12 4 99 12 4 99 12 4 99 12 4 99 12 4
99 12 4 98 12 4 98 12 4 98 12 4 98 12 4 98 12 4 98 12 4 98 12 4 98 12
4 98 12 4 98 12 4 98 12 4 97 12 4 97 12 4 97 12 4 97 12 4 97 12 3 96
12 3 96 12 3 96 12 3 96 12 3 96 12 3 95 12 3 95 11 3 95 11 3 94 11 3
94 11 3 94 11 3 94 11 3 93 11 3 93 11 3 93 11 3 92 11 3 92 11 3 92 11
3 91 11 3 91 11 3 91 11 3 90 11 3 90 11 3 90 11 3 89 11 3 89 11 3 89
11 3 88 11 3 88 11 3 87 11 3 87 11 3 87 10 3 86 10 3 86 10 3 86 10 3
85 10 3 85 10 3 84 10 3 84 10 3 84 10 3 83 10 3 83 10 3 82 10 3 82 10
3 82 10 3 81 10 3 81 10 3 80 10 3 80 10 3 80 10 3 79 10 3 79 10 3 79 9
3 78 9 3 78 9 3 77 9 3 77 9 3 77 9 3 76 9 3 76 9 3 76 9 3 75 9 3 75 9
3 74 9 3 74 9 3 74 9 3 73 9 3 73 9 3 73 9 3 72 9 3 72 9 3 72 9 3 71 9
3 71 9 3 71 9 3 70 8 3 70 8 3 69 8 3 69 8 2 69 8 2 68 8 2 68 8 2 68 8
2 67 8 2 67 8 2 67 8 2 67 8 2 66 8 2 66 8 2 66 8 2 65 8 2 65 8 2 65 8
2 64 8 2 64 8 2 64 8 2 63 8 2 63 8 2 63 8 2 63 8 2 62 8 2 62 7 2 62 7
2 61 7 2 61 7 2 61 7 2 61 7 2 60 7 2 60 7 2 60 7 2 60 7 2 59 7 2 59 7
2 59 7 2 59 7 2 58 7 2 58 7 2 58 7 2 58 7 2 57 7 2 57 7 2 57 7 2 57 7
2 56 7 2 56 7 2 56 7 2 56 7 2 55 7 2 55 7 2 55 7 2 55 7 2 54 7 2 54 7
2 54 7 2 54 7 2 54 6 2 53 6 2 53 6 2 53 6 2 53 6 2 53 6 2 52 6 2 52 6
2 52 6 2 52 6 2 52 6 2 51 6 2 51 6 2 51 6 2 51 6 2 51 6 2 50 6 2 50 6
2 50 6 2 50 6 2 50 6 2 49 6 2 49 6 2 49 6 2 49 6 6 76 7 6 79 7 6 80 7
6 80 7 6 80 7 6 80 7 6 79 7 6 78 7 6 78 7 6 77 6 6 76 6 6 75 6 5 74 6
5 73 6 5 72 6 5 71 6 5 70 6 5 69 6 5 68 6 5 67 6 5 66 6 5 65 5 5 64 5
5 63 5 5 61 5 4 60 5 4 59 5 4 58 5 4 57 5 4 56 5 4 55 5 4 54 4 4 53 4
4 51 4 4 50 4 4 49 4 4 48 4 3 47 4 3 46 4 3 45 4 3 44 4 3 42 4 3 41 3
3 40 3 3 39 3 3 38 3 3 37 3 3 36 3 3 35 3 2 34 3 2 33 3 2 31 3 2 30 2
2 29 2 2 28 2 2 27 2 2 26 2 2 25 2 2 24 2 2 23 1 3 24 1 3 24 1 3 23 1
2 23 1 2 22 1 2 22 1 2 21 1 2 21 1 2 20 1 2 20 1 2 19 1 2 19 1 2 18 1
2 17 1 2 17 1 2 16 1 2 16 1 2 15 1 2 15 1 2 14 1 1 14 1 1 13 1 1 12 1
1 12 1 1 11 1 1 11 1 1 10 1 1 10 0 1 9 0 1 9 0 1 9 0 1 9 0 1 9 0 1 9 0
1 9 0 1 9 0 1 9 0 1 9 0 1 9 0 1 9 0 1 9 0 1 9 0 1 9 0 1 9 0 1 9 0 1 9
0 1 9 0 1 9 0 1 9 0 1 9 0 1 9 0 1 9 0 1 9 0 1 9 0 1 9 0 1 9 0 1 9 0 1
9 0 1 9 0 1 9 0 1 9 0 1 9 0 1 9 0 1 9 0 1 9
9 3 70 9 3 71 9 3 71 9 3 71 9 3 72 9 3 72 9 3 72 9 3 73 9 3 73 9 3 73
9 3 74 9 3 74 9 3 74 9 3 75 9 3 75 9 3 76 9 3 76 9 3 76 9 3 77 9 3 77
9 3 77 9 3 78 9 3 78 10 3 79 10 3 79 10 3 79 10 3 80 10 3 80 10 3 81
10 3 81 10 3 81 10 3 82 10 3 82 10 3 82 10 3 83 10 3 83 10 3 84 10 3
84 10 3 84 10 3 85 10 3 85 10 3 86 10 3 86 10 3 86 11 3 87 11 3 87 11
3 87 11 3 88 11 3 88 11 3 89 11 3 89 11 3 89 11 3 90 11 3 90 11 3 90
11 3 91 11 3 91 11 3 91 11 3 92 11 3 92 11 3 92 11 3 93 11 3 93 11 3
93 11 3 94 11 3 94 11 3 94 11 3 95 11 3 95 12 3 95 12 3 95 12 3 96 12
3 96 12 3 96 12 3 96 12 4 96 12 4 97 12 4 97 12 4 97 12 4 97 12 4 97
12 4 98 12 4 98 12 4 98 12 4 98 12 4 98 12 4 98 12 4 98 12 4 98 12 4
98 12 4 99 12 4 99 12 4 99 12 4 99 12 4 99 12 4 99 12 4 99 12 4 99 12
4 99 12 4 99 12 4 99 12 4 98 12 4 98 12 4 98 12 4 98 12 4 98 12 4 98
12 4 98 12 4 98 12 4 98 12 4 97 12 4 97 12 4 97 12 4 97 12 4 97 12 4
96 12 3 96 12 3 96 12 3 96 12 3 96 12 3 95 12 3 95 11 3 95 11 3 94 11
3 94 11 3 94 11 3 94 11 3 93 11 3 93 11 3 93 11 3 92 11 3 92 11 3 92
11 3 91 11 3 91 11 3 91 11 3 90 11 3 90 11 3 90 11 3 89 11 3 89 11 3
89 11 3 88 11 3 88 11 3 87 11 3 87 11 3 87 10 3 86 10 3 86 10 3 86 10
3 85 10 3 85 10 3 84 10 3 84 10 3 84 10 3 83 10 3 83 10 3 82 10 3 82
10 3 82 10 3 81 10 3 81 10 3 80 10 3 80 10 3 80 10 3 79 10 3 79 10 3
79 9 3 78 9 3 78 9 3 77 9 3 77 9 3 77 9 3 76 9 3 76 9 3 76 9 3 75 9 3
75 9 3 74 9 3 74 9 3 74 9 3 73 9 3 73 9 3 73 9 3 72 9 3 72 9 3 72 9 3
71 9 3 71 9 3 71 9 3 70 8 3 70 8 3 70 8 3 69 8 2 69 8 2 69 8 2 68 8 2
68 8 2 68 8 2 67 8 2 67 8 2 67 8 2 66 8 2 66 8 2 66 8 2 65 8 2 65 8 2
65 8 2 64 8 2 64 8 2 64 8 2 64 8 2 63 8 2 63 8 2 63 8 2 62 8 2 62 7 2
62 7 2 62 7 2 61 7 2 61 7 2 61 7 2 60 7 2 60 7 2 60 7 2 60 7 2 59 7 2
59 7 2 59 7 2 59 7 2 58 7 2 58 7 2 58 7 2 58 7 2 57 7 2 57 7 2 57 7 2
57 7 2 56 7 2 56 7 2 56 7 2 56 7 2 55 7 2 55 7 2 55 7 2 55 7 2 55 7 2
54 7 2 54 7 2 54 7 2 54 6 2 53 6 2 53 6 2 53 6 2 53 6 2 53 6 2 52 6 2
52 6 2 52 6 2 52 6 2 52 6 2 51 6 2 51 6 2 51 6 2 51 6 2 51 6 2 50 6 2
50 6 2 50 6 2 50 6 2 50 6 2 50 6 2 49 6 2 49 6 2 49 6 6 75 7 6 79 7 6
79 7 6 79 7 6 79 7 6 79 7 6 78 7 6 78 7 6 77 6 6 76 6 6 75 6 6 74 6 5
74 6 5 73 6 5 72 6 5 71 6 5 70 6 5 69 6 5 67 6 5 66 6 5 65 5 5 64 5 5
63 5 5 62 5 5 61 5 4 60 5 4 59 5 4 58 5 4 57 5 4 55 5 4 54 5 4 53 4 4
52 4 4 51 4 4 50 4 4 49 4 4 48 4 3 47 4 3 45 4 3 44 4 3 43 4 3 42 3 3
41 3 3 40 3 3 39 3 3 38 3 3 37 3 3 36 3 3 34 3 2 33 3 2 32 3 2 31 3 2
30 2 2 29 2 2 28 2 2 27 2 2 26 2 2 25 2 2 24 2 2 22 2 2 21 2 2 20 1 2
23 1 2 22 1 2 22 1 2 21 1 2 21 1 2 20 1 2 20 1 2 19 1 2 19 1 2 18 1 2
18 1 2 17 1 2 16 1 2 16 1 2 15 1 2 15 1 2 14 1 1 14 1 1 13 1 1 13 1 1
12 1 1 12 1 1 11 1 1 10 1 1 10 0 1 9 0 1 9 0 1 9 0 1 9 0 1 9 0 1 9 0 1
9 0 1 9 0 1 9 0 1 9 0 1 9 0 1 9 0 1 9 0 1 9 0 1 9 0 1 9 0 1 9 0 1 9 0
1 9 0 1 9 0 1 9 0 1 9 0 1 9 0 1 9 0 1 9 0 1 9 0 1 9 0 1 9 0 1 9 0 1 9
0 1 9 0 1 9 0 1 9 0 1 9 0 1 9 0 1 9 0 1 9 0 1 9
9 3 71 9 3 71 9 3 71 9 3 72 9 3 72 9 3 72 9 3 73 9 3 73 9 3 73 9 3 74
9 3 74 9 3 75 9 3 75 9 3 75 9 3 76 9 3 76 9 3 76 9 3 77 9 3 77 9 3 77
9 3 78 9 3 78 10 3 79 10 3 79 10 3 79 10 3 80 10 3 80 10 3 81 10 3 81
10 3 81 10 3 82 10 3 82 10 3 82 10 3 83 10 3 83 10 3 84 10 3 84 10 3
84 10 3 85 10 3 85 10 3 86 10 3 86 10 3 86 11 3 87 11 3 87 11 3 87 11
3 88 11 3 88 11 3 89 11 3 89 11 3 89 11 3 90 11 3 90 11 3 90 11 3 91
11 3 91 11 3 91 11 3 92 11 3 92 11 3 92 11 3 93 11 3 93 11 3 93 11 3
94 11 3 94 11 3 94 11 3 95 11 3 95 12 3 95 12 3 95 12 3 96 12 3 96 12
3 96 12 3 96 12 4 97 12 4 97 12 4 97 12 4 97 12 4 97 12 4 97 12 4 98
12 4 98 12 4 98 12 4 98 12 4 98 12 4 98 12 4 98 12 4 98 12 4 99 12 4
99 12 4 99 12 4 99 12 4 99 12 4 99 12 4 99 12 4 99 12 4 99 12 4 99 12
4 99 12 4 99 12 4 99 12 4 99 12 4 98 12 4 98 12 4 98 12 4 98 12 4 98
12 4 98 12 4 98 12 4 98 12 4 97 12 4 97 12 4 97 12 4 97 12 4 97 12 4
96 12 3 96 12 3 96 12 3 96 12 3 96 12 3 95 12 3 95 11 3 95 11 3 94 11
3 94 11 3 94 11 3 94 11 3 93 11 3 93 11 3 93 11 3 92 11 3 92 11 3 92
11 3 91 11 3 91 11 3 91 11 3 90 11 3 90 11 3 90 11 3 89 11 3 89 11 3
89 11 3 88 11 3 88 11 3 87 11 3 87 11 3 87 10 3 86 10 3 86 10 3 86 10
3 85 10 3 85 10 3 84 10 3 84 10 3 84 10 3 83 10 3 83 10 3 82 10 3 82
10 3 82 10 3 81 10 3 81 10 3 80 10 3 80 10 3 80 10 3 79 10 3 79 10 3
79 9 3 78 9 3 78 9 3 77 9 3 77 9 3 77 9 3 76 9 3 76 9 3 76 9 3 75 9 3
75 9 3 74 9 3 74 9 3 74 9 3 73 9 3 73 9 3 73 9 3 72 9 3 72 9 3 72 9 3
71 9 3 71 9 3 71 9 3 70 8 3 70 8 3 70 8 3 69 8 2 69 8 2 69 8 2 68 8 2
68 8 2 68 8 2 67 8 2 67 8 2 67 8 2 66 8 2 66 8 2 66 8 2 65 8 2 65 8 2
65 8 2 64 8 2 64 8 2 64 8 2 64 8 2 63 8 2 63 8 2 63 8 2 62 8 2 62 8 2
62 7 2 62 7 2 61 7 2 61 7 2 61 7 2 60 7 2 60 7 2 60 7 2 60 7 2 59 7 2
59 7 2 59 7 2 59 7 2 58 7 2 58 7 2 58 7 2 58 7 2 57 7 2 57 7 2 57 7 2
57 7 2 56 7 2 56 7 2 56 7 2 56 7 2 56 7 2 55 7 2 55 7 2 55 7 2 55 7 2
54 7 2 54 7 2 54 7 2 54 6 2 54 6 2 53 6 2 53 6 2 53 6 2 53 6 2 53 6 2
52 6 2 52 6 2 52 6 2 52 6 2 52 6 2 51 6 2 51 6 2 51 6 2 51 6 2 51 6 2
50 6 2 50 6 2 50 6 2 50 6 2 50 6 2 49 6 2 49 6 2 49 6 2 49 7 6 78 7 6
79 7 6 79 7 6 79 7 6 78 7 6 78 7 6 77 6 6 76 6 6 76 6 6 75 6 5 74 6 5
73 6 5 72 6 5 71 6 5 70 6 5 69 6 5 68 6 5 67 6 5 66 6 5 65 5 5 64 5 5
63 5 5 62 5 4 61 5 4 59 5 4 58 5 4 57 5 4 56 5 4 55 5 4 54 4 4 53 4 4
52 4 4 51 4 4 49 4 4 48 4 4 47 4 3 46 4 3 45 4 3 44 4 3 43 4 3 42 3 3
41 3 3 40 3 3 38 3 3 37 3 3 36 3 3 35 3 3 34 3 2 33 3 2 32 3 2 31 3 2
30 2 2 29 2 2 28 2 2 26 2 2 25 2 2 24 2 2 23 2 2 22 2 2 21 2 1 20 2 1
19 2 1 18 1 2 21 1 2 21 1 2 20 1 2 20 1 2 19 1 2 19 1 2 18 1 2 18 1 2
17 1 2 17 1 2 16 1 2 16 1 2 15 1 2 14 1 2 14 1 1 13 1 1 13 1 1 12 1 1
12 1 1 11 1 1 11 1 1 10 0 1 10 0 1 9 0 1 9 0 1 9 0 1 9 0 1 9 0 1 9 0 1
9 0 1 9 0 1 9 0 1 9 0 1 9 0 1 9 0 1 9 0 1 9 0 1 9 0 1 9 0 1 9 0 1 9 0
1 9 0 1 9 0 1 9 0 1 9 0 1 9 0 1 9 0 1 9 0 1 9 0 1 9 0 1 9 0 1 9 0 1 9
0 1 9 0 1 9 0 1 9 0 1 9 0 1 9 0 1 9 0 1 9 0 1 9
9 3 71 9 3 71 9 3 72 9 3 72 9 3 72 9 3 73 9 3 73 9 3 73 9 3 74 9 3 74
9 3 75 9 3 75 9 3 75 9 3 76 9 3 76 9 3 76 9 3 77 9 3 77 9 3 77 9 3 78
9 3 78 10 3 79 10 3 79 10 3 79 10 3 80 10 3 80 10 3 81 10 3 81 10 3 81
10 3 82 10 3 82 10 3 82 10 3 83 10 3 83 10 3 84 10 3 84 10 3 84 10 3
85 10 3 85 10 3 86 10 3 86 10 3 86 11 3 87 11 3 87 11 3 87 11 3 88 11
3 88 11 3 89 11 3 89 11 3 89 11 3 90 11 3 90 11 3 90 11 3 91 11 3 91
11 3 91 11 3 92 11 3 92 11 3 92 11 3 93 11 3 93 11 3 93 11 3 94 11 3
94 11 3 94 11 3 94 11 3 95 12 3 95 12 3 95 12 3 96 12 3 96 12 3 96 12
3 96 12 4 96 12 4 97 12 4 97 12 4 97 12 4 97 12 4 97 12 4 98 12 4 98
12 4 98 12 4 98 12 4 98 12 4 98 12 4 98 12 4 99 12 4 99 12 4 99 12 4
99 12 4 99 12 4 99 12 4 99 12 4 99 12 4 99 12 4 99 12 4 99 12 4 99 12
4 99 12 4 99 12 4 99 12 4 99 12 4 98 12 4 98 12 4 98 12 4 98 12 4 98
12 4 98 12 4 98 12 4 98 12 4 97 12 4 97 12 4 97 12 4 97 12 4 97 12 3
96 12 3 96 12 3 96 12 3 96 12 3 95 12 3 95 12 3 95 11 3 95 11 3 94 11
3 94 11 3 94 11 3 94 11 3 93 11 3 93 11 3 93 11 3 92 11 3 92 11 3 92
11 3 91 11 3 91 11 3 91 11 3 90 11 3 90 11 3 90 11 3 89 11 3 89 11 3
88 11 3 88 11 3 88 11 3 87 11 3 87 11 3 87 10 3 86 10 3 86 10 3 85 10
3 85 10 3 85 10 3 84 10 3 84 10 3 84 10 3 83 10 3 83 10 3 82 10 3 82
10 3 82 10 3 81 10 3 81 10 3 80 10 3 80 10 3 80 10 3 79 10 3 79 10 3
79 9 3 78 9 3 78 9 3 77 9 3 77 9 3 77 9 3 76 9 3 76 9 3 76 9 3 75 9 3
75 9 3 74 9 3 74 9 3 74 9 3 73 9 3 73 9 3 73 9 3 72 9 3 72 9 3 72 9 3
71 9 3 71 9 3 71 9 3 70 8 3 70 8 3 70 8 3 69 8 2 69 8 2 69 8 2 68 8 2
68 8 2 68 8 2 67 8 2 67 8 2 67 8 2 66 8 2 66 8 2 66 8 2 65 8 2 65 8 2
65 8 2 64 8 2 64 8 2 64 8 2 64 8 2 63 8 2 63 8 2 63 8 2 62 8 2 62 8 2
62 7 2 62 7 2 61 7 2 61 7 2 61 7 2 61 7 2 60 7 2 60 7 2 60 7 2 59 7 2
59 7 2 59 7 2 59 7 2 58 7 2 58 7 2 58 7 2 58 7 2 57 7 2 57 7 2 57 7 2
57 7 2 57 7 2 56 7 2 56 7 2 56 7 2 56 7 2 55 7 2 55 7 2 55 7 2 55 7 2
54 7 2 54 7 2 54 7 2 54 7 2 54 6 2 53 6 2 53 6 2 53 6 2 53 6 2 53 6 2
52 6 2 52 6 2 52 6 2 52 6 2 52 6 2 51 6 2 51 6 2 51 6 2 51 6 2 51 6 2
50 6 2 50 6 2 50 6 2 50 6 2 50 6 2 50 6 2 49 6 2 49 6 2 49 7 6 77 7 6
78 7 6 78 7 6 78 7 6 78 7 6 77 7 6 76 6 6 76 6 6 75 6 6 74 6 5 73 6 5
72 6 5 71 6 5 70 6 5 70 6 5 69 6 5 67 6 5 66 6 5 65 5 5 64 5 5 63 5 5
62 5 5 61 5 4 60 5 4 59 5 4 58 5 4 57 5 4 56 5 4 55 5 4 53 4 4 52 4 4
51 4 4 50 4 4 49 4 4 48 4 3 47 4 3 46 4 3 45 4 3 44 4 3 42 4 3 41 3 3
40 3 3 39 3 3 38 3 3 37 3 3 36 3 3 35 3 3 34 3 2 33 3 2 32 3 2 30 3 2
29 2 2 28 2 2 27 2 2 26 2 2 25 2 2 24 2 2 23 2 2 22 2 2 21 2 1 20 2 1
19 1 1 18 1 1 17 1 1 15 1 2 20 1 2 19 1 2 19 1 2 18 1 2 18 1 2 17 1 2
17 1 2 16 1 2 16 1 2 15 1 2 15 1 2 14 1 1 14 1 1 13 1 1 12 1 1 12 1 1
11 1 1 11 1 1 10 1 1 10 0 1 9 0 1 9 0 1 9 0 1 9 0 1 9 0 1 9 0 1 9 0 1
9 0 1 9 0 1 9 0 1 9 0 1 9 0 1 9 0 1 9 0 1 9 0 1 9 0 1 9 0 1 9 0 1 9 0
1 9 0 1 9 0 1 9 0 1 9 0 1 9 0 1 9 0 1 9 0 1 9 0 1 9 0 1 9 0 1 9 0 1 9
0 1 9 0 1 9 0 1 9 0 1 9 0 1 9 0 1 9 0 1 9 0 1 9
9 3 71 9 3 72 9 3 72 9 3 72 9 3 73 9 3 73 9 3 73 9 3 74 9 3 74 9 3 75
9 3 75 9 3 75 9 3 76 9 3 76 9 3 76 9 3 77 9 3 77 9 3 77 9 3 78 9 3 78
10 3 79 10 3 79 10 3 79 10 3 80 10 3 80 10 3 81 10 3 81 10 3 81 10 3
82 10 3 82 10 3 82 10 3 83 10 3 83 10 3 84 10 3 84 10 3 84 10 3 85 10
3 85 10 3 85 10 3 86 10 3 86 11 3 87 11 3 87 11 3 87 11 3 88 11 3 88
11 3 88 11 3 89 11 3 89 11 3 90 11 3 90 11 3 90 11 3 91 11 3 91 11 3
91 11 3 92 11 3 92 11 3 92 11 3 93 11 3 93 11 3 93 11 3 94 11 3 94 11
3 94 11 3 94 11 3 95 12 3 95 12 3 95 12 3 96 12 3 96 12 3 96 12 3 96
12 4 96 12 4 97 12 4 97 12 4 97 12 4 97 12 4 97 12 4 98 12 4 98 12 4
98 12 4 98 12 4 98 12 4 98 12 4 98 12 4 99 12 4 99 12 4 99 12 4 99 12
4 99 12 4 99 12 4 99 12 4 99 12 4 99 12 4 99 12 4 99 12 4 99 12 4 99
12 4 99 12 4 99 12 4 99 12 4 99 12 4 98 12 4 98 12 4 98 12 4 98 12 4
98 12 4 98 12 4 98 12 4 98 12 4 97 12 4 97 12 4 97 12 4 97 12 4 97 12
3 96 12 3 96 12 3 96 12 3 96 12 3 95 12 3 95 12 3 95 11 3 95 11 3 94
11 3 94 11 3 94 11 3 93 11 3 93 11 3 93 11 3 93 11 3 92 11 3 92 11 3
92 11 3 91 11 3 91 11 3 91 11 3 90 11 3 90 11 3 89 11 3 89 11 3 89 11
3 88 11 3 88 11 3 88 11 3 87 11 3 87 10 3 87 10 3 86 10 3 86 10 3 85
10 3 85 10 3 85 10 3 84 10 3 84 10 3 83 10 3 83 10 3 83 10 3 82 10 3
82 10 3 82 10 3 81 10 3 81 10 3 80 10 3 80 10 3 80 10 3 79 10 3 79 10
3 78 9 3 78 9 3 78 9 3 77 9 3 77 9 3 77 9 3 76 9 3 76 9 3 75 9 3 75 9
3 75 9 3 74 9 3 74 9 3 74 9 3 73 9 3 73 9 3 73 9 3 72 9 3 72 9 3 72 9
3 71 9 3 71 9 3 71 9 3 70 8 3 70 8 3 70 8 3 69 8 2 69 8 2 69 8 2 68 8
2 68 8 2 68 8 2 67 8 2 67 8 2 67 8 2 66 8 2 66 8 2 66 8 2 65 8 2 65 8
2 65 8 2 64 8 2 64 8 2 64 8 2 64 8 2 63 8 2 63 8 2 63 8 2 62 8 2 62 8
2 62 7 2 62 7 2 61 7 2 61 7 2 61 7 2 61 7 2 60 7 2 60 7 2 60 7 2 60 7
2 59 7 2 59 7 2 59 7 2 58 7 2 58 7 2 58 7 2 58 7 2 58 7 2 57 7 2 57 7
2 57 7 2 57 7 2 56 7 2 56 7 2 56 7 2 56 7 2 55 7 2 55 7 2 55 7 2 55 7
2 55 7 2 54 7 2 54 7 2 54 7 2 54 6 2 53 6 2 53 6 2 53 6 2 53 6 2 53 6
2 52 6 2 52 6 2 52 6 2 52 6 2 52 6 2 51 6 2 51 6 2 51 6 2 51 6 2 51 6
2 51 6 2 50 6 2 50 6 2 50 6 2 50 6 2 50 6 2 49 6 2 49 6 2 49 6 6 76 7
6 77 7 6 77 7 6 77 7 6 77 6 6 76 6 6 76 6 6 75 6 6 74 6 5 74 6 5 73 6
5 72 6 5 71 6 5 70 6 5 69 6 5 68 6 5 67 6 5 66 6 5 65 5 5 64 5 5 63 5
5 62 5 5 61 5 4 60 5 4 58 5 4 57 5 4 56 5 4 55 5 4 54 5 4 53 4 4 52 4
4 51 4 4 50 4 4 49 4 4 48 4 3 46 4 3 45 4 3 44 4 3 43 4 3 42 3 3 41 3
3 40 3 3 39 3 3 38 3 3 37 3 3 36 3 3 34 3 2 33 3 2 32 3 2 31 3 2 30 2
2 29 2 2 28 2 2 27 2 2 26 2 2 25 2 2 24 2 2 23 2 2 22 2 2 20 2 1 19 2
1 18 1 1 17 1 1 16 1 1 15 1 1 14 1 1 13 1 2 18 1 2 18 1 2 17 1 2 17 1
2 16 1 2 16 1 2 15 1 2 15 1 2 14 1 1 14 1 1 13 1 1 13 1 1 12 1 1 11 1
1 11 1 1 10 1 1 10 0 1 9 0 1 9 0 1 9 0 1 9 0 1 9 0 1 9 0 1 9 0 1 9 0 1
9 0 1 9 0 1 9 0 1 9 0 1 9 0 1 9 0 1 9 0 1 9 0 1 9 0 1 9 0 1 9 0 1 9 0
1 9 0 1 9 0 1 9 0 1 9 0 1 9 0 1 9 0 1 9 0 1 9 0 1 9 0 1 9 0 1 9 0 1 9
0 1 9 0 1 9 0 1 9 0 1 9 0 1 9 0 1 9 0 1 9 0 1 9
9 3 72 9 3 72 9 3 72 9 3 73 9 3 73 9 3 73 9 3 74 9 3 74 9 3 74 9 3 75
9 3 75 9 3 76 9 3 76 9 3 76 9 3 77 9 3 77 9 3 77 9 3 78 9 3 78 10 3 79
10 3 79 10 3 79 10 3 80 10 3 80 10 3 80 10 3 81 10 3 81 10 3 82 10 3
82 10 3 82 10 3 83 10 3 83 10 3 84 10 3 84 10 3 84 10 3 85 10 3 85 10
3 85 10 3 86 10 3 86 10 3 87 11 3 87 11 3 87 11 3 88 11 3 88 11 3 88
11 3 89 11 3 89 11 3 89 11 3 90 11 3 90 11 3 91 11 3 91 11 3 91 11 3
92 11 3 92 11 3 92 11 3 93 11 3 93 11 3 93 11 3 93 11 3 94 11 3 94 11
3 94 11 3 95 12 3 95 12 3 95 12 3 95 12 3 96 12 3 96 12 3 96 12 3 96
12 4 97 12 4 97 12 4 97 12 4 97 12 4 97 12 4 98 12 4 98 12 4 98 12 4
98 12 4 98 12 4 98 12 4 98 12 4 98 12 4 99 12 4 99 12 4 99 12 4 99 12
4 99 12 4 99 12 4 99 12 4 99 12 4 99 12 4 99 12 4 99 12 4 99 12 4 99
12 4 99 12 4 99 12 4 99 12 4 99 12 4 98 12 4 98 12 4 98 12 4 98 12 4
98 12 4 98 12 4 98 12 4 97 12 4 97 12 4 97 12 4 97 12 4 97 12 4 97 12
3 96 12 3 96 12 3 96 12 3 96 12 3 95 12 3 95 11 3 95 11 3 95 11 3 94
11 3 94 11 3 94 11 3 93 11 3 93 11 3 93 11 3 92 11 3 92 11 3 92 11 3
91 11 3 91 11 3 91 11 3 90 11 3 90 11 3 90 11 3 89 11 3 89 11 3 89 11
3 88 11 3 88 11 3 88 11 3 87 11 3 87 10 3 86 10 3 86 10 3 86 10 3 85
10 3 85 10 3 85 10 3 84 10 3 84 10 3 83 10 3 83 10 3 83 10 3 82 10 3
82 10 3 81 10 3 81 10 3 81 10 3 80 10 3 80 10 3 80 10 3 79 10 3 79 10
3 78 9 3 78 9 3 78 9 3 77 9 3 77 9 3 77 9 3 76 9 3 76 9 3 75 9 3 75 9
3 75 9 3 74 9 3 74 9 3 74 9 3 73 9 3 73 9 3 73 9 3 72 9 3 72 9 3 72 9
3 71 9 3 71 9 3 71 9 3 70 8 3 70 8 3 70 8 3 69 8 2 69 8 2 69 8 2 68 8
2 68 8 2 68 8 2 67 8 2 67 8 2 67 8 2 66 8 2 66 8 2 66 8 2 65 8 2 65 8
2 65 8 2 65 8 2 64 8 2 64 8 2 64 8 2 63 8 2 63 8 2 63 8 2 62 8 2 62 8
2 62 7 2 62 7 2 61 7 2 61 7 2 61 7 2 61 7 2 60 7 2 60 7 2 60 7 2 60 7
2 59 7 2 59 7 2 59 7 2 59 7 2 58 7 2 58 7 2 58 7 2 58 7 2 57 7 2 57 7
2 57 7 2 57 7 2 56 7 2 56 7 2 56 7 2 56 7 2 55 7 2 55 7 2 55 7 2 55 7
2 55 7 2 54 7 2 54 7 2 54 7 2 54 6 2 54 6 2 53 6 2 53 6 2 53 6 2 53 6
2 52 6 2 52 6 2 52 6 2 52 6 2 52 6 2 52 6 2 51 6 2 51 6 2 51 6 2 51 6
2 51 6 2 50 6 2 50 6 2 50 6 2 50 6 2 50 6 2 49 6 2 49 6 2 49 6 6 75 6
6 76 7 6 76 7 6 76 6 6 76 6 6 76 6 6 75 6 6 74 6 5 74 6 5 73 6 5 72 6
5 71 6 5 70 6 5 69 6 5 68 6 5 67 6 5 66 6 5 65 5 5 64 5 5 63 5 5 62 5
5 61 5 4 60 5 4 59 5 4 58 5 4 57 5 4 56 5 4 55 5 4 54 4 4 53 4 4 51 4
4 50 4 4 49 4 4 48 4 3 47 4 3 46 4 3 45 4 3 44 4 3 43 4 3 42 3 3 41 3
3 40 3 3 38 3 3 37 3 3 36 3 3 35 3 3 34 3 2 33 3 2 32 3 2 31 3 2 30 2
2 29 2 2 28 2 2 27 2 2 26 2 2 24 2 2 23 2 2 22 2 2 21 2 1 20 2 1 19 2
1 18 1 1 17 1 1 16 1 1 15 1 1 14 1 1 13 1 1 12 1 1 11 1 2 17 1 2 16 1
2 16 1 2 15 1 2 15 1 2 14 1 1 14 1 1 13 1 1 13 1 1 12 1 1 12 1 1 11 1
1 11 1 1 10 0 1 9 0 1 9 0 1 9 0 1 9 0 1 9 0 1 9 0 1 9 0 1 9 0 1 9 0 1
9 0 1 9 0 1 9 0 1 9 0 1 9 0 1 9 0 1 9 0 1 9 0 1 9 0 1 9 0 1 9 0 1 9 0
1 9 0 1 9 0 1 9 0 1 9 0 1 9 0 1 9 0 1 9 0 1 9 0 1 9 0 1 9 0 1 9 0 1 9
0 1 9 0 1 9 0 1 9 0 1 9 0 1 9 0 1 9 0 1 9 0 1 9
9 3 72 9 3 72 9 3 73 9 3 73 9 3 73 9 3 74 9 3 74 9 3 74 9 3 75 9 3 75
9 3 76 9 3 76 9 3 76 9 3 77 9 3 77 9 3 77 9 3 78 9 3 78 10 3 79 10 3
79 10 3 79 10 3 80 10 3 80 10 3 80 10 3 81 10 3 81 10 3 82 10 3 82 10
3 82 10 3 83 10 3 83 10 3 83 10 3 84 10 3 84 10 3 85 10 3 85 10 3 85
10 3 86 10 3 86 10 3 86 11 3 87 11 3 87 11 3 88 11 3 88 11 3 88 11 3
89 11 3 89 11 3 89 11 3 90 11 3 90 11 3 90 11 3 91 11 3 91 11 3 91 11
3 92 11 3 92 11 3 92 11 3 93 11 3 93 11 3 93 11 3 94 11 3 94 11 3 94
11 3 94 11 3 95 12 3 95 12 3 95 12 3 96 12 3 96 12 3 96 12 3 96 12 4
96 12 4 97 12 4 97 12 4 97 12 4 97 12 4 97 12 4 98 12 4 98 12 4 98 12
4 98 12 4 98 12 4 98 12 4 98 12 4 98 12 4 99 12 4 99 12 4 99 12 4 99
12 4 99 12 4 99 12 4 99 12 4 99 12 4 99 12 4 99 12 4 99 12 4 99 12 4
99 12 4 99 12 4 99 12 4 99 12 4 98 12 4 98 12 4 98 12 4 98 12 4 98 12
4 98 12 4 98 12 4 98 12 4 97 12 4 97 12 4 97 12 4 97 12 4 97 12 3 96
12 3 96 12 3 96 12 3 96 12 3 95 12 3 95 12 3 95 11 3 95 11 3 94 11 3
94 11 3 94 11 3 94 11 3 93 11 3 93 11 3 93 11 3 92 11 3 92 11 3 92 11
3 91 11 3 91 11 3 91 11 3 90 11 3 90 11 3 90 11 3 89 11 3 89 11 3 88
11 3 88 11 3 88 11 3 87 11 3 87 11 3 87 10 3 86 10 3 86 10 3 86 10 3
85 10 3 85 10 3 84 10 3 84 10 3 84 10 3 83 10 3 83 10 3 83 10 3 82 10
3 82 10 3 81 10 3 81 10 3 81 10 3 80 10 3 80 10 3 79 10 3 79 10 3 79
10 3 78 9 3 78 9 3 78 9 3 77 9 3 77 9 3 76 9 3 76 9 3 76 9 3 75 9 3 75
9 3 75 9 3 74 9 3 74 9 3 74 9 3 73 9 3 73 9 3 73 9 3 72 9 3 72 9 3 72
9 3 71 9 3 71 9 3 70 9 3 70 8 3 70 8 3 69 8 3 69 8 2 69 8 2 69 8 2 68
8 2 68 8 2 68 8 2 67 8 2 67 8 2 67 8 2 66 8 2 66 8 2 66 8 2 65 8 2 65
8 2 65 8 2 65 8 2 64 8 2 64 8 2 64 8 2 63 8 2 63 8 2 63 8 2 63 8 2 62
8 2 62 7 2 62 7 2 61 7 2 61 7 2 61 7 2 61 7 2 60 7 2 60 7 2 60 7 2 60
7 2 59 7 2 59 7 2 59 7 2 59 7 2 58 7 2 58 7 2 58 7 2 58 7 2 57 7 2 57
7 2 57 7 2 57 7 2 56 7 2 56 7 2 56 7 2 56 7 2 55 7 2 55 7 2 55 7 2 55
7 2 55 7 2 54 7 2 54 7 2 54 7 2 54 6 2 54 6 2 53 6 2 53 6 2 53 6 2 53
6 2 53 6 2 52 6 2 52 6 2 52 6 2 52 6 2 52 6 2 51 6 2 51 6 2 51 6 2 51
6 2 51 6 2 50 6 2 50 6 2 50 6 2 50 6 2 50 6 2 50 6 2 49 6 2 49 6 5 73
6 6 75 6 6 76 6 6 76 6 6 75 6 6 75 6 6 74 6 5 74 6 5 73 6 5 72 6 5 71
6 5 71 6 5 70 6 5 69 6 5 68 6 5 67 6 5 66 6 5 65 5 5 64 5 5 63 5 5 62
5 5 61 5 4 60 5 4 59 5 4 58 5 4 56 5 4 55 5 4 54 5 4 53 4 4 52 4 4 51
4 4 50 4 4 49 4 4 48 4 3 47 4 3 46 4 3 45 4 3 43 4 3 42 4 3 41 3 3 40
3 3 39 3 3 38 3 3 37 3 3 36 3 3 35 3 3 34 3 2 33 3 2 32 3 2 30 3 2 29
2 2 28 2 2 27 2 2 26 2 2 25 2 2 24 2 2 23 2 2 22 2 2 21 2 1 20 2 1 19
2 1 18 1 1 17 1 1 16 1 1 15 1 1 13 1 1 12 1 1 11 1 1 10 1 1 9 1 1 8 1
1 7 1 2 15 1 2 14 1 1 14 1 1 13 1 1 13 1 1 12 1 1 12 1 1 11 1 1 11 1 1
10 0 1 10 0 1 9 0 1 9 0 1 9 0 1 9 0 1 9 0 1 9 0 1 9 0 1 9 0 1 9 0 1 9
0 1 9 0 1 9 0 1 9 0 1 9 0 1 9 0 1 9 0 1 9 0 1 9 0 1 9 0 1 9 0 1 9 0 1
9 0 1 9 0 1 9 0 1 9 0 1 9 0 1 9 0 1 9 0 1 9 0 1 9 0 1 9 0 1 9 0 1 9 0
1 9 0 1 9 0 1 9 0 1 9 0 1 9 0 1 9 0 1 9 0 1 9
9 3 72 9 3 73 9 3 73 9 3 73 9 3 74 9 3 74 9 3 74 9 3 75 9 3 75 9 3 76
9 3 76 9 3 76 9 3 77 9 3 77 9 3 77 9 3 78 9 3 78 10 3 78 10 3 79 10 3
79 10 3 80 10 3 80 10 3 80 10 3 81 10 3 81 10 3 81 10 3 82 10 3 82 10
3 83 10 3 83 10 3 83 10 3 84 10 3 84 10 3 84 10 3 85 10 3 85 10 3 86
10 3 86 10 3 86 11 3 87 11 3 87 11 3 87 11 3 88 11 3 88 11 3 89 11 3
89 11 3 89 11 3 90 11 3 90 11 3 90 11 3 91 11 3 91 11 3 91 11 3 92 11
3 92 11 3 92 11 3 93 11 3 93 11 3 93 11 3 93 11 3 94 11 3 94 11 3 94
11 3 95 12 3 95 12 3 95 12 3 95 12 3 96 12 3 96 12 3 96 12 3 96 12 4
97 12 4 97 12 4 97 12 4 97 12 4 97 12 4 97 12 4 98 12 4 98 12 4 98 12
4 98 12 4 98 12 4 98 12 4 98 12 4 98 12 4 99 12 4 99 12 4 99 12 4 99
12 4 99 12 4 99 12 4 99 12 4 99 12 4 99 12 4 99 12 4 99 12 4 99 12 4
99 12 4 99 12 4 99 12 4 98 12 4 98 12 4 98 12 4 98 12 4 98 12 4 98 12
4 98 12 4 98 12 4 97 12 4 97 12 4 97 12 4 97 12 4 97 12 3 96 12 3 96
12 3 96 12 3 96 12 3 96 12 3 95 12 3 95 11 3 95 11 3 94 11 3 94 11 3
94 11 3 94 11 3 93 11 3 93 11 3 93 11 3 92 11 3 92 11 3 92 11 3 91 11
3 91 11 3 91 11 3 90 11 3 90 11 3 90 11 3 89 11 3 89 11 3 89 11 3 88
11 3 88 11 3 88 11 3 87 11 3 87 10 3 87 10 3 86 10 3 86 10 3 85 10 3
85 10 3 85 10 3 84 10 3 84 10 3 84 10 3 83 10 3 83 10 3 82 10 3 82 10
3 82 10 3 81 10 3 81 10 3 80 10 3 80 10 3 80 10 3 79 10 3 79 10 3 79 9
3 78 9 3 78 9 3 78 9 3 77 9 3 77 9 3 76 9 3 76 9 3 76 9 3 75 9 3 75 9
3 75 9 3 74 9 3 74 9 3 74 9 3 73 9 3 73 9 3 72 9 3 72 9 3 72 9 3 71 9
3 71 9 3 71 9 3 70 9 3 70 8 3 70 8 3 69 8 3 69 8 2 69 8 2 68 8 2 68 8
2 68 8 2 68 8 2 67 8 2 67 8 2 67 8 2 66 8 2 66 8 2 66 8 2 65 8 2 65 8
2 65 8 2 65 8 2 64 8 2 64 8 2 64 8 2 63 8 2 63 8 2 63 8 2 63 8 2 62 8
2 62 7 2 62 7 2 61 7 2 61 7 2 61 7 2 61 7 2 60 7 2 60 7 2 60 7 2 60 7
2 59 7 2 59 7 2 59 7 2 59 7 2 58 7 2 58 7 2 58 7 2 58 7 2 57 7 2 57 7
2 57 7 2 57 7 2 56 7 2 56 7 2 56 7 2 56 7 2 56 7 2 55 7 2 55 7 2 55 7
2 55 7 2 54 7 2 54 7 2 54 7 2 54 7 2 54 6 2 53 6 2 53 6 2 53 6 2 53 6
2 53 6 2 52 6 2 52 6 2 52 6 2 52 6 2 52 6 2 51 6 2 51 6 2 51 6 2 51 6
2 51 6 2 50 6 2 50 6 2 50 6 2 50 6 2 50 6 2 50 6 2 49 6 2 49 6 5 72 6
6 74 6 6 75 6 6 75 6 6 75 6 6 74 6 5 74 6 5 73 6 5 72 6 5 72 6 5 71 6
5 70 6 5 69 6 5 68 6 5 67 6 5 66 6 5 65 5 5 64 5 5 63 5 5 62 5 5 61 5
4 60 5 4 59 5 4 58 5 4 57 5 4 56 5 4 55 5 4 54 4 4 53 4 4 52 4 4 51 4
4 49 4 4 48 4 4 47 4 3 46 4 3 45 4 3 44 4 3 43 4 3 42 3 3 41 3 3 40 3
3 39 3 3 38 3 3 37 3 3 35 3 3 34 3 2 33 3 2 32 3 2 31 3 2 30 2 2 29 2
2 28 2 2 27 2 2 26 2 2 25 2 2 24 2 2 23 2 2 22 2 2 21 2 1 20 2 1 18 1
1 17 1 1 16 1 1 15 1 1 14 1 1 13 1 1 12 1 1 11 1 1 10 1 1 9 1 1 8 1 1
7 0 0 6 0 0 5 1 1 13 1 1 13 1 1 12 1 1 12 1 1 11 1 1 11 1 1 10 0 1 10
0 1 9 0 1 9 0 1 9 0 1 9 0 1 9 0 1 9 0 1 9 0 1 9 0 1 9 0 1 9 0 1 9 0 1
9 0 1 9 0 1 9 0 1 9 0 1 9 0 1 9 0 1 9 0 1 9 0 1 9 0 1 9 0 1 9 0 1 9 0
1 9 0 1 9 0 1 9 0 1 9 0 1 9 0 1 9 0 1 9 0 1 9 0 1 9 0 1 9 0 1 9 0 1 9
0 1 9 0 1 9 0 1 9 0 1 9 0 1 9 0 1 9 0 1 9
9 3 73 9 3 73 9 3 73 9 3 74 9 3 74 9 3 74 9 3 75 9 3 75 9 3 75 9 3 76
9 3 76 9 3 77 9 3 77 9 3 77 9 3 78 9 3 78 10 3 78 10 3 79 10 3 79 10 3
79 10 3 80 10 3 80 10 3 81 10 3 81 10 3 81 10 3 82 10 3 82 10 3 82 10
3 83 10 3 83 10 3 84 10 3 84 10 3 84 10 3 85 10 3 85 10 3 85 10 3 86
10 3 86 10 3 87 11 3 87 11 3 87 11 3 88 11 3 88 11 3 88 11 3 89 11 3
89 11 3 89 11 3 90 11 3 90 11 3 90 11 3 91 11 3 91 11 3 91 11 3 92 11
3 92 11 3 92 11 3 93 11 3 93 11 3 93 11 3 94 11 3 94 11 3 94 11 3 94
11 3 95 12 3 95 12 3 95 12 3 95 12 3 96 12 3 96 12 3 96 12 3 96 12 4
97 12 4 97 12 4 97 12 4 97 12 4 97 12 4 97 12 4 98 12 4 98 12 4 98 12
4 98 12 4 98 12 4 98 12 4 98 12 4 98 12 4 98 12 4 99 12 4 99 12 4 99
12 4 99 12 4 99 12 4 99 12 4 99 12 4 99 12 4 99 12 4 99 12 4 99 12 4
99 12 4 98 12 4 98 12 4 98 12 4 98 12 4 98 12 4 98 12 4 98 12 4 98 12
4 98 12 4 97 12 4 97 12 4 97 12 4 97 12 4 97 12 4 96 12 3 96 12 3 96
12 3 96 12 3 96 12 3 95 12 3 95 12 3 95 11 3 95 11 3 94 11 3 94 11 3
94 11 3 93 11 3 93 11 3 93 11 3 93 11 3 92 11 3 92 11 3 92 11 3 91 11
3 91 11 3 91 11 3 90 11 3 90 11 3 90 11 3 89 11 3 89 11 3 89 11 3 88
11 3 88 11 3 87 11 3 87 11 3 87 10 3 86 10 3 86 10 3 86 10 3 85 10 3
85 10 3 85 10 3 84 10 3 84 10 3 83 10 3 83 10 3 83 10 3 82 10 3 82 10
3 82 10 3 81 10 3 81 10 3 80 10 3 80 10 3 80 10 3 79 10 3 79 10 3 79 9
3 78 9 3 78 9 3 77 9 3 77 9 3 77 9 3 76 9 3 76 9 3 76 9 3 75 9 3 75 9
3 75 9 3 74 9 3 74 9 3 73 9 3 73 9 3 73 9 3 72 9 3 72 9 3 72 9 3 71 9
3 71 9 3 71 9 3 70 8 3 70 8 3 70 8 3 69 8 3 69 8 2 69 8 2 68 8 2 68 8
2 68 8 2 68 8 2 67 8 2 67 8 2 67 8 2 66 8 2 66 8 2 66 8 2 65 8 2 65 8
2 65 8 2 64 8 2 64 8 2 64 8 2 64 8 2 63 8 2 63 8 2 63 8 2 63 8 2 62 8
2 62 7 2 62 7 2 61 7 2 61 7 2 61 7 2 61 7 2 60 7 2 60 7 2 60 7 2 60 7
2 59 7 2 59 7 2 59 7 2 59 7 2 58 7 2 58 7 2 58 7 2 58 7 2 57 7 2 57 7
2 57 7 2 57 7 2 56 7 2 56 7 2 56 7 2 56 7 2 56 7 2 55 7 2 55 7 2 55 7
2 55 7 2 54 7 2 54 7 2 54 7 2 54 7 2 54 6 2 53 6 2 53 6 2 53 6 2 53 6
2 53 6 2 52 6 2 52 6 2 52 6 2 52 6 2 52 6 2 51 6 2 51 6 2 51 6 2 51 6
2 51 6 2 51 6 2 50 6 2 50 6 2 50 6 2 50 6 2 50 6 2 49 6 2 49 6 5 69 6
5 73 6 5 74 6 5 74 6 5 74 6 5 74 6 5 73 6 5 72 6 5 72 6 5 71 6 5 70 6
5 69 6 5 68 6 5 68 6 5 67 6 5 66 6 5 65 5 5 64 5 5 63 5 5 62 5 5 61 5
4 60 5 4 59 5 4 58 5 4 56 5 4 55 5 4 54 5 4 53 4 4 52 4 4 51 4 4 50 4
4 49 4 4 48 4 3 47 4 3 46 4 3 45 4 3 44 4 3 43 4 3 42 3 3 40 3 3 39 3
3 38 3 3 37 3 3 36 3 3 35 3 3 34 3 2 33 3 2 32 3 2 31 3 2 30 2 2 29 2
2 28 2 2 27 2 2 26 2 2 24 2 2 23 2 2 22 2 2 21 2 2 20 2 1 19 2 1 18 1
1 17 1 1 16 1 1 15 1 1 14 1 1 13 1 1 12 1 1 11 1 1 10 1 1 9 1 1 8 1 0
7 0 0 6 0 0 5 0 0 5 0 0 5 1 1 12 1 1 11 1 1 11 1 1 10 0 1 10 0 1 9 0 1
9 0 1 9 0 1 9 0 1 9 0 1 9 0 1 9 0 1 9 0 1 9 0 1 9 0 1 9 0 1 9 0 1 9 0
1 9 0 1 9 0 1 9 0 1 9 0 1 9 0 1 9 0 1 9 0 1 9 0 1 9 0 1 9 0 1 9 0 1 9
0 1 9 0 1 9 0 1 9 0 1 9 0 1 9 0 1 9 0 1 9 0 1 9 0 1 9 0 1 9 0 1 9 0 1
9 0 1 9 0 1 9 0 1 9 0 1 9 0 1 9 0 1 9
9 3 73 9 3 73 9 3 74 9 3 74 9 3 74 9 3 75 9 3 75 9 3 75 9 3 76 9 3 76
9 3 76 9 3 77 9 3 77 9 3 78 9 3 78 9 3 78 10 3 79 10 3 79 10 3 79 10 3
80 10 3 80 10 3 80 10 3 81 10 3 81 10 3 82 10 3 82 10 3 82 10 3 83 10
3 83 10 3 83 10 3 84 10 3 84 10 3 85 10 3 85 10 3 85 10 3 86 10 3 86
10 3 86 11 3 87 11 3 87 11 3 87 11 3 88 11 3 88 11 3 89 11 3 89 11 3
89 11 3 90 11 3 90 11 3 90 11 3 91 11 3 91 11 3 91 11 3 92 11 3 92 11
3 92 11 3 93 11 3 93 11 3 93 11 3 93 11 3 94 11 3 94 11 3 94 11 3 95
11 3 95 12 3 95 12 3 95 12 3 96 12 3 96 12 3 96 12 3 96 12 3 96 12 4
97 12 4 97 12 4 97 12 4 97 12 4 97 12 4 97 12 4 98 12 4 98 12 4 98 12
4 98 12 4 98 12 4 98 12 4 98 12 4 98 12 4 98 12 4 98 12 4 99 12 4 99
12 4 99 12 4 99 12 4 99 12 4 99 12 4 99 12 4 99 12 4 98 12 4 98 12 4
98 12 4 98 12 4 98 12 4 98 12 4 98 12 4 98 12 4 98 12 4 98 12 4 98 12
4 97 12 4 97 12 4 97 12 4 97 12 4 97 12 4 96 12 3 96 12 3 96 12 3 96
12 3 96 12 3 95 12 3 95 12 3 95 11 3 95 11 3 94 11 3 94 11 3 94 11 3
94 11 3 93 11 3 93 11 3 93 11 3 92 11 3 92 11 3 92 11 3 91 11 3 91 11
3 91 11 3 90 11 3 90 11 3 90 11 3 89 11 3 89 11 3 89 11 3 88 11 3 88
11 3 88 11 3 87 11 3 87 10 3 87 10 3 86 10 3 86 10 3 85 10 3 85 10 3
85 10 3 84 10 3 84 10 3 84 10 3 83 10 3 83 10 3 82 10 3 82 10 3 82 10
3 81 10 3 81 10 3 81 10 3 80 10 3 80 10 3 80 10 3 79 10 3 79 10 3 78 9
3 78 9 3 78 9 3 77 9 3 77 9 3 77 9 3 76 9 3 76 9 3 76 9 3 75 9 3 75 9
3 74 9 3 74 9 3 74 9 3 73 9 3 73 9 3 73 9 3 72 9 3 72 9 3 72 9 3 71 9
3 71 9 3 71 9 3 70 8 3 70 8 3 70 8 3 69 8 3 69 8 2 69 8 2 68 8 2 68 8
2 68 8 2 67 8 2 67 8 2 67 8 2 67 8 2 66 8 2 66 8 2 66 8 2 65 8 2 65 8
2 65 8 2 64 8 2 64 8 2 64 8 2 64 8 2 63 8 2 63 8 2 63 8 2 63 8 2 62 8
2 62 7 2 62 7 2 61 7 2 61 7 2 61 7 2 61 7 2 60 7 2 60 7 2 60 7 2 60 7
2 59 7 2 59 7 2 59 7 2 59 7 2 58 7 2 58 7 2 58 7 2 58 7 2 57 7 2 57 7
2 57 7 2 57 7 2 56 7 2 56 7 2 56 7 2 56 7 2 56 7 2 55 7 2 55 7 2 55 7
2 55 7 2 55 7 2 54 7 2 54 7 2 54 7 2 54 6 2 53 6 2 53 6 2 53 6 2 53 6
2 53 6 2 52 6 2 52 6 2 52 6 2 52 6 2 52 6 2 52 6 2 51 6 2 51 6 2 51 6
2 51 6 2 51 6 2 50 6 2 50 6 2 50 6 2 50 6 2 50 6 2 50 6 2 49 6 2 49 6
5 72 6 5 73 6 5 73 6 5 73 6 5 73 6 5 72 6 5 72 6 5 71 6 5 70 6 5 70 6
5 69 6 5 68 6 5 67 6 5 66 6 5 65 5 5 64 5 5 63 5 5 62 5 5 61 5 4 60 5
4 59 5 4 58 5 4 57 5 4 56 5 4 55 5 4 54 4 4 53 4 4 52 4 4 51 4 4 50 4
4 49 4 4 47 4 3 46 4 3 45 4 3 44 4 3 43 4 3 42 3 3 41 3 3 40 3 3 39 3
3 38 3 3 37 3 3 36 3 3 35 3 2 34 3 2 33 3 2 31 3 2 30 2 2 29 2 2 28 2
2 27 2 2 26 2 2 25 2 2 24 2 2 23 2 2 22 2 2 21 2 1 20 2 1 19 2 1 18 1
1 17 1 1 16 1 1 15 1 1 14 1 1 13 1 1 11 1 1 10 1 1 9 1 1 8 1 1 7 1 0 6
0 0 5 0 0 5 0 0 5 0 0 5 0 0 5 0 0 5 0 0 5 0 1 10 0 1 9 0 1 9 0 1 9 0 1
9 0 1 9 0 1 9 0 1 9 0 1 9 0 1 9 0 1 9 0 1 9 0 1 9 0 1 9 0 1 9 0 1 9 0
1 9 0 1 9 0 1 9 0 1 9 0 1 9 0 1 9 0 1 9 0 1 9 0 1 9 0 1 9 0 1 9 0 1 9
0 1 9 0 1 9 0 1 9 0 1 9 0 1 9 0 1 9 0 1 9 0 1 9 0 1 9 0 1 9 0 1 9 0 1
9 0 1 9 0 1 9 0 1 9 0 1 9 0 1 9
9 3 73 9 3 74 9 3 74 9 3 74 9 3 75 9 3 75 9 3 75 9 3 76 9 3 76 9 3 76
9 3 77 9 3 77 9 3 77 9 3 78 9 3 78 10 3 79 10 3 79 10 3 79 10 3 80 10
3 80 10 3 80 10 3 81 10 3 81 10 3 81 10 3 82 10 3 82 10 3 83 10 3 83
10 3 83 10 3 84 10 3 84 10 3 84 10 3 85 10 3 85 10 3 86 10 3 86 10 3
86 11 3 87 11 3 87 11 3 87 11 3 88 11 3 88 11 3 88 11 3 89 11 3 89 11
3 89 11 3 90 11 3 90 11 3 90 11 3 91 11 3 91 11 3 91 11 3 92 11 3 92
11 3 92 11 3 93 11 3 93 11 3 93 11 3 93 11 3 94 11 3 94 11 3 94 11 3
95 11 3 95 12 3 95 12 3 95 12 3 96 12 3 96 12 3 96 12 3 96 12 3 96 12
4 97 12 4 97 12 4 97 12 4 97 12 4 97 12 4 97 12 4 98 12 4 98 12 4 98
12 4 98 12 4 98 12 4 98 12 4 98 12 4 98 12 4 98 12 4 98 12 4 98 12 4
98 12 4 98 12 4 98 12 4 98 12 4 98 12 4 98 12 4 98 12 4 98 12 4 98 12
4 98 12 4 98 12 4 98 12 4 98 12 4 98 12 4 98 12 4 98 12 4 97 12 4 97
12 4 97 12 4 97 12 4 97 12 4 97 12 3 96 12 3 96 12 3 96 12 3 96 12 3
96 12 3 95 12 3 95 12 3 95 11 3 95 11 3 94 11 3 94 11 3 94 11 3 94 11
3 93 11 3 93 11 3 93 11 3 92 11 3 92 11 3 92 11 3 91 11 3 91 11 3 91
11 3 91 11 3 90 11 3 90 11 3 90 11 3 89 11 3 89 11 3 88 11 3 88 11 3
88 11 3 87 11 3 87 11 3 87 10 3 86 10 3 86 10 3 86 10 3 85 10 3 85 10
3 85 10 3 84 10 3 84 10 3 83 10 3 83 10 3 83 10 3 82 10 3 82 10 3 82
10 3 81 10 3 81 10 3 80 10 3 80 10 3 80 10 3 79 10 3 79 10 3 79 9 3 78
9 3 78 9 3 78 9 3 77 9 3 77 9 3 76 9 3 76 9 3 76 9 3 75 9 3 75 9 3 75
9 3 74 9 3 74 9 3 74 9 3 73 9 3 73 9 3 73 9 3 72 9 3 72 9 3 72 9 3 71
9 3 71 9 3 71 9 3 70 8 3 70 8 3 70 8 3 69 8 3 69 8 2 69 8 2 68 8 2 68
8 2 68 8 2 67 8 2 67 8 2 67 8 2 67 8 2 66 8 2 66 8 2 66 8 2 65 8 2 65
8 2 65 8 2 64 8 2 64 8 2 64 8 2 64 8 2 63 8 2 63 8 2 63 8 2 62 8 2 62
8 2 62 7 2 62 7 2 61 7 2 61 7 2 61 7 2 61 7 2 60 7 2 60 7 2 60 7 2 60
7 2 59 7 2 59 7 2 59 7 2 59 7 2 58 7 2 58 7 2 58 7 2 58 7 2 57 7 2 57
7 2 57 7 2 57 7 2 57 7 2 56 7 2 56 7 2 56 7 2 56 7 2 55 7 2 55 7 2 55
7 2 55 7 2 55 7 2 54 7 2 54 7 2 54 7 2 54 6 2 54 6 2 53 6 2 53 6 2 53
6 2 53 6 2 53 6 2 52 6 2 52 6 2 52 6 2 52 6 2 52 6 2 51 6 2 51 6 2 51
6 2 51 6 2 51 6 2 50 6 2 50 6 2 50 6 2 50 6 2 50 6 2 50 6 2 49 6 2 49
6 5 70 6 5 72 6 5 72 6 5 72 6 5 72 6 5 71 6 5 71 6 5 70 6 5 70 6 5 69
6 5 68 6 5 67 6 5 66 6 5 65 5 5 64 5 5 64 5 5 63 5 5 62 5 4 61 5 4 60
5 4 59 5 4 58 5 4 56 5 4 55 5 4 54 5 4 53 4 4 52 4 4 51 4 4 50 4 4 49
4 4 48 4 3 47 4 3 46 4 3 45 4 3 44 4 3 43 4 3 42 3 3 41 3 3 40 3 3 38
3 3 37 3 3 36 3 3 35 3 3 34 3 2 33 3 2 32 3 2 31 3 2 30 2 2 29 2 2 28
2 2 27 2 2 26 2 2 25 2 2 24 2 2 23 2 2 22 2 2 21 2 1 20 2 1 18 1 1 17
1 1 16 1 1 15 1 1 14 1 1 13 1 1 12 1 1 11 1 1 10 1 1 9 1 1 8 1 1 7 1 0
6 0 0 5 0 0 5 0 0 5 0 0 5 0 0 5 0 0 5 0 0 5 0 0 5 0 0 5 0 0 5 0 1 9 0
1 9 0 1 9 0 1 9 0 1 9 0 1 9 0 1 9 0 1 9 0 1 9 0 1 9 0 1 9 0 1 9 0 1 9
0 1 9 0 1 9 0 1 9 0 1 9 0 1 9 0 1 9 0 1 9 0 1 9 0 1 9 0 1 9 0 1 9 0 1
9 0 1 9 0 1 9 0 1 9 0 1 9 0 1 9 0 1 9 0 1 9 0 1 9 0 1 9 0 1 9 0 1 9 0
1 9 0 1 9 0 1 9 0 1 9 0 1 9 0 1 9
9 3 73 9 3 74 9 3 74 9 3 74 9 3 75 9 3 75 9 3 76 9 3 76 9 3 76 9 3 77
9 3 77 9 3 77 9 3 78 9 3 78 10 3 78 10 3 79 10 3 79 10 3 79 10 3 80 10
3 80 10 3 81 10 3 81 10 3 81 10 3 82 10 3 82 10 3 82 10 3 83 10 3 83
10 3 83 10 3 84 10 3 84 10 3 85 10 3 85 10 3 85 10 3 86 10 3 86 10 3
86 11 3 87 11 3 87 11 3 87 11 3 88 11 3 88 11 3 88 11 3 89 11 3 89 11
3 90 11 3 90 11 3 90 11 3 91 11 3 91 11 3 91 11 3 91 11 3 92 11 3 92
11 3 92 11 3 93 11 3 93 11 3 93 11 3 94 11 3 94 11 3 94 11 3 94 11 3
95 11 3 95 12 3 95 12 3 95 12 3 96 12 3 96 12 3 96 12 3 96 12 3 96 12
4 97 12 4 97 12 4 97 12 4 97 12 4 97 12 4 97 12 4 97 12 4 98 12 4 98
12 4 98 12 4 98 12 4 98 12 4 98 12 4 98 12 4 98 12 4 98 12 4 98 12 4
98 12 4 98 12 4 98 12 4 98 12 4 98 12 4 98 12 4 98 12 4 98 12 4 98 12
4 98 12 4 98 12 4 98 12 4 98 12 4 98 12 4 97 12 4 97 12 4 97 12 4 97
12 4 97 12 4 97 12 4 97 12 3 96 12 3 96 12 3 96 12 3 96 12 3 96 12 3
95 12 3 95 12 3 95 11 3 95 11 3 94 11 3 94 11 3 94 11 3 94 11 3 93 11
3 93 11 3 93 11 3 92 11 3 92 11 3 92 11 3 92 11 3 91 11 3 91 11 3 91
11 3 90 11 3 90 11 3 90 11 3 89 11 3 89 11 3 89 11 3 88 11 3 88 11 3
88 11 3 87 11 3 87 10 3 86 10 3 86 10 3 86 10 3 85 10 3 85 10 3 85 10
3 84 10 3 84 10 3 84 10 3 83 10 3 83 10 3 82 10 3 82 10 3 82 10 3 81
10 3 81 10 3 81 10 3 80 10 3 80 10 3 80 10 3 79 10 3 79 10 3 78 9 3 78
9 3 78 9 3 77 9 3 77 9 3 77 9 3 76 9 3 76 9 3 76 9 3 75 9 3 75 9 3 75
9 3 74 9 3 74 9 3 74 9 3 73 9 3 73 9 3 73 9 3 72 9 3 72 9 3 72 9 3 71
9 3 71 9 3 71 9 3 70 8 3 70 8 3 70 8 3 69 8 3 69 8 2 69 8 2 68 8 2 68
8 2 68 8 2 67 8 2 67 8 2 67 8 2 66 8 2 66 8 2 66 8 2 66 8 2 65 8 2 65
8 2 65 8 2 64 8 2 64 8 2 64 8 2 64 8 2 63 8 2 63 8 2 63 8 2 62 8 2 62
8 2 62 7 2 62 7 2 61 7 2 61 7 2 61 7 2 61 7 2 60 7 2 60 7 2 60 7 2 60
7 2 59 7 2 59 7 2 59 7 2 59 7 2 58 7 2 58 7 2 58 7 2 58 7 2 57 7 2 57
7 2 57 7 2 57 7 2 57 7 2 56 7 2 56 7 2 56 7 2 56 7 2 55 7 2 55 7 2 55
7 2 55 7 2 55 7 2 54 7 2 54 7 2 54 7 2 54 6 2 54 6 2 53 6 2 53 6 2 53
6 2 53 6 2 53 6 2 52 6 2 52 6 2 52 6 2 52 6 2 52 6 2 51 6 2 51 6 2 51
6 2 51 6 2 51 6 2 51 6 2 50 6 2 50 6 2 50 6 2 50 6 2 50 6 2 49 6 2 49
6 5 69 6 5 71 6 5 71 6 5 71 6 5 71 6 5 71 6 5 70 6 5 70 6 5 69 6 5 68
6 5 67 6 5 67 6 5 66 6 5 65 5 5 64 5 5 63 5 5 62 5 5 61 5 4 60 5 4 59
5 4 58 5 4 57 5 4 56 5 4 55 5 4 54 4 4 53 4 4 52 4 4 51 4 4 50 4 4 49
4 4 48 4 3 47 4 3 45 4 3 44 4 3 43 4 3 42 4 3 41 3 3 40 3 3 39 3 3 38
3 3 37 3 3 36 3 3 35 3 3 34 3 2 33 3 2 32 3 2 31 3 2 30 2 2 29 2 2 28
2 2 26 2 2 25 2 2 24 2 2 23 2 2 22 2 2 21 2 1 20 2 1 19 2 1 18 1 1 17
1 1 16 1 1 15 1 1 14 1 1 13 1 1 12 1 1 11 1 1 10 1 1 9 1 1 8 1 0 7 0 0
6 0 0 5 0 0 5 0 0 5 0 0 5 0 0 5 0 0 5 0 0 5 0 0 5 0 0 5 0 0 5 0 0 5 0
0 5 0 0 5 0 1 9 0 1 9 0 1 9 0 1 9 0 1 9 0 1 9 0 1 9 0 1 9 0 1 9 0 1 9
0 1 9 0 1 9 0 1 9 0 1 9 0 1 9 0 1 9 0 1 9 0 1 9 0 1 9 0 1 9 0 1 9 0 1
9 0 1 9 0 1 9 0 1 9 0 1 9 0 1 9 0 1 9 0 1 9 0 1 9 0 1 9 0 1 9 0 1 9 0
1 9 0 1 9 0 1 9 0 1 9 0 1 9 0 1 9
9 3 74 9 3 74 9 3 74 9 3 75 9 3 75 9 3 75 9 3 76 9 3 76 9 3 76 9 3 77
9 3 77 9 3 78 9 3 78 9 3 78 10 3 79 10 3 79 10 3 79 10 3 80 10 3 80 10
3 80 10 3 81 10 3 81 10 3 82 10 3 82 10 3 82 10 3 83 10 3 83 10 3 83
10 3 84 10 3 84 10 3 84 10 3 85 10 3 85 10 3 85 10 3 86 10 3 86 10 3
87 11 3 87 11 3 87 11 3 88 11 3 88 11 3 88 11 3 89 11 3 89 11 3 89 11
3 90 11 3 90 11 3 90 11 3 91 11 3 91 11 3 91 11 3 92 11 3 92 11 3 92
11 3 92 11 3 93 11 3 93 11 3 93 11 3 94 11 3 94 11 3 94 11 3 94 11 3
95 11 3 95 12 3 95 12 3 95 12 3 95 12 3 96 12 3 96 12 3 96 12 3 96 12
3 96 12 4 97 12 4 97 12 4 97 12 4 97 12 4 97 12 4 97 12 4 97 12 4 98
12 4 98 12 4 98 12 4 98 12 4 98 12 4 98 12 4 98 12 4 98 12 4 98 12 4
98 12 4 98 12 4 98 12 4 98 12 4 98 12 4 98 12 4 98 12 4 98 12 4 98 12
4 98 12 4 98 12 4 98 12 4 97 12 4 97 12 4 97 12 4 97 12 4 97 12 4 97
12 4 97 12 4 96 12 3 96 12 3 96 12 3 96 12 3 96 12 3 96 12 3 95 12 3
95 12 3 95 11 3 95 11 3 94 11 3 94 11 3 94 11 3 94 11 3 93 11 3 93 11
3 93 11 3 92 11 3 92 11 3 92 11 3 92 11 3 91 11 3 91 11 3 91 11 3 90
11 3 90 11 3 90 11 3 89 11 3 89 11 3 89 11 3 88 11 3 88 11 3 88 11 3
87 11 3 87 11 3 87 10 3 86 10 3 86 10 3 86 10 3 85 10 3 85 10 3 84 10
3 84 10 3 84 10 3 83 10 3 83 10 3 83 10 3 82 10 3 82 10 3 82 10 3 81
10 3 81 10 3 80 10 3 80 10 3 80 10 3 79 10 3 79 10 3 79 10 3 78 9 3 78
9 3 78 9 3 77 9 3 77 9 3 77 9 3 76 9 3 76 9 3 75 9 3 75 9 3 75 9 3 74
9 3 74 9 3 74 9 3 73 9 3 73 9 3 73 9 3 72 9 3 72 9 3 72 9 3 71 9 3 71
9 3 71 9 3 70 9 3 70 8 3 70 8 3 69 8 3 69 8 2 69 8 2 69 8 2 68 8 2 68
8 2 68 8 2 67 8 2 67 8 2 67 8 2 66 8 2 66 8 2 66 8 2 66 8 2 65 8 2 65
8 2 65 8 2 64 8 2 64 8 2 64 8 2 64 8 2 63 8 2 63 8 2 63 8 2 62 8 2 62
8 2 62 7 2 62 7 2 61 7 2 61 7 2 61 7 2 61 7 2 60 7 2 60 7 2 60 7 2 60
7 2 59 7 2 59 7 2 59 7 2 59 7 2 58 7 2 58 7 2 58 7 2 58 7 2 57 7 2 57
7 2 57 7 2 57 7 2 57 7 2 56 7 2 56 7 2 56 7 2 56 7 2 55 7 2 55 7 2 55
7 2 55 7 2 55 7 2 54 7 2 54 7 2 54 7 2 54 6 2 54 6 2 53 6 2 53 6 2 53
6 2 53 6 2 53 6 2 52 6 2 52 6 2 52 6 2 52 6 2 52 6 2 51 6 2 51 6 2 51
6 2 51 6 2 51 6 2 51 6 2 50 6 2 50 6 2 50 6 2 50 6 2 50 6 2 50 6 2 49
6 5 66 6 5 69 6 5 70 6 5 70 6 5 70 6 5 70 6 5 69 6 5 69 6 5 68 6 5 67
6 5 67 6 5 66 6 5 65 5 5 64 5 5 63 5 5 62 5 5 61 5 4 60 5 4 59 5 4 58
5 4 57 5 4 56 5 4 55 5 4 54 5 4 53 4 4 52 4 4 51 4 4 50 4 4 49 4 4 48
4 3 47 4 3 46 4 3 45 4 3 44 4 3 43 4 3 42 3 3 41 3 3 40 3 3 39 3 3 38
3 3 37 3 3 35 3 3 34 3 2 33 3 2 32 3 2 31 3 2 30 2 2 29 2 2 28 2 2 27
2 2 26 2 2 25 2 2 24 2 2 23 2 2 22 2 2 21 2 1 20 2 1 19 2 1 18 1 1 17
1 1 16 1 1 15 1 1 14 1 1 13 1 1 11 1 1 10 1 1 9 1 1 8 1 1 7 1 0 6 0 0
5 0 0 5 0 0 5 0 0 5 0 0 5 0 0 5 0 0 5 0 0 5 0 0 5 0 0 5 0 0 5 0 0 5 0
0 5 0 0 5 0 0 5 0 0 5 0 0 5 0 1 9 0 1 9 0 1 9 0 1 9 0 1 9 0 1 9 0 1 9
0 1 9 0 1 9 0 1 9 0 1 9 0 1 9 0 1 9 0 1 9 0 1 9 0 1 9 0 1 9 0 1 9 0 1
9 0 1 9 0 1 9 0 1 9 0 1 9 0 1 9 0 1 9 0 1 9 0 1 9 0 1 9 0 1 9 0 1 9 0
1 9 0 1 9 0 1 9 0 1 9 0 1 9 0 1 9
9 3 74 9 3 74 9 3 75 9 3 75 9 3 75 9 3 76 9 3 76 9 3 76 9 3 77 9 3 77
9 3 77 9 3 78 9 3 78 10 3 78 10 3 79 10 3 79 10 3 80 10 3 80 10 3 80
10 3 81 10 3 81 10 3 81 10 3 82 10 3 82 10 3 82 10 3 83 10 3 83 10 3
83 10 3 84 10 3 84 10 3 85 10 3 85 10 3 85 10 3 86 10 3 86 10 3 86 11
3 87 11 3 87 11 3 87 11 3 88 11 3 88 11 3 88 11 3 89 11 3 89 11 3 89
11 3 90 11 3 90 11 3 90 11 3 91 11 3 91 11 3 91 11 3 92 11 3 92 11 3
92 11 3 92 11 3 93 11 3 93 11 3 93 11 3 94 11 3 94 11 3 94 11 3 94 11
3 94 11 3 95 12 3 95 12 3 95 12 3 95 12 3 96 12 3 96 12 3 96 12 3 96
12 3 96 12 4 96 12 4 97 12 4 97 12 4 97 12 4 97 12 4 97 12 4 97 12 4
97 12 4 97 12 4 98 12 4 98 12 4 98 12 4 98 12 4 98 12 4 98 12 4 98 12
4 98 12 4 98 12 4 98 12 4 98 12 4 98 12 4 98 12 4 98 12 4 98 12 4 98
12 4 97 12 4 97 12 4 97 12 4 97 12 4 97 12 4 97 12 4 97 12 4 97 12 4
96 12 3 96 12 3 96 12 3 96 12 3 96 12 3 96 12 3 95 12 3 95 12 3 95 11
3 95 11 3 95 11 3 94 11 3 94 11 3 94 11 3 94 11 3 93 11 3 93 11 3 93
11 3 92 11 3 92 11 3 92 11 3 92 11 3 91 11 3 91 11 3 91 11 3 90 11 3
90 11 3 90 11 3 89 11 3 89 11 3 89 11 3 88 11 3 88 11 3 88 11 3 87 11
3 87 11 3 87 10 3 86 10 3 86 10 3 86 10 3 85 10 3 85 10 3 85 10 3 84
10 3 84 10 3 84 10 3 83 10 3 83 10 3 82 10 3 82 10 3 82 10 3 81 10 3
81 10 3 81 10 3 80 10 3 80 10 3 80 10 3 79 10 3 79 10 3 79 9 3 78 9 3
78 9 3 77 9 3 77 9 3 77 9 3 76 9 3 76 9 3 76 9 3 75 9 3 75 9 3 75 9 3
74 9 3 74 9 3 74 9 3 73 9 3 73 9 3 73 9 3 72 9 3 72 9 3 72 9 3 71 9 3
71 9 3 71 9 3 70 8 3 70 8 3 70 8 3 69 8 3 69 8 2 69 8 2 68 8 2 68 8 2
68 8 2 68 8 2 67 8 2 67 8 2 67 8 2 66 8 2 66 8 2 66 8 2 65 8 2 65 8 2
65 8 2 65 8 2 64 8 2 64 8 2 64 8 2 64 8 2 63 8 2 63 8 2 63 8 2 62 8 2
62 8 2 62 7 2 62 7 2 61 7 2 61 7 2 61 7 2 61 7 2 60 7 2 60 7 2 60 7 2
60 7 2 59 7 2 59 7 2 59 7 2 59 7 2 58 7 2 58 7 2 58 7 2 58 7 2 57 7 2
57 7 2 57 7 2 57 7 2 57 7 2 56 7 2 56 7 2 56 7 2 56 7 2 55 7 2 55 7 2
55 7 2 55 7 2 55 7 2 54 7 2 54 7 2 54 7 2 54 7 2 54 6 2 53 6 2 53 6 2
53 6 2 53 6 2 53 6 2 52 6 2 52 6 2 52 6 2 52 6 2 52 6 2 51 6 2 51 6 2
51 6 2 51 6 2 51 6 2 51 6 2 50 6 2 50 6 2 50 6 2 50 6 2 50 6 2 50 6 2
49 6 2 49 6 5 68 6 5 69 6 5 69 6 5 69 6 5 69 6 5 69 6 5 68 6 5 67 6 5
67 6 5 66 6 5 65 5 5 64 5 5 63 5 5 63 5 5 62 5 5 61 5 4 60 5 4 59 5 4
58 5 4 57 5 4 56 5 4 55 5 4 54 4 4 53 4 4 52 4 4 51 4 4 50 4 4 49 4 4
48 4 3 47 4 3 46 4 3 44 4 3 43 4 3 42 4 3 41 3 3 40 3 3 39 3 3 38 3 3
37 3 3 36 3 3 35 3 3 34 3 2 33 3 2 32 3 2 31 3 2 30 2 2 29 2 2 28 2 2
27 2 2 26 2 2 25 2 2 24 2 2 23 2 2 21 2 2 20 2 1 19 2 1 18 1 1 17 1 1
16 1 1 15 1 1 14 1 1 13 1 1 12 1 1 11 1 1 10 1 1 9 1 1 8 1 1 7 1 0 6 0
0 5 0 0 5 0 0 5 0 0 5 0 0 5 0 0 5 0 0 5 0 0 5 0 0 5 0 0 5 0 0 5 0 0 5
0 0 5 0 0 5 0 0 5 0 0 5 0 0 5 0 0 5 0 0 5 0 0 5 0 0 5 0 1 9 0 1 9 0 1
9 0 1 9 0 1 9 0 1 9 0 1 9 0 1 9 0 1 9 0 1 9 0 1 9 0 1 9 0 1 9 0 1 9 0
1 9 0 1 9 0 1 9 0 1 9 0 1 9 0 1 9 0 1 9 0 1 9 0 1 9 0 1 9 0 1 9 0 1 9
0 1 9 0 1 9 0 1 9 0 1 9 0 0 5 0 0 5
9 3 74 9 3 74 9 3 75 9 3 75 9 3 76 9 3 76 9 3 76 9 3 77 9 3 77 9 3 77
9 3 78 9 3 78 9 3 78 10 3 79 10 3 79 10 3 79 10 3 80 10 3 80 10 3 80
10 3 81 10 3 81 10 3 81 10 3 82 10 3 82 10 3 83 10 3 83 10 3 83 10 3
84 10 3 84 10 3 84 10 3 85 10 3 85 10 3 85 10 3 86 10 3 86 10 3 86 11
3 87 11 3 87 11 3 87 11 3 88 11 3 88 11 3 88 11 3 89 11 3 89 11 3 89
11 3 90 11 3 90 11 3 90 11 3 91 11 3 91 11 3 91 11 3 92 11 3 92 11 3
92 11 3 92 11 3 93 11 3 93 11 3 93 11 3 93 11 3 94 11 3 94 11 3 94 11
3 94 11 3 95 12 3 95 12 3 95 12 3 95 12 3 95 12 3 96 12 3 96 12 3 96
12 3 96 12 3 96 12 4 96 12 4 97 12 4 97 12 4 97 12 4 97 12 4 97 12 4
97 12 4 97 12 4 97 12 4 97 12 4 97 12 4 97 12 4 97 12 4 98 12 4 98 12
4 98 12 4 98 12 4 98 12 4 97 12 4 97 12 4 97 12 4 97 12 4 97 12 4 97
12 4 97 12 4 97 12 4 97 12 4 97 12 4 97 12 4 97 12 4 96 12 3 96 12 3
96 12 3 96 12 3 96 12 3 96 12 3 95 12 3 95 12 3 95 12 3 95 11 3 95 11
3 94 11 3 94 11 3 94 11 3 94 11 3 93 11 3 93 11 3 93 11 3 93 11 3 92
11 3 92 11 3 92 11 3 92 11 3 91 11 3 91 11 3 91 11 3 90 11 3 90 11 3
90 11 3 89 11 3 89 11 3 89 11 3 88 11 3 88 11 3 88 11 3 87 11 3 87 11
3 87 10 3 86 10 3 86 10 3 86 10 3 85 10 3 85 10 3 85 10 3 84 10 3 84
10 3 84 10 3 83 10 3 83 10 3 83 10 3 82 10 3 82 10 3 82 10 3 81 10 3
81 10 3 80 10 3 80 10 3 80 10 3 79 10 3 79 10 3 79 10 3 78 9 3 78 9 3
78 9 3 77 9 3 77 9 3 77 9 3 76 9 3 76 9 3 76 9 3 75 9 3 75 9 3 75 9 3
74 9 3 74 9 3 74 9 3 73 9 3 73 9 3 73 9 3 72 9 3 72 9 3 72 9 3 71 9 3
71 9 3 71 9 3 70 8 3 70 8 3 70 8 3 69 8 3 69 8 2 69 8 2 68 8 2 68 8 2
68 8 2 67 8 2 67 8 2 67 8 2 67 8 2 66 8 2 66 8 2 66 8 2 65 8 2 65 8 2
65 8 2 65 8 2 64 8 2 64 8 2 64 8 2 63 8 2 63 8 2 63 8 2 63 8 2 62 8 2
62 8 2 62 7 2 62 7 2 61 7 2 61 7 2 61 7 2 61 7 2 60 7 2 60 7 2 60 7 2
60 7 2 59 7 2 59 7 2 59 7 2 59 7 2 58 7 2 58 7 2 58 7 2 58 7 2 57 7 2
57 7 2 57 7 2 57 7 2 57 7 2 56 7 2 56 7 2 56 7 2 56 7 2 55 7 2 55 7 2
55 7 2 55 7 2 55 7 2 54 7 2 54 7 2 54 7 2 54 7 2 54 6 2 53 6 2 53 6 2
53 6 2 53 6 2 53 6 2 52 6 2 52 6 2 52 6 2 52 6 2 52 6 2 52 6 2 51 6 2
51 6 2 51 6 2 51 6 2 51 6 2 50 6 2 50 6 2 50 6 2 50 6 2 50 6 2 50 6 2
49 6 2 49 6 5 66 6 5 68 6 5 68 6 5 68 6 5 68 6 5 68 6 5 67 6 5 67 6 5
66 6 5 65 5 5 64 5 5 64 5 5 63 5 5 62 5 5 61 5 4 60 5 4 59 5 4 58 5 4
57 5 4 56 5 4 55 5 4 54 5 4 53 4 4 52 4 4 51 4 4 50 4 4 49 4 4 48 4 3
47 4 3 46 4 3 45 4 3 44 4 3 43 4 3 42 3 3 41 3 3 40 3 3 39 3 3 38 3 3
37 3 3 36 3 3 35 3 2 34 3 2 33 3 2 31 3 2 30 2 2 29 2 2 28 2 2 27 2 2
26 2 2 25 2 2 24 2 2 23 2 2 22 2 2 21 2 1 20 2 1 19 2 1 18 1 1 17 1 1
16 1 1 15 1 1 14 1 1 13 1 1 12 1 1 11 1 1 10 1 1 9 1 1 8 1 0 7 0 0 6 0
0 5 0 0 5 0 0 5 0 0 5 0 0 5 0 0 5 0 0 5 0 0 5 0 0 5 0 0 5 0 0 5 0 0 5
0 0 5 0 0 5 0 0 5 0 0 5 0 0 5 0 0 5 0 0 5 0 0 5 0 0 5 0 0 5 0 0 5 0 0
5 0 0 5 0 1 9 0 1 9 0 1 9 0 1 9 0 1 9 0 1 9 0 1 9 0 1 9 0 1 9 0 1 9 0
1 9 0 1 9 0 1 9 0 1 9 0 1 9 0 1 9 0 1 9 0 1 9 0 1 9 0 1 9 0 1 9 0 1 9
0 1 9 0 0 5 0 0 5 0 0 5 0 0 5 0 0 5
9 3 74 9 3 75 9 3 75 9 3 75 9 3 76 9 3 76 9 3 76 9 3 77 9 3 77 9 3 77
9 3 78 9 3 78 10 3 78 10 3 79 10 3 79 10 3 80 10 3 80 10 3 80 10 3 81
10 3 81 10 3 81 10 3 82 10 3 82 10 3 82 10 3 83 10 3 83 10 3 83 10 3
84 10 3 84 10 3 84 10 3 85 10 3 85 10 3 85 10 3 86 10 3 86 10 3 86 11
3 87 11 3 87 11 3 87 11 3 88 11 3 88 11 3 88 11 3 89 11 3 89 11 3 89
11 3 90 11 3 90 11 3 90 11 3 91 11 3 91 11 3 91 11 3 92 11 3 92 11 3
92 11 3 92 11 3 93 11 3 93 11 3 93 11 3 93 11 3 94 11 3 94 11 3 94 11
3 94 11 3 95 11 3 95 12 3 95 12 3 95 12 3 95 12 3 95 12 3 96 12 3 96
12 3 96 12 3 96 12 3 96 12 3 96 12 4 97 12 4 97 12 4 97 12 4 97 12 4
97 12 4 97 12 4 97 12 4 97 12 4 97 12 4 97 12 4 97 12 4 97 12 4 97 12
4 97 12 4 97 12 4 97 12 4 97 12 4 97 12 4 97 12 4 97 12 4 97 12 4 97
12 4 97 12 4 97 12 4 97 12 4 97 12 3 96 12 3 96 12 3 96 12 3 96 12 3
96 12 3 96 12 3 96 12 3 95 12 3 95 12 3 95 11 3 95 11 3 95 11 3 94 11
3 94 11 3 94 11 3 94 11 3 93 11 3 93 11 3 93 11 3 93 11 3 92 11 3 92
11 3 92 11 3 92 11 3 91 11 3 91 11 3 91 11 3 90 11 3 90 11 3 90 11 3
89 11 3 89 11 3 89 11 3 88 11 3 88 11 3 88 11 3 87 11 3 87 11 3 87 10
3 86 10 3 86 10 3 86 10 3 85 10 3 85 10 3 85 10 3 84 10 3 84 10 3 84
10 3 83 10 3 83 10 3 83 10 3 82 10 3 82 10 3 82 10 3 81 10 3 81 10 3
81 10 3 80 10 3 80 10 3 80 10 3 79 10 3 79 10 3 78 9 3 78 9 3 78 9 3
77 9 3 77 9 3 77 9 3 76 9 3 76 9 3 76 9 3 75 9 3 75 9 3 75 9 3 74 9 3
74 9 3 74 9 3 73 9 3 73 9 3 73 9 3 72 9 3 72 9 3 72 9 3 71 9 3 71 9 3
71 9 3 70 9 3 70 8 3 70 8 3 70 8 3 69 8 3 69 8 2 69 8 2 68 8 2 68 8 2
68 8 2 67 8 2 67 8 2 67 8 2 67 8 2 66 8 2 66 8 2 66 8 2 65 8 2 65 8 2
65 8 2 65 8 2 64 8 2 64 8 2 64 8 2 63 8 2 63 8 2 63 8 2 63 8 2 62 8 2
62 7 2 62 7 2 62 7 2 61 7 2 61 7 2 61 7 2 61 7 2 60 7 2 60 7 2 60 7 2
60 7 2 59 7 2 59 7 2 59 7 2 59 7 2 58 7 2 58 7 2 58 7 2 58 7 2 57 7 2
57 7 2 57 7 2 57 7 2 57 7 2 56 7 2 56 7 2 56 7 2 56 7 2 55 7 2 55 7 2
55 7 2 55 7 2 55 7 2 54 7 2 54 7 2 54 7 2 54 7 2 54 6 2 53 6 2 53 6 2
53 6 2 53 6 2 53 6 2 52 6 2 52 6 2 52 6 2 52 6 2 52 6 2 52 6 2 51 6 2
51 6 2 51 6 2 51 6 2 51 6 2 50 6 2 50 6 2 50 6 2 50 6 2 50 6 2 50 6 2
49 6 2 49 5 5 64 6 5 66 6 5 67 6 5 67 6 5 67 6 5 67 6 5 66 6 5 66 6 5
65 5 5 64 5 5 64 5 5 63 5 5 62 5 5 61 5 4 60 5 4 59 5 4 58 5 4 57 5 4
57 5 4 56 5 4 55 5 4 54 4 4 53 4 4 52 4 4 51 4 4 50 4 4 49 4 4 48 4 3
47 4 3 46 4 3 44 4 3 43 4 3 42 4 3 41 3 3 40 3 3 39 3 3 38 3 3 37 3 3
36 3 3 35 3 3 34 3 2 33 3 2 32 3 2 31 3 2 30 2 2 29 2 2 28 2 2 27 2 2
26 2 2 25 2 2 24 2 2 23 2 2 22 2 2 21 2 1 20 2 1 19 1 1 18 1 1 17 1 1
16 1 1 14 1 1 13 1 1 12 1 1 11 1 1 10 1 1 9 1 1 8 1 1 7 1 0 6 0 0 5 0
0 5 0 0 5 0 0 5 0 0 5 0 0 5 0 0 5 0 0 5 0 0 5 0 0 5 0 0 5 0 0 5 0 0 5
0 0 5 0 0 5 0 0 5 0 0 5 0 0 5 0 0 5 0 0 5 0 0 5 0 0 5 0 0 5 0 0 5 0 0
5 0 0 5 0 0 5 0 0 5 0 0 5 0 0 5 0 0 5 0 0 5 0 1 9 0 1 9 0 1 9 0 1 9 0
1 9 0 1 9 0 1 9 0 1 9 0 1 9 0 1 9 0 1 9 0 1 9 0 0 5 0 0 5 0 0 5 0 0 5
0 0 5 0 0 5 0 0 5 0 0 5 0 0 5 0 0 5
9 3 75 9 3 75 9 3 75 9 3 76 9 3 76 9 3 76 9 3 77 9 3 77 9 3 77 9 3 78
9 3 78 9 3 78 10 3 79 10 3 79 10 3 79 10 3 80 10 3 80 10 3 80 10 3 81
10 3 81 10 3 81 10 3 82 10 3 82 10 3 82 10 3 83 10 3 83 10 3 83 10 3
84 10 3 84 10 3 85 10 3 85 10 3 85 10 3 86 10 3 86 10 3 86 10 3 87 11
3 87 11 3 87 11 3 88 11 3 88 11 3 88 11 3 88 11 3 89 11 3 89 11 3 89
11 3 90 11 3 90 11 3 90 11 3 91 11 3 91 11 3 91 11 3 91 11 3 92 11 3
92 11 3 92 11 3 93 11 3 93 11 3 93 11 3 93 11 3 94 11 3 94 11 3 94 11
3 94 11 3 94 11 3 95 11 3 95 12 3 95 12 3 95 12 3 95 12 3 95 12 3 96
12 3 96 12 3 96 12 3 96 12 3 96 12 3 96 12 3 96 12 4 96 12 4 97 12 4
97 12 4 97 12 4 97 12 4 97 12 4 97 12 4 97 12 4 97 12 4 97 12 4 97 12
4 97 12 4 97 12 4 97 12 4 97 12 4 97 12 4 97 12 4 97 12 4 97 12 4 97
12 4 96 12 3 96 12 3 96 12 3 96 12 3 96 12 3 96 12 3 96 12 3 96 12 3
95 12 3 95 12 3 95 12 3 95 11 3 95 11 3 95 11 3 94 11 3 94 11 3 94 11
3 94 11 3 94 11 3 93 11 3 93 11 3 93 11 3 93 11 3 92 11 3 92 11 3 92
11 3 91 11 3 91 11 3 91 11 3 91 11 3 90 11 3 90 11 3 90 11 3 89 11 3
89 11 3 89 11 3 88 11 3 88 11 3 88 11 3 88 11 3 87 11 3 87 10 3 87 10
3 86 10 3 86 10 3 86 10 3 85 10 3 85 10 3 85 10 3 84 10 3 84 10 3 83
10 3 83 10 3 83 10 3 82 10 3 82 10 3 82 10 3 81 10 3 81 10 3 81 10 3
80 10 3 80 10 3 80 10 3 79 10 3 79 10 3 79 9 3 78 9 3 78 9 3 78 9 3 77
9 3 77 9 3 77 9 3 76 9 3 76 9 3 76 9 3 75 9 3 75 9 3 75 9 3 74 9 3 74
9 3 74 9 3 73 9 3 73 9 3 73 9 3 72 9 3 72 9 3 72 9 3 71 9 3 71 9 3 71
9 3 70 8 3 70 8 3 70 8 3 69 8 3 69 8 2 69 8 2 68 8 2 68 8 2 68 8 2 68
8 2 67 8 2 67 8 2 67 8 2 66 8 2 66 8 2 66 8 2 66 8 2 65 8 2 65 8 2 65
8 2 64 8 2 64 8 2 64 8 2 64 8 2 63 8 2 63 8 2 63 8 2 63 8 2 62 8 2 62
7 2 62 7 2 62 7 2 61 7 2 61 7 2 61 7 2 61 7 2 60 7 2 60 7 2 60 7 2 60
7 2 59 7 2 59 7 2 59 7 2 59 7 2 58 7 2 58 7 2 58 7 2 58 7 2 57 7 2 57
7 2 57 7 2 57 7 2 57 7 2 56 7 2 56 7 2 56 7 2 56 7 2 55 7 2 55 7 2 55
7 2 55 7 2 55 7 2 54 7 2 54 7 2 54 7 2 54 7 2 54 6 2 53 6 2 53 6 2 53
6 2 53 6 2 53 6 2 52 6 2 52 6 2 52 6 2 52 6 2 52 6 2 52 6 2 51 6 2 51
6 2 51 6 2 51 6 2 51 6 2 50 6 2 50 6 2 50 6 2 50 6 2 50 6 2 50 6 2 49
6 2 49 6 2 49 5 5 65 6 5 66 6 5 66 6 5 66 6 5 66 6 5 65 6 5 65 5 5 64
5 5 64 5 5 63 5 5 62 5 5 61 5 4 60 5 4 60 5 4 59 5 4 58 5 4 57 5 4 56
5 4 55 5 4 54 5 4 53 4 4 52 4 4 51 4 4 50 4 4 49 4 4 48 4 3 47 4 3 46
4 3 45 4 3 44 4 3 43 4 3 42 3 3 41 3 3 40 3 3 39 3 3 38 3 3 37 3 3 36
3 3 35 3 2 34 3 2 33 3 2 32 3 2 31 3 2 30 2 2 28 2 2 27 2 2 26 2 2 25
2 2 24 2 2 23 2 2 22 2 2 21 2 2 20 2 1 19 2 1 18 1 1 17 1 1 16 1 1 15
1 1 14 1 1 13 1 1 12 1 1 11 1 1 10 1 1 9 1 1 8 1 1 7 1 0 6 0 0 5 0 0 5
0 0 5 0 0 5 0 0 5 0 0 5 0 0 5 0 0 5 0 0 5 0 0 5 0 0 5 0 0 5 0 0 5 0 0
5 0 0 5 0 0 5 0 0 5 0 0 5 0 0 5 0 0 5 0 0 5 0 0 5 0 0 5 0 0 5 0 0 5 0
0 5 0 0 5 0 0 5 0 0 5 0 0 5 0 0 5 0 0 5 0 0 5 0 0 5 0 0 5 0 0 5 0 0 5
0 0 5 0 0 5 0 0 5 0 0 5 0 0 5 0 0 5 0 0 5 0 0 5 0 0 5 0 0 5 0 0 5 0 0
5 0 0 5 0 0 5 0 0 5 0 0 5 0 0 5
9 3 75 9 3 75 9 3 75 9 3 76 9 3 76 9 3 76 9 3 77 9 3 77 9 3 77 9 3 78
9 3 78 10 3 78 10 3 79 10 3 79 10 3 79 10 3 80 10 3 80 10 3 80 10 3 81
10 3 81 10 3 82 10 3 82 10 3 82 10 3 83 10 3 83 10 3 83 10 3 84 10 3
84 10 3 84 10 3 85 10 3 85 10 3 85 10 3 86 10 3 86 10 3 86 11 3 87 11
3 87 11 3 87 11 3 88 11 3 88 11 3 88 11 3 88 11 3 89 11 3 89 11 3 89
11 3 90 11 3 90 11 3 90 11 3 91 11 3 91 11 3 91 11 3 91 11 3 92 11 3
92 11 3 92 11 3 92 11 3 93 11 3 93 11 3 93 11 3 93 11 3 94 11 3 94 11
3 94 11 3 94 11 3 94 11 3 95 11 3 95 12 3 95 12 3 95 12 3 95 12 3 95
12 3 96 12 3 96 12 3 96 12 3 96 12 3 96 12 3 96 12 3 96 12 3 96 12 3
96 12 4 96 12 4 97 12 4 97 12 4 97 12 4 97 12 4 97 12 4 97 12 4 97 12
4 97 12 4 97 12 4 97 12 4 97 12 4 97 12 4 96 12 3 96 12 3 96 12 3 96
12 3 96 12 3 96 12 3 96 12 3 96 12 3 96 12 3 96 12 3 95 12 3 95 12 3
95 12 3 95 11 3 95 11 3 95 11 3 94 11 3 94 11 3 94 11 3 94 11 3 94 11
3 93 11 3 93 11 3 93 11 3 93 11 3 92 11 3 92 11 3 92 11 3 92 11 3 91
11 3 91 11 3 91 11 3 91 11 3 90 11 3 90 11 3 90 11 3 89 11 3 89 11 3
89 11 3 88 11 3 88 11 3 88 11 3 88 11 3 87 11 3 87 10 3 87 10 3 86 10
3 86 10 3 86 10 3 85 10 3 85 10 3 85 10 3 84 10 3 84 10 3 84 10 3 83
10 3 83 10 3 83 10 3 82 10 3 82 10 3 81 10 3 81 10 3 81 10 3 80 10 3
80 10 3 80 10 3 79 10 3 79 10 3 79 10 3 78 9 3 78 9 3 78 9 3 77 9 3 77
9 3 77 9 3 76 9 3 76 9 3 76 9 3 75 9 3 75 9 3 75 9 3 74 9 3 74 9 3 74
9 3 73 9 3 73 9 3 73 9 3 72 9 3 72 9 3 72 9 3 71 9 3 71 9 3 71 9 3 71
9 3 70 8 3 70 8 3 70 8 3 69 8 3 69 8 2 69 8 2 68 8 2 68 8 2 68 8 2 67
8 2 67 8 2 67 8 2 67 8 2 66 8 2 66 8 2 66 8 2 65 8 2 65 8 2 65 8 2 65
8 2 64 8 2 64 8 2 64 8 2 64 8 2 63 8 2 63 8 2 63 8 2 63 8 2 62 8 2 62
7 2 62 7 2 61 7 2 61 7 2 61 7 2 61 7 2 60 7 2 60 7 2 60 7 2 60 7 2 60
7 2 59 7 2 59 7 2 59 7 2 59 7 2 58 7 2 58 7 2 58 7 2 58 7 2 57 7 2 57
7 2 57 7 2 57 7 2 57 7 2 56 7 2 56 7 2 56 7 2 56 7 2 55 7 2 55 7 2 55
7 2 55 7 2 55 7 2 54 7 2 54 7 2 54 7 2 54 7 2 54 6 2 53 6 2 53 6 2 53
6 2 53 6 2 53 6 2 53 6 2 52 6 2 52 6 2 52 6 2 52 6 2 52 6 2 51 6 2 51
6 2 51 6 2 51 6 2 51 6 2 51 6 2 50 6 2 50 6 2 50 6 2 50 6 2 50 6 2 50
6 2 49 6 2 49 5 5 63 5 5 64 6 5 65 6 5 65 6 5 65 5 5 64 5 5 64 5 5 63
5 5 63 5 5 62 5 5 61 5 4 61 5 4 60 5 4 59 5 4 58 5 4 57 5 4 56 5 4 55
5 4 54 5 4 53 4 4 52 4 4 51 4 4 50 4 4 49 4 4 48 4 4 47 4 3 46 4 3 45
4 3 44 4 3 43 4 3 42 4 3 41 3 3 40 3 3 39 3 3 38 3 3 37 3 3 36 3 3 35
3 3 34 3 2 33 3 2 32 3 2 31 3 2 30 2 2 29 2 2 28 2 2 27 2 2 26 2 2 25
2 2 24 2 2 23 2 2 22 2 2 21 2 1 20 2 1 19 2 1 18 1 1 17 1 1 16 1 1 15
1 1 14 1 1 13 1 1 12 1 1 11 1 1 10 1 1 9 1 1 8 1 0 7 0 0 6 0 0 5 0 0 5
0 0 5 0 0 5 0 0 5 0 0 5 0 0 5 0 0 5 0 0 5 0 0 5 0 0 5 0 0 5 0 0 5 0 0
5 0 0 5 0 0 5 0 0 5 0 0 5 0 0 5 0 0 5 0 0 5 0 0 5 0 0 5 0 0 5 0 0 5 0
0 5 0 0 5 0 0 5 0 0 5 0 0 5 0 0 5 0 0 5 0 0 5 0 0 5 0 0 5 0 0 5 0 0 5
0 0 5 0 0 5 0 0 5 0 0 5 0 0 5 0 0 5 0 0 5 0 0 5 0 0 5 0 0 5 0 0 5 0 0
5 0 0 5 0 0 5 0 0 5 0 0 5 0 0 5
9 3 75 9 3 75 9 3 76 9 3 76 9 3 76 9 3 77 9 3 77 9 3 77 9 3 78 9 3 78
9 3 78 10 3 79 10 3 79 10 3 79 10 3 80 10 3 80 10 3 80 10 3 81 10 3 81
10 3 81 10 3 82 10 3 82 10 3 82 10 3 83 10 3 83 10 3 83 10 3 84 10 3
84 10 3 84 10 3 85 10 3 85 10 3 85 10 3 86 10 3 86 10 3 86 11 3 87 11
3 87 11 3 87 11 3 88 11 3 88 11 3 88 11 3 88 11 3 89 11 3 89 11 3 89
11 3 90 11 3 90 11 3 90 11 3 90 11 3 91 11 3 91 11 3 91 11 3 92 11 3
92 11 3 92 11 3 92 11 3 93 11 3 93 11 3 93 11 3 93 11 3 93 11 3 94 11
3 94 11 3 94 11 3 94 11 3 94 11 3 95 11 3 95 12 3 95 12 3 95 12 3 95
12 3 95 12 3 95 12 3 96 12 3 96 12 3 96 12 3 96 12 3 96 12 3 96 12 3
96 12 3 96 12 3 96 12 3 96 12 3 96 12 3 96 12 3 96 12 3 96 12 3 96 12
3 96 12 3 96 12 3 96 12 3 96 12 3 96 12 3 96 12 3 96 12 3 96 12 3 96
12 3 96 12 3 96 12 3 96 12 3 95 12 3 95 12 3 95 12 3 95 12 3 95 11 3
95 11 3 95 11 3 94 11 3 94 11 3 94 11 3 94 11 3 94 11 3 93 11 3 93 11
3 93 11 3 93 11 3 93 11 3 92 11 3 92 11 3 92 11 3 92 11 3 91 11 3 91
11 3 91 11 3 90 11 3 90 11 3 90 11 3 90 11 3 89 11 3 89 11 3 89 11 3
88 11 3 88 11 3 88 11 3 87 11 3 87 11 3 87 10 3 87 10 3 86 10 3 86 10
3 86 10 3 85 10 3 85 10 3 85 10 3 84 10 3 84 10 3 84 10 3 83 10 3 83
10 3 83 10 3 82 10 3 82 10 3 82 10 3 81 10 3 81 10 3 81 10 3 80 10 3
80 10 3 80 10 3 79 10 3 79 10 3 79 9 3 78 9 3 78 9 3 78 9 3 77 9 3 77
9 3 77 9 3 76 9 3 76 9 3 76 9 3 75 9 3 75 9 3 75 9 3 74 9 3 74 9 3 74
9 3 73 9 3 73 9 3 73 9 3 72 9 3 72 9 3 72 9 3 71 9 3 71 9 3 71 9 3 70
9 3 70 8 3 70 8 3 69 8 3 69 8 2 69 8 2 69 8 2 68 8 2 68 8 2 68 8 2 67
8 2 67 8 2 67 8 2 67 8 2 66 8 2 66 8 2 66 8 2 65 8 2 65 8 2 65 8 2 65
8 2 64 8 2 64 8 2 64 8 2 63 8 2 63 8 2 63 8 2 63 8 2 62 8 2 62 8 2 62
7 2 62 7 2 61 7 2 61 7 2 61 7 2 61 7 2 60 7 2 60 7 2 60 7 2 60 7 2 59
7 2 59 7 2 59 7 2 59 7 2 59 7 2 58 7 2 58 7 2 58 7 2 58 7 2 57 7 2 57
7 2 57 7 2 57 7 2 57 7 2 56 7 2 56 7 2 56 7 2 56 7 2 55 7 2 55 7 2 55
7 2 55 7 2 55 7 2 54 7 2 54 7 2 54 7 2 54 7 2 54 6 2 53 6 2 53 6 2 53
6 2 53 6 2 53 6 2 53 6 2 52 6 2 52 6 2 52 6 2 52 6 2 52 6 2 51 6 2 51
6 2 51 6 2 51 6 2 51 6 2 51 6 2 50 6 2 50 6 2 50 6 2 50 6 2 50 6 2 50
6 2 49 6 2 49 5 4 60 5 5 63 5 5 64 5 5 64 5 5 64 5 5 63 5 5 63 5 5 63
5 5 62 5 5 61 5 4 61 5 4 60 5 4 59 5 4 58 5 4 57 5 4 56 5 4 55 5 4 55
5 4 54 4 4 53 4 4 52 4 4 51 4 4 50 4 4 49 4 4 48 4 3 47 4 3 46 4 3 45
4 3 44 4 3 43 4 3 42 3 3 41 3 3 40 3 3 39 3 3 38 3 3 37 3 3 36 3 3 35
3 3 34 3 2 33 3 2 32 3 2 31 3 2 30 2 2 29 2 2 28 2 2 27 2 2 26 2 2 24
2 2 23 2 2 22 2 2 21 2 2 20 2 1 19 2 1 18 1 1 17 1 1 16 1 1 15 1 1 14
1 1 13 1 1 12 1 1 11 1 1 10 1 1 9 1 1 8 1 1 7 1 0 6 0 0 5 0 0 5 0 0 5
0 0 5 0 0 5 0 0 5 0 0 5 0 0 5 0 0 5 0 0 5 0 0 5 0 0 5 0 0 5 0 0 5 0 0
5 0 0 5 0 0 5 0 0 5 0 0 5 0 0 5 0 0 5 0 0 5 0 0 5 0 0 5 0 0 5 0 0 5 0
0 5 0 0 5 0 0 5 0 0 5 0 0 5 0 0 5 0 0 5 0 0 5 0 0 5 0 0 5 0 0 5 0 0 5
0 0 5 0 0 5 0 0 5 0 0 5 0 0 5 0 0 5 0 0 5 0 0 5 0 0 5 0 0 5 0 0 5 0 0
5 0 0 5 0 0 5 0 0 5 0 0 5 0 0 5
9 3 75 9 3 75 9 3 76 9 3 76 9 3 76 9 3 77 9 3 77 9 3 77 9 3 78 9 3 78
10 3 78 10 3 79 10 3 79 10 3 79 10 3 80 10 3 80 10 3 80 10 3 81 10 3
81 10 3 81 10 3 82 10 3 82 10 3 82 10 3 83 10 3 83 10 3 83 10 3 84 10
3 84 10 3 84 10 3 85 10 3 85 10 3 85 10 3 86 10 3 86 10 3 86 11 3 87
11 3 87 11 3 87 11 3 88 11 3 88 11 3 88 11 3 88 11 3 89 11 3 89 11 3
89 11 3 90 11 3 90 11 3 90 11 3 90 11 3 91 11 3 91 11 3 91 11 3 91 11
3 92 11 3 92 11 3 92 11 3 92 11 3 93 11 3 93 11 3 93 11 3 93 11 3 93
11 3 94 11 3 94 11 3 94 11 3 94 11 3 94 11 3 95 11 3 95 11 3 95 12 3
95 12 3 95 12 3 95 12 3 95 12 3 95 12 3 95 12 3 96 12 3 96 12 3 96 12
3 96 12 3 96 12 3 96 12 3 96 12 3 96 12 3 96 12 3 96 12 3 96 12 3 96
12 3 96 12 3 96 12 3 96 12 3 96 12 3 96 12 3 96 12 3 96 12 3 96 12 3
95 12 3 95 12 3 95 12 3 95 12 3 95 12 3 95 11 3 95 11 3 95 11 3 94 11
3 94 11 3 94 11 3 94 11 3 94 11 3 94 11 3 93 11 3 93 11 3 93 11 3 93
11 3 93 11 3 92 11 3 92 11 3 92 11 3 92 11 3 91 11 3 91 11 3 91 11 3
91 11 3 90 11 3 90 11 3 90 11 3 90 11 3 89 11 3 89 11 3 89 11 3 88 11
3 88 11 3 88 11 3 87 11 3 87 11 3 87 10 3 87 10 3 86 10 3 86 10 3 86
10 3 85 10 3 85 10 3 85 10 3 84 10 3 84 10 3 84 10 3 83 10 3 83 10 3
83 10 3 82 10 3 82 10 3 82 10 3 81 10 3 81 10 3 81 10 3 80 10 3 80 10
3 80 10 3 79 10 3 79 10 3 79 9 3 78 9 3 78 9 3 78 9 3 77 9 3 77 9 3 77
9 3 76 9 3 76 9 3 76 9 3 75 9 3 75 9 3 75 9 3 74 9 3 74 9 3 74 9 3 73
9 3 73 9 3 73 9 3 72 9 3 72 9 3 72 9 3 71 9 3 71 9 3 71 9 3 71 9 3 70
8 3 70 8 3 70 8 3 69 8 3 69 8 2 69 8 2 68 8 2 68 8 2 68 8 2 68 8 2 67
8 2 67 8 2 67 8 2 66 8 2 66 8 2 66 8 2 66 8 2 65 8 2 65 8 2 65 8 2 64
8 2 64 8 2 64 8 2 64 8 2 63 8 2 63 8 2 63 8 2 63 8 2 62 8 2 62 8 2 62
7 2 62 7 2 61 7 2 61 7 2 61 7 2 61 7 2 60 7 2 60 7 2 60 7 2 60 7 2 59
7 2 59 7 2 59 7 2 59 7 2 59 7 2 58 7 2 58 7 2 58 7 2 58 7 2 57 7 2 57
7 2 57 7 2 57 7 2 57 7 2 56 7 2 56 7 2 56 7 2 56 7 2 55 7 2 55 7 2 55
7 2 55 7 2 55 7 2 54 7 2 54 7 2 54 7 2 54 7 2 54 6 2 53 6 2 53 6 2 53
6 2 53 6 2 53 6 2 53 6 2 52 6 2 52 6 2 52 6 2 52 6 2 52 6 2 51 6 2 51
6 2 51 6 2 51 6 2 51 6 2 51 6 2 50 6 2 50 6 2 50 6 2 50 6 2 50 6 2 50
6 2 49 6 2 49 6 2 49 5 5 61 5 5 62 5 5 63 5 5 63 5 5 62 5 5 62 5 5 62
5 5 61 5 4 60 5 4 60 5 4 59 5 4 58 5 4 57 5 4 57 5 4 56 5 4 55 5 4 54
5 4 53 4 4 52 4 4 51 4 4 50 4 4 49 4 4 48 4 4 47 4 3 46 4 3 45 4 3 44
4 3 43 4 3 42 4 3 41 3 3 40 3 3 39 3 3 38 3 3 37 3 3 36 3 3 35 3 3 34
3 2 33 3 2 32 3 2 31 3 2 30 2 2 29 2 2 28 2 2 27 2 2 26 2 2 25 2 2 24
2 2 23 2 2 22 2 2 21 2 1 20 2 1 19 2 1 18 1 1 17 1 1 16 1 1 15 1 1 14
1 1 13 1 1 12 1 1 11 1 1 10 1 1 9 1 1 8 1 1 7 0 0 6 0 0 5 0 0 5 0 0 5
0 0 5 0 0 5 0 0 5 0 0 5 0 0 5 0 0 5 0 0 5 0 0 5 0 0 5 0 0 5 0 0 5 0 0
5 0 0 5 0 0 5 0 0 5 0 0 5 0 0 5 0 0 5 0 0 5 0 0 5 0 0 5 0 0 5 0 0 5 0
0 5 0 0 5 0 0 5 0 0 5 0 0 5 0 0 5 0 0 5 0 0 5 0 0 5 0 0 5 0 0 5 0 0 5
0 0 5 0 0 5 0 0 5 0 0 5 0 0 5 0 0 5 0 0 5 0 0 5 0 0 5 0 0 5 0 0 5 0 0
5 0 0 5 0 0 5 0 0 5 0 0 5 0 0 5
9 3 75 9 3 76 9 3 76 9 3 76 9 3 76 9 3 77 9 3 77 9 3 77 9 3 78 9 3 78
10 3 78 10 3 79 10 3 79 10 3 79 10 3 80 10 3 80 10 3 80 10 3 81 10 3
81 10 3 81 10 3 82 10 3 82 10 3 82 10 3 83 10 3 83 10 3 83 10 3 84 10
3 84 10 3 84 10 3 85 10 3 85 10 3 85 10 3 86 10 3 86 10 3 86 10 3 87
11 3 87 11 3 87 11 3 87 11 3 88 11 3 88 11 3 88 11 3 89 11 3 89 11 3
89 11 3 89 11 3 90 11 3 90 11 3 90 11 3 91 11 3 91 11 3 91 11 3 91 11
3 92 11 3 92 11 3 92 11 3 92 11 3 92 11 3 93 11 3 93 11 3 93 11 3 93
11 3 93 11 3 94 11 3 94 11 3 94 11 3 94 11 3 94 11 3 94 11 3 95 11 3
95 11 3 95 12 3 95 12 3 95 12 3 95 12 3 95 12 3 95 12 3 95 12 3 95 12
3 95 12 3 95 12 3 96 12 3 96 12 3 96 12 3 96 12 3 96 12 3 96 12 3 96
12 3 96 12 3 96 12 3 95 12 3 95 12 3 95 12 3 95 12 3 95 12 3 95 12 3
95 12 3 95 12 3 95 11 3 95 11 3 95 11 3 94 11 3 94 11 3 94 11 3 94 11
3 94 11 3 94 11 3 94 11 3 93 11 3 93 11 3 93 11 3 93 11 3 93 11 3 92
11 3 92 11 3 92 11 3 92 11 3 91 11 3 91 11 3 91 11 3 91 11 3 90 11 3
90 11 3 90 11 3 90 11 3 89 11 3 89 11 3 89 11 3 89 11 3 88 11 3 88 11
3 88 11 3 87 11 3 87 11 3 87 10 3 86 10 3 86 10 3 86 10 3 86 10 3 85
10 3 85 10 3 85 10 3 84 10 3 84 10 3 84 10 3 83 10 3 83 10 3 83 10 3
82 10 3 82 10 3 82 10 3 81 10 3 81 10 3 81 10 3 80 10 3 80 10 3 80 10
3 79 10 3 79 10 3 79 10 3 78 9 3 78 9 3 78 9 3 77 9 3 77 9 3 77 9 3 76
9 3 76 9 3 76 9 3 75 9 3 75 9 3 75 9 3 74 9 3 74 9 3 74 9 3 74 9 3 73
9 3 73 9 3 73 9 3 72 9 3 72 9 3 72 9 3 71 9 3 71 9 3 71 9 3 70 9 3 70
8 3 70 8 3 70 8 3 69 8 3 69 8 2 69 8 2 68 8 2 68 8 2 68 8 2 67 8 2 67
8 2 67 8 2 67 8 2 66 8 2 66 8 2 66 8 2 65 8 2 65 8 2 65 8 2 65 8 2 64
8 2 64 8 2 64 8 2 64 8 2 63 8 2 63 8 2 63 8 2 63 8 2 62 8 2 62 7 2 62
7 2 62 7 2 61 7 2 61 7 2 61 7 2 61 7 2 60 7 2 60 7 2 60 7 2 60 7 2 59
7 2 59 7 2 59 7 2 59 7 2 58 7 2 58 7 2 58 7 2 58 7 2 58 7 2 57 7 2 57
7 2 57 7 2 57 7 2 56 7 2 56 7 2 56 7 2 56 7 2 56 7 2 55 7 2 55 7 2 55
7 2 55 7 2 55 7 2 54 7 2 54 7 2 54 7 2 54 7 2 54 6 2 53 6 2 53 6 2 53
6 2 53 6 2 53 6 2 53 6 2 52 6 2 52 6 2 52 6 2 52 6 2 52 6 2 51 6 2 51
6 2 51 6 2 51 6 2 51 6 2 51 6 2 50 6 2 50 6 2 50 6 2 50 6 2 50 6 2 50
6 2 49 6 2 49 6 2 49 5 4 59 5 5 61 5 5 61 5 5 62 5 5 61 5 5 61 5 5 61
5 4 60 5 4 60 5 4 59 5 4 58 5 4 57 5 4 57 5 4 56 5 4 55 5 4 54 5 4 53
4 4 52 4 4 51 4 4 50 4 4 49 4 4 49 4 4 48 4 3 47 4 3 46 4 3 45 4 3 44
4 3 43 4 3 42 3 3 41 3 3 40 3 3 39 3 3 38 3 3 37 3 3 36 3 3 35 3 2 34
3 2 33 3 2 32 3 2 31 3 2 30 2 2 29 2 2 28 2 2 27 2 2 26 2 2 25 2 2 24
2 2 23 2 2 22 2 2 21 2 1 19 2 1 18 1 1 17 1 1 16 1 1 15 1 1 14 1 1 13
1 1 12 1 1 11 1 1 10 1 1 9 1 1 8 1 1 7 1 0 6 0 0 5 0 0 5 0 0 5 0 0 5 0
0 5 0 0 5 0 0 5 0 0 5 0 0 5 0 0 5 0 0 5 0 0 5 0 0 5 0 0 5 0 0 5 0 0 5
0 0 5 0 0 5 0 0 5 0 0 5 0 0 5 0 0 5 0 0 5 0 0 5 0 0 5 0 0 5 0 0 5 0 0
5 0 0 5 0 0 5 0 0 5 0 0 5 0 0 5 0 0 5 0 0 5 0 0 5 0 0 5 0 0 5 0 0 5 0
0 5 0 0 5 0 0 5 0 0 5 0 0 5 0 0 5 0 0 5 0 0 5 0 0 5 0 0 5 0 0 5 0 0 5
0 0 5 0 0 5 0 0 5 0 0 5 1 0 10
9 3 75 9 3 76 9 3 76 9 3 76 9 3 77 9 3 77 9 3 77 9 3 78 9 3 78 9 3 78
10 3 79 10 3 79 10 3 79 10 3 80 10 3 80 10 3 80 10 3 81 10 3 81 10 3
81 10 3 81 10 3 82 10 3 82 10 3 82 10 3 83 10 3 83 10 3 83 10 3 84 10
3 84 10 3 84 10 3 85 10 3 85 10 3 85 10 3 86 10 3 86 10 3 86 10 3 87
11 3 87 11 3 87 11 3 87 11 3 88 11 3 88 11 3 88 11 3 89 11 3 89 11 3
89 11 3 89 11 3 90 11 3 90 11 3 90 11 3 90 11 3 91 11 3 91 11 3 91 11
3 91 11 3 92 11 3 92 11 3 92 11 3 92 11 3 92 11 3 93 11 3 93 11 3 93
11 3 93 11 3 93 11 3 94 11 3 94 11 3 94 11 3 94 11 3 94 11 3 94 11 3
94 11 3 94 11 3 95 11 3 95 11 3 95 12 3 95 12 3 95 12 3 95 12 3 95 12
3 95 12 3 95 12 3 95 12 3 95 12 3 95 12 3 95 12 3 95 12 3 95 12 3 95
12 3 95 12 3 95 12 3 95 12 3 95 12 3 95 12 3 95 12 3 95 11 3 95 11 3
95 11 3 95 11 3 94 11 3 94 11 3 94 11 3 94 11 3 94 11 3 94 11 3 94 11
3 93 11 3 93 11 3 93 11 3 93 11 3 93 11 3 93 11 3 92 11 3 92 11 3 92
11 3 92 11 3 92 11 3 91 11 3 91 11 3 91 11 3 91 11 3 90 11 3 90 11 3
90 11 3 90 11 3 89 11 3 89 11 3 89 11 3 88 11 3 88 11 3 88 11 3 88 11
3 87 11 3 87 11 3 87 10 3 86 10 3 86 10 3 86 10 3 86 10 3 85 10 3 85
10 3 85 10 3 84 10 3 84 10 3 84 10 3 83 10 3 83 10 3 83 10 3 82 10 3
82 10 3 82 10 3 81 10 3 81 10 3 81 10 3 80 10 3 80 10 3 80 10 3 79 10
3 79 10 3 79 10 3 78 9 3 78 9 3 78 9 3 77 9 3 77 9 3 77 9 3 77 9 3 76
9 3 76 9 3 76 9 3 75 9 3 75 9 3 75 9 3 74 9 3 74 9 3 74 9 3 73 9 3 73
9 3 73 9 3 72 9 3 72 9 3 72 9 3 71 9 3 71 9 3 71 9 3 71 9 3 70 8 3 70
8 3 70 8 3 69 8 3 69 8 2 69 8 2 68 8 2 68 8 2 68 8 2 68 8 2 67 8 2 67
8 2 67 8 2 66 8 2 66 8 2 66 8 2 66 8 2 65 8 2 65 8 2 65 8 2 65 8 2 64
8 2 64 8 2 64 8 2 64 8 2 63 8 2 63 8 2 63 8 2 63 8 2 62 8 2 62 7 2 62
7 2 62 7 2 61 7 2 61 7 2 61 7 2 61 7 2 60 7 2 60 7 2 60 7 2 60 7 2 59
7 2 59 7 2 59 7 2 59 7 2 58 7 2 58 7 2 58 7 2 58 7 2 58 7 2 57 7 2 57
7 2 57 7 2 57 7 2 56 7 2 56 7 2 56 7 2 56 7 2 56 7 2 55 7 2 55 7 2 55
7 2 55 7 2 55 7 2 54 7 2 54 7 2 54 7 2 54 7 2 54 6 2 53 6 2 53 6 2 53
6 2 53 6 2 53 6 2 53 6 2 52 6 2 52 6 2 52 6 2 52 6 2 52 6 2 51 6 2 51
6 2 51 6 2 51 6 2 51 6 2 51 6 2 50 6 2 50 6 2 50 6 2 50 6 2 50 6 2 50
6 2 49 6 2 49 6 2 49 6 2 49 5 4 59 5 4 60 5 4 60 5 4 60 5 4 60 5 4 60
5 4 59 5 4 59 5 4 58 5 4 57 5 4 57 5 4 56 5 4 55 5 4 54 5 4 53 4 4 52
4 4 52 4 4 51 4 4 50 4 4 49 4 4 48 4 3 47 4 3 46 4 3 45 4 3 44 4 3 43
4 3 42 3 3 41 3 3 40 3 3 39 3 3 38 3 3 37 3 3 36 3 3 35 3 3 34 3 2 33
3 2 32 3 2 31 3 2 30 2 2 29 2 2 28 2 2 27 2 2 26 2 2 25 2 2 24 2 2 23
2 2 22 2 2 21 2 1 20 2 1 19 2 1 18 1 1 17 1 1 16 1 1 15 1 1 14 1 1 13
1 1 12 1 1 11 1 1 10 1 1 9 1 1 8 1 1 7 1 0 6 0 0 5 0 0 5 0 0 5 0 0 5 0
0 5 0 0 5 0 0 5 0 0 5 0 0 5 0 0 5 0 0 5 0 0 5 0 0 5 0 0 5 0 0 5 0 0 5
0 0 5 0 0 5 0 0 5 0 0 5 0 0 5 0 0 5 0 0 5 0 0 5 0 0 5 0 0 5 0 0 5 0 0
5 0 0 5 0 0 5 0 0 5 0 0 5 0 0 5 0 0 5 0 0 5 0 0 5 0 0 5 0 0 5 0 0 5 0
0 5 0 0 5 0 0 5 0 0 5 0 0 5 0 0 5 0 0 5 0 0 5 0 0 5 0 0 5 0 0 5 0 0 5
0 0 5 0 0 5 0 0 5 0 0 5 1 0 10
9 3 75 9 3 76 9 3 76 9 3 76 9 3 77 9 3 77 9 3 77 9 3 78 9 3 78 9 3 78
10 3 79 10 3 79 10 3 79 10 3 80 10 3 80 10 3 80 10 3 81 10 3 81 10 3
81 10 3 82 10 3 82 10 3 82 10 3 82 10 3 83 10 3 83 10 3 83 10 3 84 10
3 84 10 3 84 10 3 85 10 3 85 10 3 85 10 3 86 10 3 86 10 3 86 10 3 86
11 3 87 11 3 87 11 3 87 11 3 88 11 3 88 11 3 88 11 3 88 11 3 89 11 3
89 11 3 89 11 3 89 11 3 90 11 3 90 11 3 90 11 3 90 11 3 91 11 3 91 11
3 91 11 3 91 11 3 92 11 3 92 11 3 92 11 3 92 11 3 92 11 3 93 11 3 93
11 3 93 11 3 93 11 3 93 11 3 93 11 3 94 11 3 94 11 3 94 11 3 94 11 3
94 11 3 94 11 3 94 11 3 94 11 3 94 11 3 94 11 3 95 11 3 95 11 3 95 11
3 95 11 3 95 11 3 95 11 3 95 11 3 95 11 3 95 11 3 95 11 3 95 11 3 95
11 3 95 11 3 95 11 3 95 11 3 95 11 3 95 11 3 94 11 3 94 11 3 94 11 3
94 11 3 94 11 3 94 11 3 94 11 3 94 11 3 94 11 3 93 11 3 93 11 3 93 11
3 93 11 3 93 11 3 93 11 3 93 11 3 92 11 3 92 11 3 92 11 3 92 11 3 92
11 3 91 11 3 91 11 3 91 11 3 91 11 3 90 11 3 90 11 3 90 11 3 90 11 3
89 11 3 89 11 3 89 11 3 89 11 3 88 11 3 88 11 3 88 11 3 87 11 3 87 11
3 87 11 3 87 10 3 86 10 3 86 10 3 86 10 3 85 10 3 85 10 3 85 10 3 85
10 3 84 10 3 84 10 3 84 10 3 83 10 3 83 10 3 83 10 3 82 10 3 82 10 3
82 10 3 81 10 3 81 10 3 81 10 3 80 10 3 80 10 3 80 10 3 79 10 3 79 10
3 79 10 3 79 9 3 78 9 3 78 9 3 78 9 3 77 9 3 77 9 3 77 9 3 76 9 3 76 9
3 76 9 3 75 9 3 75 9 3 75 9 3 74 9 3 74 9 3 74 9 3 73 9 3 73 9 3 73 9
3 73 9 3 72 9 3 72 9 3 72 9 3 71 9 3 71 9 3 71 9 3 70 9 3 70 8 3 70 8
3 70 8 3 69 8 3 69 8 2 69 8 2 68 8 2 68 8 2 68 8 2 67 8 2 67 8 2 67 8
2 67 8 2 66 8 2 66 8 2 66 8 2 66 8 2 65 8 2 65 8 2 65 8 2 64 8 2 64 8
2 64 8 2 64 8 2 63 8 2 63 8 2 63 8 2 63 8 2 62 8 2 62 8 2 62 7 2 62 7
2 61 7 2 61 7 2 61 7 2 61 7 2 60 7 2 60 7 2 60 7 2 60 7 2 60 7 2 59 7
2 59 7 2 59 7 2 59 7 2 58 7 2 58 7 2 58 7 2 58 7 2 58 7 2 57 7 2 57 7
2 57 7 2 57 7 2 56 7 2 56 7 2 56 7 2 56 7 2 56 7 2 55 7 2 55 7 2 55 7
2 55 7 2 55 7 2 54 7 2 54 7 2 54 7 2 54 7 2 54 6 2 53 6 2 53 6 2 53 6
2 53 6 2 53 6 2 53 6 2 52 6 2 52 6 2 52 6 2 52 6 2 52 6 2 51 6 2 51 6
2 51 6 2 51 6 2 51 6 2 51 6 2 50 6 2 50 6 2 50 6 2 50 6 2 50 6 2 50 6
2 49 6 2 49 6 2 49 6 2 49 6 2 49 5 4 58 5 4 59 5 4 59 5 4 59 5 4 59 5
4 58 5 4 58 5 4 57 5 4 56 5 4 56 5 4 55 5 4 54 5 4 53 4 4 53 4 4 52 4
4 51 4 4 50 4 4 49 4 4 48 4 4 47 4 3 46 4 3 45 4 3 44 4 3 43 4 3 42 4
3 41 3 3 40 3 3 40 3 3 39 3 3 38 3 3 37 3 3 36 3 3 35 3 2 34 3 2 33 3
2 32 3 2 31 3 2 30 2 2 29 2 2 28 2 2 27 2 2 26 2 2 25 2 2 24 2 2 23 2
2 22 2 2 21 2 1 20 2 1 19 1 1 18 1 1 17 1 1 16 1 1 15 1 1 14 1 1 13 1
1 12 1 1 11 1 1 10 1 1 9 1 1 8 1 0 7 0 0 5 0 0 5 0 0 5 0 0 5 0 0 5 0 0
5 0 0 5 0 0 5 0 0 5 0 0 5 0 0 5 0 0 5 0 0 5 0 0 5 0 0 5 0 0 5 0 0 5 0
0 5 0 0 5 0 0 5 0 0 5 0 0 5 0 0 5 0 0 5 0 0 5 0 0 5 0 0 5 0 0 5 0 0 5
0 0 5 0 0 5 0 0 5 0 0 5 0 0 5 0 0 5 0 0 5 0 0 5 0 0 5 0 0 5 0 0 5 0 0
5 0 0 5 0 0 5 0 0 5 0 0 5 0 0 5 0 0 5 0 0 5 0 0 5 0 0 5 0 0 5 0 0 5 0
0 5 0 0 5 0 0 5 0 0 5 1 0 10
