P3
50 25
255
40 79 46 40 80 47 41 82 48 41 83 48 42 84 49 68 64 57 68 64 57 68 64
57 68 64 57 68 64 57 68 64 57 68 69 61 83 84 75 108 107 95 137 133 118
173 165 144 49 97 56 50 99 57 50 99 58 51 100 58 51 101 59 25 51 46 26
51 46 26 51 47 26 52 47 26 52 47 22 23 15 38 42 35 26 52 48 26 53 48
26 53 48 26 53 48 26 53 48 52 103 61 51 102 61 51 101 60 50 101 60 50
100 60 49 99 59 37 84 36 220 110 61 164 84 52 88 58 35 36 81 35 35 80
35 35 79 35 34 78 34 34 77 34 33 76 34 134 17 47
42 84 49 43 86 50 44 87 50 44 88 51 68 64 57 68 64 57 68 64 57 68 64
57 68 64 57 68 64 57 68 66 59 68 70 63 71 76 70 90 94 89 115 117 110
145 144 133 183 177 161 253 245 208 55 108 62 56 110 63 56 111 64 57
112 64 27 54 50 27 54 50 27 54 51 28 55 51 28 55 51 28 55 52 28 55 52
28 56 52 28 56 52 28 56 52 57 114 67 57 113 67 56 112 67 56 111 66 55
110 66 55 109 65 41 92 38 227 116 60 224 107 71 158 83 59 98 67 42 38
87 37 38 86 37 37 85 36 37 84 36 36 83 36 123 14 34 119 15 34
45 89 52 46 91 52 46 92 53 68 64 57 68 64 57 68 64 57 68 64 57 68 64
57 68 64 57 68 64 57 68 67 60 68 71 64 69 76 69 78 85 84 99 104 103
125 129 125 157 157 150 211 203 184 60 108 61 61 110 62 61 111 63 62
122 70 63 123 71 63 124 71 145 15 98 199 20 152 30 58 56 30 58 56 30
59 56 30 59 57 30 59 57 64 125 74 63 125 74 63 124 73 62 123 73 62 122
73 61 121 72 60 119 72 44 100 41 172 90 46 169 83 56 116 68 49 86 67
38 41 94 39 40 92 39 40 91 39 200 46 119 133 24 37 127 23 37 113 14 33
48 94 54 48 96 55 49 97 56 68 64 57 68 64 57 68 64 57 68 64 57 68 64
57 68 64 57 68 64 57 68 68 61 68 72 64 68 77 68 76 85 81 85 94 97 109
116 118 137 142 142 178 178 171 255 255 241 51 101 37 51 102 37 52 103
37 52 104 37 111 15 80 213 21 157 255 44 212 242 25 213 71 139 80 71
139 81 71 139 81 71 138 81 70 138 81 70 137 81 69 136 81 68 135 80 68
133 80 67 132 79 66 130 78 48 108 44 47 107 43 84 48 28 85 59 34 45
102 42 44 101 42 43 99 41 204 51 125 158 45 45 141 36 41 116 17 34 106
11 32
50 99 57 51 101 58 77 83 69 68 64 57 68 64 57 68 64 57 68 64 57 68 64
57 68 64 57 68 64 57 68 69 61 68 73 65 68 77 69 74 84 79 83 94 94 94
105 111 121 129 134 152 157 160 194 193 191 255 255 255 56 111 39 56
112 39 57 113 40 112 15 81 205 24 161 255 45 234 237 33 224 78 152 88
109 127 124 143 166 184 141 168 199 77 151 89 77 150 89 76 149 88 75
147 88 74 146 87 73 144 87 72 142 86 51 117 46 50 115 46 50 114 46 49
112 45 48 110 45 47 108 44 203 54 119 197 79 58 162 54 48 120 21 36
106 12 32 102 10 31
53 104 59 54 106 60 75 79 67 68 64 57 68 64 57 68 64 57 68 64 57 68 64
57 68 64 57 68 65 58 68 69 62 68 73 65 68 78 69 71 84 77 80 93 91 90
102 108 106 117 127 136 144 152 178 178 188 244 255 244 60 120 41 61
121 42 14 29 18 14 29 18 146 14 123 187 19 171 170 18 174 82 100 90
142 162 173 170 198 226 165 199 245 139 174 227 84 164 97 83 162 97 83
161 96 81 159 96 80 157 95 79 155 94 77 152 93 54 124 49 53 122 48 52
120 48 51 118 47 203 57 113 244 119 73 187 75 56 125 26 37 107 13 32
101 11 31 99 10 31
55 109 62 56 111 63 76 83 69 68 64 57 68 64 57 68 64 57 68 64 57 68 64
57 68 64 57 68 65 58 68 69 62 68 74 65 68 78 69 69 83 74 78 92 89 88
101 105 144 159 165 120 132 144 220 198 215 217 243 223 86 167 93 88
170 95 89 172 97 14 42 27 14 29 18 38 57 65 14 29 18 87 103 100 135
157 176 161 189 225 180 210 255 134 171 232 40 76 80 91 177 106 90 175
105 89 173 105 87 170 104 86 168 103 84 165 101 58 133 52 57 131 51 55
129 51 200 56 107 255 148 84 209 94 63 130 31 39 107 14 32 101 11 31
99 11 31 96 10 30
58 114 64 59 116 65 80 90 73 68 64 57 68 64 57 68 64 57 68 64 57 68 64
57 68 64 57 68 65 58 68 69 62 68 74 66 120 81 83 159 87 98 76 91 86 85
100 101 130 154 155 11 19 20 11 19 20 14 23 28 19 33 44 94 182 101 96
185 103 97 188 105 99 190 107 100 192 109 100 178 101 58 72 72 105 125
143 125 153 190 125 159 210 102 137 194 44 81 87 99 191 115 98 189 115
96 186 114 95 184 113 93 181 112 91 178 111 89 175 109 60 139 54 189
48 100 255 150 84 222 105 67 134 34 40 108 15 33 101 12 31 98 11 31 96
11 30 94 11 30
60 118 67 61 121 68 85 99 77 76 83 67 68 64 57 68 64 57 68 64 57 68 64
57 68 64 57 68 65 58 68 69 62 68 74 65 73 87 78 79 100 92 90 116 119 6
11 15 6 11 15 6 11 15 6 11 15 6 11 15 7 14 19 12 23 33 35 49 60 104
200 112 106 203 114 107 205 116 108 207 118 109 208 120 109 209 122 78
101 132 76 105 147 109 208 125 108 207 125 107 205 125 106 203 125 104
200 124 102 197 123 100 194 121 98 191 120 96 187 118 179 39 93 245
120 73 220 103 66 135 36 41 108 15 33 101 12 31 99 11 31 96 11 31 94
11 30 92 11 30
62 122 69 64 125 70 89 107 82 81 91 69 73 78 66 73 76 65 73 77 65 68
64 57 115 85 86 94 77 72 68 69 61 68 73 65 72 84 76 76 95 87 6 11 15 6
11 15 6 11 15 6 11 15 6 11 15 6 11 15 6 11 17 6 14 20 9 20 33 17 34 55
112 214 121 113 216 123 115 219 125 116 220 128 116 221 130 117 222
131 116 222 133 116 221 134 115 220 134 114 218 134 113 215 134 111
213 133 109 209 132 107 206 131 105 203 129 102 199 127 190 74 58 202
89 63 135 36 43 108 16 33 102 12 31 99 12 31 96 12 31 94 11 30 92 11
30 92 11 30
64 126 71 66 129 72 67 132 73 84 101 73 73 79 67 73 79 67 76 82 72 73
79 66 79 89 69 76 82 72 82 98 79 121 107 120 86 113 91 6 11 15 6 11 15
6 11 15 6 11 15 6 11 15 6 11 15 6 11 15 6 11 16 6 13 19 6 15 23 9 21
37 19 38 64 118 225 129 120 228 131 121 230 134 122 231 136 122 232
138 122 232 140 122 231 141 121 230 142 120 229 143 119 226 143 117
224 142 115 221 141 113 217 140 111 213 138 146 35 44 173 64 54 131 33
42 110 17 36 103 14 34 100 14 34 98 13 33 95 13 33 93 13 33 92 11 30
92 11 30
66 130 73 68 132 74 69 135 75 93 114 86 73 80 67 73 80 67 78 86 77 78
86 77 78 86 77 89 107 83 90 112 87 91 120 93 6 11 15 6 11 15 6 11 15 6
11 15 6 11 15 6 11 15 6 11 15 6 11 15 6 11 15 6 13 18 6 15 22 7 18 29
11 25 46 122 232 133 123 234 136 125 237 139 126 238 141 126 239 144
127 240 146 127 239 148 126 238 149 125 237 150 124 235 150 122 232
150 121 230 149 118 226 148 128 19 38 145 40 45 126 28 40 110 17 36
104 15 35 101 14 34 98 14 34 96 14 33 94 13 33 93 13 33 93 13 33 93 13
33
68 133 74 69 135 76 71 138 77 72 141 79 73 81 68 73 81 68 79 88 79 79
88 80 79 88 80 80 89 81 95 120 91 96 128 97 6 11 15 6 11 15 6 11 15 6
11 15 6 11 15 6 11 15 6 11 15 6 11 15 6 11 15 6 12 18 6 15 21 6 17 25
9 22 38 18 38 69 125 238 139 127 241 142 128 242 145 129 244 148 129
244 150 129 244 152 129 244 154 128 243 155 127 241 155 126 239 155
124 236 155 139 19 43 128 24 40 121 23 39 110 17 36 104 15 35 101 15
35 98 14 34 96 14 34 94 14 33 93 14 33 93 14 33 93 13 33 93 13 33
69 135 76 71 138 77 72 141 79 74 144 80 75 147 82 68 67 69 80 89 81 80
89 82 80 90 82 81 91 83 98 125 93 99 132 99 6 11 15 6 11 15 6 11 15 6
11 15 6 11 15 6 11 15 6 11 15 6 11 15 6 11 15 6 12 18 6 14 21 6 17 24
9 42 52 12 29 55 126 239 141 128 242 144 129 244 147 130 245 150 130
246 152 131 246 154 130 246 156 130 245 158 129 244 158 128 242 159
126 240 159 123 18 38 117 19 38 110 17 36 105 16 35 102 15 35 99 15 35
96 15 34 94 14 34 94 14 34 94 14 33 93 14 33 93 14 33 92 10 32
70 138 77 72 140 78 73 143 80 75 146 82 77 149 83 78 153 85 81 90 83
81 90 83 81 91 84 81 91 84 82 92 85 101 134 99 6 11 15 6 11 15 6 11 15
6 11 15 6 11 15 6 11 15 6 11 15 6 11 15 6 11 15 6 12 17 6 14 20 6 16
24 6 20 29 11 28 51 125 238 141 127 241 144 128 243 147 129 244 150
130 245 152 130 246 155 130 246 157 130 246 158 129 245 160 128 243
160 127 17 39 117 17 37 111 17 36 106 16 36 102 16 35 99 15 35 97 15
34 95 15 34 94 14 34 94 14 34 94 14 34 93 10 32 92 10 32 92 9 31
71 139 78 73 142 80 74 145 81 76 148 83 78 151 84 79 154 86 81 158 88
83 161 90 82 92 85 82 92 85 82 93 86 103 135 98 6 11 15 6 11 15 6 11
15 6 11 15 6 11 15 6 11 15 6 11 15 6 11 15 6 11 15 6 12 17 6 14 20 6
16 24 6 19 28 11 28 52 124 235 140 125 238 143 126 240 146 127 241 149
128 243 151 129 243 154 129 244 156 129 244 157 128 243 159 127 242
160 119 17 37 112 17 37 107 16 36 103 16 35 100 15 35 97 15 35 95 15
34 94 15 34 94 15 34 94 14 34 94 14 34 92 9 31 92 9 31 91 8 30
155 85 113 74 144 81 75 146 82 77 149 84 78 152 85 80 155 87 82 159 89
83 162 90 85 165 92 87 169 94 89 172 96 91 176 98 6 11 15 6 11 15 6 11
15 6 11 15 6 11 15 6 11 15 6 11 15 6 11 15 6 11 15 6 12 17 6 14 20 6
16 24 6 19 28 120 229 135 121 231 138 123 234 141 124 236 144 125 237
147 126 239 149 126 240 151 126 240 153 126 240 155 126 240 156 125 17
38 114 15 36 108 15 35 104 15 35 101 14 34 98 14 34 95 15 34 94 15 34
94 15 34 94 15 34 94 15 34 94 14 34 91 8 30 91 8 30 91 7 29
109 103 80 74 145 81 76 148 83 77 150 84 79 153 86 80 156 87 82 159 89
84 162 91 85 166 93 87 169 95 89 172 97 91 176 99 93 179 101 6 11 15 6
11 15 6 11 15 6 11 15 6 11 15 6 11 15 6 11 15 6 11 15 6 12 17 6 14 20
6 16 24 6 20 28 117 224 133 119 227 136 120 229 139 121 231 141 122
233 144 123 234 146 123 235 148 124 236 150 124 236 152 123 209 136
117 15 36 110 15 35 105 15 35 101 14 34 98 14 34 96 14 34 94 13 33 94
13 33 94 13 33 94 13 33 94 15 34 94 15 34 90 7 29 90 7 29 90 6 28
90 86 67 75 146 82 76 148 83 77 151 85 79 154 86 80 157 88 82 159 90
84 162 91 85 166 93 87 169 95 89 172 97 90 175 99 92 178 101 94 182
103 6 11 15 6 11 15 6 11 15 6 11 15 6 11 15 6 11 15 6 11 15 6 12 17 6
14 20 6 17 24 113 217 129 115 220 131 116 222 134 117 224 136 118 226
138 119 227 141 120 229 143 120 230 145 120 231 147 120 205 132 120
204 133 113 15 35 107 15 35 102 14 34 99 14 34 96 14 34 94 13 33 94 13
33 94 13 33 94 13 33 94 13 33 94 13 33 94 13 33 94 14 34 90 6 28 90 6
28
75 71 57 32 62 61 32 63 62 33 63 63 33 64 64 34 65 65 34 66 66 83 162
91 85 165 93 86 168 95 88 171 97 90 174 98 91 177 100 93 180 102 95
183 104 6 11 15 6 11 15 6 11 15 6 11 15 6 11 15 6 11 15 6 12 17 6 15
21 109 210 124 111 212 126 112 215 129 113 217 131 114 219 133 115 221
135 116 222 137 116 223 139 117 224 141 117 225 143 117 226 144 118 15
36 109 15 35 104 14 34 100 14 34 97 14 33 94 13 33 94 13 33 94 13 33
94 13 33 94 13 33 94 13 33 94 13 33 94 13 33 94 13 33 94 14 34 94 14
34
32 62 60 32 62 61 32 63 62 33 64 63 33 64 64 34 65 65 34 66 66 35 67
67 35 68 68 86 167 95 87 170 96 89 173 98 90 176 100 92 179 102 94 181
104 95 184 106 97 187 107 6 11 15 6 11 15 6 11 15 6 11 15 104 201 118
105 203 120 107 206 122 108 208 124 109 210 126 110 212 128 111 214
130 112 215 132 113 217 134 113 218 136 114 219 137 114 220 139 114
221 141 112 16 36 105 14 34 101 14 34 98 14 33 95 13 33 94 13 33 94 13
33 94 13 33 94 13 33 94 13 33 94 13 33 94 13 33 94 13 33 94 13 33 94
12 33 92 13 31
32 62 61 32 63 61 33 63 62 33 64 63 33 65 64 34 65 65 34 66 66 35 67
67 35 68 68 36 68 69 87 169 96 88 171 98 90 174 99 91 177 101 92 179
103 94 182 105 95 185 106 97 187 108 98 190 110 99 192 112 101 195 114
102 197 116 103 199 118 104 201 120 105 203 122 106 205 124 107 207
125 108 209 127 109 210 129 110 212 131 110 213 132 110 214 134 111
215 135 111 215 137 108 15 35 103 15 35 99 15 34 96 13 33 94 13 33 94
13 33 94 13 33 94 13 33 94 13 33 94 13 33 94 13 33 94 13 33 94 13 33
94 12 33 94 14 34 92 12 31
32 62 61 32 63 62 33 63 63 33 64 63 33 65 64 34 65 65 34 66 66 35 67
67 35 68 68 36 69 69 36 69 70 87 170 97 89 172 99 90 175 100 91 177
102 92 180 104 94 182 105 95 184 107 96 187 109 97 189 111 99 191 112
100 193 114 101 195 116 102 197 118 103 199 119 104 201 121 105 203
123 105 204 124 106 206 126 107 207 128 107 208 129 108 209 131 108
210 132 115 15 36 105 15 35 100 15 34 97 14 34 94 14 33 94 14 33 94 13
33 94 13 33 94 13 33 94 13 33 94 13 33 94 13 33 94 13 33 94 12 32 94
14 33 93 14 33 93 14 33
32 62 61 32 63 62 33 64 63 33 64 64 33 65 64 34 66 65 34 66 66 35 67
67 35 68 68 35 69 69 36 69 70 86 168 97 88 170 98 89 173 100 90 175
101 91 177 103 92 179 104 93 182 106 95 184 107 96 186 109 97 188 111
98 190 112 99 192 114 100 193 115 101 195 117 101 197 119 102 198 120
103 200 122 103 201 123 104 202 125 104 203 126 105 204 127 105 205
129 110 15 35 102 15 34 98 14 34 95 14 33 94 14 33 94 14 33 94 14 33
94 14 33 94 14 33 94 14 33 94 14 33 94 14 33 94 14 33 94 14 33 93 14
33 93 14 33 93 14 33
32 63 61 32 63 62 33 64 63 33 64 64 33 65 65 34 66 65 34 66 66 35 67
67 35 68 68 35 69 69 36 69 70 85 167 96 87 169 97 88 171 99 89 173 100
90 175 102 91 177 103 92 179 105 93 181 106 94 183 107 95 185 109 96
186 110 97 188 112 98 190 113 98 191 115 99 193 116 100 194 118 100
196 119 101 197 121 101 198 122 102 199 123 102 200 124 102 201 125
106 15 35 100 14 34 96 14 33 94 14 33 94 14 33 94 14 33 94 14 33 94 14
33 94 14 33 94 14 33 94 14 33 94 14 33 93 14 33 93 14 33 93 14 33 93
14 33 93 14 33
