P3
400 200
255
0 0 0 0 0 0 0 0 0 0 0 0 0 0 0 0 0 0 0 0 0 0 0 0 0 0 0 0 0 0 0 0 0 0 0
0 0 0 0 0 0 0 0 0 0 0 0 0 0 0 0 0 0 0 0 0 0 0 0 0 0 0 0 0 0 0 0 0 0 0
0 0 0 0 0 0 0 0 0 0 0 0 0 0 0 0 0 0 0 0 0 0 0 0 0 0 0 0 0 0 0 0 0 0 0
0 0 0 0 0 0 0 0 0 0 0 0 0 0 0 0 0 0 0 0 0 0 0 0 0 0 0 0 0 0 0 0 0 0 0
0 0 0 0 0 0 0 0 0 0 0 0 0 0 0 0 0 0 0 0 0 0 0 0 0 0 0 0 0 0 0 0 0 0 0
0 0 0 0 0 0 0 0 0 0 0 0 0 0 0 0 0 0 0 0 0 0 0 0 0 0 0 0 0 0 0 0 0 0 0
0 0 0 0 0 0 0 0 0 0 0 0 0 0 0 0 0 0 0 0 0 0 0 0 0 0 0 0 0 0 0 0 0 0 0
0 0 0 0 0 0 0 0 0 0 0 0 0 0 0 0 0 0 0 0 0 0 0 0 0 0 0 0 0 0 0 0 0 0 0
0 0 0 0 0 0 0 0 0 0 0 0 0 0 0 0 0 0 0 0 0 0 0 0 0 0 0 0 0 0 0 0 0 0 0
0 0 0 0 0 0 0 0 0 0 0 0 0 0 0 0 0 0 0 0 0 1 0 0 1 0 0 1 0 0 1 0 0 6 0
3 15 0 7 23 0 10 31 0 14 38 0 17 45 0 20 51 0 23 57 1 25 63 1 28 67 1
30 72 1 32 75 1 33 78 1 35 81 1 36 82 1 36 81 1 36 78 1 35 70 1 31 0 0
0 0 0 0 0 0 0 0 0 0 0 0 0 0 0 0 0 0 0 0 0 0 0 0 0 0 0 0 0 0 0 0 0 0 0
0 0 0 0 0 0 0 0 0 0 0 0 0 0 0 0 0 0 0 0 0 0 0 0 0 0 0 0 0 0 0 0 0 0 0
0 0 0 0 0 0 0 0 0 0 0 0 0 0 0 0 0 0 0 0 0 0 0 0 0 0 0 0 0 0 0 0 0 0 0
0 0 0 0 0 0 0 0 0 0 0 0 0 0 0 0 0 0 0 0 0 0 0 0 0 0 0 0 0 0 0 0 0 0 0
0 0 0 0 0 0 0 0 0 0 0 0 0 0 0 0 0 0 0 0 0 0 0 0 0 0 0 0 0 0 0 0 0 0 0
0 0 0 0 0 0 0 0 0 0 0 0 0 0 0 0 0 0 0 0 0 0 0 0 0 0 0 0 0 0 0 0 0 0 0
0 0 0 0 0 0 0 0 0 0 0 0 0 0 0 0 0 0 0 0 0 0 0 0 0 0 0 0 0 0 0 0 0 0 0
0 0 0 0 0 0 0 0 0 0 0 0 0 0 0 0 0 0 0 0 0 0 0 0 0 0 0 0 0 0 0 0 0 0 0
0 0 0 0 0 0 0 0 0 0 0 0 0 0 0 0 0 0 0 0 0 0 0 0 0 0 0 0 0 0 0 0 0 0 0
0 0 0 0 0 0 0 0 0 0 0 0 0 0 0 0 0 0 0 0 0 0 0 0 0 0 0 0 0 0 0 13 0 7
17 0 9 20 0 11 22 0 12 24 0 13 26 0 14 27 0 15 28 0 15 29 0 16 30 0 16
31 0 17 32 0 17 32 0 17 32 0 17 33 0 18 33 0 18 33 0 18 33 0 18 32 0
17 32 0 17 31 0 17 31 0 17 30 0 16 29 0 16 28 0 15 27 0 15 26 0 14 24
0 13 23 0 12 21 0 11 19 0 10 17 0 9 14 0 8 10 0 6 5 0 2 0 0 0 0 0 0 0
0 0 0 0 0 0 0 0 0 0 0 0 0 0 0 0 0 0 0 0 0 0 0 0 0 0 0 0 0 0 0 0 0 0 0
0 0 0 0 0 0 0 0 0 0 0 0 0 0 0 0 0 0 0 0 0 0 0 0 0 0 0 0 0 0 0 0 0 0 0
0 0 0 0 0 0 0 0 0 0 0 0 0 0 0 0 0 0 0 0 0 0 0 0 0 0 0 0 0 0 0 0 0 0 0
0 0 0 0 0 0 0 0 0 0 0 0 0 0 0 0 0 0 0 0 0 0 0 0 0 0 0 0 0 0 0 0 0 0 0
0 0 0 0 0 0 0 0 0 0 0 0 0 0 0 0 0 0 0 0 0 0 0 0 0 0 0 0 0 0 0 0 0 0 0
0 0 0 0 0 0 0 0 0 0 0 0 0 0 0 0 0 0 0 0 0 0 0 0 0 0 0 0 0 0 0 0 0 0 0
0 0 0 0 0 0 0 0 0 0 0 0 0 0 0 0 0 0 0 0 0 0 0 0 0 0 0 0 0 0 0 0 0 0 0
0 0 0 0 0 0 0 0 0 0 0 0 0 0 0 0 0 0 0 0 0 0 0 0 0 0 0 0 0 0 0 0 0 0 0
0 0 0 0 0 0 0 0 0 0 0 0 0 0 0 0 0 0 0 0 0 0 0 0 0 0 0 0 0 0 0 0 0 0 0
0 0 0 0 0 0 0 0 0 0 0 0 0 0 0 0 0 0 0 0 0 0 0
0 0 0 0 0 0 0 0 0 0 0 0 0 0 0 0 0 0 0 0 0 0 0 0 0 0 0 0 0 0 0 0 0 0 0
0 0 0 0 0 0 0 0 0 0 0 0 0 0 0 0 0 0 0 0 0 0 0 0 0 0 0 0 0 0 0 0 0 0 0
0 0 0 0 0 0 0 0 0 0 0 0 0 0 0 0 0 0 0 0 0 0 0 0 0 0 0 0 0 0 0 0 0 0 0
0 0 0 0 0 0 0 0 0 0 0 0 0 0 0 0 0 0 0 0 0 0 0 0 0 0 0 0 0 0 0 0 0 0 0
0 0 0 0 0 0 0 0 0 0 0 0 0 0 0 0 0 0 0 0 0 0 0 0 0 0 0 0 0 0 0 0 0 0 0
0 0 0 0 0 0 0 0 0 0 0 0 0 0 0 0 0 0 0 0 0 0 0 0 0 0 0 0 0 0 0 0 0 0 0
0 0 0 0 0 0 0 0 0 0 0 0 0 0 0 0 0 0 0 0 0 0 0 0 0 0 0 0 0 0 0 0 0 0 0
0 0 0 0 0 0 0 0 0 0 0 0 0 0 0 0 0 0 0 0 0 0 0 0 0 0 0 0 0 0 0 0 0 0 0
0 0 0 0 0 0 0 0 0 0 0 0 0 0 0 0 0 0 0 0 0 0 0 0 0 0 0 0 0 0 0 0 0 0 0
0 0 0 0 0 0 0 0 0 0 0 0 0 0 0 0 0 0 0 0 0 1 0 0 1 0 0 1 0 0 1 0 0 8 0
3 17 0 7 25 0 11 33 0 15 40 0 18 47 0 21 53 1 24 59 1 26 65 1 29 70 1
31 74 1 33 78 1 34 81 1 36 83 1 37 85 1 38 85 1 38 83 1 37 77 1 34 0 0
0 0 0 0 0 0 0 0 0 0 0 0 0 0 0 0 0 0 0 0 0 0 0 0 0 0 0 0 0 0 0 0 0 0 0
0 0 0 0 0 0 0 0 0 0 0 0 0 0 0 0 0 0 0 0 0 0 0 0 0 0 0 0 0 0 0 0 0 0 0
0 0 0 0 0 0 0 0 0 0 0 0 0 0 0 0 0 0 0 0 0 0 0 0 0 0 0 0 0 0 0 0 0 0 0
0 0 0 0 0 0 0 0 0 0 0 0 0 0 0 0 0 0 0 0 0 0 0 0 0 0 0 0 0 0 0 0 0 0 0
0 0 0 0 0 0 0 0 0 0 0 0 0 0 0 0 0 0 0 0 0 0 0 0 0 0 0 0 0 0 0 0 0 0 0
0 0 0 0 0 0 0 0 0 0 0 0 0 0 0 0 0 0 0 0 0 0 0 0 0 0 0 0 0 0 0 0 0 0 0
0 0 0 0 0 0 0 0 0 0 0 0 0 0 0 0 0 0 0 0 0 0 0 0 0 0 0 0 0 0 0 0 0 0 0
0 0 0 0 0 0 0 0 0 0 0 0 0 0 0 0 0 0 0 0 0 0 0 0 0 0 0 0 0 0 0 0 0 0 0
0 0 0 0 0 0 0 0 0 0 0 0 0 0 0 0 0 0 0 0 0 0 0 0 0 0 0 0 0 0 0 0 0 0 0
0 0 0 0 0 0 0 0 0 0 0 0 0 0 0 0 0 0 0 0 0 0 0 0 0 0 0 0 0 0 0 10 0 6
15 0 8 19 0 10 21 0 11 23 0 12 25 0 13 26 0 14 28 0 15 29 0 15 30 0 16
30 0 16 31 0 17 32 0 17 32 0 17 32 0 17 32 0 17 32 0 17 32 0 17 32 0
17 31 0 17 31 0 17 30 0 16 29 0 16 29 0 15 28 0 15 26 0 14 25 0 13 24
0 13 22 0 12 20 0 11 18 0 10 15 0 8 12 0 7 7 0 4 0 0 0 0 0 0 0 0 0 0 0
0 0 0 0 0 0 0 0 0 0 0 0 0 0 0 0 0 0 0 0 0 0 0 0 0 0 0 0 0 0 0 0 0 0 0
0 0 0 0 0 0 0 0 0 0 0 0 0 0 0 0 0 0 0 0 0 0 0 0 0 0 0 0 0 0 0 0 0 0 0
0 0 0 0 0 0 0 0 0 0 0 0 0 0 0 0 0 0 0 0 0 0 0 0 0 0 0 0 0 0 0 0 0 0 0
0 0 0 0 0 0 0 0 0 0 0 0 0 0 0 0 0 0 0 0 0 0 0 0 0 0 0 0 0 0 0 0 0 0 0
0 0 0 0 0 0 0 0 0 0 0 0 0 0 0 0 0 0 0 0 0 0 0 0 0 0 0 0 0 0 0 0 0 0 0
0 0 0 0 0 0 0 0 0 0 0 0 0 0 0 0 0 0 0 0 0 0 0 0 0 0 0 0 0 0 0 0 0 0 0
0 0 0 0 0 0 0 0 0 0 0 0 0 0 0 0 0 0 0 0 0 0 0 0 0 0 0 0 0 0 0 0 0 0 0
0 0 0 0 0 0 0 0 0 0 0 0 0 0 0 0 0 0 0 0 0 0 0 0 0 0 0 0 0 0 0 0 0 0 0
0 0 0 0 0 0 0 0 0 0 0 0 0 0 0 0 0 0 0 0 0 0 0 0 0 0 0 0 0 0 0 0 0 0 0
0 0 0 0 0 0 0 0 0 0 0 0 0 0 0 0 0 0 0 0 0 0
0 0 0 0 0 0 0 0 0 0 0 0 0 0 0 0 0 0 0 0 0 0 0 0 0 0 0 0 0 0 0 0 0 0 0
0 0 0 0 0 0 0 0 0 0 0 0 0 0 0 0 0 0 0 0 0 0 0 0 0 0 0 0 0 0 0 0 0 0 0
0 0 0 0 0 0 0 0 0 0 0 0 0 0 0 0 0 0 0 0 0 0 0 0 0 0 0 0 0 0 0 0 0 0 0
0 0 0 0 0 0 0 0 0 0 0 0 0 0 0 0 0 0 0 0 0 0 0 0 0 0 0 0 0 0 0 0 0 0 0
0 0 0 0 0 0 0 0 0 0 0 0 0 0 0 0 0 0 0 0 0 0 0 0 0 0 0 0 0 0 0 0 0 0 0
0 0 0 0 0 0 0 0 0 0 0 0 0 0 0 0 0 0 0 0 0 0 0 0 0 0 0 0 0 0 0 0 0 0 0
0 0 0 0 0 0 0 0 0 0 0 0 0 0 0 0 0 0 0 0 0 0 0 0 0 0 0 0 0 0 0 0 0 0 0
0 0 0 0 0 0 0 0 0 0 0 0 0 0 0 0 0 0 0 0 0 0 0 0 0 0 0 0 0 0 0 0 0 0 0
0 0 0 0 0 0 0 0 0 0 0 0 0 0 0 0 0 0 0 0 0 0 0 0 0 0 0 0 0 0 0 0 0 0 0
0 0 0 0 0 0 0 0 0 0 0 0 0 0 0 0 0 0 0 0 0 1 0 0 1 0 0 1 0 0 1 0 0 9 0
4 18 0 8 26 0 12 34 0 15 41 0 18 48 0 21 55 1 24 61 1 27 66 1 29 71 1
32 76 1 34 80 1 35 83 1 37 86 1 38 87 1 39 88 1 39 86 1 38 82 1 36 67
1 30 0 0 0 0 0 0 0 0 0 0 0 0 0 0 0 0 0 0 0 0 0 0 0 0 0 0 0 0 0 0 0 0 0
0 0 0 0 0 0 0 0 0 0 0 0 0 0 0 0 0 0 0 0 0 0 0 0 0 0 0 0 0 0 0 0 0 0 0
0 0 0 0 0 0 0 0 0 0 0 0 0 0 0 0 0 0 0 0 0 0 0 0 0 0 0 0 0 0 0 0 0 0 0
0 0 0 0 0 0 0 0 0 0 0 0 0 0 0 0 0 0 0 0 0 0 0 0 0 0 0 0 0 0 0 0 0 0 0
0 0 0 0 0 0 0 0 0 0 0 0 0 0 0 0 0 0 0 0 0 0 0 0 0 0 0 0 0 0 0 0 0 0 0
0 0 0 0 0 0 0 0 0 0 0 0 0 0 0 0 0 0 0 0 0 0 0 0 0 0 0 0 0 0 0 0 0 0 0
0 0 0 0 0 0 0 0 0 0 0 0 0 0 0 0 0 0 0 0 0 0 0 0 0 0 0 0 0 0 0 0 0 0 0
0 0 0 0 0 0 0 0 0 0 0 0 0 0 0 0 0 0 0 0 0 0 0 0 0 0 0 0 0 0 0 0 0 0 0
0 0 0 0 0 0 0 0 0 0 0 0 0 0 0 0 0 0 0 0 0 0 0 0 0 0 0 0 0 0 0 0 0 0 0
0 0 0 0 0 0 0 0 0 0 0 0 0 0 0 0 0 0 0 0 0 0 0 0 0 0 0 0 0 0 0 0 0 0 0
13 0 7 17 0 9 20 0 11 22 0 12 24 0 13 26 0 14 27 0 14 28 0 15 29 0 16
30 0 16 30 0 16 31 0 17 31 0 17 31 0 17 32 0 17 32 0 17 31 0 17 31 0
17 31 0 16 30 0 16 29 0 16 29 0 15 28 0 15 27 0 14 25 0 14 24 0 13 22
0 12 21 0 11 19 0 10 16 0 9 13 0 7 9 0 5 0 0 0 0 0 0 0 0 0 0 0 0 0 0 0
0 0 0 0 0 0 0 0 0 0 0 0 0 0 0 0 0 0 0 0 0 0 0 0 0 0 0 0 0 0 0 0 0 0 0
0 0 0 0 0 0 0 0 0 0 0 0 0 0 0 0 0 0 0 0 0 0 0 0 0 0 0 0 0 0 0 0 0 0 0
0 0 0 0 0 0 0 0 0 0 0 0 0 0 0 0 0 0 0 0 0 0 0 0 0 0 0 0 0 0 0 0 0 0 0
0 0 0 0 0 0 0 0 0 0 0 0 0 0 0 0 0 0 0 0 0 0 0 0 0 0 0 0 0 0 0 0 0 0 0
0 0 0 0 0 0 0 0 0 0 0 0 0 0 0 0 0 0 0 0 0 0 0 0 0 0 0 0 0 0 0 0 0 0 0
0 0 0 0 0 0 0 0 0 0 0 0 0 0 0 0 0 0 0 0 0 0 0 0 0 0 0 0 0 0 0 0 0 0 0
0 0 0 0 0 0 0 0 0 0 0 0 0 0 0 0 0 0 0 0 0 0 0 0 0 0 0 0 0 0 0 0 0 0 0
0 0 0 0 0 0 0 0 0 0 0 0 0 0 0 0 0 0 0 0 0 0 0 0 0 0 0 0 0 0 0 0 0 0 0
0 0 0 0 0 0 0 0 0 0 0 0 0 0 0 0 0 0 0 0 0 0 0 0 0 0 0 0 0 0 0 0 0 0 0
0 0 0 0 0 0 0 0 0 0 0 0 0 0 0 0 0 0 0 0 0
0 0 0 0 0 0 0 0 0 0 0 0 0 0 0 0 0 0 0 0 0 0 0 0 0 0 0 0 0 0 0 0 0 0 0
0 0 0 0 0 0 0 0 0 0 0 0 0 0 0 0 0 0 0 0 0 0 0 0 0 0 0 0 0 0 0 0 0 0 0
0 0 0 0 0 0 0 0 0 0 0 0 0 0 0 0 0 0 0 0 0 0 0 0 0 0 0 0 0 0 0 0 0 0 0
0 0 0 0 0 0 0 0 0 0 0 0 0 0 0 0 0 0 0 0 0 0 0 0 0 0 0 0 0 0 0 0 0 0 0
0 0 0 0 0 0 0 0 0 0 0 0 0 0 0 0 0 0 0 0 0 0 0 0 0 0 0 0 0 0 0 0 0 0 0
0 0 0 0 0 0 0 0 0 0 0 0 0 0 0 0 0 0 0 0 0 0 0 0 0 0 0 0 0 0 0 0 0 0 0
0 0 0 0 0 0 0 0 0 0 0 0 0 0 0 0 0 0 0 0 0 0 0 0 0 0 0 0 0 0 0 0 0 0 0
0 0 0 0 0 0 0 0 0 0 0 0 0 0 0 0 0 0 0 0 0 0 0 0 0 0 0 0 0 0 0 0 0 0 0
0 0 0 0 0 0 0 0 0 0 0 0 0 0 0 0 0 0 0 0 0 0 0 0 0 0 0 0 0 0 0 0 0 0 0
0 0 0 0 0 0 0 0 0 0 0 0 0 0 0 0 0 0 0 0 0 1 0 0 1 0 0 1 0 0 1 0 0 9 0
4 19 0 8 27 0 12 35 0 15 42 0 19 49 0 22 56 1 25 62 1 27 67 1 30 72 1
32 77 1 34 82 1 36 85 1 38 87 1 39 90 1 40 90 1 40 89 1 39 85 1 38 74
1 33 0 0 0 0 0 0 0 0 0 0 0 0 0 0 0 0 0 0 0 0 0 0 0 0 0 0 0 0 0 0 0 0 0
0 0 0 0 0 0 0 0 0 0 0 0 0 0 0 0 0 0 0 0 0 0 0 0 0 0 0 0 0 0 0 0 0 0 0
0 0 0 0 0 0 0 0 0 0 0 0 0 0 0 0 0 0 0 0 0 0 0 0 0 0 0 0 0 0 0 0 0 0 0
0 0 0 0 0 0 0 0 0 0 0 0 0 0 0 0 0 0 0 0 0 0 0 0 0 0 0 0 0 0 0 0 0 0 0
0 0 0 0 0 0 0 0 0 0 0 0 0 0 0 0 0 0 0 0 0 0 0 0 0 0 0 0 0 0 0 0 0 0 0
0 0 0 0 0 0 0 0 0 0 0 0 0 0 0 0 0 0 0 0 0 0 0 0 0 0 0 0 0 0 0 0 0 0 0
0 0 0 0 0 0 0 0 0 0 0 0 0 0 0 0 0 0 0 0 0 0 0 0 0 0 0 0 0 0 0 0 0 0 0
0 0 0 0 0 0 0 0 0 0 0 0 0 0 0 0 0 0 0 0 0 0 0 0 0 0 0 0 0 0 0 0 0 0 0
0 0 0 0 0 0 0 0 0 0 0 0 0 0 0 0 0 0 0 0 0 0 0 0 0 0 0 0 0 0 0 0 0 0 0
0 0 0 0 0 0 0 0 0 0 0 0 0 0 0 0 0 0 0 0 0 0 0 0 0 0 0 0 0 0 0 0 0 0 0
9 0 5 15 0 8 18 0 10 21 0 11 23 0 12 24 0 13 26 0 14 27 0 15 28 0 15
29 0 16 30 0 16 30 0 16 30 0 16 31 0 16 31 0 17 31 0 16 31 0 16 30 0
16 30 0 16 29 0 16 28 0 15 28 0 15 27 0 14 26 0 14 24 0 13 23 0 12 21
0 11 19 0 10 17 0 9 14 0 8 10 0 6 0 0 0 0 0 0 0 0 0 0 0 0 0 0 0 0 0 0
0 0 0 0 0 0 0 0 0 0 0 0 0 0 0 0 0 0 0 0 0 0 0 0 0 0 0 0 0 0 0 0 0 0 0
0 0 0 0 0 0 0 0 0 0 0 0 0 0 0 0 0 0 0 0 0 0 0 0 0 0 0 0 0 0 0 0 0 0 0
0 0 0 0 0 0 0 0 0 0 0 0 0 0 0 0 0 0 0 0 0 0 0 0 0 0 0 0 0 0 0 0 0 0 0
0 0 0 0 0 0 0 0 0 0 0 0 0 0 0 0 0 0 0 0 0 0 0 0 0 0 0 0 0 0 0 0 0 0 0
0 0 0 0 0 0 0 0 0 0 0 0 0 0 0 0 0 0 0 0 0 0 0 0 0 0 0 0 0 0 0 0 0 0 0
0 0 0 0 0 0 0 0 0 0 0 0 0 0 0 0 0 0 0 0 0 0 0 0 0 0 0 0 0 0 0 0 0 0 0
0 0 0 0 0 0 0 0 0 0 0 0 0 0 0 0 0 0 0 0 0 0 0 0 0 0 0 0 0 0 0 0 0 0 0
0 0 0 0 0 0 0 0 0 0 0 0 0 0 0 0 0 0 0 0 0 0 0 0 0 0 0 0 0 0 0 0 0 0 0
0 0 0 0 0 0 0 0 0 0 0 0 0 0 0 0 0 0 0 0 0 0 0 0 0 0 0 0 0 0 0 0 0 0 0
0 0 0 0 0 0 0 0 0 0 0 0 0 0 0 0 0 0 0 0 0
0 0 0 0 0 0 0 0 0 0 0 0 0 0 0 0 0 0 0 0 0 0 0 0 0 0 0 0 0 0 0 0 0 0 0
0 0 0 0 0 0 0 0 0 0 0 0 0 0 0 0 0 0 0 0 0 0 0 0 0 0 0 0 0 0 0 0 0 0 0
0 0 0 0 0 0 0 0 0 0 0 0 0 0 0 0 0 0 0 0 0 0 0 0 0 0 0 0 0 0 0 0 0 0 0
0 0 0 0 0 0 0 0 0 0 0 0 0 0 0 0 0 0 0 0 0 0 0 0 0 0 0 0 0 0 0 0 0 0 0
0 0 0 0 0 0 0 0 0 0 0 0 0 0 0 0 0 0 0 0 0 0 0 0 0 0 0 0 0 0 0 0 0 0 0
0 0 0 0 0 0 0 0 0 0 0 0 0 0 0 0 0 0 0 0 0 0 0 0 0 0 0 0 0 0 0 0 0 0 0
0 0 0 0 0 0 0 0 0 0 0 0 0 0 0 0 0 0 0 0 0 0 0 0 0 0 0 0 0 0 0 0 0 0 0
0 0 0 0 0 0 0 0 0 0 0 0 0 0 0 0 0 0 0 0 0 0 0 0 0 0 0 0 0 0 0 0 0 0 0
0 0 0 0 0 0 0 0 0 0 0 0 0 0 0 0 0 0 0 0 0 0 0 0 0 0 0 0 0 0 0 0 0 0 0
0 0 0 0 0 0 0 0 0 0 0 0 0 0 0 0 0 0 0 0 0 1 0 0 1 0 0 2 0 0 2 0 0 11 0
4 20 0 9 29 0 12 37 0 16 45 0 19 52 0 22 58 1 25 64 1 28 70 1 30 75 1
33 80 1 35 112 1 51 116 1 53 90 1 39 93 1 41 91 1 40 90 1 40 87 1 38
78 1 34 0 0 0 0 0 0 0 0 0 0 0 0 0 0 0 0 0 0 0 0 0 0 0 0 0 0 0 0 0 0 0
0 0 0 0 0 0 0 0 0 0 0 0 0 0 0 0 0 0 0 0 0 0 0 0 0 0 0 0 0 0 0 0 0 0 0
0 0 0 0 0 0 0 0 0 0 0 0 0 0 0 0 0 0 0 0 0 0 0 0 0 0 0 0 0 0 0 0 0 0 0
0 0 0 0 0 0 0 0 0 0 0 0 0 0 0 0 0 0 0 0 0 0 0 0 0 0 0 0 0 0 0 0 0 0 0
0 0 0 0 0 0 0 0 0 0 0 0 0 0 0 0 0 0 0 0 0 0 0 0 0 0 0 0 0 0 0 0 0 0 0
0 0 0 0 0 0 0 0 0 0 0 0 0 0 0 0 0 0 0 0 0 0 0 0 0 0 0 0 0 0 0 0 0 0 0
0 0 0 0 0 0 0 0 0 0 0 0 0 0 0 0 0 0 0 0 0 0 0 0 0 0 0 0 0 0 0 0 0 0 0
0 0 0 0 0 0 0 0 0 0 0 0 0 0 0 0 0 0 0 0 0 0 0 0 0 0 0 0 0 0 0 0 0 0 0
0 0 0 0 0 0 0 0 0 0 0 0 0 0 0 0 0 0 0 0 0 0 0 0 0 0 0 0 0 0 0 0 0 0 0
0 0 0 0 0 0 0 0 0 0 0 0 0 0 0 0 0 0 0 0 0 0 0 0 0 0 0 0 0 0 0 0 0 0 0
0 0 0 0 0 11 0 6 16 0 9 19 0 10 21 0 11 23 0 12 25 0 13 26 0 14 27 0
14 28 0 15 28 0 15 29 0 16 29 0 16 30 0 16 30 0 16 30 0 16 29 0 16 29
0 16 29 0 15 28 0 15 27 0 15 26 0 14 25 0 14 24 0 13 23 0 12 21 0 11
19 0 10 17 0 9 15 0 8 11 0 6 0 0 0 0 0 0 0 0 0 0 0 0 0 0 0 0 0 0 0 0 0
0 0 0 0 0 0 0 0 0 0 0 0 0 0 0 0 0 0 0 0 0 0 0 0 0 0 0 0 0 0 0 0 0 0 0
0 0 0 0 0 0 0 0 0 0 0 0 0 0 0 0 0 0 0 0 0 0 0 0 0 0 0 0 0 0 0 0 0 0 0
0 0 0 0 0 0 0 0 0 0 0 0 0 0 0 0 0 0 0 0 0 0 0 0 0 0 0 0 0 0 0 0 0 0 0
0 0 0 0 0 0 0 0 0 0 0 0 0 0 0 0 0 0 0 0 0 0 0 0 0 0 0 0 0 0 0 0 0 0 0
0 0 0 0 0 0 0 0 0 0 0 0 0 0 0 0 0 0 0 0 0 0 0 0 0 0 0 0 0 0 0 0 0 0 0
0 0 0 0 0 0 0 0 0 0 0 0 0 0 0 0 0 0 0 0 0 0 0 0 0 0 0 0 0 0 0 0 0 0 0
0 0 0 0 0 0 0 0 0 0 0 0 0 0 0 0 0 0 0 0 0 0 0 0 0 0 0 0 0 0 0 0 0 0 0
0 0 0 0 0 0 0 0 0 0 0 0 0 0 0 0 0 0 0 0 0 0 0 0 0 0 0 0 0 0 0 0 0 0 0
0 0 0 0 0 0 0 0 0 0 0 0 0 0 0 0 0 0 0 0 0 0 0 0 0 0 0 0 0 0 0 0 0 0 0
0 0 0 0 0 0 0 0 0 0 0 0 0 0 0 0 0 0 0 0 0
0 0 0 0 0 0 0 0 0 0 0 0 0 0 0 0 0 0 0 0 0 0 0 0 0 0 0 0 0 0 0 0 0 0 0
0 0 0 0 0 0 0 0 0 0 0 0 0 0 0 0 0 0 0 0 0 0 0 0 0 0 0 0 0 0 0 0 0 0 0
0 0 0 0 0 0 0 0 0 0 0 0 0 0 0 0 0 0 0 0 0 0 0 0 0 0 0 0 0 0 0 0 0 0 0
0 0 0 0 0 0 0 0 0 0 0 0 0 0 0 0 0 0 0 0 0 0 0 0 0 0 0 0 0 0 0 0 0 0 0
0 0 0 0 0 0 0 0 0 0 0 0 0 0 0 0 0 0 0 0 0 0 0 0 0 0 0 0 0 0 0 0 0 0 0
0 0 0 0 0 0 0 0 0 0 0 0 0 0 0 0 0 0 0 0 0 0 0 0 0 0 0 0 0 0 0 0 0 0 0
0 0 0 0 0 0 0 0 0 0 0 0 0 0 0 0 0 0 0 0 0 0 0 0 0 0 0 0 0 0 0 0 0 0 0
0 0 0 0 0 0 0 0 0 0 0 0 0 0 0 0 0 0 0 0 0 0 0 0 0 0 0 0 0 0 0 0 0 0 0
0 0 0 0 0 0 0 0 0 0 0 0 0 0 0 0 0 0 0 0 0 0 0 0 0 0 0 0 0 0 0 0 0 0 0
0 0 0 0 0 0 0 0 0 0 0 0 0 0 0 0 0 0 0 0 0 1 0 0 2 0 0 2 0 1 3 0 1 11 0
4 21 0 9 30 0 12 38 0 16 46 0 19 53 1 23 60 1 25 66 1 28 72 1 31 77 1
33 82 1 35 120 1 55 135 1 62 92 1 40 93 1 40 93 1 41 92 1 40 89 1 39
79 1 35 0 0 0 0 0 0 0 0 0 0 0 0 0 0 0 0 0 0 0 0 0 0 0 0 0 0 0 0 0 0 0
0 0 0 0 0 0 0 0 0 0 0 0 0 0 0 0 0 0 0 0 0 0 0 0 0 0 0 0 0 0 0 0 0 0 0
0 0 0 0 0 0 0 0 0 0 0 0 0 0 0 0 0 0 0 0 0 0 0 0 0 0 0 0 0 0 0 0 0 0 0
0 0 0 0 0 0 0 0 0 0 0 0 0 0 0 0 0 0 0 0 0 0 0 0 0 0 0 0 0 0 0 0 0 0 0
0 0 0 0 0 0 0 0 0 0 0 0 0 0 0 0 0 0 0 0 0 0 0 0 0 0 0 0 0 0 0 0 0 0 0
0 0 0 0 0 0 0 0 0 0 0 0 0 0 0 0 0 0 0 0 0 0 0 0 0 0 0 0 0 0 0 0 0 0 0
0 0 0 0 0 0 0 0 0 0 0 0 0 0 0 0 0 0 0 0 0 0 0 0 0 0 0 0 0 0 0 0 0 0 0
0 0 0 0 0 0 0 0 0 0 0 0 0 0 0 0 0 0 0 0 0 0 0 0 0 0 0 0 0 0 0 0 0 0 0
0 0 0 0 0 0 0 0 0 0 0 0 0 0 0 0 0 0 0 0 0 0 0 0 0 0 0 0 0 0 0 0 0 0 0
0 0 0 0 0 0 0 0 0 0 0 0 0 0 0 0 0 0 0 0 0 0 0 0 0 0 0 0 0 0 0 0 0 0 0
0 0 0 0 0 0 0 0 12 0 7 16 0 9 19 0 10 21 0 11 23 0 12 24 0 13 25 0 14
26 0 14 27 0 15 28 0 15 28 0 15 28 0 15 28 0 15 28 0 15 28 0 15 28 0
15 27 0 15 27 0 14 26 0 14 25 0 13 24 0 13 23 0 12 21 0 11 19 0 10 17
0 9 15 0 8 11 0 6 0 0 0 0 0 0 0 0 0 0 0 0 0 0 0 0 0 0 0 0 0 0 0 0 0 0
0 0 0 0 0 0 0 0 0 0 0 0 0 0 0 0 0 0 0 0 0 0 0 0 0 0 0 0 0 0 0 0 0 0 0
0 0 0 0 0 0 0 0 0 0 0 0 0 0 0 0 0 0 0 0 0 0 0 0 0 0 0 0 0 0 0 0 0 0 0
0 0 0 0 0 0 0 0 0 0 0 0 0 0 0 0 0 0 0 0 0 0 0 0 0 0 0 0 0 0 0 0 0 0 0
0 0 0 0 0 0 0 0 0 0 0 0 0 0 0 0 0 0 0 0 0 0 0 0 0 0 0 0 0 0 0 0 0 0 0
0 0 0 0 0 0 0 0 0 0 0 0 0 0 0 0 0 0 0 0 0 0 0 0 0 0 0 0 0 0 0 0 0 0 0
0 0 0 0 0 0 0 0 0 0 0 0 0 0 0 0 0 0 0 0 0 0 0 0 0 0 0 0 0 0 0 0 0 0 0
0 0 0 0 0 0 0 0 0 0 0 0 0 0 0 0 0 0 0 0 0 0 0 0 0 0 0 0 0 0 0 0 0 0 0
0 0 0 0 0 0 0 0 0 0 0 0 0 0 0 0 0 0 0 0 0 0 0 0 0 0 0 0 0 0 0 0 0 0 0
0 0 0 0 0 0 0 0 0 0 0 0 0 0 0 0 0 0 0 0 0 0 0 0 0 0 0 0 0 0 0 0 0 0 0
0 0 0 0 0 0 0 0 0 0 0 0 0 0 0 0 0 0 0
0 0 0 0 0 0 0 0 0 0 0 0 0 0 0 0 0 0 0 0 0 0 0 0 0 0 0 0 0 0 0 0 0 0 0
0 0 0 0 0 0 0 0 0 0 0 0 0 0 0 0 0 0 0 0 0 0 0 0 0 0 0 0 0 0 0 0 0 0 0
0 0 0 0 0 0 0 0 0 0 0 0 0 0 0 0 0 0 0 0 0 0 0 0 0 0 0 0 0 0 0 0 0 0 0
0 0 0 0 0 0 0 0 0 0 0 0 0 0 0 0 0 0 0 0 0 0 0 0 0 0 0 0 0 0 0 0 0 0 0
0 0 0 0 0 0 0 0 0 0 0 0 0 0 0 0 0 0 0 0 0 0 0 0 0 0 0 0 0 0 0 0 0 0 0
0 0 0 0 0 0 0 0 0 0 0 0 0 0 0 0 0 0 0 0 0 0 0 0 0 0 0 0 0 0 0 0 0 0 0
0 0 0 0 0 0 0 0 0 0 0 0 0 0 0 0 0 0 0 0 0 0 0 0 0 0 0 0 0 0 0 0 0 0 0
0 0 0 0 0 0 0 0 0 0 0 0 0 0 0 0 0 0 0 0 0 0 0 0 0 0 0 0 0 0 0 0 0 0 0
0 0 0 0 0 0 0 0 0 0 0 0 0 0 0 0 0 0 0 0 0 0 0 0 0 0 0 0 0 0 0 0 0 0 0
0 0 0 0 0 0 0 0 0 0 0 0 0 0 0 0 0 0 0 0 0 1 0 0 2 0 1 3 0 1 3 0 1 11 0
4 21 0 8 30 0 12 38 0 16 46 0 19 54 1 22 61 1 25 67 1 28 74 1 31 80 1
33 85 1 35 90 1 38 93 1 40 93 1 40 94 1 41 94 1 41 93 1 40 89 1 39 78
1 34 0 0 0 0 0 0 0 0 0 0 0 0 0 0 0 0 0 0 0 0 0 0 0 0 0 0 0 0 0 0 0 0 0
0 0 0 0 0 0 0 0 0 0 0 0 0 0 0 0 0 0 0 0 0 0 0 0 0 0 0 0 0 0 0 0 0 0 0
0 0 0 0 0 0 0 0 0 0 0 0 0 0 0 0 0 0 0 0 0 0 0 0 0 0 0 0 0 0 0 0 0 0 0
0 0 0 0 0 0 0 0 0 0 0 0 0 0 0 0 0 0 0 0 0 0 0 0 0 0 0 0 0 0 0 0 0 0 0
0 0 0 0 0 0 0 0 0 0 0 0 0 0 0 0 0 0 0 0 0 0 0 0 0 0 0 0 0 0 0 0 0 0 0
0 0 0 0 0 0 0 0 0 0 0 0 0 0 0 0 0 0 0 0 0 0 0 0 0 0 0 0 0 0 0 0 0 0 0
0 0 0 0 0 0 0 0 0 0 0 0 0 0 0 0 0 0 0 0 0 0 0 0 0 0 0 0 0 0 0 0 0 0 0
0 0 0 0 0 0 0 0 0 0 0 0 0 0 0 0 0 0 0 0 0 0 0 0 0 0 0 0 0 0 0 0 0 0 0
0 0 0 0 0 0 0 0 0 0 0 0 0 0 0 0 0 0 0 0 0 0 0 0 0 0 0 0 0 0 0 0 0 0 0
0 0 0 0 0 0 0 0 0 0 0 0 0 0 0 0 0 0 0 0 0 0 0 0 0 0 0 0 0 0 0 0 0 0 0
0 0 0 0 0 0 0 0 0 12 0 7 16 0 9 19 0 10 21 0 11 22 0 12 24 0 13 25 0
13 26 0 14 26 0 14 27 0 14 27 0 14 27 0 14 27 0 14 27 0 14 26 0 14 26
0 14 25 0 13 24 0 13 23 0 12 22 0 12 21 0 11 19 0 10 17 0 9 14 0 8 11
0 6 0 0 0 0 0 0 0 0 0 0 0 0 0 0 0 0 0 0 0 0 0 0 0 0 0 0 0 0 0 0 0 0 0
0 0 0 0 0 0 0 0 0 0 0 0 0 0 0 0 0 0 0 0 0 0 0 0 0 0 0 0 0 0 0 0 0 0 0
0 0 0 0 0 0 0 0 0 0 0 0 0 0 0 0 0 0 0 0 0 0 0 0 0 0 0 0 0 0 0 0 0 0 0
0 0 0 0 0 0 0 0 0 0 0 0 0 0 0 0 0 0 0 0 0 0 0 0 0 0 0 0 0 0 0 0 0 0 0
0 0 0 0 0 0 0 0 0 0 0 0 0 0 0 0 0 0 0 0 0 0 0 0 0 0 0 0 0 0 0 0 0 0 0
0 0 0 0 0 0 0 0 0 0 0 0 0 0 0 0 0 0 0 0 0 0 0 0 0 0 0 0 0 0 0 0 0 0 0
0 0 0 0 0 0 0 0 0 0 0 0 0 0 0 0 0 0 0 0 0 0 0 0 0 0 0 0 0 0 0 0 0 0 0
0 0 0 0 0 0 0 0 0 0 0 0 0 0 0 0 0 0 0 0 0 0 0 0 0 0 0 0 0 0 0 0 0 0 0
0 0 0 0 0 0 0 0 0 0 0 0 0 0 0 0 0 0 0 0 0 0 0 0 0 0 0 0 0 0 0 0 0 0 0
0 0 0 0 0 0 0 0 0 0 0 0 0 0 0 0 0 0 0 0 0 0 0 0 0 0 0 0 0 0 0 0 0 0 0
0 0 0 0 0 0 0 0 0 0 0 0 0 0 0
0 0 0 0 0 0 0 0 0 0 0 0 0 0 0 0 0 0 0 0 0 0 0 0 0 0 0 0 0 0 0 0 0 0 0
0 0 0 0 0 0 0 0 0 0 0 0 0 0 0 0 0 0 0 0 0 0 0 0 0 0 0 0 0 0 0 0 0 0 0
0 0 0 0 0 0 0 0 0 0 0 0 0 0 0 0 0 0 0 0 0 0 0 0 0 0 0 0 0 0 0 0 0 0 0
0 0 0 0 0 0 0 0 0 0 0 0 0 0 0 0 0 0 0 0 0 0 0 0 0 0 0 0 0 0 0 0 0 0 0
0 0 0 0 0 0 0 0 0 0 0 0 0 0 0 0 0 0 0 0 0 0 0 0 0 0 0 0 0 0 0 0 0 0 0
0 0 0 0 0 0 0 0 0 0 0 0 0 0 0 0 0 0 0 0 0 0 0 0 0 0 0 0 0 0 0 0 0 0 0
0 0 0 0 0 0 0 0 0 0 0 0 0 0 0 0 0 0 0 0 0 0 0 0 0 0 0 0 0 0 0 0 0 0 0
0 0 0 0 0 0 0 0 0 0 0 0 0 0 0 0 0 0 0 0 0 0 0 0 0 0 0 0 0 0 0 0 0 0 0
0 0 0 0 0 0 0 0 0 0 0 0 0 0 0 0 0 0 0 0 0 0 0 0 0 0 0 0 0 0 0 0 0 0 0
0 0 0 0 0 0 0 0 0 0 0 0 0 0 0 0 0 0 0 0 0 0 0 0 3 0 1 3 0 1 4 0 1 9 0
3 20 0 8 29 0 12 37 0 15 46 0 19 53 0 22 61 1 25 68 1 28 74 1 31 81 1
33 87 1 36 91 1 37 84 1 39 95 1 40 95 1 40 94 1 41 92 1 40 88 1 38 74
1 33 0 0 0 0 0 0 0 0 0 0 0 0 0 0 0 0 0 0 0 0 0 0 0 0 0 0 0 0 0 0 0 0 0
0 0 0 0 0 0 0 0 0 0 0 0 0 0 0 0 0 0 0 0 0 0 0 0 0 0 0 0 0 0 0 0 0 0 0
0 0 0 0 0 0 0 0 0 0 0 0 0 0 0 0 0 0 0 0 0 0 0 0 0 0 0 0 0 0 0 0 0 0 0
0 0 0 0 0 0 0 0 0 0 0 0 0 0 0 0 0 0 0 0 0 0 0 0 0 0 0 0 0 0 0 0 0 0 0
0 0 0 0 0 0 0 0 0 0 0 0 0 0 0 0 0 0 0 0 0 0 0 0 0 0 0 0 0 0 0 0 0 0 0
0 0 0 0 0 0 0 0 0 0 0 0 0 0 0 0 0 0 0 0 0 0 0 0 0 0 0 0 0 0 0 0 0 0 0
0 0 0 0 0 0 0 0 0 0 0 0 0 0 0 0 0 0 0 0 0 0 0 0 0 0 0 0 0 0 0 0 0 0 0
0 0 0 0 0 0 0 0 0 0 0 0 0 0 0 0 0 0 0 0 0 0 0 0 0 0 0 0 0 0 0 0 0 0 0
0 0 0 0 0 0 0 0 0 0 0 0 0 0 0 0 0 0 0 0 0 0 0 0 0 0 0 0 0 0 0 0 0 0 0
0 0 0 0 0 0 0 0 0 0 0 0 0 0 0 0 0 0 0 0 0 0 0 0 0 0 0 0 0 0 0 0 0 0 0
0 0 0 0 0 0 0 0 0 0 0 0 11 0 6 16 0 8 18 0 10 20 0 11 21 0 12 23 0 12
24 0 13 24 0 13 25 0 13 25 0 13 25 0 13 25 0 13 25 0 13 24 0 13 24 0
13 23 0 12 22 0 12 21 0 11 20 0 11 18 0 10 16 0 9 13 0 7 9 0 5 0 0 0 0
0 0 0 0 0 0 0 0 0 0 0 0 0 0 0 0 0 0 0 0 0 0 0 0 0 0 0 0 0 0 0 0 0 0 0
0 0 0 0 0 0 0 0 0 0 0 0 0 0 0 0 0 0 0 0 0 0 0 0 0 0 0 0 0 0 0 0 0 0 0
0 0 0 0 0 0 0 0 0 0 0 0 0 0 0 0 0 0 0 0 0 0 0 0 0 0 0 0 0 0 0 0 0 0 0
0 0 0 0 0 0 0 0 0 0 0 0 0 0 0 0 0 0 0 0 0 0 0 0 0 0 0 0 0 0 0 0 0 0 0
0 0 0 0 0 0 0 0 0 0 0 0 0 0 0 0 0 0 0 0 0 0 0 0 0 0 0 0 0 0 0 0 0 0 0
0 0 0 0 0 0 0 0 0 0 0 0 0 0 0 0 0 0 0 0 0 0 0 0 0 0 0 0 0 0 0 0 0 0 0
0 0 0 0 0 0 0 0 0 0 0 0 0 0 0 0 0 0 0 0 0 0 0 0 0 0 0 0 0 0 0 0 0 0 0
0 0 0 0 0 0 0 0 0 0 0 0 0 0 0 0 0 0 0 0 0 0 0 0 0 0 0 0 0 0 0 0 0 0 0
0 0 0 0 0 0 0 0 0 0 0 0 0 0 0 0 0 0 0 0 0 0 0 0 0 0 0 0 0 0 0 0 0 0 0
0 0 0 0 0 0 0 0 0 0 0 0 0 0 0 0 0 0 0 0 0 0 0 0 0 0 0 0 0 0 0 0 0 0 0
0 0 0 0 0 0 0 0 0 0 0 0
0 0 0 0 0 0 0 0 0 0 0 0 0 0 0 0 0 0 0 0 0 0 0 0 0 0 0 0 0 0 0 0 0 0 0
0 0 0 0 0 0 0 0 0 0 0 0 0 0 0 0 0 0 0 0 0 0 0 0 0 0 0 0 0 0 0 0 0 0 0
0 0 0 0 0 0 0 0 0 0 0 0 0 0 0 0 0 0 0 0 0 0 0 0 0 0 0 0 0 0 0 0 0 0 0
0 0 0 0 0 0 0 0 0 0 0 0 0 0 0 0 0 0 0 0 0 0 0 0 0 0 0 0 0 0 0 0 0 0 0
0 0 0 0 0 0 0 0 0 0 0 0 0 0 0 0 0 0 0 0 0 0 0 0 0 0 0 0 0 0 0 0 0 0 0
0 0 0 0 0 0 0 0 0 0 0 0 0 0 0 0 0 0 0 0 0 0 0 0 0 0 0 0 0 0 0 0 0 0 0
0 0 0 0 0 0 0 0 0 0 0 0 0 0 0 0 0 0 0 0 0 0 0 0 0 0 0 0 0 0 0 0 0 0 0
0 0 0 0 0 0 0 0 0 0 0 0 0 0 0 0 0 0 0 0 0 0 0 0 0 0 0 0 0 0 0 0 0 0 0
0 0 0 0 0 0 0 0 0 0 0 0 0 0 0 0 0 0 0 0 0 0 0 0 0 0 0 0 0 0 0 0 0 0 0
0 0 0 0 0 0 0 0 0 0 0 0 0 0 0 0 0 0 0 0 0 0 0 0 2 0 1 3 0 1 4 0 1 7 0
2 15 0 6 24 0 10 32 0 14 40 0 17 48 0 21 57 1 25 66 1 29 73 1 30 79 1
33 85 1 35 90 1 37 93 1 38 94 1 39 94 1 40 93 1 40 91 1 39 85 1 37 61
1 27 0 0 0 0 0 0 0 0 0 0 0 0 0 0 0 0 0 0 0 0 0 0 0 0 0 0 0 0 0 0 0 0 0
0 0 0 0 0 0 0 0 0 0 0 0 0 0 0 0 0 0 0 0 0 0 0 0 0 0 0 0 0 0 0 0 0 0 0
0 0 0 0 0 0 0 0 0 0 0 0 0 0 0 0 0 0 0 0 0 0 0 0 0 0 0 0 0 0 0 0 0 0 0
0 0 0 0 0 0 0 0 0 0 0 0 0 0 0 0 0 0 0 0 0 0 0 0 0 0 0 0 0 0 0 0 0 0 0
0 0 0 0 0 0 0 0 0 0 0 0 0 0 0 0 0 0 0 0 0 0 0 0 0 0 0 0 0 0 0 0 0 0 0
0 0 0 0 0 0 0 0 0 0 0 0 0 0 0 0 0 0 0 0 0 0 0 0 0 0 0 0 0 0 0 0 0 0 0
0 0 0 0 0 0 0 0 0 0 0 0 0 0 0 0 0 0 0 0 0 0 0 0 0 0 0 0 0 0 0 0 0 0 0
0 0 0 0 0 0 0 0 0 0 0 0 0 0 0 0 0 0 0 0 0 0 0 0 0 0 0 0 0 0 0 0 0 0 0
0 0 0 0 0 0 0 0 0 0 0 0 0 0 0 0 0 0 0 0 0 0 0 0 0 0 0 0 0 0 0 0 0 0 0
0 0 0 0 0 0 0 0 0 0 0 0 0 0 0 0 0 0 0 0 0 0 0 0 0 0 0 0 0 0 0 0 0 0 0
0 0 0 0 0 0 0 0 0 0 0 0 0 0 0 0 0 0 14 0 7 17 0 9 19 0 10 20 0 11 21 0
11 22 0 12 22 0 12 23 0 12 23 0 12 23 0 12 22 0 12 22 0 12 21 0 12 21
0 11 20 0 10 18 0 10 17 0 9 14 0 8 11 0 6 0 0 0 0 0 0 0 0 0 0 0 0 0 0
0 0 0 0 0 0 0 0 0 0 0 0 0 0 0 0 0 0 0 0 0 0 0 0 0 0 0 0 0 0 0 0 0 0 0
0 0 0 0 0 0 0 0 0 0 0 0 0 0 0 0 0 0 0 0 0 0 0 0 0 0 0 0 0 0 0 0 0 0 0
0 0 0 0 0 0 0 0 0 0 0 0 0 0 0 0 0 0 0 0 0 0 0 0 0 0 0 0 0 0 0 0 0 0 0
0 0 0 0 0 0 0 0 0 0 0 0 0 0 0 0 0 0 0 0 0 0 0 0 0 0 0 0 0 0 0 0 0 0 0
0 0 0 0 0 0 0 0 0 0 0 0 0 0 0 0 0 0 0 0 0 0 0 0 0 0 0 0 0 0 0 0 0 0 0
0 0 0 0 0 0 0 0 0 0 0 0 0 0 0 0 0 0 0 0 0 0 0 0 0 0 0 0 0 0 0 0 0 0 0
0 0 0 0 0 0 0 0 0 0 0 0 0 0 0 0 0 0 0 0 0 0 0 0 0 0 0 0 0 0 0 0 0 0 0
0 0 0 0 0 0 0 0 0 0 0 0 0 0 0 0 0 0 0 0 0 0 0 0 0 0 0 0 0 0 0 0 0 0 0
0 0 0 0 0 0 0 0 0 0 0 0 0 0 0 0 0 0 0 0 0 0 0 0 0 0 0 0 0 0 0 0 0 0 0
0 0 0 0 0 0 0 0 0 0 0 0 0 0 0 0 0 0 0 0 0 0 0 0 0 0 0 0 0 0 0 0 0 0 0
0 0 0 0 0 0 0 0
0 0 0 0 0 0 0 0 0 0 0 0 0 0 0 0 0 0 0 0 0 0 0 0 0 0 0 0 0 0 0 0 0 0 0
0 0 0 0 0 0 0 0 0 0 0 0 0 0 0 0 0 0 0 0 0 0 0 0 0 0 0 0 0 0 0 0 0 0 0
0 0 0 0 0 0 0 0 0 0 0 0 0 0 0 0 0 0 0 0 0 0 0 0 0 0 0 0 0 0 0 0 0 0 0
0 0 0 0 0 0 0 0 0 0 0 0 0 0 0 0 0 0 0 0 0 0 0 0 0 0 0 0 0 0 0 0 0 0 0
0 0 0 0 0 0 0 0 0 0 0 0 0 0 0 0 0 0 0 0 0 0 0 0 0 0 0 0 0 0 0 0 0 0 0
0 0 0 0 0 0 0 0 0 0 0 0 0 0 0 0 0 0 0 0 0 0 0 0 0 0 0 0 0 0 0 0 0 0 0
0 0 0 0 0 0 0 0 0 0 0 0 0 0 0 0 0 0 0 0 0 0 0 0 0 0 0 0 0 0 0 0 0 0 0
0 0 0 0 0 0 0 0 0 0 0 0 0 0 0 0 0 0 0 0 0 0 0 0 0 0 0 0 0 0 0 0 0 0 0
0 0 0 0 0 0 0 0 0 0 0 0 0 0 0 0 0 0 0 0 0 0 0 0 0 0 0 0 0 0 0 0 0 0 0
0 0 0 0 0 0 0 0 0 0 0 0 0 0 0 0 0 0 0 0 0 0 0 0 0 0 0 3 0 1 4 0 1 4 0
1 11 0 5 21 0 9 29 0 13 37 0 16 45 0 20 54 1 24 62 1 28 70 1 31 77 1
32 82 1 34 87 1 36 90 1 37 91 1 38 100 1 39 92 1 38 87 1 38 80 1 35 0
0 0 0 0 0 0 0 0 0 0 0 0 0 0 0 0 0 0 0 0 0 0 0 0 0 0 0 0 0 0 0 0 0 0 0
0 0 0 0 0 0 0 0 0 0 0 0 0 0 0 0 0 0 0 0 0 0 0 0 0 0 0 0 0 0 0 0 0 0 0
0 0 0 0 0 0 0 0 0 0 0 0 0 0 0 0 0 0 0 0 0 0 0 0 0 0 0 0 0 0 0 0 0 0 0
0 0 0 0 0 0 0 0 0 0 0 0 0 0 0 0 0 0 0 0 0 0 0 0 0 0 0 0 0 0 0 0 0 0 0
0 0 0 0 0 0 0 0 0 0 0 0 0 0 0 0 0 0 0 0 0 0 0 0 0 0 0 0 0 0 0 0 0 0 0
0 0 0 0 0 0 0 0 0 0 0 0 0 0 0 0 0 0 0 0 0 0 0 0 0 0 0 0 0 0 0 0 0 0 0
0 0 0 0 0 0 0 0 0 0 0 0 0 0 0 0 0 0 0 0 0 0 0 0 0 0 0 0 0 0 0 0 0 0 0
0 0 0 0 0 0 0 0 0 0 0 0 0 0 0 0 0 0 0 0 0 0 0 0 0 0 0 0 0 0 0 0 0 0 0
0 0 0 0 0 0 0 0 0 0 0 0 0 0 0 0 0 0 0 0 0 0 0 0 0 0 0 0 0 0 0 0 0 0 0
0 0 0 0 0 0 0 0 0 0 0 0 0 0 0 0 0 0 0 0 0 0 0 0 0 0 0 0 0 0 0 0 0 0 0
0 0 0 0 0 0 0 0 0 0 0 0 0 0 0 0 0 0 0 0 0 0 0 0 14 0 7 16 0 9 18 0 9
19 0 10 19 0 10 20 0 11 20 0 11 20 0 11 19 0 10 19 0 10 18 0 10 17 0 9
16 0 8 14 0 7 11 0 6 0 0 0 0 0 0 0 0 0 0 0 0 0 0 0 0 0 0 0 0 0 0 0 0 0
0 0 0 0 0 0 0 0 0 0 0 0 0 0 0 0 0 0 0 0 0 0 0 0 0 0 0 0 0 0 0 0 0 0 0
0 0 0 0 0 0 0 0 0 0 0 0 0 0 0 0 0 0 0 0 0 0 0 0 0 0 0 0 0 0 0 0 0 0 0
0 0 0 0 0 0 0 0 0 0 0 0 0 0 0 0 0 0 0 0 0 0 0 0 0 0 0 0 0 0 0 0 0 0 0
0 0 0 0 0 0 0 0 0 0 0 0 0 0 0 0 0 0 0 0 0 0 0 0 0 0 0 0 0 0 0 0 0 0 0
0 0 0 0 0 0 0 0 0 0 0 0 0 0 0 0 0 0 0 0 0 0 0 0 0 0 0 0 0 0 0 0 0 0 0
0 0 0 0 0 0 0 0 0 0 0 0 0 0 0 0 0 0 0 0 0 0 0 0 0 0 0 0 0 0 0 0 0 0 0
0 0 0 0 0 0 0 0 0 0 0 0 0 0 0 0 0 0 0 0 0 0 0 0 0 0 0 0 0 0 0 0 0 0 0
0 0 0 0 0 0 0 0 0 0 0 0 0 0 0 0 0 0 0 0 0 0 0 0 0 0 0 0 0 0 0 0 0 0 0
0 0 0 0 0 0 0 0 0 0 0 0 0 0 0 0 0 0 0 0 0 0 0 0 0 0 0 0 0 0 0 0 0 0 0
0 0 0 0 0 0 0 0 0 0 0 0 0 0 0 0 0 0 0 0 0 0 0 0 0 0 0 0 0 0 0 0 0 0 0
0 0 0
0 0 0 0 0 0 0 0 0 0 0 0 0 0 0 0 0 0 0 0 0 0 0 0 0 0 0 0 0 0 0 0 0 0 0
0 0 0 0 0 0 0 0 0 0 0 0 0 0 0 0 0 0 0 0 0 0 0 0 0 0 0 0 0 0 0 0 0 0 0
0 0 0 0 0 0 0 0 0 0 0 0 0 0 0 0 0 0 0 0 0 0 0 0 0 0 0 0 0 0 0 0 0 0 0
0 0 0 0 0 0 0 0 0 0 0 0 0 0 0 0 0 0 0 0 0 0 0 0 0 0 0 0 0 0 0 0 0 0 0
0 0 0 0 0 0 0 0 0 0 0 0 0 0 0 0 0 0 0 0 0 0 0 0 0 0 0 0 0 0 0 0 0 0 0
0 0 0 0 0 0 0 0 0 0 0 0 0 0 0 0 0 0 0 0 0 0 0 0 0 0 0 0 0 0 0 0 0 0 0
0 0 0 0 0 0 0 0 0 0 0 0 0 0 0 0 0 0 0 0 0 0 0 0 0 0 0 0 0 0 0 0 0 0 0
0 0 0 0 0 0 0 0 0 0 0 0 0 0 0 0 0 0 0 0 0 0 0 0 0 0 0 0 0 0 0 0 0 0 0
0 0 0 0 0 0 0 0 0 0 0 0 0 0 0 0 0 0 0 0 0 0 0 0 0 0 0 0 0 0 0 0 0 0 0
0 0 0 0 0 0 0 0 0 0 0 0 0 0 0 0 0 0 0 0 0 0 0 0 0 0 0 3 0 1 4 0 1 4 0
1 10 0 3 17 0 7 26 0 11 34 0 15 42 0 19 49 0 22 57 1 25 64 1 28 73 1
30 78 1 32 82 1 34 85 1 36 93 1 37 90 1 37 86 1 37 82 1 35 69 1 30 0 0
0 0 0 0 0 0 0 0 0 0 0 0 0 0 0 0 0 0 0 0 0 0 0 0 0 0 0 0 0 0 0 0 0 0 0
0 0 0 0 0 0 0 0 0 0 0 0 0 0 0 0 0 0 0 0 0 0 0 0 0 0 0 0 0 0 0 0 0 0 0
0 0 0 0 0 0 0 0 0 0 0 0 0 0 0 0 0 0 0 0 0 0 0 0 0 0 0 0 0 0 0 0 0 0 0
0 0 0 0 0 0 0 0 0 0 0 0 0 0 0 0 0 0 0 0 0 0 0 0 0 0 0 0 0 0 0 0 0 0 0
0 0 0 0 0 0 0 0 0 0 0 0 0 0 0 0 0 0 0 0 0 0 0 0 0 0 0 0 0 0 0 0 0 0 0
0 0 0 0 0 0 0 0 0 0 0 0 0 0 0 0 0 0 0 0 0 0 0 0 0 0 0 0 0 0 0 0 0 0 0
0 0 0 0 0 0 0 0 0 0 0 0 0 0 0 0 0 0 0 0 0 0 0 0 0 0 0 0 0 0 0 0 0 0 0
0 0 0 0 0 0 0 0 0 0 0 0 0 0 0 0 0 0 0 0 0 0 0 0 0 0 0 0 0 0 0 0 0 0 0
0 0 0 0 0 0 0 0 0 0 0 0 0 0 0 0 0 0 0 0 0 0 0 0 0 0 0 0 0 0 0 0 0 0 0
0 0 0 0 0 0 0 0 0 0 0 0 0 0 0 0 0 0 0 0 0 0 0 0 0 0 0 0 0 0 0 0 0 0 0
0 0 0 0 0 0 0 0 0 0 0 0 0 0 0 0 0 0 0 0 0 0 0 0 0 0 0 0 0 11 0 6 13 0
7 14 0 8 15 0 8 16 0 8 15 0 8 15 0 8 14 0 8 13 0 7 11 0 6 0 0 0 0 0 0
0 0 0 0 0 0 0 0 0 0 0 0 0 0 0 0 0 0 0 0 0 0 0 0 0 0 0 0 0 0 0 0 0 0 0
0 0 0 0 0 0 0 0 0 0 0 0 0 0 0 0 0 0 0 0 0 0 0 0 0 0 0 0 0 0 0 0 0 0 0
0 0 0 0 0 0 0 0 0 0 0 0 0 0 0 0 0 0 0 0 0 0 0 0 0 0 0 0 0 0 0 0 0 0 0
0 0 0 0 0 0 0 0 0 0 0 0 0 0 0 0 0 0 0 0 0 0 0 0 0 0 0 0 0 0 0 0 0 0 0
0 0 0 0 0 0 0 0 0 0 0 0 0 0 0 0 0 0 0 0 0 0 0 0 0 0 0 0 0 0 0 0 0 0 0
0 0 0 0 0 0 0 0 0 0 0 0 0 0 0 0 0 0 0 0 0 0 0 0 0 0 0 0 0 0 0 0 0 0 0
0 0 0 0 0 0 0 0 0 0 0 0 0 0 0 0 0 0 0 0 0 0 0 0 0 0 0 0 0 0 0 0 0 0 0
0 0 0 0 0 0 0 0 0 0 0 0 0 0 0 0 0 0 0 0 0 0 0 0 0 0 0 0 0 0 0 0 0 0 0
0 0 0 0 0 0 0 0 0 0 0 0 0 0 0 0 0 0 0 0 0 0 0 0 0 0 0 0 0 0 0 0 0 0 0
0 0 0 0 0 0 0 0 0 0 0 0 0 0 0 0 0 0 0 0 0 0 0 0 0 0 0 0 0 0 0 0 0 0 0
0 0 0 0 0 0 0 0 0 0 0 0 0 0 0 0 0 0 0 0 0 0 0 0 0 0 0 0 0 0 0
0 0 0 0 0 0 0 0 0 0 0 0 0 0 0 0 0 0 0 0 0 0 0 0 0 0 0 0 0 0 0 0 0 0 0
0 0 0 0 0 0 0 0 0 0 0 0 0 0 0 0 0 0 0 0 0 0 0 0 0 0 0 0 0 0 0 0 0 0 0
0 0 0 0 0 0 0 0 0 0 0 0 0 0 0 0 0 0 0 0 0 0 0 0 0 0 0 0 0 0 0 0 0 0 0
0 0 0 0 0 0 0 0 0 0 0 0 0 0 0 0 0 0 0 0 0 0 0 0 0 0 0 0 0 0 0 0 0 0 0
0 0 0 0 0 0 0 0 0 0 0 0 0 0 0 0 0 0 0 0 0 0 0 0 0 0 0 0 0 0 0 0 0 0 0
0 0 0 0 0 0 0 0 0 0 0 0 0 0 0 0 0 0 0 0 0 0 0 0 0 0 0 0 0 0 0 0 0 0 0
0 0 0 0 0 0 0 0 0 0 0 0 0 0 0 0 0 0 0 0 0 0 0 0 0 0 0 0 0 0 0 0 0 0 0
0 0 0 0 0 0 0 0 0 0 0 0 0 0 0 0 0 0 0 0 0 0 0 0 0 0 0 0 0 0 0 0 0 0 0
0 0 0 0 0 0 0 0 0 0 0 0 0 0 0 0 0 0 0 0 0 0 0 0 0 0 0 0 0 0 0 0 0 0 0
0 0 0 0 0 0 0 0 0 0 0 0 0 0 0 0 0 0 0 0 0 0 0 0 0 0 0 0 0 0 3 0 1 4 0
1 5 0 1 12 0 5 22 0 9 30 0 13 37 0 18 44 1 22 55 1 26 63 1 26 69 1 28
73 1 31 77 1 33 80 1 34 82 1 34 81 1 34 76 1 33 73 1 31 0 0 0 0 0 0 0
0 0 0 0 0 0 0 0 0 0 0 0 0 0 0 0 0 0 0 0 0 0 0 0 0 0 0 0 0 0 0 0 0 0 0
0 0 0 0 0 0 0 0 0 0 0 0 0 0 0 0 0 0 0 0 0 0 0 0 0 0 0 0 0 0 0 0 0 0 0
0 0 0 0 0 0 0 0 0 0 0 0 0 0 0 0 0 0 0 0 0 0 0 0 0 0 0 0 0 0 0 0 0 0 0
0 0 0 0 0 0 0 0 0 0 0 0 0 0 0 0 0 0 0 0 0 0 0 0 0 0 0 0 0 0 0 0 0 0 0
0 0 0 0 0 0 0 0 0 0 0 0 0 0 0 0 0 0 0 0 0 0 0 0 0 0 0 0 0 0 0 0 0 0 0
0 0 0 0 0 0 0 0 0 0 0 0 0 0 0 0 0 0 0 0 0 0 0 0 0 0 0 0 0 0 0 0 0 0 0
0 0 0 0 0 0 0 0 0 0 0 0 0 0 0 0 0 0 0 0 0 0 0 0 0 0 0 0 0 0 0 0 0 0 0
0 0 0 0 0 0 0 0 0 0 0 0 0 0 0 0 0 0 0 0 0 0 0 0 0 0 0 0 0 0 0 0 0 0 0
0 0 0 0 0 0 0 0 0 0 0 0 0 0 0 0 0 0 0 0 0 0 0 0 0 0 0 0 0 0 0 0 0 0 0
0 0 0 0 0 0 0 0 0 0 0 0 0 0 0 0 0 0 0 0 0 0 0 0 0 0 0 0 0 0 0 0 0 0 0
0 0 0 0 0 0 0 0 0 0 0 0 0 0 0 0 0 0 0 0 0 0 0 0 0 0 0 0 0 0 0 0 0 0 0
0 0 0 0 0 0 0 0 0 0 0 0 0 0 0 0 0 0 0 0 0 0 0 0 0 0 0 0 0 0 0 0 0 0 0
0 0 0 0 0 0 0 0 0 0 0 0 0 0 0 0 0 0 0 0 0 0 0 0 0 0 0 0 0 0 0 0 0 0 0
0 0 0 0 0 0 0 0 0 0 0 0 0 0 0 0 0 0 0 0 0 0 0 0 0 0 0 0 0 0 0 0 0 0 0
0 0 0 0 0 0 0 0 0 0 0 0 0 0 0 0 0 0 0 0 0 0 0 0 0 0 0 0 0 0 0 0 0 0 0
0 0 0 0 0 0 0 0 0 0 0 0 0 0 0 0 0 0 0 0 0 0 0 0 0 0 0 0 0 0 0 0 0 0 0
0 0 0 0 0 0 0 0 0 0 0 0 0 0 0 0 0 0 0 0 0 0 0 0 0 0 0 0 0 0 0 0 0 0 0
0 0 0 0 0 0 0 0 0 0 0 0 0 0 0 0 0 0 0 0 0 0 0 0 0 0 0 0 0 0 0 0 0 0 0
0 0 0 0 0 0 0 0 0 0 0 0 0 0 0 0 0 0 0 0 0 0 0 0 0 0 0 0 0 0 0 0 0 0 0
0 0 0 0 0 0 0 0 0 0 0 0 0 0 0 0 0 0 0 0 0 0 0 0 0 0 0 0 0 0 0 0 0 0 0
0 0 0 0 0 0 0 0 0 0 0 0 0 0 0 0 0 0 0 0 0 0 0 0 0 0 0 0 0 0 0 0 0 0 0
0 0 0 0 0 0 0 0 0 0 0 0 0 0 0 0 0 0 0 0 0 0 0 0 0 0 0 0 0 0 0 0 0 0 0
0 0 0 0 0 0 0 0 0 0 0 0 0 0 0 0 0 0 0 0 0 0 0 0
0 0 0 0 0 0 0 0 0 0 0 0 0 0 0 0 0 0 0 0 0 0 0 0 0 0 0 0 0 0 0 0 0 0 0
0 0 0 0 0 0 0 0 0 0 0 0 0 0 0 0 0 0 0 0 0 0 0 0 0 0 0 0 0 0 0 0 0 0 0
0 0 0 0 0 0 0 0 0 0 0 0 0 0 0 0 0 0 0 0 0 0 0 0 0 0 0 0 0 0 0 0 0 0 0
0 0 0 0 0 0 0 0 0 0 0 0 0 0 0 0 0 0 0 0 0 0 0 0 0 0 0 0 0 0 0 0 0 0 0
0 0 0 0 0 0 0 0 0 0 0 0 0 0 0 0 0 0 0 0 0 0 0 0 0 0 0 0 0 0 0 0 0 0 0
0 0 0 0 0 0 0 0 0 0 0 0 0 0 0 0 0 0 0 0 0 0 0 0 0 0 0 0 0 0 0 0 0 0 0
0 0 0 0 0 0 0 0 0 0 0 0 0 0 0 0 0 0 0 0 0 0 0 0 0 0 0 0 0 0 0 0 0 0 0
0 0 0 0 0 0 0 0 0 0 0 0 0 0 0 0 0 0 0 0 0 0 0 0 0 0 0 0 0 0 0 0 0 0 0
0 0 0 0 0 0 0 0 0 0 0 0 0 0 0 0 0 0 0 0 0 0 0 0 0 0 0 0 0 0 0 0 0 0 0
0 0 0 0 0 0 0 0 0 0 0 0 0 0 0 0 0 0 0 0 0 0 0 0 0 0 0 0 0 0 0 0 0 3 0
1 2 0 0 9 0 3 16 0 7 25 0 11 33 0 14 40 0 19 46 0 20 54 1 23 60 1 26
66 1 28 70 1 30 72 1 31 71 1 31 70 1 31 70 1 30 0 0 0 0 0 0 0 0 0 0 0
0 0 0 0 0 0 0 0 0 0 0 0 0 0 0 0 0 0 0 0 0 0 0 0 0 0 0 0 0 0 0 0 0 0 0
0 0 0 0 0 0 0 0 0 0 0 0 0 0 0 0 0 0 0 0 0 0 0 0 0 0 0 0 0 0 0 0 0 0 0
0 0 0 0 0 0 0 0 0 0 0 0 0 0 0 0 0 0 0 0 0 0 0 0 0 0 0 0 0 0 0 0 0 0 0
0 0 0 0 0 0 0 0 0 0 0 0 0 0 0 0 0 0 0 0 0 0 0 0 0 0 0 0 0 0 0 0 0 0 0
0 0 0 0 0 0 0 0 0 0 0 0 0 0 0 0 0 0 0 0 0 0 0 0 0 0 0 0 0 0 0 0 0 0 0
0 0 0 0 0 0 0 0 0 0 0 0 0 0 0 0 0 0 0 0 0 0 0 0 0 0 0 0 0 0 0 0 0 0 0
0 0 0 0 0 0 0 0 0 0 0 0 0 0 0 0 0 0 0 0 0 0 0 0 0 0 0 0 0 0 0 0 0 0 0
0 0 0 0 0 0 0 0 0 0 0 0 0 0 0 0 0 0 0 0 0 0 0 0 0 0 0 0 0 0 0 0 0 0 0
0 0 0 0 0 0 0 0 0 0 0 0 0 0 0 0 0 0 0 0 0 0 0 0 0 0 0 0 0 0 0 0 0 0 0
0 0 0 0 0 0 0 0 0 0 0 0 0 0 0 0 0 0 0 0 0 0 0 0 0 0 0 0 0 0 0 0 0 0 0
0 0 0 0 0 0 0 0 0 0 0 0 0 0 0 0 0 0 0 0 0 0 0 0 0 0 0 0 0 0 0 0 0 0 0
0 0 0 0 0 0 0 0 0 0 0 0 0 0 0 0 0 0 0 0 0 0 0 0 0 0 0 0 0 0 0 0 0 0 0
0 0 0 0 0 0 0 0 0 0 0 0 0 0 0 0 0 0 0 0 0 0 0 0 0 0 0 0 0 0 0 0 0 0 0
0 0 0 0 0 0 0 0 0 0 0 0 0 0 0 0 0 0 0 0 0 0 0 0 0 0 0 0 0 0 0 0 0 0 0
0 0 0 0 0 0 0 0 0 0 0 0 0 0 0 0 0 0 0 0 0 0 0 0 0 0 0 0 0 0 0 0 0 0 0
0 0 0 0 0 0 0 0 0 0 0 0 0 0 0 0 0 0 0 0 0 0 0 0 0 0 0 0 0 0 0 0 0 0 0
0 0 0 0 0 0 0 0 0 0 0 0 0 0 0 0 0 0 0 0 0 0 0 0 0 0 0 0 0 0 0 0 0 0 0
0 0 0 0 0 0 0 0 0 0 0 0 0 0 0 0 0 0 0 0 0 0 0 0 0 0 0 0 0 0 0 0 0 0 0
0 0 0 0 0 0 0 0 0 0 0 0 0 0 0 0 0 0 0 0 0 0 0 0 0 0 0 0 0 0 0 0 0 0 0
0 0 0 0 0 0 0 0 0 0 0 0 0 0 0 0 0 0 0 0 0 0 0 0 0 0 0 0 0 0 0 0 0 0 0
0 0 0 0 0 0 0 0 0 0 0 0 0 0 0 0 0 0 0 0 0 0 0 0 0 0 0 0 0 0 0 0 0 0 0
0 0 0 0 0 0 0 0 0 0 0 0 0 0 0 0 0 0 0 0 0 0 0 0 0 0 0 0 0 0 0 0 0 0 0
0 0 0 0 0 0 0 0 0 0 0 0 0 0 0 0 0 0 0 0 0 0 0
0 0 0 0 0 0 0 0 0 0 0 0 0 0 0 0 0 0 0 0 0 0 0 0 0 0 0 0 0 0 0 0 0 0 0
0 0 0 0 0 0 0 0 0 0 0 0 0 0 0 0 0 0 0 0 0 0 0 0 0 0 0 0 0 0 0 0 0 0 0
0 0 0 0 0 0 0 0 0 0 0 0 0 0 0 0 0 0 0 0 0 0 0 0 0 0 0 0 0 0 0 0 0 0 0
0 0 0 0 0 0 0 0 0 0 0 0 0 0 0 0 0 0 0 0 0 0 0 0 0 0 0 0 0 0 0 0 0 0 0
0 0 0 0 0 0 0 0 0 0 0 0 0 0 0 0 0 0 0 0 0 0 0 0 0 0 0 0 0 0 0 0 0 0 0
0 0 0 0 0 0 0 0 0 0 0 0 0 0 0 0 0 0 0 0 0 0 0 0 0 0 0 0 0 0 0 0 0 0 0
0 0 0 0 0 0 0 0 0 0 0 0 0 0 0 0 0 0 0 0 0 0 0 0 0 0 0 0 0 0 0 0 0 0 0
0 0 0 0 0 0 0 0 0 0 0 0 0 0 0 0 0 0 0 0 0 0 0 0 0 0 0 0 0 0 0 0 0 0 0
0 0 0 0 0 0 0 0 0 0 0 0 0 0 0 0 0 0 0 0 0 0 0 0 0 0 0 0 0 0 0 0 0 0 0
0 0 0 0 0 0 0 0 0 0 0 0 0 0 0 0 0 0 0 0 0 0 0 0 0 0 0 0 0 0 0 0 0 0 0
0 3 0 1 2 0 0 8 0 3 18 0 7 26 0 11 34 0 15 40 0 18 46 0 20 52 1 23 57
1 25 60 1 26 61 1 27 62 1 27 62 1 27 0 0 0 0 0 0 0 0 0 0 0 0 0 0 0 0 0
0 0 0 0 0 0 0 0 0 0 0 0 0 0 0 0 0 0 0 0 0 0 0 0 0 0 0 0 0 0 0 0 0 0 0
0 0 0 0 0 0 0 0 0 0 0 0 0 0 0 0 0 0 0 0 0 0 0 0 0 0 0 0 0 0 0 0 0 0 0
0 0 0 0 0 0 0 0 0 0 0 0 0 0 0 0 0 0 0 0 0 0 0 0 0 0 0 0 0 0 0 0 0 0 0
0 0 0 0 0 0 0 0 0 0 0 0 0 0 0 0 0 0 0 0 0 0 0 0 0 0 0 0 0 0 0 0 0 0 0
0 0 0 0 0 0 0 0 0 0 0 0 0 0 0 0 0 0 0 0 0 0 0 0 0 0 0 0 0 0 0 0 0 0 0
0 0 0 0 0 0 0 0 0 0 0 0 0 0 0 0 0 0 0 0 0 0 0 0 0 0 0 0 0 0 0 0 0 0 0
0 0 0 0 0 0 0 0 0 0 0 0 0 0 0 0 0 0 0 0 0 0 0 0 0 0 0 0 0 0 0 0 0 0 0
0 0 0 0 0 0 0 0 0 0 0 0 0 0 0 0 0 0 0 0 0 0 0 0 0 0 0 0 0 0 0 0 0 0 0
0 0 0 0 0 0 0 0 0 0 0 0 0 0 0 0 0 0 0 0 0 0 0 0 0 0 0 0 0 0 0 0 0 0 0
0 0 0 0 0 0 0 0 0 0 0 0 0 0 0 0 0 0 0 0 0 0 0 0 0 0 0 0 0 0 0 0 0 0 0
0 0 0 0 0 0 0 0 0 0 0 0 0 0 0 0 0 0 0 0 0 0 0 0 0 0 0 0 0 0 0 0 0 0 0
0 0 0 0 0 0 0 0 0 0 0 0 0 0 0 0 0 0 0 0 0 0 0 0 0 0 0 0 0 0 0 0 0 0 0
0 0 0 0 0 0 0 0 0 0 0 0 0 0 0 0 0 0 0 0 0 0 0 0 0 0 0 0 0 0 0 0 0 0 0
0 0 0 0 0 0 0 0 0 0 0 0 0 0 0 0 0 0 0 0 0 0 0 0 0 0 0 0 0 0 0 0 0 0 0
0 0 0 0 0 0 0 0 0 0 0 0 0 0 0 0 0 0 0 0 0 0 0 0 0 0 0 0 0 0 0 0 0 0 0
0 0 0 0 0 0 0 0 0 0 0 0 0 0 0 0 0 0 0 0 0 0 0 0 0 0 0 0 0 0 0 0 0 0 0
0 0 0 0 0 0 0 0 0 0 0 0 0 0 0 0 0 0 0 0 0 0 0 0 0 0 0 0 0 0 0 0 0 0 0
0 0 0 0 0 0 0 0 0 0 0 0 0 0 0 0 0 0 0 0 0 0 0 0 0 0 0 0 0 0 0 0 0 0 0
0 0 0 0 0 0 0 0 0 0 0 0 0 0 0 0 0 0 0 0 0 0 0 0 0 0 0 0 0 0 0 0 0 0 0
0 0 0 0 0 0 0 0 0 0 0 0 0 0 0 0 0 0 0 0 0 0 0 0 0 0 0 0 0 0 0 0 0 0 0
0 0 0 0 0 0 0 0 0 0 0 0 0 0 0 0 0 0 0 0 0 0 0 0 0 0 0 0 0 0 0 0 0 0 0
0 0 0 0 0 0 0 0 0 0 0 0 0 0 0 0 0 0 0 0 0 0 0 0 0 0 0 0 0 0 0 0 0 0 0
0 0 0 0 0 0 0 0 0 0 0 0 0 0 0 0 0 0 0 0
0 0 0 0 0 0 0 0 0 0 0 0 0 0 0 0 0 0 0 0 0 0 0 0 0 0 0 0 0 0 0 0 0 0 0
0 0 0 0 0 0 0 0 0 0 0 0 0 0 0 0 0 0 0 0 0 0 0 0 0 0 0 0 0 0 0 0 0 0 0
0 0 0 0 0 0 0 0 0 0 0 0 0 0 0 0 0 0 0 0 0 0 0 0 0 0 0 0 0 0 0 0 0 0 0
0 0 0 0 0 0 0 0 0 0 0 0 0 0 0 0 0 0 0 0 0 0 0 0 0 0 0 0 0 0 0 0 0 0 0
0 0 0 0 0 0 0 0 0 0 0 0 0 0 0 0 0 0 0 0 0 0 0 0 0 0 0 0 0 0 0 0 0 0 0
0 0 0 0 0 0 0 0 0 0 0 0 0 0 0 0 0 0 0 0 0 0 0 0 0 0 0 0 0 0 0 0 0 0 0
0 0 0 0 0 0 0 0 0 0 0 0 0 0 0 0 0 0 0 0 0 0 0 0 0 0 0 0 0 0 0 0 0 0 0
0 0 0 0 0 0 0 0 0 0 0 0 0 0 0 0 0 0 0 0 0 0 0 0 0 0 0 0 0 0 0 0 0 0 0
0 0 0 0 0 0 0 0 0 0 0 0 0 0 0 0 0 0 0 0 0 0 0 0 0 0 0 0 0 0 0 0 0 0 0
0 0 0 0 0 0 0 0 0 0 0 0 0 0 0 0 0 0 0 0 0 0 0 0 0 0 0 0 0 0 0 0 0 0 0
0 0 0 0 0 0 0 2 0 0 7 0 3 17 0 7 25 0 11 32 0 14 38 0 17 43 0 19 47 0
21 54 1 22 54 1 23 50 0 21 0 0 0 0 0 0 0 0 0 0 0 0 0 0 0 0 0 0 0 0 0 0
0 0 0 0 0 0 0 0 0 0 0 0 0 0 0 0 0 0 0 0 0 0 0 0 0 0 0 0 0 0 0 0 0 0 0
0 0 0 0 0 0 0 0 0 0 0 0 0 0 0 0 0 0 0 0 0 0 0 0 0 0 0 0 0 0 0 0 0 0 0
0 0 0 0 0 0 0 0 0 0 0 0 0 0 0 0 0 0 0 0 0 0 0 0 0 0 0 0 0 0 0 0 0 0 0
0 0 0 0 0 0 0 0 0 0 0 0 0 0 0 0 0 0 0 0 0 0 0 0 0 0 0 0 0 0 0 0 0 0 0
0 0 0 0 0 0 0 0 0 0 0 0 0 0 0 0 0 0 0 0 0 0 0 0 0 0 0 0 0 0 0 0 0 0 0
0 0 0 0 0 0 0 0 0 0 0 0 0 0 0 0 0 0 0 0 0 0 0 0 0 0 0 0 0 0 0 0 0 0 0
0 0 0 0 0 0 0 0 0 0 0 0 0 0 0 0 0 0 0 0 0 0 0 0 0 0 0 0 0 0 0 0 0 0 0
0 0 0 0 0 0 0 0 0 0 0 0 0 0 0 0 0 0 0 0 0 0 0 0 0 0 0 0 0 0 0 0 0 0 0
0 0 0 0 0 0 0 0 0 0 0 0 0 0 0 0 0 0 0 0 0 0 0 0 0 0 0 0 0 0 0 0 0 0 0
0 0 0 0 0 0 0 0 0 0 0 0 0 0 0 0 0 0 0 0 0 0 0 0 0 0 0 0 0 0 0 0 0 0 0
0 0 0 0 0 0 0 0 0 0 0 0 0 0 0 0 0 0 0 0 0 0 0 0 0 0 0 0 0 0 0 0 0 0 0
0 0 0 0 0 0 0 0 0 0 0 0 0 0 0 0 0 0 0 0 0 0 0 0 0 0 0 0 0 0 0 0 0 0 0
0 0 0 0 0 0 0 0 0 0 0 0 0 0 0 0 0 0 0 0 0 0 0 0 0 0 0 0 0 0 0 0 0 0 0
0 0 0 0 0 0 0 0 0 0 0 0 0 0 0 0 0 0 0 0 0 0 0 0 0 0 0 0 0 0 0 0 0 0 0
0 0 0 0 0 0 0 0 0 0 0 0 0 0 0 0 0 0 0 0 0 0 0 0 0 0 0 0 0 0 0 0 0 0 0
0 0 0 0 0 0 0 0 0 0 0 0 0 0 0 0 0 0 0 0 0 0 0 0 0 0 0 0 0 0 0 0 0 0 0
0 0 0 0 0 0 0 0 0 0 0 0 0 0 0 0 0 0 0 0 0 0 0 0 0 0 0 0 0 0 0 0 0 0 0
0 0 0 0 0 0 0 0 0 0 0 0 0 0 0 0 0 0 0 0 0 0 0 0 0 0 0 0 0 0 0 0 0 0 0
0 0 0 0 0 0 0 0 0 0 0 0 0 0 0 0 0 0 0 0 0 0 0 0 0 0 0 0 0 0 0 0 0 0 0
0 0 0 0 0 0 0 0 0 0 0 0 0 0 0 0 0 0 0 0 0 0 0 0 0 0 0 0 0 0 0 0 0 0 0
0 0 0 0 0 0 0 0 0 0 0 0 0 0 0 0 0 0 0 0 0 0 0 0 0 0 0 0 0 0 0 0 0 0 0
0 0 0 0 0 0 0 0 0 0 0 0 0 0 0 0 0 0 0 0 0 0 0 0 0 0 0 0 0 0 0 0 0 0 0
0 0 0 0 0 0 0 0 0 0 0 0 0 0 0 0 0 0
0 0 0 0 0 0 0 0 0 0 0 0 0 0 0 0 0 0 0 0 0 0 0 0 0 0 0 0 0 0 0 0 0 0 0
0 0 0 0 0 0 0 0 0 0 0 0 0 0 0 0 0 0 0 0 0 0 0 0 0 0 0 0 0 0 0 0 0 0 0
0 0 0 0 0 0 0 0 0 0 0 0 0 0 0 0 0 0 0 0 0 0 0 0 0 0 0 0 0 0 0 0 0 0 0
0 0 0 0 0 0 0 0 0 0 0 0 0 0 0 0 0 0 0 0 0 0 0 0 0 0 0 0 0 0 0 0 0 0 0
0 0 0 0 0 0 0 0 0 0 0 0 0 0 0 0 0 0 0 0 0 0 0 0 0 0 0 0 0 0 0 0 0 0 0
0 0 0 0 0 0 0 0 0 0 0 0 0 0 0 0 0 0 0 0 0 0 0 0 0 0 0 0 0 0 0 0 0 0 0
0 0 0 0 0 0 0 0 0 0 0 0 0 0 0 0 0 0 0 0 0 0 0 0 0 0 0 0 0 0 0 0 0 0 0
0 0 0 0 0 0 0 0 0 0 0 0 0 0 0 0 0 0 0 0 0 0 0 0 0 0 0 0 0 0 0 0 0 0 0
0 0 0 0 0 0 0 0 0 0 0 0 0 0 0 0 0 0 0 0 0 0 0 0 0 0 0 0 0 0 0 0 0 0 0
0 0 0 0 0 0 0 0 0 0 0 0 0 0 0 0 0 0 0 0 0 0 0 0 0 0 0 0 0 0 0 0 0 0 0
0 0 0 0 0 0 0 0 0 0 0 0 0 3 0 1 13 0 5 22 0 9 28 0 11 33 0 14 35 0 15
33 0 14 0 0 0 0 0 0 0 0 0 0 0 0 0 0 0 0 0 0 0 0 0 0 0 0 0 0 0 0 0 0 0
0 0 0 0 0 0 0 0 0 0 0 0 0 0 0 0 0 0 0 0 0 0 0 0 0 0 0 0 0 0 0 0 0 0 0
0 0 0 0 0 0 0 0 0 0 0 0 0 0 0 0 0 0 0 0 0 0 0 0 0 0 0 0 0 0 0 0 0 0 0
0 0 0 0 0 0 0 0 0 0 0 0 0 0 0 0 0 0 0 0 0 0 0 0 0 0 0 0 0 0 0 0 0 0 0
0 0 0 0 0 0 0 0 0 0 0 0 0 0 0 0 0 0 0 0 0 0 0 0 0 0 0 0 0 0 0 0 0 0 0
0 0 0 0 0 0 0 0 0 0 0 0 0 0 0 0 0 0 0 0 0 0 0 0 0 0 0 0 0 0 0 0 0 0 0
0 0 0 0 0 0 0 0 0 0 0 0 0 0 0 0 0 0 0 0 0 0 0 0 0 0 0 0 0 0 0 0 0 0 0
0 0 0 0 0 0 0 0 0 0 0 0 0 0 0 0 0 0 0 0 0 0 0 0 0 0 0 0 0 0 0 0 0 0 0
0 0 0 0 0 0 0 0 0 0 0 0 0 0 0 0 0 0 0 0 0 0 0 0 0 0 0 0 0 0 0 0 0 0 0
0 0 0 0 0 0 0 0 0 0 0 0 0 0 0 0 0 0 0 0 0 0 0 0 0 0 0 0 0 0 0 0 0 0 0
0 0 0 0 0 0 0 0 0 0 0 0 0 0 0 0 0 0 0 0 0 0 0 0 0 0 0 0 0 0 0 0 0 0 0
0 0 0 0 0 0 0 0 0 0 0 0 0 0 0 0 0 0 0 0 0 0 0 0 0 0 0 0 0 0 0 0 0 0 0
0 0 0 0 0 0 0 0 0 0 0 0 0 0 0 0 0 0 0 0 0 0 0 0 0 0 0 0 0 0 0 0 0 0 0
0 0 0 0 0 0 0 0 0 0 0 0 0 0 0 0 0 0 0 0 0 0 0 0 0 0 0 0 0 0 0 0 0 0 0
0 0 0 0 0 0 0 0 0 0 0 0 0 0 0 0 0 0 0 0 0 0 0 0 0 0 0 0 0 0 0 0 0 0 0
0 0 0 0 0 0 0 0 0 0 0 0 0 0 0 0 0 0 0 0 0 0 0 0 0 0 0 0 0 0 0 0 0 0 0
0 0 0 0 0 0 0 0 0 0 0 0 0 0 0 0 0 0 0 0 0 0 0 0 0 0 0 0 0 0 0 0 0 0 0
0 0 0 0 0 0 0 0 0 0 0 0 0 0 0 0 0 0 0 0 0 0 0 0 0 0 0 0 0 0 0 0 0 0 0
0 0 0 0 0 0 0 0 0 0 0 0 0 0 0 0 0 0 0 0 0 0 0 0 0 0 0 0 0 0 0 0 0 0 0
0 0 0 0 0 0 0 0 0 0 0 0 0 0 0 0 0 0 0 0 0 0 0 0 0 0 0 0 0 0 0 0 0 0 0
0 0 0 0 0 0 0 0 0 0 0 0 0 0 0 0 0 0 0 0 0 0 0 0 0 0 0 0 0 0 0 0 0 0 0
0 0 0 0 0 0 0 0 0 0 0 0 0 0 0 0 0 0 0 0 0 0 0 0 0 0 0 0 0 0 0 0 0 0 0
0 0 0 0 0 0 0 0 0 0 0 0 0 0 0 0 0 0 0 0 0 0 0 0 0 0 0 0 0 0 0 0 0 0 0
0 0 0 0 0 0 0 0 0 0 0 0 0 0 0
0 0 0 0 0 0 0 0 0 0 0 0 0 0 0 0 0 0 0 0 0 0 0 0 0 0 0 0 0 0 0 0 0 0 0
0 0 0 0 0 0 0 0 0 0 0 0 0 0 0 0 0 0 0 0 0 0 0 0 0 0 0 0 0 0 0 0 0 0 0
0 0 0 0 0 0 0 0 0 0 0 0 0 0 0 0 0 0 0 0 0 0 0 0 0 0 0 0 0 0 0 0 0 0 0
0 0 0 0 0 0 0 0 0 0 0 0 0 0 0 0 0 0 0 0 0 0 0 0 0 0 0 0 0 0 0 0 0 0 0
0 0 0 0 0 0 0 0 0 0 0 0 0 0 0 0 0 0 0 0 0 0 0 0 0 0 0 0 0 0 0 0 0 0 0
0 0 0 0 0 0 0 0 0 0 0 0 0 0 0 0 0 0 0 0 0 0 0 0 0 0 0 0 0 0 0 0 0 0 0
0 0 0 0 0 0 0 0 0 0 0 0 0 0 0 0 0 0 0 0 0 0 0 0 0 0 0 0 0 0 0 0 0 0 0
0 0 0 0 0 0 0 0 0 0 0 0 0 0 0 0 0 0 0 0 0 0 0 0 0 0 0 0 0 0 0 0 0 0 0
0 0 0 0 0 0 0 0 0 0 0 0 0 0 0 0 0 0 0 0 0 0 0 0 0 0 0 0 0 0 0 0 0 0 0
0 0 0 0 0 0 0 0 0 0 0 0 0 0 0 0 0 0 0 0 0 0 0 0 0 0 0 0 0 0 0 0 0 0 0
0 0 0 0 0 0 0 0 0 0 0 0 0 0 0 0 0 0 0 0 0 0 0 0 0 0 0 0 0 0 0 0 0 0 0
0 0 0 0 0 0 0 0 0 0 0 0 0 0 0 0 0 0 0 0 0 0 0 0 0 0 0 0 0 0 0 0 0 0 0
0 0 0 0 0 0 0 0 0 0 0 0 0 0 0 0 0 0 0 0 0 0 0 0 0 0 0 0 0 0 0 0 0 0 0
0 0 0 0 0 0 0 0 0 0 0 0 0 0 0 0 0 0 0 0 0 0 0 0 0 0 0 0 0 0 0 0 0 0 0
0 0 0 0 0 0 0 0 0 0 0 0 0 0 0 0 0 0 0 0 0 0 0 0 0 0 0 0 0 0 0 0 0 0 0
0 0 0 0 0 0 0 0 0 0 0 0 0 0 0 0 0 0 0 0 0 0 0 0 0 0 0 0 0 0 0 0 0 0 0
0 0 0 0 0 0 0 0 0 0 0 0 0 0 0 0 0 0 0 0 0 0 0 0 0 0 0 0 0 0 0 0 0 0 0
0 0 0 0 0 0 0 0 0 0 0 0 0 0 0 0 0 0 0 0 0 0 0 0 0 0 0 0 0 0 0 0 0 0 0
0 0 0 0 0 0 0 0 0 0 0 0 0 0 0 0 0 0 0 0 0 0 0 0 0 0 0 0 0 0 0 0 0 0 0
0 0 0 0 0 0 0 0 0 0 0 0 0 0 0 0 0 0 0 0 0 0 0 0 0 0 0 0 0 0 0 0 0 0 0
0 0 0 0 0 0 0 0 0 0 0 0 0 0 0 0 0 0 0 0 0 0 0 0 0 0 0 0 0 0 0 0 0 0 0
0 0 0 0 0 0 0 0 0 0 0 0 0 0 0 0 0 0 0 0 0 0 0 0 0 0 0 0 0 0 0 0 0 0 0
0 0 0 0 0 0 0 0 0 0 0 0 0 0 0 0 0 0 0 0 0 0 0 0 0 0 0 0 0 0 0 0 0 0 0
0 0 0 0 0 0 0 0 0 0 0 0 0 0 0 0 0 0 0 0 0 0 0 0 0 0 0 0 0 0 0 0 0 0 0
0 0 0 0 0 0 0 0 0 0 0 0 0 0 0 0 0 0 0 0 0 0 0 0 0 0 0 0 0 0 0 0 0 0 0
0 0 0 0 0 0 0 0 0 0 0 0 0 0 0 0 0 0 0 0 0 0 0 0 0 0 0 0 0 0 0 0 0 0 0
0 0 0 0 0 0 0 0 0 0 0 0 0 0 0 0 0 0 0 0 0 0 0 0 0 0 0 0 0 0 0 0 0 0 0
0 0 0 0 0 0 0 0 0 0 0 0 0 0 0 0 0 0 0 0 0 0 0 0 0 0 0 0 0 0 0 0 0 0 0
0 0 0 0 0 0 0 0 0 0 0 0 0 0 0 0 0 0 0 0 0 0 0 0 0 0 0 0 0 0 0 0 0 0 0
0 0 0 0 0 0 0 0 0 0 0 0 0 0 0 0 0 0 0 0 0 0 0 0 0 0 0 0 0 0 0 0 0 0 0
0 0 0 0 0 0 0 0 0 0 0 0 0 0 0 0 0 0 0 0 0 0 0 0 0 0 0 0 0 0 0 0 0 0 0
0 0 0 0 0 0 0 0 0 0 0 0 0 0 0 0 0 0 0 0 0 0 0 0 0 0 0 0 0 0 0 0 0 0 0
0 0 0 0 0 0 0 0 0 0 0 0 0 0 0 0 0 0 0 0 0 0 0 0 0 0 0 0 0 0 0 0 0 0 0
0 0 0 0 0 0 0 0 0 0 0 0 0 0 0 0 0 0 0 0 0 0 0 0 0 0 0 0 0 0 0 0 0 0 0
0 0 0 0 0 0 0 0 0 0
0 0 0 0 0 0 0 0 0 0 0 0 0 0 0 0 0 0 0 0 0 0 0 0 0 0 0 0 0 0 0 0 0 0 0
0 0 0 0 0 0 0 0 0 0 0 0 0 0 0 0 0 0 0 0 0 0 0 0 0 0 0 0 0 0 0 0 0 0 0
0 0 0 0 0 0 0 0 0 0 0 0 0 0 0 0 0 0 0 0 0 0 0 0 0 0 0 0 0 0 0 0 0 0 0
0 0 0 0 0 0 0 0 0 0 0 0 0 0 0 0 0 0 0 0 0 0 0 0 0 0 0 0 0 0 0 0 0 0 0
0 0 0 0 0 0 0 0 0 0 0 0 0 0 0 0 0 0 0 0 0 0 0 0 0 0 0 0 0 0 0 0 0 0 0
0 0 0 0 0 0 0 0 0 0 0 0 0 0 0 0 0 0 0 0 0 0 0 0 0 0 0 0 0 0 0 0 0 0 0
0 0 0 0 0 0 0 0 0 0 0 0 0 0 0 0 0 0 0 0 0 0 0 0 0 0 0 0 0 0 0 0 0 0 0
0 0 0 0 0 0 0 0 0 0 0 0 0 0 0 0 0 0 0 0 0 0 0 0 0 0 0 0 0 0 0 0 0 0 0
0 0 0 0 0 0 0 0 0 0 0 0 0 0 0 0 0 0 0 0 0 0 0 0 0 0 0 0 0 0 0 0 0 0 0
0 0 0 0 0 0 0 0 0 0 0 0 0 0 0 0 0 0 0 0 0 0 0 0 0 0 0 0 0 0 0 0 0 0 0
0 0 0 0 0 0 0 0 0 0 0 0 0 0 0 0 0 0 0 0 0 0 0 0 0 0 0 0 0 0 0 0 0 0 0
0 0 0 0 0 0 0 0 0 0 0 0 0 0 0 0 0 0 0 0 0 0 0 0 0 0 0 0 0 0 0 0 0 0 0
0 0 0 0 0 0 0 0 0 0 0 0 0 0 0 0 0 0 0 0 0 0 0 0 0 0 0 0 0 0 0 0 0 0 0
0 0 0 0 0 0 0 0 0 0 0 0 0 0 0 0 0 0 0 0 0 0 0 0 0 0 0 0 0 0 0 0 0 0 0
0 0 0 0 0 0 0 0 0 0 0 0 0 0 0 0 0 0 0 0 0 0 0 0 0 0 0 0 0 0 0 0 0 0 0
0 0 0 0 0 0 0 0 0 0 0 0 0 0 0 0 0 0 0 0 0 0 0 0 0 0 0 0 0 0 0 0 0 0 0
0 0 0 0 0 0 0 0 0 0 0 0 0 0 0 0 0 0 0 0 0 0 0 0 0 0 0 0 0 0 0 0 0 0 0
0 0 0 0 0 0 0 0 0 0 0 0 0 0 0 0 0 0 0 0 0 0 0 0 0 0 0 0 0 0 0 0 0 0 0
0 0 0 0 0 0 0 0 0 0 0 0 0 0 0 0 0 0 0 0 0 0 0 0 0 0 0 0 0 0 0 0 0 0 0
0 0 0 0 0 0 0 0 0 0 0 0 0 0 0 0 0 0 0 0 0 0 0 0 0 0 0 0 7 0 7 10 0 13
12 0 15 12 0 16 12 0 16 11 0 14 0 0 0 0 0 0 0 0 0 0 0 0 0 0 0 0 0 0 0
0 0 0 0 0 0 0 0 0 0 0 0 0 0 0 0 0 0 0 0 0 0 0 0 0 0 0 0 0 0 0 0 0 0 0
0 0 0 0 0 0 0 0 0 0 0 0 0 0 0 0 0 0 0 0 0 0 0 0 0 0 0 0 0 0 0 0 0 0 0
0 0 0 0 0 0 0 0 0 0 0 0 0 0 0 0 0 0 0 0 0 0 0 0 0 0 0 0 0 0 0 0 0 0 0
0 0 0 0 0 0 0 0 0 0 0 0 0 0 0 0 0 0 0 0 0 0 0 0 0 0 0 0 0 0 0 0 0 0 0
0 0 0 0 0 0 0 0 0 0 0 0 0 0 0 0 0 0 0 0 0 0 0 0 0 0 0 0 0 0 0 0 0 0 0
0 0 0 0 0 0 0 0 0 0 0 0 0 0 0 0 0 0 0 0 0 0 0 0 0 0 0 0 0 0 0 0 0 0 0
0 0 0 0 0 0 0 0 0 0 0 0 0 0 0 0 0 0 0 0 0 0 0 0 0 0 0 0 0 0 0 0 0 0 0
0 0 0 0 0 0 0 0 0 0 0 0 0 0 0 0 0 0 0 0 0 0 0 0 0 0 0 0 0 0 0 0 0 0 0
0 0 0 0 0 0 0 0 0 0 0 0 0 0 0 0 0 0 0 0 0 0 0 0 0 0 0 0 0 0 0 0 0 0 0
0 0 0 0 0 0 0 0 0 0 0 0 0 0 0 0 0 0 0 0 0 0 0 0 0 0 0 0 0 0 0 0 0 0 0
0 0 0 0 0 0 0 0 0 0 0 0 0 0 0 0 0 0 0 0 0 0 0 0 0 0 0 0 0 0 0 0 0 0 0
0 0 0 0 0 0 0 0 0 0 0 0 0 0 0 0 0 0 0 0 0 0 0 0 0 0 0 0 0 0 0 0 0 0 0
0 0 0 0 0 0 0 0 0 0 0 0 0 0 0 0 0 0 0 0 0 0 0 0 0 0 0 0 0 0 0 0 0 0 0
0 0 0 0 0 0 0 0 0 0 0 0 0 0 0
0 0 0 0 0 0 0 0 0 0 0 0 0 0 0 0 0 0 0 0 0 0 0 0 0 0 0 0 0 0 0 0 0 0 0
0 0 0 0 0 0 0 0 0 0 0 0 0 0 0 0 0 0 0 0 0 0 0 0 0 0 0 0 0 0 0 0 0 0 0
0 0 0 0 0 0 0 0 0 0 0 0 0 0 0 0 0 0 0 0 0 0 0 0 0 0 0 0 0 0 0 0 0 0 0
0 0 0 0 0 0 0 0 0 0 0 0 0 0 0 0 0 0 0 0 0 0 0 0 0 0 0 0 0 0 0 0 0 0 0
0 0 0 0 0 0 0 0 0 0 0 0 0 0 0 0 0 0 0 0 0 0 0 0 0 0 0 0 0 0 0 0 0 0 0
0 0 0 0 0 0 0 0 0 0 0 0 0 0 0 0 0 0 0 0 0 0 0 0 0 0 0 0 0 0 0 0 0 0 0
0 0 0 0 0 0 0 0 0 0 0 0 0 0 0 0 0 0 0 0 0 0 0 0 0 0 0 0 0 0 0 0 0 0 0
0 0 0 0 0 0 0 0 0 0 0 0 0 0 0 0 0 0 0 0 0 0 0 0 0 0 0 0 0 0 0 0 0 0 0
0 0 0 0 0 0 0 0 0 0 0 0 0 0 0 0 0 0 0 0 0 0 0 0 0 0 0 0 0 0 0 0 0 0 0
0 0 0 0 0 0 0 0 0 0 0 0 0 0 0 0 0 0 0 0 0 0 0 0 0 0 0 0 0 0 0 0 0 0 0
0 0 0 0 0 0 0 0 0 0 0 0 0 0 0 0 0 0 0 0 0 0 0 0 0 0 0 0 0 0 0 0 0 0 0
0 0 0 0 0 0 0 0 0 0 0 0 0 0 0 0 0 0 0 0 0 0 0 0 0 0 0 0 0 0 0 0 0 0 0
0 0 0 0 0 0 0 0 0 0 0 0 0 0 0 0 0 0 0 0 0 0 0 0 0 0 0 0 0 0 0 0 0 0 0
0 0 0 0 0 0 0 0 0 0 0 0 0 0 0 0 0 0 0 0 0 0 0 0 0 0 0 0 0 0 0 0 0 0 0
0 0 0 0 0 0 0 0 0 0 0 0 0 0 0 0 0 0 0 0 0 0 0 0 0 0 0 0 0 0 0 0 0 0 0
0 0 0 0 0 0 0 0 0 0 0 0 0 0 0 0 0 0 0 0 0 0 0 0 0 0 0 0 0 0 0 0 0 0 0
0 0 0 0 0 0 0 0 0 0 0 0 0 0 0 0 0 0 0 0 0 0 0 0 0 0 0 0 0 0 0 0 0 0 0
0 0 0 0 0 0 0 0 0 0 0 0 0 0 0 0 0 0 0 0 0 0 0 0 0 0 0 0 0 0 0 0 0 0 0
0 0 0 0 0 0 0 0 0 0 0 0 0 0 0 0 0 0 0 0 0 0 0 0 0 0 0 0 0 0 0 0 0 0 0
0 0 0 0 0 0 0 0 0 0 0 0 0 0 0 0 0 0 0 0 0 0 0 0 0 9 0 12 12 0 17 14 0
19 15 0 21 16 0 22 15 0 21 15 0 20 13 0 18 10 0 12 0 0 0 0 0 0 0 0 0 0
0 0 0 0 0 0 0 0 0 0 0 0 0 0 0 0 0 0 0 0 0 0 0 0 0 0 0 0 0 0 0 0 0 0 0
0 0 0 0 0 0 0 0 0 0 0 0 0 0 0 0 0 0 0 0 0 0 0 0 0 0 0 0 0 0 0 0 0 0 0
0 0 0 0 0 0 0 0 0 0 0 0 0 0 0 0 0 0 0 0 0 0 0 0 0 0 0 0 0 0 0 0 0 0 0
0 0 0 0 0 0 0 0 0 0 0 0 0 0 0 0 0 0 0 0 0 0 0 0 0 0 0 0 0 0 0 0 0 0 0
0 0 0 0 0 0 0 0 0 0 0 0 0 0 0 0 0 0 0 0 0 0 0 0 0 0 0 0 0 0 0 0 0 0 0
0 0 0 0 0 0 0 0 0 0 0 0 0 0 0 0 0 0 0 0 0 0 0 0 0 0 0 0 0 0 0 0 0 0 0
0 0 0 0 0 0 0 0 0 0 0 0 0 0 0 0 0 0 0 0 0 0 0 0 0 0 0 0 0 0 0 0 0 0 0
0 0 0 0 0 0 0 0 0 0 0 0 0 0 0 0 0 0 0 0 0 0 0 0 0 0 0 0 0 0 0 0 0 0 0
0 0 0 0 0 0 0 0 0 0 0 0 0 0 0 0 0 0 0 0 0 0 0 0 0 0 0 0 0 0 0 0 0 0 0
0 0 0 0 0 0 0 0 0 0 0 0 0 0 0 0 0 0 0 0 0 0 0 0 0 0 0 0 0 0 0 0 0 0 0
0 0 0 0 0 0 0 0 0 0 0 0 0 0 0 0 0 0 0 0 0 0 0 0 0 0 0 0 0 0 0 0 0 0 0
0 0 0 0 0 0 0 0 0 0 0 0 0 0 0 0 0 0 0 0 0 0 0 0 0 0 0 0 0 0 0 0 0 0 0
0 0 0 0 0 0 0 0 0 0 0 0 0 0 0 0 0 0 0 0 0 0 0 0 0 0 0 0 0 0 0 0 0 0 0
0 0 0 0 0 0 0 0 0 0 0 0 0 0 0 0 0 0
0 0 0 0 0 0 0 0 0 0 0 0 0 0 0 0 0 0 0 0 0 0 0 0 0 0 0 0 0 0 0 0 0 0 0
0 0 0 0 0 0 0 0 0 0 0 0 0 0 0 0 0 0 0 0 0 0 0 0 0 0 0 0 0 0 0 0 0 0 0
0 0 0 0 0 0 0 0 0 0 0 0 0 0 0 0 0 0 0 0 0 0 0 0 0 0 0 0 0 0 0 0 0 0 0
0 0 0 0 0 0 0 0 0 0 0 0 0 0 0 0 0 0 0 0 0 0 0 0 0 0 0 0 0 0 0 0 0 0 0
0 0 0 0 0 0 0 0 0 0 0 0 0 0 0 0 0 0 0 0 0 0 0 0 0 0 0 0 0 0 0 0 0 0 0
0 0 0 0 0 0 0 0 0 0 0 0 0 0 0 0 0 0 0 0 0 0 0 0 0 0 0 0 0 0 0 0 0 0 0
0 0 0 0 0 0 0 0 0 0 0 0 0 0 0 0 0 0 0 0 0 0 0 0 0 0 0 0 0 0 0 0 0 0 0
0 0 0 0 0 0 0 0 0 0 0 0 0 0 0 0 0 0 0 0 0 0 0 0 0 0 0 0 0 0 0 0 0 0 0
0 0 0 0 0 0 0 0 0 0 0 0 0 0 0 0 0 0 0 0 0 0 0 0 0 0 0 0 0 0 0 0 0 0 0
0 0 0 0 0 0 0 0 0 0 0 0 0 0 0 0 0 0 0 0 0 0 0 0 0 0 0 0 0 0 0 0 0 0 0
0 0 0 0 0 0 0 0 0 0 0 0 0 0 0 0 0 0 0 0 0 0 0 0 0 0 0 0 0 0 0 0 0 0 0
0 0 0 0 0 0 0 0 0 0 0 0 0 0 0 0 0 0 0 0 0 0 0 0 0 0 0 0 0 0 0 0 0 0 0
0 0 0 0 0 0 0 0 0 0 0 0 0 0 0 0 0 0 0 0 0 0 0 0 0 0 0 0 0 0 0 0 0 0 0
0 0 0 0 0 0 0 0 0 0 0 0 0 0 0 0 0 0 0 0 0 0 0 0 0 0 0 0 0 0 0 0 0 0 0
0 0 0 0 0 0 0 0 0 0 0 0 0 0 0 0 0 0 0 0 0 0 0 0 0 0 0 0 0 0 0 0 0 0 0
0 0 0 0 0 0 0 0 0 0 0 0 0 0 0 0 0 0 0 0 0 0 0 0 0 0 0 0 0 0 0 0 0 0 0
0 0 0 0 0 0 0 0 0 0 0 0 0 0 0 0 0 0 0 0 0 0 0 0 0 0 0 0 0 0 0 0 0 0 0
0 0 0 0 0 0 0 0 0 0 0 0 0 0 0 0 0 0 0 0 0 0 0 0 0 0 0 0 0 0 0 0 0 0 0
0 0 0 0 0 0 0 0 0 0 0 0 0 0 0 0 0 0 0 0 0 0 0 0 0 0 0 0 0 0 0 0 0 0 0
0 0 0 0 0 0 0 0 0 0 0 0 0 0 0 0 0 0 0 0 0 0 9 0 12 13 0 17 15 0 21 16
0 23 17 0 24 18 0 25 17 0 25 17 0 24 16 0 22 14 0 19 9 0 11 0 0 0 0 0
0 0 0 0 0 0 0 0 0 0 0 0 0 0 0 0 0 0 0 0 0 0 0 0 0 0 0 0 0 0 0 0 0 0 0
0 0 0 0 0 0 0 0 0 0 0 0 0 0 0 0 0 0 0 0 0 0 0 0 0 0 0 0 0 0 0 0 0 0 0
0 0 0 0 0 0 0 0 0 0 0 0 0 0 0 0 0 0 0 0 0 0 0 0 0 0 0 0 0 0 0 0 0 0 0
0 0 0 0 0 0 0 0 0 0 0 0 0 0 0 0 0 0 0 0 0 0 0 0 0 0 0 0 0 0 0 0 0 0 0
0 0 0 0 0 0 0 0 0 0 0 0 0 0 0 0 0 0 0 0 0 0 0 0 0 0 0 0 0 0 0 0 0 0 0
0 0 0 0 0 0 0 0 0 0 0 0 0 0 0 0 0 0 0 0 0 0 0 0 0 0 0 0 0 0 0 0 0 0 0
0 0 0 0 0 0 0 0 0 0 0 0 0 0 0 0 0 0 0 0 0 0 0 0 0 0 0 0 0 0 0 0 0 0 0
0 0 0 0 0 0 0 0 0 0 0 0 0 0 0 0 0 0 0 0 0 0 0 0 0 0 0 0 0 0 0 0 0 0 0
0 0 0 0 0 0 0 0 0 0 0 0 0 0 0 0 0 0 0 0 0 0 0 0 0 0 0 0 0 0 0 0 0 0 0
0 0 0 0 0 0 0 0 0 0 0 0 0 0 0 0 0 0 0 0 0 0 0 0 0 0 0 0 0 0 0 0 0 0 0
0 0 0 0 0 0 0 0 0 0 0 0 0 0 0 0 0 0 0 0 0 0 0 0 0 0 0 0 0 0 0 0 0 0 0
0 0 0 0 0 0 0 0 0 0 0 0 0 0 0 0 0 0 0 0 0 0 0 0 0 0 0 0 0 0 0 0 0 0 0
0 0 0 0 0 0 0 0 0 0 0 0 0 0 0 0 0 0 0 0 0 0 0 0 0 0 0 0 0 0 0 0 0 0 0
0 0 0 0 0 0 0 0 0 0 0 0 0 0 0 0 0 0 0 0
0 0 0 0 0 0 0 0 0 0 0 0 0 0 0 0 0 0 0 0 0 0 0 0 0 0 0 0 0 0 0 0 0 0 0
0 0 0 0 0 0 0 0 0 0 0 0 0 0 0 0 0 0 0 0 0 0 0 0 0 0 0 0 0 0 0 0 0 0 0
0 0 0 0 0 0 0 0 0 0 0 0 0 0 0 0 0 0 0 0 0 0 0 0 0 0 0 0 0 0 0 0 0 0 0
0 0 0 0 0 0 0 0 0 0 0 0 0 0 0 0 0 0 0 0 0 0 0 0 0 0 0 0 0 0 0 0 0 0 0
0 0 0 0 0 0 0 0 0 0 0 0 0 0 0 0 0 0 0 0 0 0 0 0 0 0 0 0 0 0 0 0 0 0 0
0 0 0 0 0 0 0 0 0 0 0 0 0 0 0 0 0 0 0 0 0 0 0 0 0 0 0 0 0 0 0 0 0 0 0
0 0 0 0 0 0 0 0 0 0 0 0 0 0 0 0 0 0 0 0 0 0 0 0 0 0 0 0 0 0 0 0 0 0 0
0 0 0 0 0 0 0 0 0 0 0 0 0 0 0 0 0 0 0 0 0 0 0 0 0 0 0 0 0 0 0 0 0 0 0
0 0 0 0 0 0 0 0 0 0 0 0 0 0 0 0 0 0 0 0 0 0 0 0 0 0 0 0 0 0 0 0 0 0 0
0 0 0 0 0 0 0 0 0 0 0 0 0 0 0 0 0 0 0 0 0 0 0 0 0 0 0 0 0 0 0 0 0 0 0
0 0 0 0 0 0 0 0 0 0 0 0 0 0 0 0 0 0 0 0 0 0 0 0 0 0 0 0 0 0 0 0 0 0 0
0 0 0 0 0 0 0 0 0 0 0 0 0 0 0 0 0 0 0 0 0 0 0 0 0 0 0 0 0 0 0 0 0 0 0
0 0 0 0 0 0 0 0 0 0 0 0 0 0 0 0 0 0 0 0 0 0 0 0 0 0 0 0 0 0 0 0 0 0 0
0 0 0 0 0 0 0 0 0 0 0 0 0 0 0 0 0 0 0 0 0 0 0 0 0 0 0 0 0 0 0 0 0 0 0
0 0 0 0 0 0 0 0 0 0 0 0 0 0 0 0 0 0 0 0 0 0 0 0 0 0 0 0 0 0 0 0 0 0 0
0 0 0 0 0 0 0 0 0 0 0 0 0 0 0 0 0 0 0 0 0 0 0 0 0 0 0 0 0 0 0 0 0 0 0
0 0 0 0 0 0 0 0 0 0 0 0 0 0 0 0 0 0 0 0 0 0 0 0 0 0 0 0 0 0 0 0 0 0 0
0 0 0 0 0 0 0 0 0 0 0 0 0 0 0 0 0 0 0 0 0 0 0 0 0 0 0 0 0 0 0 0 0 0 0
0 0 0 0 0 0 0 0 0 0 0 0 0 0 0 0 0 0 0 0 0 0 0 0 0 0 0 0 0 0 0 0 0 0 0
0 0 0 0 0 0 0 0 0 0 0 0 0 0 0 0 0 0 0 6 0 7 12 0 16 15 0 21 17 0 23 18
0 25 19 0 27 19 0 27 19 0 27 18 0 26 17 0 25 16 0 22 13 0 17 0 0 0 0 0
0 0 0 0 0 0 0 0 0 0 0 0 0 0 0 0 0 0 0 0 0 0 0 0 0 0 0 0 0 0 0 0 0 0 0
0 0 0 0 0 0 0 0 0 0 0 0 0 0 0 0 0 0 0 0 0 0 0 0 0 0 0 0 0 0 0 0 0 0 0
0 0 0 0 0 0 0 0 0 0 0 0 0 0 0 0 0 0 0 0 0 0 0 0 0 0 0 0 0 0 0 0 0 0 0
0 0 0 0 0 0 0 0 0 0 0 0 0 0 0 0 0 0 0 0 0 0 0 0 0 0 0 0 0 0 0 0 0 0 0
0 0 0 0 0 0 0 0 0 0 0 0 0 0 0 0 0 0 0 0 0 0 0 0 0 0 0 0 0 0 0 0 0 0 0
0 0 0 0 0 0 0 0 0 0 0 0 0 0 0 0 0 0 0 0 0 0 0 0 0 0 0 0 0 0 0 0 0 0 0
0 0 0 0 0 0 0 0 0 0 0 0 0 0 0 0 0 0 0 0 0 0 0 0 0 0 0 0 0 0 0 0 0 0 0
0 0 0 0 0 0 0 0 0 0 0 0 0 0 0 0 0 0 0 0 0 0 0 0 0 0 0 0 0 0 0 0 0 0 0
0 0 0 0 0 0 0 0 0 0 0 0 0 0 0 0 0 0 0 0 0 0 0 0 0 0 0 0 0 0 0 0 0 0 0
0 0 0 0 0 0 0 0 0 0 0 0 0 0 0 0 0 0 0 0 0 0 0 0 0 0 0 0 0 0 0 0 0 0 0
0 0 0 0 0 0 0 0 0 0 0 0 0 0 0 0 0 0 0 0 0 0 0 0 0 0 0 0 0 0 0 0 0 0 0
0 0 0 0 0 0 0 0 0 0 0 0 0 0 0 0 0 0 0 0 0 0 0 0 0 0 0 0 0 0 0 0 0 0 0
0 0 0 0 0 0 0 0 0 0 0 0 0 0 0 0 0 0 0 0 0 0 0 0 0 0 0 0 0 0 0 0 0 0 0
0 0 0 0 0 0 0 0 0 0 0 0 0 0 0 0 0 0 0 0
0 0 0 0 0 0 0 0 0 0 0 0 0 0 0 0 0 0 0 0 0 0 0 0 0 0 0 0 0 0 0 0 0 0 0
0 0 0 0 0 0 0 0 0 0 0 0 0 0 0 0 0 0 0 0 0 0 0 0 0 0 0 0 0 0 0 0 0 0 0
0 0 0 0 0 0 0 0 0 0 0 0 0 0 0 0 0 0 0 0 0 0 0 0 0 0 0 0 0 0 0 0 0 0 0
0 0 0 0 0 0 0 0 0 0 0 0 0 0 0 0 0 0 0 0 0 0 0 0 0 0 0 0 0 0 0 0 0 0 0
0 0 0 0 0 0 0 0 0 0 0 0 0 0 0 0 0 0 0 0 0 0 0 0 0 0 0 0 0 0 0 0 0 0 0
0 0 0 0 0 0 0 0 0 0 0 0 0 0 0 0 0 0 0 0 0 0 0 0 0 0 0 0 0 0 0 0 0 0 0
0 0 0 0 0 0 0 0 0 0 0 0 0 0 0 0 0 0 0 0 0 0 0 0 0 0 0 0 0 0 0 0 0 0 0
0 0 0 0 0 0 0 0 0 0 0 0 0 0 0 0 0 0 0 0 0 0 0 0 0 0 0 0 0 0 0 0 0 0 0
0 0 0 0 0 0 0 0 0 0 0 0 0 0 0 0 0 0 0 0 0 0 0 0 0 0 0 0 0 0 0 0 0 0 0
0 0 0 0 0 0 0 0 0 0 0 0 0 0 0 0 0 0 0 0 0 0 0 0 0 0 0 0 0 0 0 0 0 0 0
0 0 0 0 0 0 0 0 0 0 0 0 0 0 0 0 0 0 0 0 0 0 0 0 0 0 0 0 0 0 0 0 0 0 0
0 0 0 0 0 0 0 0 0 0 0 0 0 0 0 0 0 0 0 0 0 0 0 0 0 0 0 0 0 0 0 0 0 0 0
0 0 0 0 0 0 0 0 0 0 0 0 0 0 0 0 0 0 0 0 0 0 0 0 0 0 0 0 0 0 0 0 0 0 0
0 0 0 0 0 0 0 0 0 0 0 0 0 0 0 0 0 0 0 0 0 0 0 0 0 0 0 0 0 0 0 0 0 0 0
0 0 0 0 0 0 0 0 0 0 0 0 0 0 0 0 0 0 0 0 0 0 0 0 0 0 0 0 0 0 0 0 0 0 0
0 0 0 0 0 0 0 0 0 0 0 0 0 0 0 0 0 0 0 0 0 0 0 0 0 0 0 0 0 0 0 0 0 0 0
0 0 0 0 0 0 0 0 0 0 0 0 0 0 0 0 0 0 0 0 0 0 0 0 0 0 0 0 0 0 0 0 0 0 0
0 0 0 0 0 0 0 0 0 0 0 0 0 0 0 0 0 0 0 0 0 0 0 0 0 0 0 0 0 0 0 0 0 0 0
0 0 0 0 0 0 0 0 0 0 0 0 0 0 0 0 0 0 0 0 0 0 0 0 0 0 0 0 0 0 0 0 0 0 0
0 0 0 0 0 0 0 0 0 0 0 0 0 0 0 0 0 0 0 9 0 13 13 0 19 16 0 23 17 0 25
19 0 27 19 0 28 20 0 29 20 0 29 19 0 28 18 0 26 17 0 24 14 0 20 9 0 11
0 0 0 0 0 0 0 0 0 0 0 0 0 0 0 0 0 0 0 0 0 0 0 0 0 0 0 0 0 0 0 0 0 0 0
0 0 0 0 0 0 0 0 0 0 0 0 0 0 0 0 0 0 0 0 0 0 0 0 0 0 0 0 0 0 0 0 0 0 0
0 0 0 0 0 0 0 0 0 0 0 0 0 0 0 0 0 0 0 0 0 0 0 0 0 0 0 0 0 0 0 0 0 0 0
0 0 0 0 0 0 0 0 0 0 0 0 0 0 0 0 0 0 0 0 0 0 0 0 0 0 0 0 0 0 0 0 0 0 0
0 0 0 0 0 0 0 0 0 0 0 0 0 0 0 0 0 0 0 0 0 0 0 0 0 0 0 0 0 0 0 0 0 0 0
0 0 0 0 0 0 0 0 0 0 0 0 0 0 0 0 0 0 0 0 0 0 0 0 0 0 0 0 0 0 0 0 0 0 0
0 0 0 0 0 0 0 0 0 0 0 0 0 0 0 0 0 0 0 0 0 0 0 0 0 0 0 0 0 0 0 0 0 0 0
0 0 0 0 0 0 0 0 0 0 0 0 0 0 0 0 0 0 0 0 0 0 0 0 0 0 0 0 0 0 0 0 0 0 0
0 0 0 0 0 0 0 0 0 0 0 0 0 0 0 0 0 0 0 0 0 0 0 0 0 0 0 0 0 0 0 0 0 0 0
0 0 0 0 0 0 0 0 0 0 0 0 0 0 0 0 0 0 0 0 0 0 0 0 0 0 0 0 0 0 0 0 0 0 0
0 0 0 0 0 0 0 0 0 0 0 0 0 0 0 0 0 0 0 0 0 0 0 0 0 0 0 0 0 0 0 0 0 0 0
0 0 0 0 0 0 0 0 0 0 0 0 0 0 0 0 0 0 0 0 0 0 0 0 0 0 0 0 0 0 0 0 0 0 0
0 0 0 0 0 0 0 0 0 0 0 0 0 0 0 0 0 0 0 0 0 0 0 0 0 0 0 0 0 0 0 0 0 0 0
0 0 0 0 0 0 0 0 0 0 0 0 0 0 0 0 0 0 0 0 0 0
0 0 0 0 0 0 0 0 0 0 0 0 0 0 0 0 0 0 0 0 0 0 0 0 0 0 0 0 0 0 0 0 0 0 0
0 0 0 0 0 0 0 0 0 0 0 0 0 0 0 0 0 0 0 0 0 0 0 0 0 0 0 0 0 0 0 0 0 0 0
0 0 0 0 0 0 0 0 0 0 0 0 0 0 0 0 0 0 0 0 0 0 0 0 0 0 0 0 0 0 0 0 0 0 0
0 0 0 0 0 0 0 0 0 0 0 0 0 0 0 0 0 0 0 0 0 0 0 0 0 0 0 0 0 0 0 0 0 0 0
0 0 0 0 0 0 0 0 0 0 0 0 0 0 0 0 0 0 0 0 0 0 0 0 0 0 0 0 0 0 0 0 0 0 0
0 0 0 0 0 0 0 0 0 0 0 0 0 0 0 0 0 0 0 0 0 0 0 0 0 0 0 0 0 0 0 0 0 0 0
0 0 0 0 0 0 0 0 0 0 0 0 0 0 0 0 0 0 0 0 0 0 0 0 0 0 0 0 0 0 0 0 0 0 0
0 0 0 0 0 0 0 0 0 0 0 0 0 0 0 0 0 0 0 0 0 0 0 0 0 0 0 0 0 0 0 0 0 0 0
0 0 0 0 0 0 0 0 0 0 0 0 0 0 0 0 0 0 0 0 0 0 0 0 0 0 0 0 0 0 0 0 0 0 0
0 0 0 0 0 0 0 0 0 0 0 0 0 0 0 0 0 0 0 0 0 0 0 0 0 0 0 0 0 0 0 0 0 0 0
0 0 0 0 0 0 0 0 0 0 0 0 0 0 0 0 0 0 0 0 0 0 0 0 0 0 0 0 0 0 0 0 0 0 0
0 0 0 0 0 0 0 0 0 0 0 0 0 0 0 0 0 0 0 0 0 0 0 0 0 0 0 0 0 0 0 0 0 0 0
0 0 0 0 0 0 0 0 0 0 0 0 0 0 0 0 0 0 0 0 0 0 0 0 0 0 0 0 0 0 0 0 0 0 0
0 0 0 0 0 0 0 0 0 0 0 0 0 0 0 0 0 0 0 0 0 0 0 0 0 0 0 0 0 0 0 0 0 0 0
0 0 0 0 0 0 0 0 0 0 0 0 0 0 0 0 0 0 0 0 0 0 0 0 0 0 0 0 0 0 0 0 0 0 0
0 0 0 0 0 0 0 0 0 0 0 0 0 0 0 0 0 0 0 0 0 0 0 0 0 0 0 0 0 0 0 0 0 0 0
0 0 0 0 0 0 0 0 0 0 0 0 0 0 0 0 0 0 0 0 0 0 0 0 0 0 0 0 0 0 0 0 0 0 0
0 0 0 0 0 0 0 0 0 0 0 0 0 0 0 0 0 0 0 0 0 0 0 0 0 0 0 0 0 0 0 0 0 0 0
0 0 0 0 0 0 0 0 0 0 0 0 0 0 0 0 0 0 0 0 0 0 0 0 0 0 0 0 0 0 0 0 0 0 0
0 0 0 0 0 0 0 0 0 0 0 0 0 0 0 0 0 0 0 11 0 15 14 0 20 16 0 24 18 0 26
19 0 28 20 0 29 20 0 30 20 0 29 19 0 29 18 0 27 17 0 25 15 0 21 10 0
14 0 0 0 0 0 0 0 0 0 0 0 0 0 0 0 0 0 0 0 0 0 0 0 0 0 0 0 0 0 0 0 0 0 0
0 0 0 0 0 0 0 0 0 0 0 0 0 0 0 0 0 0 0 0 0 0 0 0 0 0 0 0 0 0 0 0 0 0 0
0 0 0 0 0 0 0 0 0 0 0 0 0 0 0 0 0 0 0 0 0 0 0 0 0 0 0 0 0 0 0 0 0 0 0
0 0 0 0 0 0 0 0 0 0 0 0 0 0 0 0 0 0 0 0 0 0 0 0 0 0 0 0 0 0 0 0 0 0 0
0 0 0 0 0 0 0 0 0 0 0 0 0 0 0 0 0 0 0 0 0 0 0 0 0 0 0 0 0 0 0 0 0 0 0
0 0 0 0 0 0 0 0 0 0 0 0 0 0 0 0 0 0 0 0 0 0 0 0 0 0 0 0 0 0 0 0 0 0 0
0 0 0 0 0 0 0 0 0 0 0 0 0 0 0 0 0 0 0 0 0 0 0 0 0 0 0 0 0 0 0 0 0 0 0
0 0 0 0 0 0 0 0 0 0 0 0 0 0 0 0 0 0 0 0 0 0 0 0 0 0 0 0 0 0 0 0 0 0 0
0 0 0 0 0 0 0 0 0 0 0 0 0 0 0 0 0 0 0 0 0 0 0 0 0 0 0 0 0 0 0 0 0 0 0
0 0 0 0 0 0 0 0 0 0 0 0 0 0 0 0 0 0 0 0 0 0 0 0 0 0 0 0 0 0 0 0 0 0 0
0 0 0 0 0 0 0 0 0 0 0 0 0 0 0 0 0 0 0 0 0 0 0 0 0 0 0 0 0 0 0 0 0 0 0
0 0 0 0 0 0 0 0 0 0 0 0 0 0 0 0 0 0 0 0 0 0 0 0 0 0 0 0 0 0 0 0 0 0 0
0 0 0 0 0 0 0 0 0 0 0 0 0 0 0 0 0 0 0 0 0 0 0 0 0 0 0 0 0 0 0 0 0 0 0
0 0 0 0 0 0 0 0 0 0 0 0 0 0 0 0 0 0 0 0 0 0 0
0 0 0 0 0 0 0 0 0 0 0 0 0 0 0 0 0 0 0 0 0 0 0 0 0 0 0 0 0 0 0 0 0 0 0
0 0 0 0 0 0 0 0 0 0 0 0 0 0 0 0 0 0 0 0 0 0 0 0 0 0 0 0 0 0 0 0 0 0 0
0 0 0 0 0 0 0 0 0 0 0 0 0 0 0 0 0 0 0 0 0 0 0 0 0 0 0 0 0 0 0 0 0 0 0
0 0 0 0 0 0 0 0 0 0 0 0 0 0 0 0 0 0 0 0 0 0 0 0 0 0 0 0 0 0 0 0 0 0 0
0 0 0 0 0 0 0 0 0 0 0 0 0 0 0 0 0 0 0 0 0 0 0 0 0 0 0 0 0 0 0 0 0 0 0
0 0 0 0 0 0 0 0 0 0 0 0 0 0 0 0 0 0 0 0 0 0 0 0 0 0 0 0 0 0 0 0 0 0 0
0 0 0 0 0 0 0 0 0 0 0 0 0 0 0 0 0 0 0 0 0 0 0 0 0 0 0 0 0 0 0 0 0 0 0
0 0 0 0 0 0 0 0 0 0 0 0 0 0 0 0 0 0 0 0 0 0 0 0 0 0 0 0 0 0 0 0 0 0 0
0 0 0 0 0 0 0 0 0 0 0 0 0 0 0 0 0 0 0 0 0 0 0 0 0 0 0 0 0 0 0 0 0 0 0
0 0 0 0 0 0 0 0 0 0 0 0 0 0 0 0 0 0 0 0 0 0 0 0 0 0 0 0 0 0 0 0 0 0 0
0 0 0 0 0 0 0 0 0 0 0 0 0 0 0 0 0 0 0 0 0 0 0 0 0 0 0 0 0 0 0 0 0 0 0
0 0 0 0 0 0 0 0 0 0 0 0 0 0 0 0 0 0 0 0 0 0 0 0 0 0 0 0 0 0 0 0 0 0 0
0 0 0 0 0 0 0 0 0 0 0 0 0 0 0 0 0 0 0 0 0 0 0 0 0 0 0 0 0 0 0 0 0 0 0
0 0 0 0 0 0 0 0 0 0 0 0 0 0 0 0 0 0 0 0 0 0 0 0 0 0 0 0 0 0 0 0 0 0 0
0 0 0 0 0 0 0 0 0 0 0 0 0 0 0 0 0 0 0 0 0 0 0 0 0 0 0 0 0 0 0 0 0 0 0
0 0 0 0 0 0 0 0 0 0 0 0 0 0 0 0 0 0 0 0 0 0 0 0 0 0 0 0 0 0 0 0 0 0 0
0 0 0 0 0 0 0 0 0 0 0 0 0 0 0 0 0 0 0 0 0 0 0 0 0 0 0 0 0 0 0 0 0 0 0
0 0 0 0 0 0 0 0 0 0 0 0 0 0 0 0 0 0 0 0 0 0 0 0 0 0 0 0 0 0 0 0 0 0 0
0 0 0 0 0 0 0 0 0 0 0 0 0 0 0 0 0 0 0 0 0 0 0 0 0 0 0 0 0 0 0 0 0 0 0
0 0 0 0 0 0 0 0 0 0 0 0 0 0 0 0 0 0 0 10 0 15 13 0 21 16 0 24 17 0 27
18 0 28 19 0 29 59 0 51 19 0 30 19 0 29 18 0 27 16 0 25 14 0 21 9 0 15
0 0 0 0 0 0 0 0 0 0 0 0 0 0 0 0 0 0 0 0 0 0 0 0 0 0 0 0 0 0 0 0 0 0 0
0 0 0 0 0 0 0 0 0 0 0 0 0 0 0 0 0 0 0 0 0 0 0 0 0 0 0 0 0 0 0 0 0 0 0
0 0 0 0 0 0 0 0 0 0 0 0 0 0 0 0 0 0 0 0 0 0 0 0 0 0 0 0 0 0 0 0 0 0 0
0 0 0 0 0 0 0 0 0 0 0 0 0 0 0 0 0 0 0 0 0 0 0 0 0 0 0 0 0 0 0 0 0 0 0
0 0 0 0 0 0 0 0 0 0 0 0 0 0 0 0 0 0 0 0 0 0 0 0 0 0 0 0 0 0 0 0 0 0 0
0 0 0 0 0 0 0 0 0 0 0 0 0 0 0 0 0 0 0 0 0 0 0 0 0 0 0 0 0 0 0 0 0 0 0
0 0 0 0 0 0 0 0 0 0 0 0 0 0 0 0 0 0 0 0 0 0 0 0 0 0 0 0 0 0 0 0 0 0 0
0 0 0 0 0 0 0 0 0 0 0 0 0 0 0 0 0 0 0 0 0 0 0 0 0 0 0 0 0 0 0 0 0 0 0
0 0 0 0 0 0 0 0 0 0 0 0 0 0 0 0 0 0 0 0 0 0 0 0 0 0 0 0 0 0 0 0 0 0 0
0 0 0 0 0 0 0 0 0 0 0 0 0 0 0 0 0 0 0 0 0 0 0 0 0 0 0 0 0 0 0 0 0 0 0
0 0 0 0 0 0 0 0 0 0 0 0 0 0 0 0 0 0 0 0 0 0 0 0 0 0 0 0 0 0 0 0 0 0 0
0 0 0 0 0 0 0 0 0 0 0 0 0 0 0 0 0 0 0 0 0 0 0 0 0 0 0 0 0 0 0 0 0 0 0
0 0 0 0 0 0 0 0 0 0 0 0 0 0 0 0 0 0 0 0 0 0 0 0 0 0 0 0 0 0 0 0 0 0 0
0 0 0 0 0 0 0 0 0 0 0 0 0 0 0 0 0 0 0 0 0 0
0 0 0 0 0 0 0 0 0 0 0 0 0 0 0 0 0 0 0 0 0 0 0 0 0 0 0 0 0 0 0 0 0 0 0
0 0 0 0 0 0 0 0 0 0 0 0 0 0 0 0 0 0 0 0 0 0 0 0 0 0 0 0 0 0 0 0 0 0 0
0 0 0 0 0 0 0 0 0 0 0 0 0 0 0 0 0 0 0 0 0 0 0 0 0 0 0 0 0 0 0 0 0 0 0
0 0 0 0 0 0 0 0 0 0 0 0 0 0 0 0 0 0 0 0 0 0 0 0 0 0 0 0 0 0 0 0 0 0 0
0 0 0 0 0 0 0 0 0 0 0 0 0 0 0 0 0 0 0 0 0 0 0 0 0 0 0 0 0 0 0 0 0 0 0
0 0 0 0 0 0 0 0 0 0 0 0 0 0 0 0 0 0 0 0 0 0 0 0 0 0 0 0 0 0 0 0 0 0 0
0 0 0 0 0 0 0 0 0 0 0 0 0 0 0 0 0 0 0 0 0 0 0 0 0 0 0 0 0 0 0 0 0 0 0
0 0 0 0 0 0 0 0 0 0 0 0 0 0 0 0 0 0 0 0 0 0 0 0 0 0 0 0 0 0 0 0 0 0 0
0 0 0 0 0 0 0 0 0 0 0 0 0 0 0 0 0 0 0 0 0 0 0 0 0 0 0 0 0 0 0 0 0 0 0
0 0 0 0 0 0 0 0 0 0 0 0 0 0 0 0 0 0 0 0 0 0 0 0 0 0 0 0 0 0 0 0 0 0 0
0 0 0 0 0 0 0 0 0 0 0 0 0 0 0 0 0 0 0 0 0 0 0 0 0 0 0 0 0 0 0 0 0 0 0
0 0 0 0 0 0 0 0 0 0 0 0 0 0 0 0 0 0 0 0 0 0 0 0 0 0 0 0 0 0 0 0 0 0 0
0 0 0 0 0 0 0 0 0 0 0 0 0 0 0 0 0 0 0 0 0 0 0 0 0 0 0 0 0 0 0 0 0 0 0
0 0 0 0 0 0 0 0 0 0 0 0 0 0 0 0 0 0 0 0 0 0 0 0 0 0 0 0 0 0 0 0 0 0 0
0 0 0 0 0 0 0 0 0 0 0 0 0 0 0 0 0 0 0 0 0 0 0 0 0 0 0 0 0 0 0 0 0 0 0
0 0 0 0 0 0 0 0 0 0 0 0 0 0 0 0 0 0 0 0 0 0 0 0 0 0 0 0 0 0 0 0 0 0 0
0 0 0 0 0 0 0 0 0 0 0 0 0 0 0 0 0 0 0 0 0 0 0 0 0 0 0 0 0 0 0 0 0 0 0
0 0 0 0 0 0 0 0 0 0 0 0 0 0 0 0 0 0 0 0 0 0 0 0 0 0 0 0 0 0 0 0 0 0 0
0 0 0 0 0 0 0 0 0 0 0 0 0 0 0 0 0 0 0 0 0 0 0 0 0 0 0 0 0 0 0 0 0 0 0
0 0 0 0 0 0 0 0 0 0 0 0 0 0 0 0 0 0 0 10 0 15 13 0 20 16 0 24 17 0 26
18 0 28 19 0 29 19 0 30 19 0 29 19 0 29 18 0 27 16 0 25 14 0 21 9 0 13
0 0 0 0 0 0 0 0 0 0 0 0 0 0 0 0 0 0 0 0 0 0 0 0 0 0 0 0 0 0 0 0 0 0 0
0 0 0 0 0 0 0 0 0 0 0 0 0 0 0 0 0 0 0 0 0 0 0 0 0 0 0 0 0 0 0 0 0 0 0
0 0 0 0 0 0 0 0 0 0 0 0 0 0 0 0 0 0 0 0 0 0 0 0 0 0 0 0 0 0 0 0 0 0 0
0 0 0 0 0 0 0 0 0 0 0 0 0 0 0 0 0 0 0 0 0 0 0 0 0 0 0 0 0 0 0 0 0 0 0
0 0 0 0 0 0 0 0 0 0 0 0 0 0 0 0 0 0 0 0 0 0 0 0 0 0 0 0 0 0 0 0 0 0 0
0 0 0 0 0 0 0 0 0 0 0 0 0 0 0 0 0 0 0 0 0 0 0 0 0 0 0 0 0 0 0 0 0 0 0
0 0 0 0 0 0 0 0 0 0 0 0 0 0 0 0 0 0 0 0 0 0 0 0 0 0 0 0 0 0 0 0 0 0 0
0 0 0 0 0 0 0 0 0 0 0 0 0 0 0 0 0 0 0 0 0 0 0 0 0 0 0 0 0 0 0 0 0 0 0
0 0 0 0 0 0 0 0 0 0 0 0 0 0 0 0 0 0 0 0 0 0 0 0 0 0 0 0 0 0 0 0 0 0 0
0 0 0 0 0 0 0 0 0 0 0 0 0 0 0 0 0 0 0 0 0 0 0 0 0 0 0 0 0 0 0 0 0 0 0
0 0 0 0 0 0 0 0 0 0 0 0 0 0 0 0 0 0 0 0 0 0 0 0 0 0 0 0 0 0 0 0 0 0 0
0 0 0 0 0 0 0 0 0 0 0 0 0 0 0 0 0 0 0 0 0 0 0 0 0 0 0 0 0 0 0 0 0 0 0
0 0 0 0 0 0 0 0 0 0 0 0 0 0 0 0 0 0 0 0 0 0 0 0 0 0 0 0 0 0 0 0 0 0 0
0 0 0 0 0 0 0 0 0 0 0 0 0 0 0 0 0 0 0 0 0 0
0 0 0 0 0 0 0 0 0 0 0 0 0 0 0 0 0 0 0 0 0 0 0 0 0 0 0 0 0 0 0 0 0 0 0
0 0 0 0 0 0 0 0 0 0 0 0 0 0 0 0 0 0 0 0 0 0 0 0 0 0 0 0 0 0 0 0 0 0 0
0 0 0 0 0 0 0 0 0 0 0 0 0 0 0 0 0 0 0 0 0 0 0 0 0 0 0 0 0 0 0 0 0 0 0
0 0 0 0 0 0 0 0 0 0 0 0 0 0 0 0 0 0 0 0 0 0 0 0 0 0 0 0 0 0 0 0 0 0 0
0 0 0 0 0 0 0 0 0 0 0 0 0 0 0 0 0 0 0 0 0 0 0 0 0 0 0 0 0 0 0 0 0 0 0
0 0 0 0 0 0 0 0 0 0 0 0 0 0 0 0 0 0 0 0 0 0 0 0 0 0 0 0 0 0 0 0 0 0 0
0 0 0 0 0 0 0 0 0 0 0 0 0 0 0 0 0 0 0 0 0 0 0 0 0 0 0 0 0 0 0 0 0 0 0
0 0 0 0 0 0 0 0 0 0 0 0 0 0 0 0 0 0 0 0 0 0 0 0 0 0 0 0 0 0 0 0 0 0 0
0 0 0 0 0 0 0 0 0 0 0 0 0 0 0 0 0 0 0 0 0 0 0 0 0 0 0 0 0 0 0 0 0 0 0
0 0 0 0 0 0 0 0 0 0 0 0 0 0 0 0 0 0 0 0 0 0 0 0 0 0 0 0 0 0 0 0 0 0 0
0 0 0 0 0 0 0 0 0 0 0 0 0 0 0 0 0 0 0 0 0 0 0 0 0 0 0 0 0 0 0 0 0 0 0
0 0 0 0 0 0 0 0 0 0 0 0 0 0 0 0 0 0 0 0 0 0 0 0 0 0 0 0 0 0 0 0 0 0 0
0 0 0 0 0 0 0 0 0 0 0 0 0 0 0 0 0 0 0 0 0 0 0 0 0 0 0 0 0 0 0 0 0 0 0
0 0 0 0 0 0 0 0 0 0 0 0 0 0 0 0 0 0 0 0 0 0 0 0 0 0 0 0 0 0 0 0 0 0 0
0 0 0 0 0 0 0 0 0 0 0 0 0 0 0 0 0 0 0 0 0 0 0 0 0 0 0 0 0 0 0 0 0 0 0
0 0 0 0 0 0 0 0 0 0 0 0 0 0 0 0 0 0 0 0 0 0 0 0 0 0 0 0 0 0 0 0 0 0 0
0 0 0 0 0 0 0 0 0 0 0 0 0 0 0 0 0 0 0 0 0 0 0 0 0 0 0 0 0 0 0 0 0 0 0
0 0 0 0 0 0 0 0 0 0 0 0 0 0 0 0 0 0 0 0 0 0 0 0 0 0 0 0 0 0 0 0 0 0 0
0 0 0 0 0 0 0 0 0 0 0 0 0 0 0 0 0 0 0 0 0 0 0 0 0 0 0 0 0 0 0 0 0 0 0
0 0 0 0 0 0 0 0 0 0 0 0 0 0 0 0 0 0 0 9 0 14 13 0 19 15 0 23 17 0 26
18 0 27 18 0 28 19 0 29 19 0 29 18 0 28 17 0 26 15 0 24 13 0 19 5 0 8
0 0 0 0 0 0 0 0 0 0 0 0 0 0 0 0 0 0 0 0 0 0 0 0 0 0 0 0 0 0 0 0 0 0 0
0 0 0 0 0 0 0 0 0 0 0 0 0 0 0 0 0 0 0 0 0 0 0 0 0 0 0 0 0 0 0 0 0 0 0
0 0 0 0 0 0 0 0 0 0 0 0 0 0 0 0 0 0 0 0 0 0 0 0 0 0 0 0 0 0 0 0 0 0 0
0 0 0 0 0 0 0 0 0 0 0 0 0 0 0 0 0 0 0 0 0 0 0 0 0 0 0 0 0 0 0 0 0 0 0
0 0 0 0 0 0 0 0 0 0 0 0 0 0 0 0 0 0 0 0 0 0 0 0 0 0 0 0 0 0 0 0 0 0 0
0 0 0 0 0 0 0 0 0 0 0 0 0 0 0 0 0 0 0 0 0 0 0 0 0 0 0 0 0 0 0 0 0 0 0
0 0 0 0 0 0 0 0 0 0 0 0 0 0 0 0 0 0 0 0 0 0 0 0 0 0 0 0 0 0 0 0 0 0 0
0 0 0 0 0 0 0 0 0 0 0 0 0 0 0 0 0 0 0 0 0 0 0 0 0 0 0 0 0 0 0 0 0 0 0
0 0 0 0 0 0 0 0 0 0 0 0 0 0 0 0 0 0 0 0 0 0 0 0 0 0 0 0 0 0 0 0 0 0 0
0 0 0 0 0 0 0 0 0 0 0 0 0 0 0 0 0 0 0 0 0 0 0 0 0 0 0 0 0 0 0 0 0 0 0
0 0 0 0 0 0 0 0 0 0 0 0 0 0 0 0 0 0 0 0 0 0 0 0 0 0 0 0 0 0 0 0 0 0 0
0 0 0 0 0 0 0 0 0 0 0 0 0 0 0 0 0 0 0 0 0 0 0 0 0 0 0 0 0 0 0 0 0 0 0
0 0 0 0 0 0 0 0 0 0 0 0 0 0 0 0 0 0 0 0 0 0 0 0 0 0 0 0 0 0 0 0 0 0 0
0 0 0 0 0 0 0 0 0 0 0 0 0 0 0 0 0 0 0 0 0 0
0 0 0 0 0 0 0 0 0 0 0 0 0 0 0 0 0 0 0 0 0 0 0 0 0 0 0 0 0 0 0 0 0 0 0
0 0 0 0 0 0 0 0 0 0 0 0 0 0 0 0 0 0 0 0 0 0 0 0 0 0 0 0 0 0 0 0 0 0 0
0 0 0 0 0 0 0 0 0 0 0 0 0 0 0 0 0 0 0 0 0 0 0 0 0 0 0 0 0 0 0 0 0 0 0
0 0 0 0 0 0 0 0 0 0 0 0 0 0 0 0 0 0 0 0 0 0 0 0 0 0 0 0 0 0 0 0 0 0 0
0 0 0 0 0 0 0 0 0 0 0 0 0 0 0 0 0 0 0 0 0 0 0 0 0 0 0 0 0 0 0 0 0 0 0
0 0 0 0 0 0 0 0 0 0 0 0 0 0 0 0 0 0 0 0 0 0 0 0 0 0 0 0 0 0 0 0 0 0 0
0 0 0 0 0 0 0 0 0 0 0 0 0 0 0 0 0 0 0 0 0 0 0 0 0 0 0 0 0 0 0 0 0 0 0
0 0 0 0 0 0 0 0 0 0 0 0 0 0 0 0 0 0 0 0 0 0 0 0 0 0 0 0 0 0 0 0 0 0 0
0 0 0 0 0 0 0 0 0 0 0 0 0 0 0 0 0 0 0 0 0 0 0 0 0 0 0 0 0 0 0 0 0 0 0
0 0 0 0 0 0 0 0 0 0 0 0 0 0 0 0 0 0 0 0 0 0 0 0 0 0 0 0 0 0 0 0 0 0 0
0 0 0 0 0 0 0 0 0 0 0 0 0 0 0 0 0 0 0 0 0 0 0 0 0 0 0 0 0 0 0 0 0 0 0
0 0 0 0 0 0 0 0 0 0 0 0 0 0 0 0 0 0 0 0 0 0 0 0 0 0 0 0 0 0 0 0 0 0 0
0 0 0 0 0 0 0 0 0 0 0 0 0 0 0 0 0 0 0 0 0 0 0 0 0 0 0 0 0 0 0 0 0 0 0
0 0 0 0 0 0 0 0 0 0 0 0 0 0 0 0 0 0 0 0 0 0 0 0 0 0 0 0 0 0 0 0 0 0 0
0 0 0 0 0 0 0 0 0 0 0 0 0 0 0 0 0 0 0 0 0 0 0 0 0 0 0 0 0 0 0 0 0 0 0
0 0 0 0 0 0 0 0 0 0 0 0 0 0 0 0 0 0 0 0 0 0 0 0 0 0 0 0 0 0 0 0 0 0 0
0 0 0 0 0 0 0 0 0 0 0 0 0 0 0 0 0 0 0 0 0 0 0 0 0 0 0 0 0 0 0 0 0 0 0
0 0 0 0 0 0 0 0 0 0 0 0 0 0 0 0 0 0 0 0 0 0 0 0 0 0 0 0 0 0 0 0 0 0 0
0 0 0 0 0 0 0 0 0 0 0 0 0 0 0 0 0 0 0 0 0 0 0 0 0 0 0 0 0 0 0 0 0 0 0
0 0 0 0 0 0 0 0 0 0 0 0 0 0 0 0 0 0 0 7 0 11 11 0 18 14 0 21 16 0 24
17 0 26 18 0 27 18 0 27 18 0 27 17 0 26 16 0 24 14 0 21 11 0 16 0 0 0
0 0 0 0 0 0 0 0 0 0 0 0 0 0 0 0 0 0 0 0 0 0 0 0 0 0 0 0 0 0 0 0 0 0 0
0 0 0 0 0 0 0 0 0 0 0 0 0 0 0 0 0 0 0 0 0 0 0 0 0 0 0 0 0 0 0 0 0 0 0
0 0 0 0 0 0 0 0 0 0 0 0 0 0 0 0 0 0 0 0 0 0 0 0 0 0 0 0 0 0 0 0 0 0 0
0 0 0 0 0 0 0 0 0 0 0 0 0 0 0 0 0 0 0 0 0 0 0 0 0 0 0 0 0 0 0 0 0 0 0
0 0 0 0 0 0 0 0 0 0 0 0 0 0 0 0 0 0 0 0 0 0 0 0 0 0 0 0 0 0 0 0 0 0 0
0 0 0 0 0 0 0 0 0 0 0 0 0 0 0 0 0 0 0 0 0 0 0 0 0 0 0 0 0 0 0 0 0 0 0
0 0 0 0 0 0 0 0 0 0 0 0 0 0 0 0 0 0 0 0 0 0 0 0 0 0 0 0 0 0 0 0 0 0 0
0 0 0 0 0 0 0 0 0 0 0 0 0 0 0 0 0 0 0 0 0 0 0 0 0 0 0 0 0 0 0 0 0 0 0
0 0 0 0 0 0 0 0 0 0 0 0 0 0 0 0 0 0 0 0 0 0 0 0 0 0 0 0 0 0 0 0 0 0 0
0 0 0 0 0 0 0 0 0 0 0 0 0 0 0 0 0 0 0 0 0 0 0 0 0 0 0 0 0 0 0 0 0 0 0
0 0 0 0 0 0 0 0 0 0 0 0 0 0 0 0 0 0 0 0 0 0 0 0 0 0 0 0 0 0 0 0 0 0 0
0 0 0 0 0 0 0 0 0 0 0 0 0 0 0 0 0 0 0 0 0 0 0 0 0 0 0 0 0 0 0 0 0 0 0
0 0 0 0 0 0 0 0 0 0 0 0 0 0 0 0 0 0 0 0 0 0 0 0 0 0 0 0 0 0 0 0 0 0 0
0 0 0 0 0 0 0 0 0 0 0 0 0 0 0 0 0 0 0 0 0 0
0 0 0 0 0 0 0 0 0 0 0 0 0 0 0 0 0 0 0 0 0 0 0 0 0 0 0 0 0 0 0 0 0 0 0
0 0 0 0 0 0 0 0 0 0 0 0 0 0 0 0 0 0 0 0 0 0 0 0 0 0 0 0 0 0 0 0 0 0 0
0 0 0 0 0 0 0 0 0 0 0 0 0 0 0 0 0 0 0 0 0 0 0 0 0 0 0 0 0 0 0 0 0 0 0
0 0 0 0 0 0 0 0 0 0 0 0 0 0 0 0 0 0 0 0 0 0 0 0 0 0 0 0 0 0 0 0 0 0 0
0 0 0 0 0 0 0 0 0 0 0 0 0 0 0 0 0 0 0 0 0 0 0 0 0 0 0 0 0 0 0 0 0 0 0
0 0 0 0 0 0 0 0 0 0 0 0 0 0 0 0 0 0 0 0 0 0 0 0 0 0 0 0 0 0 0 0 0 0 0
0 0 0 0 0 0 0 0 0 0 0 0 0 0 0 0 0 0 0 0 0 0 0 0 0 0 0 0 0 0 0 0 0 0 0
0 0 0 0 0 0 0 0 0 0 0 0 0 0 0 0 0 0 0 0 0 0 0 0 0 0 0 0 0 0 0 0 0 0 0
0 0 0 0 0 0 0 0 0 0 0 0 0 0 0 0 0 0 0 0 0 0 0 0 0 0 0 0 0 0 0 0 0 0 0
0 0 0 0 0 0 0 0 0 0 0 0 0 0 0 0 0 0 0 0 0 0 0 0 0 0 0 0 0 0 0 0 0 0 0
0 0 0 0 0 0 0 0 0 0 0 0 0 0 0 0 0 0 0 0 0 0 0 0 0 0 0 0 0 0 0 0 0 0 0
0 0 0 0 0 0 0 0 0 0 0 0 0 0 0 0 0 0 0 0 0 0 0 0 0 0 0 0 0 0 0 0 0 0 0
0 0 0 0 0 0 0 0 0 0 0 0 0 0 0 0 0 0 0 0 0 0 0 0 0 0 0 0 0 0 0 0 0 0 0
0 0 0 0 0 0 0 0 0 0 0 0 0 0 0 0 0 0 0 0 0 0 0 0 0 0 0 0 0 0 0 0 0 0 0
0 0 0 0 0 0 0 0 0 0 0 0 0 0 0 0 0 0 0 0 0 0 0 0 0 0 0 0 0 0 0 0 0 0 0
0 0 0 0 0 0 0 0 0 0 0 0 0 0 0 0 0 0 0 0 0 0 0 0 0 0 0 0 0 0 0 0 0 0 0
0 0 0 0 0 0 0 0 0 0 0 0 0 0 0 0 0 0 0 0 0 0 0 0 0 0 0 0 0 0 0 0 0 0 0
0 0 0 0 0 0 0 0 0 0 0 0 0 0 0 0 0 0 0 0 0 0 0 0 0 0 0 0 0 0 0 0 0 0 0
0 0 0 0 0 0 0 0 0 0 0 0 0 0 0 0 0 0 0 0 0 0 0 0 0 0 0 0 0 0 0 0 0 0 0
0 0 0 0 0 0 0 0 0 0 0 0 0 0 0 0 0 0 0 0 0 0 9 0 14 12 0 19 14 0 22 15
0 24 16 0 25 16 0 25 16 0 25 15 0 24 14 0 22 12 0 18 5 0 8 0 0 0 0 0 0
0 0 0 0 0 0 0 0 0 0 0 0 0 0 0 0 0 0 0 0 0 0 0 0 0 0 0 0 0 0 0 0 0 0 0
0 0 0 0 0 0 0 0 0 0 0 0 0 0 0 0 0 0 0 0 0 0 0 0 0 0 0 0 0 0 0 0 0 0 0
0 0 0 0 0 0 0 0 0 0 0 0 0 0 0 0 0 0 0 0 0 0 0 0 0 0 0 0 0 0 0 0 0 0 0
0 0 0 0 0 0 0 0 0 0 0 0 0 0 0 0 0 0 0 0 0 0 0 0 0 0 0 0 0 0 0 0 0 0 0
0 0 0 0 0 0 0 0 0 0 0 0 0 0 0 0 0 0 0 0 0 0 0 0 0 0 0 0 0 0 0 0 0 0 0
0 0 0 0 0 0 0 0 0 0 0 0 0 0 0 0 0 0 0 0 0 0 0 0 0 0 0 0 0 0 0 0 0 0 0
0 0 0 0 0 0 0 0 0 0 0 0 0 0 0 0 0 0 0 0 0 0 0 0 0 0 0 0 0 0 0 0 0 0 0
0 0 0 0 0 0 0 0 0 0 0 0 0 0 0 0 0 0 0 0 0 0 0 0 0 0 0 0 0 0 0 0 0 0 0
0 0 0 0 0 0 0 0 0 0 0 0 0 0 0 0 0 0 0 0 0 0 0 0 0 0 0 0 0 0 0 0 0 0 0
0 0 0 0 0 0 0 0 0 0 0 0 0 0 0 0 0 0 0 0 0 0 0 0 0 0 0 0 0 0 0 0 0 0 0
0 0 0 0 0 0 0 0 0 0 0 0 0 0 0 0 0 0 0 0 0 0 0 0 0 0 0 0 0 0 0 0 0 0 0
0 0 0 0 0 0 0 0 0 0 0 0 0 0 0 0 0 0 0 0 0 0 0 0 0 0 0 0 0 0 0 0 0 0 0
0 0 0 0 0 0 0 0 0 0 0 0 0 0 0 0 0 0 0 0 0 0 0 0 0 0 0 0 0 0 0 0 0 0 0
0 0 0 0 0 0 0 0 0 0 0 0 0 0 0 0 0 0 0
0 0 0 0 0 0 0 0 0 0 0 0 0 0 0 0 0 0 0 0 0 0 0 0 0 0 0 0 0 0 0 0 0 0 0
0 0 0 0 0 0 0 0 0 0 0 0 0 0 0 0 0 0 0 0 0 0 0 0 0 0 0 0 0 0 0 0 0 0 0
0 0 0 0 0 0 0 0 0 0 0 0 0 0 0 0 0 0 0 0 0 0 0 0 0 0 0 0 0 0 0 0 0 0 0
0 0 0 0 0 0 0 0 0 0 0 0 0 0 0 0 0 0 0 0 0 0 0 0 0 0 0 0 0 0 0 0 0 0 0
0 0 0 0 0 0 0 0 0 0 0 0 0 0 0 0 0 0 0 0 0 0 0 0 0 0 0 0 0 0 0 0 0 0 0
0 0 0 0 0 0 0 0 0 0 0 0 0 0 0 0 0 0 0 0 0 0 0 0 0 0 0 0 0 0 0 0 0 0 0
0 0 0 0 0 0 0 0 0 0 0 0 0 0 0 0 0 0 0 0 0 0 0 0 0 0 0 0 0 0 0 0 0 0 0
0 0 0 0 0 0 0 0 0 0 0 0 0 0 0 0 0 0 0 0 0 0 0 0 0 0 0 0 0 0 0 0 0 0 0
0 0 0 0 0 0 0 0 0 0 0 0 0 0 0 0 0 0 0 0 0 0 0 0 0 0 0 0 0 0 0 0 0 0 0
0 0 0 0 0 0 0 0 0 0 0 0 0 0 0 0 0 0 0 0 0 0 0 0 0 0 0 0 0 0 0 0 0 0 0
0 0 0 0 0 0 0 0 0 0 0 0 0 0 0 0 0 0 0 0 0 0 0 0 0 0 0 0 0 0 0 0 0 0 0
0 0 0 0 0 0 0 0 0 0 0 0 0 0 0 0 0 0 0 0 0 0 0 0 0 0 0 0 0 0 0 0 0 0 0
0 0 0 0 0 0 0 0 0 0 0 0 0 0 0 0 0 0 0 0 0 0 0 0 0 0 0 0 0 0 0 0 0 0 0
0 0 0 0 0 0 0 0 0 0 0 0 0 0 0 0 0 0 0 0 0 0 0 0 0 0 0 0 0 0 0 0 0 0 0
0 0 0 0 0 0 0 0 0 0 0 0 0 0 0 0 0 0 0 0 0 0 0 0 0 0 0 0 0 0 0 0 0 0 0
0 0 0 0 0 0 0 0 0 0 0 0 0 0 0 0 0 0 0 0 0 0 0 0 0 0 0 0 0 0 0 0 0 0 0
0 0 0 0 0 0 0 0 0 0 0 0 0 0 0 0 0 0 0 0 0 0 0 0 0 0 0 0 0 0 0 0 0 0 0
0 0 0 0 0 0 0 0 0 0 0 0 0 0 0 0 0 0 0 0 0 0 0 0 0 0 0 0 0 0 0 0 0 0 0
0 0 0 0 0 0 0 0 0 0 0 0 0 0 0 0 0 0 0 0 0 0 0 0 0 0 0 0 0 0 0 0 0 0 0
0 0 0 0 0 0 0 0 0 0 0 0 0 0 0 0 0 0 0 0 0 0 4 0 6 9 0 15 12 0 18 13 0
21 14 0 22 14 0 22 14 0 22 13 0 20 11 0 17 7 0 11 0 0 0 0 0 0 0 0 0 0
0 0 0 0 0 0 0 0 0 0 0 0 0 0 0 0 0 0 0 0 0 0 0 0 0 0 0 0 0 0 0 0 0 0 0
0 0 0 0 0 0 0 0 0 0 0 0 0 0 0 0 0 0 0 0 0 0 0 0 0 0 0 0 0 0 0 0 0 0 0
0 0 0 0 0 0 0 0 0 0 0 0 0 0 0 0 0 0 0 0 0 0 0 0 0 0 0 0 0 0 0 0 0 0 0
0 0 0 0 0 0 0 0 0 0 0 0 0 0 0 0 0 0 0 0 0 0 0 0 0 0 0 0 0 0 0 0 0 0 0
0 0 0 0 0 0 0 0 0 0 0 0 0 0 0 0 0 0 0 0 0 0 0 0 0 0 0 0 0 0 0 0 0 0 0
0 0 0 0 0 0 0 0 0 0 0 0 0 0 0 0 0 0 0 0 0 0 0 0 0 0 0 0 0 0 0 0 0 0 0
0 0 0 0 0 0 0 0 0 0 0 0 0 0 0 0 0 0 0 0 0 0 0 0 0 0 0 0 0 0 0 0 0 0 0
0 0 0 0 0 0 0 0 0 0 0 0 0 0 0 0 0 0 0 0 0 0 0 0 0 0 0 0 0 0 0 0 0 0 0
0 0 0 0 0 0 0 0 0 0 0 0 0 0 0 0 0 0 0 0 0 0 0 0 0 0 0 0 0 0 0 0 0 0 0
0 0 0 0 0 0 0 0 0 0 0 0 0 0 0 0 0 0 0 0 0 0 0 0 0 0 0 0 0 0 0 0 0 0 0
0 0 0 0 0 0 0 0 0 0 0 0 0 0 0 0 0 0 0 0 0 0 0 0 0 0 0 0 0 0 0 0 0 0 0
0 0 0 0 0 0 0 0 0 0 0 0 0 0 0 0 0 0 0 0 0 0 0 0 0 0 0 0 0 0 0 0 0 0 0
0 0 0 0 0 0 0 0 0 0 0 0 0 0 0 0 0 0 0 0 0 0 0 0 0 0 0 0 0 0 0 0 0 0 0
0 0 0 0 0 0 0 0 0 0 0 0 0 0 0 0 0 0
0 0 0 0 0 0 0 0 0 0 0 0 0 0 0 0 0 0 0 0 0 0 0 0 0 0 0 0 0 0 0 0 0 0 0
0 0 0 0 0 0 0 0 0 0 0 0 0 0 0 0 0 0 0 0 0 0 0 0 0 0 0 0 0 0 0 0 0 0 0
0 0 0 0 0 0 0 0 0 0 0 0 0 0 0 0 0 0 0 0 0 0 0 0 0 0 0 0 0 0 0 0 0 0 0
0 0 0 0 0 0 0 0 0 0 0 0 0 0 0 0 0 0 0 0 0 0 0 0 0 0 0 0 0 0 0 0 0 0 0
0 0 0 0 0 0 0 0 0 0 0 0 0 0 0 0 0 0 0 0 0 0 0 0 0 0 0 0 0 0 0 0 0 0 0
0 0 0 0 0 0 0 0 0 0 0 0 0 0 0 0 0 0 0 0 0 0 0 0 0 0 0 0 0 0 0 0 0 0 0
0 0 0 0 0 0 0 0 0 0 0 0 0 0 0 0 0 0 0 0 0 0 0 0 0 0 0 0 0 0 0 0 0 0 0
0 0 0 0 0 0 0 0 0 0 0 0 0 0 0 0 0 0 0 0 0 0 0 0 0 0 0 0 0 0 0 0 0 0 0
0 0 0 0 0 0 0 0 0 0 0 0 0 0 0 0 0 0 0 0 0 0 0 0 0 0 0 0 0 0 0 0 0 0 0
0 0 0 0 0 0 0 0 0 0 0 0 0 0 0 0 0 0 0 0 0 0 0 0 0 0 0 0 0 0 0 0 0 0 0
0 0 0 0 0 0 0 0 0 0 0 0 0 0 0 0 0 0 0 0 0 0 0 0 0 0 0 0 0 0 0 0 0 0 0
0 0 0 0 0 0 0 0 0 0 0 0 0 0 0 0 0 0 0 0 0 0 0 0 0 0 0 0 0 0 0 0 0 0 0
0 0 0 0 0 0 0 0 0 0 0 0 0 0 0 0 0 0 0 0 0 0 0 0 0 0 0 0 0 0 0 0 0 0 0
0 0 0 0 0 0 0 0 0 0 0 0 0 0 0 0 0 0 0 0 0 0 0 0 0 0 0 0 0 0 0 0 0 0 0
0 0 0 0 0 0 0 0 0 0 0 0 0 0 0 0 0 0 0 0 0 0 0 0 0 0 0 0 0 0 0 0 0 0 0
0 0 0 0 0 0 0 0 0 0 0 0 0 0 0 0 0 0 0 0 0 0 0 0 0 0 0 0 0 0 0 0 0 0 0
0 0 0 0 0 0 0 0 0 0 0 0 0 0 0 0 0 0 0 0 0 0 0 0 0 0 0 0 0 0 0 0 0 0 0
0 0 0 0 0 0 0 0 0 0 0 0 0 0 0 0 0 0 0 0 0 0 0 0 0 0 0 0 0 0 0 0 0 0 0
0 0 0 0 0 0 0 0 0 0 0 0 0 0 0 0 0 0 0 0 0 0 0 0 0 0 0 0 0 0 0 0 0 0 0
0 0 0 0 0 0 0 0 0 0 0 0 0 0 0 0 0 0 0 0 0 0 0 0 0 0 0 0 8 0 12 10 0 15
11 0 17 11 0 17 11 0 16 9 0 14 0 0 0 0 0 0 0 0 0 0 0 0 0 0 0 0 0 0 0 0
0 0 0 0 0 0 0 0 0 0 0 0 0 0 0 0 0 0 0 0 0 0 0 0 0 0 0 0 0 0 0 0 0 0 0
0 0 0 0 0 0 0 0 0 0 0 0 0 0 0 0 0 0 0 0 0 0 0 0 0 0 0 0 0 0 0 0 0 0 0
0 0 0 0 0 0 0 0 0 0 0 0 0 0 0 0 0 0 0 0 0 0 0 0 0 0 0 0 0 0 0 0 0 0 0
0 0 0 0 0 0 0 0 0 0 0 0 0 0 0 0 0 0 0 0 0 0 0 0 0 0 0 0 0 0 0 0 0 0 0
0 0 0 0 0 0 0 0 0 0 0 0 0 0 0 0 0 0 0 0 0 0 0 0 0 0 0 0 0 0 0 0 0 0 0
0 0 0 0 0 0 0 0 0 0 0 0 0 0 0 0 0 0 0 0 0 0 0 0 0 0 0 0 0 0 0 0 0 0 0
0 0 0 0 0 0 0 0 0 0 0 0 0 0 0 0 0 0 0 0 0 0 0 0 0 0 0 0 0 0 0 0 0 0 0
0 0 0 0 0 0 0 0 0 0 0 0 0 0 0 0 0 0 0 0 0 0 0 0 0 0 0 0 0 0 0 0 0 0 0
0 0 0 0 0 0 0 0 0 0 0 0 0 0 0 0 0 0 0 0 0 0 0 0 0 0 0 0 0 0 0 0 0 0 0
0 0 0 0 0 0 0 0 0 0 0 0 0 0 0 0 0 0 0 0 0 0 0 0 0 0 0 0 0 0 0 0 0 0 0
0 0 0 0 0 0 0 0 0 0 0 0 0 0 0 0 0 0 0 0 0 0 0 0 0 0 0 0 0 0 0 0 0 0 0
0 0 0 0 0 0 0 0 0 0 0 0 0 0 0 0 0 0 0 0 0 0 0 0 0 0 0 0 0 0 0 0 0 0 0
0 0 0 0 0 0 0 0 0 0 0 0 0 0 0 0 0 0 0 0 0 0 0 0 0 0 0 0 0 0 0 0 0 0 0
0 0 0 0 0 0 0 0 0 0 0 0 0 0
0 0 0 0 0 0 0 0 0 0 0 0 0 0 0 0 0 0 0 0 0 0 0 0 0 0 0 0 0 0 0 0 0 0 0
0 0 0 0 0 0 0 0 0 0 0 0 0 0 0 0 0 0 0 0 0 0 0 0 0 0 0 0 0 0 0 0 0 0 0
0 0 0 0 0 0 0 0 0 0 0 0 0 0 0 0 0 0 0 0 0 0 0 0 0 0 0 0 0 0 0 0 0 0 0
0 0 0 0 0 0 0 0 0 0 0 0 0 0 0 0 0 0 0 0 0 0 0 0 0 0 0 0 0 0 0 0 0 0 0
0 0 0 0 0 0 0 0 0 0 0 0 0 0 0 0 0 0 0 0 0 0 0 0 0 0 0 0 0 0 0 0 0 0 0
0 0 0 0 0 0 0 0 0 0 0 0 0 0 0 0 0 0 0 0 0 0 0 0 0 0 0 0 0 0 0 0 0 0 0
0 0 0 0 0 0 0 0 0 0 0 0 0 0 0 0 0 0 0 0 0 0 0 0 0 0 0 0 0 0 0 0 0 0 0
0 0 0 0 0 0 0 0 0 0 0 0 0 0 0 0 0 0 0 0 0 0 0 0 0 0 0 0 0 0 0 0 0 0 0
0 0 0 0 0 0 0 0 0 0 0 0 0 0 0 0 0 0 0 0 0 0 0 0 0 0 0 0 0 0 0 0 0 0 0
0 0 0 0 0 0 0 0 0 0 0 0 0 0 0 0 0 0 0 0 0 0 0 0 0 0 0 0 0 0 0 0 0 0 0
0 0 0 0 0 0 0 0 0 0 0 0 0 0 0 0 0 0 0 0 0 0 0 0 0 0 0 0 0 0 0 0 0 0 0
0 0 0 0 0 0 0 0 0 0 0 0 0 0 0 0 0 0 0 0 0 0 0 0 0 0 0 0 0 0 0 0 0 0 0
0 0 0 0 0 0 0 0 0 0 0 0 0 0 0 0 0 0 0 0 0 0 0 0 0 0 0 0 0 0 0 0 0 0 0
0 0 0 0 0 0 0 0 0 0 0 0 0 0 0 0 0 0 0 0 0 0 0 0 0 0 0 0 0 0 0 0 0 0 0
0 0 0 0 0 0 0 0 0 0 0 0 0 0 0 0 0 0 0 0 0 0 0 0 0 0 0 0 0 0 0 0 0 0 0
0 0 0 0 0 0 0 0 0 0 0 0 0 0 0 0 0 0 0 0 0 0 0 0 0 0 0 0 0 0 0 0 0 0 0
0 0 0 0 0 0 0 0 0 0 0 0 0 0 0 0 0 0 0 0 0 0 0 0 0 0 0 0 0 0 0 0 0 0 0
0 0 0 0 0 0 0 0 0 0 0 0 0 0 0 0 0 0 0 0 0 0 0 0 0 0 0 0 0 0 0 0 0 0 0
0 0 0 0 0 0 0 0 0 0 0 0 0 0 0 0 0 0 0 0 0 0 0 0 0 0 0 0 0 0 0 0 0 0 0
0 0 0 0 0 0 0 0 0 0 0 0 0 0 0 0 0 0 0 0 0 0 0 0 0 0 0 0 0 0 0 0 0 0 0
0 0 0 0 0 0 0 0 0 0 0 0 0 0 0 0 0 0 0 0 0 0 0 0 0 0 0 0 0 0 0 0 0 0 0
0 0 0 0 0 0 0 0 0 0 0 0 0 0 0 0 0 0 0 0 0 0 0 0 0 0 0 0 0 0 0 0 0 0 0
0 0 0 0 0 0 0 0 0 0 0 0 0 0 0 0 0 0 0 0 0 0 0 0 0 0 0 0 0 0 0 0 0 0 0
0 0 0 0 0 0 0 0 0 0 0 0 0 0 0 0 0 0 0 0 0 0 0 0 0 0 0 0 0 0 0 0 0 0 0
0 0 0 0 0 0 0 0 0 0 0 0 0 0 0 0 0 0 0 0 0 0 0 0 0 0 0 0 0 0 0 0 0 0 0
0 0 0 0 0 0 0 0 0 0 0 0 0 0 0 0 0 0 0 0 0 0 0 0 0 0 0 0 0 0 0 0 0 0 0
0 0 0 0 0 0 0 0 0 0 0 0 0 0 0 0 0 0 0 0 0 0 0 0 0 0 0 0 0 0 0 0 0 0 0
0 0 0 0 0 0 0 0 0 0 0 0 0 0 0 0 0 0 0 0 0 0 0 0 0 0 0 0 0 0 0 0 0 0 0
0 0 0 0 0 0 0 0 0 0 0 0 0 0 0 0 0 0 0 0 0 0 0 0 0 0 0 0 0 0 0 0 0 0 0
0 0 0 0 0 0 0 0 0 0 0 0 0 0 0 0 0 0 0 0 0 0 0 0 0 0 0 0 0 0 0 0 0 0 0
0 0 0 0 0 0 0 0 0 0 0 0 0 0 0 0 0 0 0 0 0 0 0 0 0 0 0 0 0 0 0 0 0 0 0
0 0 0 0 0 0 0 0 0 0 0 0 0 0 0 0 0 0 0 0 0 0 0 0 0 0 0 0 0 0 0 0 0 0 0
0 0 0 0 0 0 0 0 0 0 0 0 0 0 0 0 0 0 0 0 0 0 0 0 0 0 0 0 0 0 0 0 0 0 0
0 0 0 0 0 0 0 0 0 0 0 0 0 0 0 0 0 0 0 0 0 0 0 0 0 0 0 0 0 0 0 0 0 0 0
0 0 0 0 0 0 0 0 0 0
0 0 0 0 0 0 0 0 0 0 0 0 0 0 0 0 0 0 0 0 0 0 0 0 0 0 0 0 0 0 0 0 0 0 0
0 0 0 0 0 0 0 0 0 0 0 0 0 0 0 0 0 0 0 0 0 0 0 0 0 0 0 0 0 0 0 0 0 0 0
0 0 0 0 0 0 0 0 0 0 0 0 0 0 0 0 0 0 0 0 0 0 0 0 0 0 0 0 0 0 0 0 0 0 0
0 0 0 0 0 0 0 0 0 0 0 0 0 0 0 0 0 0 0 0 0 0 0 0 0 0 0 0 0 0 0 0 0 0 0
0 0 0 0 0 0 0 0 0 0 0 0 0 0 0 0 0 0 0 0 0 0 0 0 0 0 0 0 0 0 0 0 0 0 0
0 0 0 0 0 0 0 0 0 0 0 0 0 0 0 0 0 0 0 0 0 0 0 0 0 0 0 0 0 0 0 0 0 0 0
0 0 0 0 0 0 0 0 0 0 0 0 0 0 0 0 0 0 0 0 0 0 0 0 0 0 0 0 0 0 0 0 0 0 0
0 0 0 0 0 0 0 0 0 0 0 0 0 0 0 0 0 0 0 0 0 0 0 0 0 0 0 0 0 0 0 0 0 0 0
0 0 0 0 0 0 0 0 0 0 0 0 0 0 0 0 0 0 0 0 0 0 0 0 0 0 0 0 0 0 0 0 0 0 0
0 0 0 0 0 0 0 0 0 0 0 0 0 0 0 0 0 0 0 0 0 0 0 0 0 0 0 0 0 0 0 0 0 0 0
0 0 0 0 0 0 0 0 0 0 0 0 0 0 0 0 0 0 0 0 0 0 0 0 0 0 0 0 0 0 0 0 0 0 0
0 0 0 0 0 0 0 0 0 0 0 0 0 0 0 0 0 0 0 0 0 0 0 0 0 0 0 0 0 0 0 0 0 0 0
0 0 0 0 0 0 0 0 0 0 0 0 0 0 0 0 0 0 0 0 0 0 0 0 0 0 0 0 0 0 0 0 0 0 0
0 0 0 0 0 0 0 0 0 0 0 0 0 0 0 0 0 0 0 0 0 0 0 0 0 0 0 0 0 0 0 0 0 0 0
0 0 0 0 0 0 0 0 0 0 0 0 0 0 0 0 0 0 0 0 0 0 0 0 0 0 0 0 0 0 0 0 0 0 0
0 0 0 0 0 0 0 0 0 0 0 0 0 0 0 0 0 0 0 0 0 0 0 0 0 0 0 0 0 0 0 0 0 0 0
0 0 0 0 0 0 0 0 0 0 0 0 0 0 0 0 0 0 0 0 0 0 0 0 0 0 0 0 0 0 0 0 0 0 0
0 0 0 0 0 0 0 0 0 0 0 0 0 0 0 0 0 0 0 0 0 0 0 0 0 0 0 0 0 0 0 0 0 0 0
0 0 0 0 0 0 0 0 0 0 0 0 0 0 0 0 0 0 0 0 0 0 0 0 0 0 0 0 0 0 0 0 0 0 0
0 0 0 0 0 0 0 0 0 0 0 0 0 0 0 0 0 0 0 0 0 0 0 0 0 0 0 0 0 0 0 0 0 0 0
0 0 0 0 0 0 0 0 0 0 0 0 0 0 0 0 0 0 0 0 0 0 0 0 0 0 0 0 0 0 0 0 0 0 0
0 0 0 0 0 0 0 0 0 0 0 0 0 0 0 0 0 0 0 0 0 0 0 0 0 0 0 0 0 0 0 0 0 0 0
0 0 0 0 0 0 0 0 0 0 0 0 0 0 0 0 0 0 0 0 0 0 0 0 0 0 0 0 0 0 0 0 0 0 0
0 0 0 0 0 0 0 0 0 0 0 0 0 0 0 0 0 0 0 0 0 0 0 0 0 0 0 0 0 0 0 0 0 0 0
0 0 0 0 0 0 0 0 0 0 0 0 0 0 0 0 0 0 0 0 0 0 0 0 0 0 0 0 0 0 0 0 0 0 0
0 0 0 0 0 0 0 0 0 0 0 0 0 0 0 0 0 0 0 0 0 0 0 0 0 0 0 0 0 0 0 0 0 0 0
0 0 0 0 0 0 0 0 0 0 0 0 0 0 0 0 0 0 0 0 0 0 0 0 0 0 0 0 0 0 0 0 0 0 0
0 0 0 0 0 0 0 0 0 0 0 0 0 0 0 0 0 0 0 0 0 0 0 0 0 0 0 0 0 0 0 0 0 0 0
0 0 0 0 0 0 0 0 0 0 0 0 0 0 0 0 0 0 0 0 0 0 0 0 0 0 0 0 0 0 0 0 0 0 0
0 0 0 0 0 0 0 0 0 0 0 0 0 0 0 0 0 0 0 0 0 0 0 0 0 0 0 0 0 0 0 0 0 0 0
0 0 0 0 0 0 0 0 0 0 0 0 0 0 0 0 0 0 0 0 0 0 0 0 0 0 0 0 0 0 0 0 0 0 0
0 0 0 0 0 0 0 0 0 0 0 0 0 0 0 0 0 0 0 0 0 0 0 0 0 0 0 0 0 0 0 0 0 0 0
0 0 0 0 0 0 0 0 0 0 0 0 0 0 0 0 0 0 0 0 0 0 0 0 0 0 0 0 0 0 0 0 0 0 0
0 0 0 0 0 0 0 0 0 0 0 0 0 0 0 0 0 0 0 0 0 0 0 0 0 0 0 0 0 0 0 0 0 0 0
0 0 0 0 0 0 0 0 0 0
0 0 0 0 0 0 0 0 0 0 0 0 0 0 0 0 0 0 0 0 0 0 0 0 0 0 0 0 0 0 0 0 0 0 0
0 0 0 0 0 0 0 0 0 0 0 0 0 0 0 0 0 0 0 0 0 0 0 0 0 0 0 0 0 0 0 0 0 0 0
0 0 0 0 0 0 0 0 0 0 0 0 0 0 0 0 0 0 0 0 0 0 0 0 0 0 0 0 0 0 0 0 0 0 0
0 0 0 0 0 0 0 0 0 0 0 0 0 0 0 0 0 0 0 0 0 0 0 0 0 0 0 0 0 0 0 0 0 0 0
0 0 0 0 0 0 0 0 0 0 0 0 0 0 0 0 0 0 0 0 0 0 0 0 0 0 0 0 0 0 0 0 0 0 0
0 0 0 0 0 0 0 0 0 0 0 0 0 0 0 0 0 0 0 0 0 0 0 0 0 0 0 0 0 0 0 0 0 0 0
0 0 0 0 0 0 0 0 0 0 0 0 0 0 0 0 0 0 0 0 0 0 0 0 0 0 0 0 0 0 0 0 0 0 0
0 0 0 0 0 0 0 0 0 0 0 0 0 0 0 0 0 0 0 0 0 0 0 0 0 0 0 0 0 0 0 0 0 0 0
0 0 0 0 0 0 0 0 0 0 0 0 0 0 0 0 0 0 0 0 0 0 0 0 0 0 0 0 0 0 0 0 0 0 0
0 0 0 0 0 0 0 0 0 0 0 0 0 0 0 0 0 0 0 0 0 0 0 0 0 0 0 0 0 0 0 0 0 0 0
0 0 0 0 0 0 0 0 0 0 0 0 0 0 0 0 0 0 0 0 0 0 0 0 0 0 0 0 0 0 0 0 0 0 0
0 0 0 0 0 0 0 0 0 0 0 0 0 0 0 0 0 0 0 0 0 0 0 0 0 0 0 0 0 0 0 0 0 0 0
0 0 0 0 0 0 0 0 0 0 0 0 0 0 0 0 0 0 0 0 0 0 0 0 0 0 0 0 0 0 0 0 0 0 0
0 0 0 0 0 0 0 0 0 0 0 0 0 0 0 0 0 0 0 0 0 0 0 0 0 0 0 0 0 0 0 0 0 0 0
0 0 0 0 0 0 0 0 0 0 0 0 0 0 0 0 0 0 0 0 0 0 0 0 0 0 0 0 0 0 0 0 0 0 0
0 0 0 0 0 0 0 0 0 0 0 0 0 0 0 0 0 0 0 0 0 0 0 0 0 0 0 0 0 0 0 0 0 0 0
0 0 0 0 0 0 0 0 0 0 0 0 0 0 0 0 0 0 0 0 0 0 0 0 0 0 0 0 0 0 0 0 0 0 0
0 0 0 0 0 0 0 0 0 0 0 0 0 0 0 0 0 0 0 0 0 0 0 0 0 0 0 0 0 0 0 0 0 0 0
0 0 0 0 0 0 0 0 0 0 0 0 0 0 0 0 0 0 0 0 0 0 0 0 0 0 0 0 0 0 0 0 0 0 0
0 0 0 0 0 0 0 0 0 0 0 0 0 0 0 0 0 0 0 0 0 0 0 0 0 0 0 0 0 0 0 0 0 0 0
0 0 0 0 0 0 0 0 0 0 0 0 0 0 0 0 0 0 0 0 0 0 0 0 0 0 0 0 0 0 0 0 0 0 0
0 0 0 0 0 0 0 0 0 0 0 0 0 0 0 0 0 0 0 0 0 0 0 0 0 0 0 0 0 0 0 0 0 0 0
0 0 0 0 0 0 0 0 0 0 0 0 0 0 0 0 0 0 0 0 0 0 0 0 0 0 0 0 0 0 0 0 0 0 0
0 0 0 0 0 0 0 0 0 0 0 0 0 0 0 0 0 0 0 0 0 0 0 0 0 0 0 0 0 0 0 0 0 0 0
0 0 0 0 0 0 0 0 0 0 0 0 0 0 0 0 0 0 0 0 0 0 0 0 0 0 0 0 0 0 0 0 0 0 0
0 0 0 0 0 0 0 0 0 0 0 0 0 0 0 0 0 0 0 0 0 0 0 0 0 0 0 0 0 0 0 0 0 0 0
0 0 0 0 0 0 0 0 0 0 0 0 0 0 0 0 0 0 0 0 0 0 0 0 0 0 0 0 0 0 0 0 0 0 0
0 0 0 0 0 0 0 0 0 0 0 0 0 0 0 0 0 0 0 0 0 0 0 0 0 0 0 0 0 0 0 0 0 0 0
0 0 0 0 0 0 0 0 0 0 0 0 0 0 0 0 0 0 0 0 0 0 0 0 0 0 0 0 0 0 0 0 0 0 0
0 0 0 0 0 0 0 0 0 0 0 0 0 0 0 0 0 0 0 0 0 0 0 0 0 0 0 0 0 0 0 0 0 0 0
0 0 0 0 0 0 0 0 0 0 0 0 0 0 0 0 0 0 0 0 0 0 0 0 0 0 0 0 0 0 0 0 0 0 0
0 0 0 0 0 0 0 0 0 0 0 0 0 0 0 0 0 0 0 0 0 0 0 0 0 0 0 0 0 0 0 0 0 0 0
0 0 0 0 0 0 0 0 0 0 0 0 0 0 0 0 0 0 0 0 0 0 0 0 0 0 0 0 0 0 0 0 0 0 0
0 0 0 0 0 0 0 0 0 0 0 0 0 0 0 0 0 0 0 0 0 0 0 0 0 0 0 0 0 0 0 0 0 0 0
0 0 0 0 0 0 0 0 0 0
0 0 0 0 0 0 0 0 0 0 0 0 0 0 0 0 0 0 0 0 0 0 0 0 0 0 0 0 0 0 0 0 0 0 0
0 0 0 0 0 0 0 0 0 0 0 0 0 0 0 0 0 0 0 0 0 0 0 0 0 0 0 0 0 0 0 0 0 0 0
0 0 0 0 0 0 0 0 0 0 0 0 0 0 0 0 0 0 0 0 0 0 0 0 0 0 0 0 0 0 0 0 0 0 0
0 0 0 0 0 0 0 0 0 0 0 0 0 0 0 0 0 0 0 0 0 0 0 0 0 0 0 0 0 0 0 0 0 0 0
0 0 0 0 0 0 0 0 0 0 0 0 0 0 0 0 0 0 0 0 0 0 0 0 0 0 0 0 0 0 0 0 0 0 0
0 0 0 0 0 0 0 0 0 0 0 0 0 0 0 0 0 0 0 0 0 0 0 0 0 0 0 0 0 0 0 0 0 0 0
0 0 0 0 0 0 0 0 0 0 0 0 0 0 0 0 0 0 0 0 0 0 0 0 0 0 0 0 0 0 0 0 0 0 0
0 0 0 0 0 0 0 0 0 0 0 0 0 0 0 0 0 0 0 0 0 0 0 0 0 0 0 0 0 0 0 0 0 0 0
0 0 0 0 0 0 0 0 0 0 0 0 0 0 0 0 0 0 0 0 0 0 0 0 0 0 0 0 0 0 0 0 0 0 0
0 0 0 0 0 0 0 0 0 0 0 0 0 0 0 0 0 0 0 0 0 0 0 0 0 0 0 0 0 0 0 0 0 0 0
0 0 0 0 0 0 0 0 0 0 0 0 0 0 0 0 0 0 0 0 0 0 0 0 0 0 0 0 0 0 0 0 0 0 0
0 0 0 0 0 0 0 0 0 0 0 0 0 0 0 0 0 0 0 0 0 0 0 0 0 0 0 0 0 0 0 0 0 0 0
0 0 0 0 0 0 0 0 0 0 0 0 0 0 0 0 0 0 0 0 0 0 0 0 0 0 0 0 0 0 0 0 0 0 0
0 0 0 0 0 0 0 0 0 0 0 0 0 0 0 0 0 0 0 0 0 0 0 0 0 0 0 0 0 0 0 0 0 0 0
0 0 0 0 0 0 0 0 0 0 0 0 0 0 0 0 0 0 0 0 0 0 0 0 0 0 0 0 0 0 0 0 0 0 0
0 0 0 0 0 0 0 0 0 0 0 0 0 0 0 0 0 0 0 0 0 0 0 0 0 0 0 0 0 0 0 0 0 0 0
0 0 0 0 0 0 0 0 0 0 0 0 0 0 0 0 0 0 0 0 0 0 0 0 0 0 0 0 0 0 0 0 0 0 0
0 0 0 0 0 0 0 0 0 0 0 0 0 0 0 0 0 0 0 0 0 0 0 0 0 0 0 0 0 0 0 0 0 0 0
0 0 0 0 0 0 0 0 0 0 0 0 0 0 0 0 0 0 0 0 0 0 0 0 0 0 0 0 0 0 0 0 0 0 0
0 0 0 0 0 0 0 0 0 0 0 0 0 0 0 0 0 0 0 0 0 0 0 0 0 0 0 0 0 0 0 0 0 0 0
0 0 0 0 0 0 0 0 0 0 0 0 0 0 0 0 0 0 0 0 0 0 0 0 0 0 0 0 0 0 0 0 0 0 0
0 0 0 0 0 0 0 0 0 0 0 0 0 0 0 0 0 0 0 0 0 0 0 0 0 0 0 0 0 0 0 0 0 0 0
0 0 0 0 0 0 0 0 0 0 0 0 0 0 0 0 0 0 0 0 0 0 0 0 0 0 0 0 0 0 0 0 0 0 0
0 0 0 0 0 0 0 0 0 0 0 0 0 0 0 0 0 0 0 0 0 0 0 0 0 0 0 0 0 0 0 0 0 0 0
0 0 0 0 0 0 0 0 0 0 0 0 0 0 0 0 0 0 0 0 0 0 0 0 0 0 0 0 0 0 0 0 0 0 0
0 0 0 0 0 0 0 0 0 0 0 0 0 0 0 0 0 0 0 0 0 0 0 0 0 0 0 0 0 0 0 0 0 0 0
0 0 0 0 0 0 0 0 0 0 0 0 0 0 0 0 0 0 0 0 0 0 0 0 0 0 0 0 0 0 0 0 0 0 0
0 0 0 0 0 0 0 0 0 0 0 0 0 0 0 0 0 0 0 0 0 0 0 0 0 0 0 0 0 0 0 0 0 0 0
0 0 0 0 0 0 0 0 0 0 0 0 0 0 0 0 0 0 0 0 0 0 0 0 0 0 0 0 0 0 0 0 0 0 0
0 0 0 0 0 0 0 0 0 0 0 0 0 0 0 0 0 0 0 0 0 0 0 0 0 0 0 0 0 0 0 0 0 0 0
0 0 0 0 0 0 0 0 0 0 0 0 0 0 0 0 0 0 0 0 0 0 0 0 0 0 0 0 0 0 0 0 0 0 0
0 0 0 0 0 0 0 0 0 0 0 0 0 0 0 0 0 0 0 0 0 0 0 0 0 0 0 0 0 0 0 0 0 0 0
0 0 0 0 0 0 0 0 0 0 0 0 0 0 0 0 0 0 0 0 0 0 0 0 0 0 0 0 0 0 0 0 0 0 0
0 0 0 0 0 0 0 0 0 0 0 0 0 0 0 0 0 0 0 0 0 0 0 0 0 0 0 0 0 0 0 0 0 0 0
0 0 0 0 0 0 0 0 0 0
0 0 0 0 0 0 0 0 0 0 0 0 0 0 0 0 0 0 0 0 0 0 0 0 0 0 0 0 0 0 0 0 0 0 0
0 0 0 0 0 0 0 0 0 0 0 0 0 0 0 0 0 0 0 0 0 0 0 0 0 0 0 0 0 0 0 0 0 0 0
0 0 0 0 0 0 0 0 0 0 0 0 0 0 0 0 0 0 0 0 0 0 0 0 0 0 0 0 0 0 0 0 0 0 0
0 0 0 0 0 0 0 0 0 0 0 0 0 0 0 0 0 0 0 0 0 0 0 0 0 0 0 0 0 0 0 0 0 0 0
0 0 0 0 0 0 0 0 0 0 0 0 0 0 0 0 0 0 0 0 0 0 0 0 0 0 0 0 0 0 0 0 0 0 0
0 0 0 0 0 0 0 0 0 0 0 0 0 0 0 0 0 0 0 0 0 0 0 0 0 0 0 0 0 0 0 0 0 0 0
0 0 0 0 0 0 0 0 0 0 0 0 0 0 0 0 0 0 0 0 0 0 0 0 0 0 0 0 0 0 0 0 0 0 0
0 0 0 0 0 0 0 0 0 0 0 0 0 0 0 0 0 0 0 0 0 0 0 0 0 0 0 0 0 0 0 0 0 0 0
0 0 0 0 0 0 0 0 0 0 0 0 0 0 0 0 0 0 0 0 0 0 0 0 0 0 0 0 0 0 0 0 0 0 0
0 0 0 0 0 0 0 0 0 0 0 0 0 0 0 0 0 0 0 0 0 0 0 0 0 0 0 0 0 0 0 0 0 0 0
0 0 0 0 0 0 0 0 0 0 0 0 0 0 0 0 0 0 0 0 0 0 0 0 0 0 0 0 0 0 0 0 0 0 0
0 0 0 0 0 0 0 0 0 0 0 0 0 0 0 0 0 0 0 0 0 0 0 0 0 0 0 0 0 0 0 0 0 0 0
0 0 0 0 0 0 0 0 0 0 0 0 0 0 0 0 0 0 0 0 0 0 0 0 0 0 0 0 0 0 0 0 0 0 0
0 0 0 0 0 0 0 0 0 0 0 0 0 0 0 0 0 0 0 0 0 0 0 0 0 0 0 0 0 0 0 0 0 0 0
0 0 0 0 0 0 0 0 0 0 0 0 0 0 0 0 0 0 0 0 0 0 0 0 0 0 0 0 0 0 0 0 0 0 0
0 0 0 0 0 0 0 0 0 0 0 0 0 0 0 0 0 0 0 0 0 0 0 0 0 0 0 0 0 0 0 0 0 0 0
0 0 0 0 0 0 0 0 0 0 0 0 0 0 0 0 0 0 0 0 0 0 0 0 0 0 0 0 0 0 0 0 0 0 0
0 0 0 0 0 0 0 0 0 0 0 0 0 0 0 0 0 0 0 0 0 0 0 0 0 0 0 0 0 0 0 0 0 0 0
0 0 0 0 0 0 0 0 0 0 0 0 0 0 0 0 0 0 0 0 0 0 0 0 0 0 0 0 0 0 0 0 0 0 0
0 0 0 0 0 0 0 0 0 0 0 0 0 0 0 0 0 0 0 0 0 0 0 0 0 0 0 0 0 0 0 0 0 0 0
0 0 0 0 0 0 0 0 0 0 0 0 0 0 0 0 0 0 0 0 0 0 0 0 0 0 0 0 0 0 0 0 0 0 0
0 0 0 0 0 0 0 0 0 0 0 0 0 0 0 0 0 0 0 0 0 0 0 0 0 0 0 0 0 0 0 0 0 0 0
0 0 0 0 0 0 0 0 0 0 0 0 0 0 0 0 0 0 0 0 0 0 0 0 0 0 0 0 0 0 0 0 0 0 0
0 0 0 0 0 0 0 0 0 0 0 0 0 0 0 0 0 0 0 0 0 0 0 0 0 0 0 0 0 0 0 0 0 0 0
0 0 0 0 0 0 0 0 0 0 0 0 0 0 0 0 0 0 0 0 0 0 0 0 0 0 0 0 0 0 0 0 0 0 0
0 0 0 0 0 0 0 0 0 0 0 0 0 0 0 0 0 0 0 0 0 0 0 0 0 0 0 0 0 0 0 0 0 0 0
0 0 0 0 0 0 0 0 0 0 0 0 0 0 0 0 0 0 0 0 0 0 0 0 0 0 0 0 0 0 0 0 0 0 0
0 0 0 0 0 0 0 0 0 0 0 0 0 0 0 0 0 0 0 0 0 0 0 0 0 0 0 0 0 0 0 0 0 0 0
0 0 0 0 0 0 0 0 0 0 0 0 0 0 0 0 0 0 0 0 0 0 0 0 0 0 0 0 0 0 0 0 0 0 0
0 0 0 0 0 0 0 0 0 0 0 0 0 0 0 0 0 0 0 0 0 0 0 0 0 0 0 0 0 0 0 0 0 0 0
0 0 0 0 0 0 0 0 0 0 0 0 0 0 0 0 0 0 0 0 0 0 0 0 0 0 0 0 0 0 0 0 0 0 0
0 0 0 0 0 0 0 0 0 0 0 0 0 0 0 0 0 0 0 0 0 0 0 0 0 0 0 0 0 0 0 0 0 0 0
0 0 0 0 0 0 0 0 0 0 0 0 0 0 0 0 0 0 0 0 0 0 0 0 0 0 0 0 0 0 0 0 0 0 0
0 0 0 0 0 0 0 0 0 0 0 0 0 0 0 0 0 0 0 0 0 0 0 0 0 0 0 0 0 0 0 0 0 0 0
0 0 0 0 0 0 0 0 0 0
0 0 0 0 0 0 0 0 0 0 0 0 0 0 0 0 0 0 0 0 0 0 0 0 0 0 0 0 0 0 0 0 0 0 0
0 0 0 0 0 0 0 0 0 0 0 0 0 0 0 0 0 0 0 0 0 0 0 0 0 0 0 0 0 0 0 0 0 0 0
0 0 0 0 0 0 0 0 0 0 0 0 0 0 0 0 0 0 0 0 0 0 0 0 0 0 0 0 0 0 0 0 0 0 0
0 0 0 0 0 0 0 0 0 0 0 0 0 0 0 0 0 0 0 0 0 0 0 0 0 0 0 0 0 0 0 0 0 0 0
0 0 0 0 0 0 0 0 0 0 0 0 0 0 0 0 0 0 0 0 0 0 0 0 0 0 0 0 0 0 0 0 0 0 0
0 0 0 0 0 0 0 0 0 0 0 0 0 0 0 0 0 0 0 0 0 0 0 0 0 0 0 0 0 0 0 0 0 0 0
0 0 0 0 0 0 0 0 0 0 0 0 0 0 0 0 0 0 0 0 0 0 0 0 0 0 0 0 0 0 0 0 0 0 0
0 0 0 0 0 0 0 0 0 0 0 0 0 0 0 0 0 0 0 0 0 0 0 0 0 0 0 0 0 0 0 0 0 0 0
0 0 0 0 0 0 0 0 0 0 0 0 0 0 0 0 0 0 0 0 0 0 0 0 0 0 0 0 0 0 0 0 0 0 0
0 0 0 0 0 0 0 0 0 0 0 0 0 0 0 0 0 0 0 0 0 0 0 0 0 0 0 0 0 0 0 0 0 0 0
0 0 0 0 0 0 0 0 0 0 0 0 0 0 0 0 0 0 0 0 0 0 0 0 0 0 0 0 0 0 0 0 0 0 0
0 0 0 0 0 0 0 0 0 0 0 0 0 0 0 0 0 0 0 0 0 0 0 0 0 0 0 0 0 0 0 0 0 0 0
0 0 0 0 0 0 0 0 0 0 0 0 0 0 0 0 0 0 0 0 0 0 0 0 0 0 0 0 0 0 0 0 0 0 0
0 0 0 0 0 0 0 0 0 0 0 0 0 0 0 0 0 0 0 0 0 0 0 0 0 0 0 0 0 0 0 0 0 0 0
0 0 0 0 0 0 0 0 0 0 0 0 0 0 0 0 0 0 0 0 0 0 0 0 0 0 0 0 0 0 0 0 0 0 0
0 0 0 0 0 0 0 0 0 0 0 0 0 0 0 0 0 0 0 0 0 0 0 0 0 0 0 0 0 0 0 0 0 0 0
0 0 0 0 0 0 0 0 0 0 0 0 0 0 0 0 0 0 0 0 0 0 0 0 0 0 0 0 0 0 0 0 0 0 0
0 0 0 0 0 0 0 0 0 0 0 0 0 0 0 0 0 0 0 0 0 0 0 0 0 0 0 0 0 0 0 0 0 0 0
0 0 0 0 0 0 0 0 0 0 0 0 0 0 0 0 0 0 0 0 0 0 0 0 0 0 0 0 0 0 0 0 0 0 0
0 0 0 0 0 0 0 0 0 0 0 0 0 0 0 0 0 0 0 0 0 0 0 0 0 0 0 0 0 0 0 0 0 0 0
0 0 0 0 0 0 0 0 0 0 0 0 0 0 0 0 0 0 0 0 0 0 0 0 0 0 0 0 0 0 0 0 0 0 0
0 0 0 0 0 0 0 0 0 0 0 0 0 0 0 0 0 0 0 0 0 0 0 0 0 0 0 0 0 0 0 0 0 0 0
0 0 0 0 0 0 0 0 0 0 0 0 0 0 0 0 0 0 0 0 0 0 0 0 0 0 0 0 0 0 0 0 0 0 0
0 0 0 0 0 0 0 0 0 0 0 0 0 0 0 0 0 0 0 0 0 0 0 0 0 0 0 0 0 0 0 0 0 0 0
0 0 0 0 0 0 0 0 0 0 0 0 0 0 0 0 0 0 0 0 0 0 0 0 0 0 0 0 0 0 0 0 0 0 0
0 0 0 0 0 0 0 0 0 0 0 0 0 0 0 0 0 0 0 0 0 0 0 0 0 0 0 0 0 0 0 0 0 0 0
0 0 0 0 0 0 0 0 0 0 0 0 0 0 0 0 0 0 0 0 0 0 0 0 0 0 0 0 0 0 0 0 0 0 0
0 0 0 0 0 0 0 0 0 0 0 0 0 0 0 0 0 0 0 0 0 0 0 0 0 0 0 0 0 0 0 0 0 0 0
0 0 0 0 0 0 0 0 0 0 0 0 0 0 0 0 0 0 0 0 0 0 0 0 0 0 0 0 0 0 0 0 0 0 0
0 0 0 0 0 0 0 0 0 0 0 0 0 0 0 0 0 0 0 0 0 0 0 0 0 0 0 0 0 0 0 0 0 0 0
0 0 0 0 0 0 0 0 0 0 0 0 0 0 0 0 0 0 0 0 0 0 0 0 0 0 0 0 0 0 0 0 0 0 0
0 0 0 0 0 0 0 0 0 0 0 0 0 0 0 0 0 0 0 0 0 0 0 0 0 0 0 0 0 0 0 0 0 0 0
0 0 0 0 0 0 0 0 0 0 0 0 0 0 0 0 0 0 0 0 0 0 0 0 0 0 0 0 0 0 0 0 0 0 0
0 0 0 0 0 0 0 0 0 0 0 0 0 0 0 0 0 0 0 0 0 0 0 0 0 0 0 0 0 0 0 0 0 0 0
0 0 0 0 0 0 0 0 0 0
0 0 0 0 0 0 0 0 0 0 0 0 0 0 0 0 0 0 0 0 0 0 0 0 0 0 0 0 0 0 0 0 0 0 0
0 0 0 0 0 0 0 0 0 0 0 0 0 0 0 0 0 0 0 0 0 0 0 0 0 0 0 0 0 0 0 0 0 0 0
0 0 0 0 0 0 0 0 0 0 0 0 0 0 0 0 0 0 0 0 0 0 0 0 0 0 0 0 0 0 0 0 0 0 0
0 0 0 0 0 0 0 0 0 0 0 0 0 0 0 0 0 0 0 0 0 0 0 0 0 0 0 0 0 0 0 0 0 0 0
0 0 0 0 0 0 0 0 0 0 0 0 0 0 0 0 0 0 0 0 0 0 0 0 0 0 0 0 0 0 0 0 0 0 0
0 0 0 0 0 0 0 0 0 0 0 0 0 0 0 0 0 0 0 0 0 0 0 0 0 0 0 0 0 0 0 0 0 0 0
0 0 0 0 0 0 0 0 0 0 0 0 0 0 0 0 0 0 0 0 0 0 0 0 0 0 0 0 0 0 0 0 0 0 0
0 0 0 0 0 0 0 0 0 0 0 0 0 0 0 0 0 0 0 0 0 0 0 0 0 0 0 0 0 0 0 0 0 0 0
0 0 0 0 0 0 0 0 0 0 0 0 0 0 0 0 0 0 0 0 0 0 0 0 0 0 0 0 0 0 0 0 0 0 0
0 0 0 0 0 0 0 0 0 0 0 0 0 0 0 0 0 0 0 0 0 0 0 0 0 0 0 0 0 0 0 0 0 0 0
0 0 0 0 0 0 0 0 0 0 0 0 0 0 0 0 0 0 0 0 0 0 0 0 0 0 0 0 0 0 0 0 0 0 0
0 0 0 0 0 0 0 0 0 0 0 0 0 0 0 0 0 0 0 0 0 0 0 0 0 0 0 0 0 0 0 0 0 0 0
0 0 0 0 0 0 0 0 0 0 0 0 0 0 0 0 0 0 0 0 0 0 0 0 0 0 0 0 0 0 0 0 0 0 0
0 0 0 0 0 0 0 0 0 0 0 0 0 0 0 0 0 0 0 0 0 0 0 0 0 0 0 0 0 0 0 0 0 0 0
0 0 0 0 0 0 0 0 0 0 0 0 0 0 0 0 0 0 0 0 0 0 0 0 0 0 0 0 0 0 0 0 0 0 0
0 0 0 0 0 0 0 0 0 0 0 0 0 0 0 0 0 0 0 0 0 0 0 0 0 0 0 0 0 0 0 0 0 0 0
0 0 0 0 0 0 0 0 0 0 0 0 0 0 0 0 0 0 0 0 0 0 0 0 0 0 0 0 0 0 0 0 0 0 0
0 0 0 0 0 0 0 0 0 0 0 0 0 0 0 0 0 0 0 0 0 0 0 0 0 0 0 0 0 0 0 0 0 0 0
0 0 0 0 0 0 0 0 0 0 0 0 0 0 0 0 0 0 0 0 0 0 0 0 0 0 0 0 0 0 0 0 0 0 0
0 0 0 0 0 0 0 0 0 0 0 0 0 0 0 0 0 0 0 0 0 0 0 0 0 0 0 0 0 0 0 0 0 0 0
0 0 0 0 0 0 0 0 0 0 0 0 0 0 0 0 0 0 0 0 0 0 0 0 0 0 0 0 0 0 0 0 0 0 0
0 0 0 0 0 0 0 0 0 0 0 0 0 0 0 0 0 0 0 0 0 0 0 0 0 0 0 0 0 0 0 0 0 0 0
0 0 0 0 0 0 0 0 0 0 0 0 0 0 0 0 0 0 0 0 0 0 0 0 0 0 0 0 0 0 0 0 0 0 0
0 0 0 0 0 0 0 0 0 0 0 0 0 0 0 0 0 0 0 0 0 0 0 0 0 0 0 0 0 0 0 0 0 0 0
0 0 0 0 0 0 0 0 0 0 0 0 0 0 0 0 0 0 0 0 0 0 0 0 0 0 0 0 0 0 0 0 0 0 0
0 0 0 0 0 0 0 0 0 0 0 0 0 0 0 0 0 0 0 0 0 0 0 0 0 0 0 0 0 0 0 0 0 0 0
0 0 0 0 0 0 0 0 0 0 0 0 0 0 0 0 0 0 0 0 0 0 0 0 0 0 0 0 0 0 0 0 0 0 0
0 0 0 0 0 0 0 0 0 0 0 0 0 0 0 0 0 0 0 0 0 0 0 0 0 0 0 0 0 0 0 0 0 0 0
0 0 0 0 0 0 0 0 0 0 0 0 0 0 0 0 0 0 0 0 0 0 0 0 0 0 0 0 0 0 0 0 0 0 0
0 0 0 0 0 0 0 0 0 0 0 0 0 0 0 0 0 0 0 0 0 0 0 0 0 0 0 0 0 0 0 0 0 0 0
0 0 0 0 0 0 0 0 0 0 0 0 0 0 0 0 0 0 0 0 0 0 0 0 0 0 0 0 0 0 0 0 0 0 0
0 0 0 0 0 0 0 0 0 0 0 0 0 0 0 0 0 0 0 0 0 0 0 0 0 0 0 0 0 0 0 0 0 0 0
0 0 0 0 0 0 0 0 0 0 0 0 0 0 0 0 0 0 0 0 0 0 0 0 0 0 0 0 0 0 0 0 0 0 0
0 0 0 0 0 0 0 0 0 0 0 0 0 0 0 0 0 0 0 0 0 0 0 0 0 0 0 0 0 0 0 0 0 0 0
0 0 0 0 0 0 0 0 0 0
0 0 0 0 0 0 0 0 0 0 0 0 0 0 0 0 0 0 0 0 0 0 0 0 0 0 0 0 0 0 0 0 0 0 0
0 0 0 0 0 0 0 0 0 0 0 0 0 0 0 0 0 0 0 0 0 0 0 0 0 0 0 0 0 0 0 0 0 0 0
0 0 0 0 0 0 0 0 0 0 0 0 0 0 0 0 0 0 0 0 0 0 0 0 0 0 0 0 0 0 0 0 0 0 0
0 0 0 0 0 0 0 0 0 0 0 0 0 0 0 0 0 0 0 0 0 0 0 0 0 0 0 0 0 0 0 0 0 0 0
0 0 0 0 0 0 0 0 0 0 0 0 0 0 0 0 0 0 0 0 0 0 0 0 0 0 0 0 0 0 0 0 0 0 0
0 0 0 0 0 0 0 0 0 0 0 0 0 0 0 0 0 0 0 0 0 0 0 0 0 0 0 0 0 0 0 0 0 0 0
0 0 0 0 0 0 0 0 0 0 0 0 0 0 0 0 0 0 0 0 0 0 0 0 0 0 0 0 0 0 0 0 0 0 0
0 0 0 0 0 0 0 0 0 0 0 0 0 0 0 0 0 0 0 0 0 0 0 0 0 0 0 0 0 0 0 0 0 0 0
0 0 0 0 0 0 0 0 0 0 0 0 0 0 0 0 0 0 0 0 0 0 0 0 0 0 0 0 0 0 0 0 0 0 0
0 0 0 0 0 0 0 0 0 0 0 0 0 0 0 0 0 0 0 0 0 0 0 0 0 0 0 0 0 0 0 0 0 0 0
0 0 0 0 0 0 0 0 0 0 0 0 0 0 0 0 0 0 0 0 0 0 0 0 0 0 0 0 0 0 0 0 0 0 0
0 0 0 0 0 0 0 0 0 0 0 0 0 0 0 0 0 0 0 0 0 0 0 0 0 0 0 0 0 0 0 0 0 0 0
0 0 0 0 0 0 0 0 0 0 0 0 0 0 0 0 0 0 0 0 0 0 0 0 0 0 0 0 0 0 0 0 0 0 0
0 0 0 0 0 0 0 0 0 0 0 0 0 0 0 0 0 0 0 0 0 0 0 0 0 0 0 0 0 0 0 0 0 0 0
0 0 0 0 0 0 0 0 0 0 0 0 0 0 0 0 0 0 0 0 0 0 0 0 0 0 0 0 0 0 0 0 0 0 0
0 0 0 0 0 0 0 0 0 0 0 0 0 0 0 0 0 0 0 0 0 0 0 0 0 0 0 0 0 0 0 0 0 0 0
0 0 0 0 0 0 0 0 0 0 0 0 0 0 0 0 0 0 0 0 0 0 0 0 0 0 0 0 0 0 0 0 0 0 0
0 0 0 0 0 0 0 0 0 0 0 0 0 0 0 0 0 0 0 0 0 0 0 0 0 0 0 0 0 0 0 0 0 0 0
0 0 0 0 0 0 0 0 0 0 0 0 0 0 0 0 0 0 0 0 0 0 0 0 0 0 0 0 0 0 0 0 0 0 0
0 0 0 0 0 0 0 0 0 0 0 0 0 0 0 0 0 0 0 0 0 0 0 0 0 0 0 0 0 0 0 0 0 0 0
0 0 0 0 0 0 0 0 0 0 0 0 0 0 0 0 0 0 0 0 0 0 0 0 0 0 0 0 0 0 0 0 0 0 0
0 0 0 0 0 0 0 0 0 0 0 0 0 0 0 0 0 0 0 0 0 0 0 0 0 0 0 0 0 0 0 0 0 0 0
0 0 0 0 0 0 0 0 0 0 0 0 0 0 0 0 0 0 0 0 0 0 0 0 0 0 0 0 0 0 0 0 0 0 0
0 0 0 0 0 0 0 0 0 0 0 0 0 0 0 0 0 0 0 0 0 0 0 0 0 0 0 0 0 0 0 0 0 0 0
0 0 0 0 0 0 0 0 0 0 0 0 0 0 0 0 0 0 0 0 0 0 0 0 0 0 0 0 0 0 0 0 0 0 0
0 0 0 0 0 0 0 0 0 0 0 0 0 0 0 0 0 0 0 0 0 0 0 0 0 0 0 0 0 0 0 0 0 0 0
0 0 0 0 0 0 0 0 0 0 0 0 0 0 0 0 0 0 0 0 0 0 0 0 0 0 0 0 0 0 0 0 0 0 0
0 0 0 0 0 0 0 0 0 0 0 0 0 0 0 0 0 0 0 0 0 0 0 0 0 0 0 0 0 0 0 0 0 0 0
0 0 0 0 0 0 0 0 0 0 0 0 0 0 0 0 0 0 0 0 0 0 0 0 0 0 0 0 0 0 0 0 0 0 0
0 0 0 0 0 0 0 0 0 0 0 0 0 0 0 0 0 0 0 0 0 0 0 0 0 0 0 0 0 0 0 0 0 0 0
0 0 0 0 0 0 0 0 0 0 0 0 0 0 0 0 0 0 0 0 0 0 0 0 0 0 0 0 0 0 0 0 0 0 0
0 0 0 0 0 0 0 0 0 0 0 0 0 0 0 0 0 0 0 0 0 0 0 0 0 0 0 0 0 0 0 0 0 0 0
0 0 0 0 0 0 0 0 0 0 0 0 0 0 0 0 0 0 0 0 0 0 0 0 0 0 0 0 0 0 0 0 0 0 0
0 0 0 0 0 0 0 0 0 0 0 0 0 0 0 0 0 0 0 0 0 0 0 0 0 0 0 0 0 0 0 0 0 0 0
0 0 0 0 0 0 0 0 0 0
0 0 0 0 0 0 0 0 0 0 0 0 0 0 0 0 0 0 0 0 0 0 0 0 0 0 0 0 0 0 0 0 0 0 0
0 0 0 0 0 0 0 0 0 0 0 0 0 0 0 0 0 0 0 0 0 0 0 0 0 0 0 0 0 0 0 0 0 0 0
0 0 0 0 0 0 0 0 0 0 0 0 0 0 0 0 0 0 0 0 0 0 0 0 0 0 0 0 0 0 0 0 0 0 0
0 0 0 0 0 0 0 0 0 0 0 0 0 0 0 0 0 0 0 0 0 0 0 0 0 0 0 0 0 0 0 0 0 0 0
0 0 0 0 0 0 0 0 0 0 0 0 0 0 0 0 0 0 0 0 0 0 0 0 0 0 0 0 0 0 0 0 0 0 0
0 0 0 0 0 0 0 0 0 0 0 0 0 0 0 0 0 0 0 0 0 0 0 0 0 0 0 0 0 0 0 0 0 0 0
0 0 0 0 0 0 0 0 0 0 0 0 0 0 0 0 0 0 0 0 0 0 0 0 0 0 0 0 0 0 0 0 0 0 0
0 0 0 0 0 0 0 0 0 0 0 0 0 0 0 0 0 0 0 0 0 0 0 0 0 0 0 0 0 0 0 0 0 0 0
0 0 0 0 0 0 0 0 0 0 0 0 0 0 0 0 0 0 0 0 0 0 0 0 0 0 0 0 0 0 0 0 0 0 0
0 0 0 0 0 0 0 0 0 0 0 0 0 0 0 0 0 0 0 0 0 0 0 0 0 0 0 0 0 0 0 0 0 0 0
0 0 0 0 0 0 0 0 0 0 0 0 0 0 0 0 0 0 0 0 0 0 0 0 0 0 0 0 0 0 0 0 0 0 0
0 0 0 0 0 0 0 0 0 0 0 0 0 0 0 0 0 0 0 0 0 0 0 0 0 0 0 0 0 0 0 0 0 0 0
0 0 0 0 0 0 0 0 0 0 0 0 0 0 0 0 0 0 0 0 0 0 0 0 0 0 0 0 0 0 0 0 0 0 0
0 0 0 0 0 0 0 0 0 0 0 0 0 0 0 0 0 0 0 0 0 0 0 0 0 0 0 0 0 0 0 0 0 0 0
0 0 0 0 0 0 0 0 0 0 0 0 0 0 0 0 0 0 0 0 0 0 0 0 0 0 0 0 0 0 0 0 0 0 0
0 0 0 0 0 0 0 0 0 0 0 0 0 0 0 0 0 0 0 0 0 0 0 0 0 0 0 0 0 0 0 0 0 0 0
0 0 0 0 0 0 0 0 0 0 0 0 0 0 0 0 0 0 0 0 0 0 0 0 0 0 0 0 0 0 0 0 0 0 0
0 0 0 0 0 0 0 0 0 0 0 0 0 0 0 0 0 0 0 0 0 0 0 0 0 0 0 0 0 0 0 0 0 0 0
0 0 0 0 0 0 0 0 0 0 0 0 0 0 0 0 0 0 0 0 0 0 0 0 0 0 0 0 0 0 0 0 0 0 0
0 0 0 0 0 0 0 0 0 0 0 0 0 0 0 0 0 0 0 0 0 0 0 0 0 0 0 0 0 0 0 0 0 0 0
0 0 0 0 0 0 0 0 0 0 0 0 0 0 0 0 0 0 0 0 0 0 0 0 0 0 0 0 0 0 0 0 0 0 0
0 0 0 0 0 0 0 0 0 0 0 0 0 0 0 0 0 0 0 0 0 0 0 0 0 0 0 0 0 0 0 0 0 0 0
0 0 0 0 0 0 0 0 0 0 0 0 0 0 0 0 0 0 0 0 0 0 0 0 0 0 0 0 0 0 0 0 0 0 0
0 0 0 0 0 0 0 0 0 0 0 0 0 0 0 0 0 0 0 0 0 0 0 0 0 0 0 0 0 0 0 0 0 0 0
0 0 0 0 0 0 0 0 0 0 0 0 0 0 0 0 0 0 0 0 0 0 0 0 0 0 0 0 0 0 0 0 0 0 0
0 0 0 0 0 0 0 0 0 0 0 0 0 0 0 0 0 0 0 0 0 0 0 0 0 0 0 0 0 0 0 0 0 0 0
0 0 0 0 0 0 0 0 0 0 0 0 0 0 0 0 0 0 0 0 0 0 0 0 0 0 0 0 0 0 0 0 0 0 0
0 0 0 0 0 0 0 0 0 0 0 0 0 0 0 0 0 0 0 0 0 0 0 0 0 0 0 0 0 0 0 0 0 0 0
0 0 0 0 0 0 0 0 0 0 0 0 0 0 0 0 0 0 0 0 0 0 0 0 0 0 0 0 0 0 0 0 0 0 0
0 0 0 0 0 0 0 0 0 0 0 0 0 0 0 0 0 0 0 0 0 0 0 0 0 0 0 0 0 0 0 0 0 0 0
0 0 0 0 0 0 0 0 0 0 0 0 0 0 0 0 0 0 0 0 0 0 0 0 0 0 0 0 0 0 0 0 0 0 0
0 0 0 0 0 0 0 0 0 0 0 0 0 0 0 0 0 0 0 0 0 0 0 0 0 0 0 0 0 0 0 0 0 0 0
0 0 0 0 0 0 0 0 0 0 0 0 0 0 0 0 0 0 0 0 0 0 0 0 0 0 0 0 0 0 0 0 0 0 0
0 0 0 0 0 0 0 0 0 0 0 0 0 0 0 0 0 0 0 0 0 0 0 0 0 0 0 0 0 0 0 0 0 0 0
0 0 0 0 0 0 0 0 0 0
0 0 0 0 0 0 0 0 0 0 0 0 0 0 0 0 0 0 0 0 0 0 0 0 0 0 0 0 0 0 0 0 0 0 0
0 0 0 0 0 0 0 0 0 0 0 0 0 0 0 0 0 0 0 0 0 0 0 0 0 0 0 0 0 0 0 0 0 0 0
0 0 0 0 0 0 0 0 0 0 0 0 0 0 0 0 0 0 0 0 0 0 0 0 0 0 0 0 0 0 0 0 0 0 0
0 0 0 0 0 0 0 0 0 0 0 0 0 0 0 0 0 0 0 0 0 0 0 0 0 0 0 0 0 0 0 0 0 0 0
0 0 0 0 0 0 0 0 0 0 0 0 0 0 0 0 0 0 0 0 0 0 0 0 0 0 0 0 0 0 0 0 0 0 0
0 0 0 0 0 0 0 0 0 0 0 0 0 0 0 0 0 0 0 0 0 0 0 0 0 0 0 0 0 0 0 0 0 0 0
0 0 0 0 0 0 0 0 0 0 0 0 0 0 0 0 0 0 0 0 0 0 0 0 0 0 0 0 0 0 0 0 0 0 0
0 0 0 0 0 0 0 0 0 0 0 0 0 0 0 0 0 0 0 0 0 0 0 0 0 0 0 0 0 0 0 0 0 0 0
0 0 0 0 0 0 0 0 0 0 0 0 0 0 0 0 0 0 0 0 0 0 0 0 0 0 0 0 0 0 0 0 0 0 0
0 0 0 0 0 0 0 0 0 0 0 0 0 0 0 0 0 0 0 0 0 0 0 0 0 0 0 0 0 0 0 0 0 0 0
0 0 0 0 0 0 0 0 0 0 0 0 0 0 0 0 0 0 0 0 0 0 0 0 0 0 0 0 0 0 0 0 0 0 0
0 0 0 0 0 0 0 0 0 0 0 0 0 0 0 0 0 0 0 0 0 0 0 0 0 0 0 0 0 0 0 0 0 0 0
0 0 0 0 0 0 0 0 0 0 0 0 0 0 0 0 0 0 0 0 0 0 0 0 0 0 0 0 0 0 0 0 0 0 0
0 0 0 0 0 0 0 0 0 0 0 0 0 0 0 0 0 0 0 0 0 0 0 0 0 0 0 0 0 0 0 0 0 0 0
0 0 0 0 0 0 0 0 0 0 0 0 0 0 0 0 0 0 0 0 0 0 0 0 0 0 0 0 0 0 0 0 0 0 0
0 0 0 0 0 0 0 0 0 0 0 0 0 0 0 0 0 0 0 0 0 0 0 0 0 0 0 0 0 0 0 0 0 0 0
0 0 0 0 0 0 0 0 0 0 0 0 0 0 0 0 0 0 0 0 0 0 0 0 0 0 0 0 0 0 0 0 0 0 0
0 0 0 0 0 0 0 0 0 0 0 0 0 0 0 0 0 0 0 0 0 0 0 0 0 0 0 0 0 0 0 0 0 0 0
0 0 0 0 0 0 0 0 0 0 0 0 0 0 0 0 0 0 0 0 0 0 0 0 0 0 0 0 0 0 0 0 0 0 0
0 0 0 0 0 0 0 0 0 0 0 0 0 0 0 0 0 0 0 0 0 0 0 0 0 0 0 0 0 0 0 0 0 0 0
0 0 0 0 0 0 0 0 0 0 0 0 0 0 0 0 0 0 0 0 0 0 0 0 0 0 0 0 0 0 0 0 0 0 0
0 0 0 0 0 0 0 0 0 0 0 0 0 0 0 0 0 0 0 0 0 0 0 0 0 0 0 0 0 0 0 0 0 0 0
0 0 0 0 0 0 0 0 0 0 0 0 0 0 0 0 0 0 0 0 0 0 0 0 0 0 0 0 0 0 0 0 0 0 0
0 0 0 0 0 0 0 0 0 0 0 0 0 0 0 0 0 0 0 0 0 0 0 0 0 0 0 0 0 0 0 0 0 0 0
0 0 0 0 0 0 0 0 0 0 0 0 0 0 0 0 0 0 0 0 0 0 0 0 0 0 0 0 0 0 0 0 0 0 0
0 0 0 0 0 0 0 0 0 0 0 0 0 0 0 0 0 0 0 0 0 0 0 0 0 0 0 0 0 0 0 0 0 0 0
0 0 0 0 0 0 0 0 0 0 0 0 0 0 0 0 0 0 0 0 0 0 0 0 0 0 0 0 0 0 0 0 0 0 0
0 0 0 0 0 0 0 0 0 0 0 0 0 0 0 0 0 0 0 0 0 0 0 0 0 0 0 0 0 0 0 0 0 0 0
0 0 0 0 0 0 0 0 0 0 0 0 0 0 0 0 0 0 0 0 0 0 0 0 0 0 0 0 0 0 0 0 0 0 0
0 0 0 0 0 0 0 0 0 0 0 0 0 0 0 0 0 0 0 0 0 0 0 0 0 0 0 0 0 0 0 0 0 0 0
0 0 0 0 0 0 0 0 0 0 0 0 0 0 0 0 0 0 0 0 0 0 0 0 0 0 0 0 0 0 0 0 0 0 0
0 0 0 0 0 0 0 0 0 0 0 0 0 0 0 0 0 0 0 0 0 0 0 0 0 0 0 0 0 0 0 0 0 0 0
0 0 0 0 0 0 0 0 0 0 0 0 0 0 0 0 0 0 0 0 0 0 0 0 0 0 0 0 0 0 0 0 0 0 0
0 0 0 0 0 0 0 0 0 0 0 0 0 0 0 0 0 0 0 0 0 0 0 0 0 0 0 0 0 0 0 0 0 0 0
0 0 0 0 0 0 0 0 0 0
9 0 1 9 0 1 9 0 1 9 0 1 9 0 1 9 0 1 9 0 1 9 0 1 9 0 1 9 0 1 9 0 1 9 0
1 9 0 1 9 0 1 9 0 1 9 0 1 9 0 1 9 0 1 9 0 1 9 0 1 9 0 1 9 0 1 9 0 1 9
0 1 9 0 1 9 0 1 9 0 1 9 0 1 9 0 1 9 0 1 9 0 1 9 0 1 9 0 1 9 0 1 9 0 1
9 0 1 9 0 1 9 0 1 9 0 1 9 0 1 9 0 1 9 0 1 9 0 1 9 0 1 9 0 1 9 0 1 9 0
1 9 0 1 9 0 1 9 0 1 9 0 1 9 0 1 9 0 1 9 0 1 9 0 1 9 0 1 9 0 1 9 0 1 9
0 1 9 0 1 9 0 1 9 0 1 9 0 1 9 0 1 9 0 1 9 0 1 9 0 1 9 0 1 9 0 1 9 0 1
9 0 1 9 0 1 9 0 1 9 0 1 9 0 1 9 0 1 9 0 1 9 0 1 9 0 1 9 0 1 9 0 1 9 0
1 9 0 1 9 0 1 9 0 1 9 0 1 9 0 1 9 0 1 9 0 1 9 0 1 9 0 1 9 0 1 9 0 1 9
0 1 9 0 1 9 0 1 9 0 1 9 0 1 9 0 1 9 0 1 9 0 1 9 0 1 9 0 1 9 0 1 9 0 1
9 0 1 9 0 1 9 0 1 9 0 1 9 0 1 9 0 1 9 0 1 9 0 1 9 0 1 9 0 1 9 0 1 9 0
1 9 0 1 9 0 1 9 0 1 9 0 1 9 0 1 9 0 1 9 0 1 9 0 1 9 0 1 9 0 1 9 0 1 9
0 1 9 0 1 9 0 1 9 0 1 9 0 1 9 0 1 9 0 1 9 0 1 9 0 1 9 0 1 9 0 1 9 0 1
9 0 1 9 0 1 9 0 1 9 0 1 9 0 1 9 0 1 9 0 1 9 0 1 9 0 1 9 0 1 9 0 1 9 0
1 9 0 1 9 0 1 9 0 1 9 0 1 9 0 1 9 0 1 9 0 1 9 0 1 9 0 1 9 0 1 9 0 1 9
0 1 9 0 1 9 0 1 9 0 1 9 0 1 9 0 1 9 0 1 9 0 1 9 0 1 9 0 1 9 0 1 9 0 1
9 0 1 9 0 1 9 0 1 9 0 1 9 0 1 9 0 1 9 0 1 9 0 1 9 0 1 9 0 1 9 0 1 9 0
1 9 0 1 9 0 1 9 0 1 9 0 1 9 0 1 9 0 1 9 0 1 9 0 1 9 0 1 9 0 1 9 0 1 9
0 1 9 0 1 9 0 1 9 0 1 9 0 1 9 0 1 9 0 1 9 0 1 9 0 1 9 0 1 9 0 1 9 0 1
9 0 1 9 0 1 9 0 1 9 0 1 9 0 1 9 0 1 9 0 1 9 0 1 9 0 1 9 0 1 9 0 1 9 0
1 9 0 1 9 0 1 9 0 1 9 0 1 9 0 1 9 0 1 9 0 1 9 0 1 9 0 1 9 0 1 9 0 1 9
0 1 9 0 1 9 0 1 9 0 1 9 0 1 9 0 1 9 0 1 9 0 1 9 0 1 9 0 1 9 0 1 9 0 1
9 0 1 9 0 1 9 0 1 9 0 1 9 0 1 9 0 1 9 0 1 9 0 1 9 0 1 9 0 1 9 0 1 9 0
1 9 0 1 9 0 1 9 0 1 9 0 1 9 0 1 9 0 1 9 0 1 9 0 1 9 0 1 9 0 1 9 0 1 9
0 1 9 0 1 9 0 1 9 0 1 9 0 1 9 0 1 9 0 1 9 0 1 9 0 1 9 0 1 9 0 1 9 0 1
9 0 1 9 0 1 9 0 1 9 0 1 9 0 1 9 0 1 9 0 1 9 0 1 9 0 1 9 0 1 9 0 1 9 0
1 9 0 1 9 0 1 9 0 1 9 0 1 9 0 1 9 0 1 9 0 1 9 0 1 9 0 1 9 0 1 9 0 1 9
0 1 9 0 1 9 0 1 9 0 1 9 0 1 9 0 1 9 0 1 9 0 1 9 0 1 9 0 1 9 0 1 9 0 1
9 0 1 9 0 1 9 0 1 9 0 1 9 0 1 9 0 1 9 0 1 9 0 1 9 0 1 9 0 1 9 0 1 9 0
1 9 0 1 9 0 1 9 0 1 9 0 1 9 0 1 9 0 1 9 0 1 9 0 1 9 0 1 9 0 1 9 0 1 9
0 1 9 0 1 9 0 1 9 0 1 9 0 1 9 0 1 9 0 1 9 0 1 9 0 1 9 0 1 9 0 1 9 0 1
9 0 1 9 0 1 9 0 1 9 0 1 9 0 1 9 0 1 9 0 1 9 0 1 9 0 1 9 0 1 9 0 1 9 0
1 9 0 1 9 0 1 9 0 1 9 0 1 9 0 1 9 0 1 9 0 1 9 0 1 9 0 1 9 0 1 9 0 1 9
0 1 9 0 1 9 0 1 9 0 1 9 0 1 9 0 1 9 0 1 9 0 1 9 0 1 9 0 1 9 0 1 9 0 1
9 0 1 9 0 1 9 0 1 9 0 1 9 0 1 9 0 1 9 0 1 9 0 1 9 0 1 9 0 1 9 0 1 9 0
1 9 0 1 9 0 1 9 0 1
9 0 2 9 0 2 9 0 2 9 0 2 9 0 2 9 0 2 9 0 2 9 0 2 9 0 2 9 0 2 9 0 2 9 0
2 9 0 2 9 0 2 9 0 2 9 0 2 9 0 2 9 0 2 9 0 2 9 0 2 9 0 2 9 0 2 9 0 2 9
0 2 9 0 2 9 0 2 9 0 2 9 0 2 9 0 2 9 0 2 9 0 2 9 0 2 9 0 2 9 0 2 9 0 2
9 0 2 9 0 2 9 0 2 9 0 2 9 0 2 9 0 2 9 0 2 9 0 2 9 0 2 9 0 2 9 0 2 9 0
2 9 0 2 9 0 2 9 0 2 9 0 2 9 0 2 9 0 2 9 0 2 9 0 2 9 0 2 9 0 2 9 0 2 9
0 2 9 0 2 9 0 2 9 0 2 9 0 2 9 0 2 9 0 2 9 0 2 9 0 2 9 0 2 9 0 2 9 0 2
9 0 2 9 0 2 9 0 2 9 0 2 9 0 2 9 0 2 9 0 2 9 0 2 9 0 2 9 0 2 9 0 2 9 0
2 9 0 2 9 0 2 9 0 2 9 0 2 9 0 2 9 0 2 9 0 2 9 0 2 9 0 2 9 0 2 9 0 2 9
0 2 9 0 2 9 0 2 9 0 2 9 0 2 9 0 2 9 0 2 9 0 2 9 0 2 9 0 2 9 0 2 9 0 2
9 0 2 9 0 2 9 0 2 9 0 2 9 0 2 9 0 2 9 0 2 9 0 2 9 0 2 9 0 2 9 0 2 9 0
2 9 0 2 9 0 2 9 0 2 9 0 2 9 0 2 9 0 2 9 0 2 9 0 2 9 0 2 9 0 2 9 0 2 9
0 2 9 0 2 9 0 2 9 0 2 9 0 2 9 0 2 9 0 2 9 0 2 9 0 2 9 0 2 9 0 2 9 0 2
9 0 2 9 0 2 9 0 2 9 0 2 9 0 2 9 0 2 9 0 2 9 0 2 9 0 2 9 0 2 9 0 2 9 0
2 9 0 2 9 0 2 9 0 2 9 0 2 9 0 2 9 0 2 9 0 2 9 0 2 9 0 2 9 0 2 9 0 2 9
0 2 9 0 2 9 0 2 9 0 2 9 0 2 9 0 2 9 0 2 9 0 2 9 0 2 9 0 2 9 0 2 9 0 2
9 0 2 9 0 2 9 0 2 9 0 2 9 0 2 9 0 2 9 0 2 9 0 2 9 0 2 9 0 2 9 0 2 9 0
2 9 0 2 9 0 2 9 0 2 9 0 2 9 0 2 9 0 2 9 0 2 9 0 2 9 0 2 9 0 2 9 0 2 9
0 2 9 0 2 9 0 2 9 0 2 9 0 2 9 0 2 9 0 2 9 0 2 9 0 2 9 0 2 9 0 2 9 0 2
9 0 2 9 0 2 9 0 2 9 0 2 9 0 2 9 0 2 9 0 2 9 0 2 9 0 2 9 0 2 9 0 2 9 0
2 9 0 2 9 0 2 9 0 2 9 0 2 9 0 2 9 0 2 9 0 2 9 0 2 9 0 2 9 0 2 9 0 2 9
0 2 9 0 2 9 0 2 9 0 2 9 0 2 9 0 2 9 0 2 9 0 2 9 0 2 9 0 2 9 0 2 9 0 2
9 0 2 9 0 2 9 0 2 9 0 2 9 0 2 9 0 2 9 0 2 9 0 2 9 0 2 9 0 2 9 0 2 9 0
2 9 0 2 9 0 2 9 0 2 9 0 2 9 0 2 9 0 2 9 0 2 9 0 2 9 0 2 9 0 2 9 0 2 9
0 2 9 0 2 9 0 2 9 0 2 9 0 2 9 0 2 9 0 2 9 0 2 9 0 2 9 0 2 9 0 2 9 0 2
9 0 2 9 0 2 9 0 2 9 0 2 9 0 2 9 0 2 9 0 2 9 0 2 9 0 2 9 0 2 9 0 2 9 0
2 9 0 2 9 0 2 9 0 2 9 0 2 9 0 2 9 0 2 9 0 2 9 0 2 9 0 2 9 0 2 9 0 2 9
0 2 9 0 2 9 0 2 9 0 2 9 0 2 9 0 2 9 0 2 9 0 2 9 0 2 9 0 2 9 0 2 9 0 2
9 0 2 9 0 2 9 0 2 9 0 2 9 0 2 9 0 2 9 0 2 9 0 2 9 0 2 9 0 2 9 0 2 9 0
2 9 0 2 9 0 2 9 0 2 9 0 2 9 0 2 9 0 2 9 0 2 9 0 2 9 0 2 9 0 2 9 0 2 9
0 2 9 0 2 9 0 2 9 0 2 9 0 2 9 0 2 9 0 2 9 0 2 9 0 2 9 0 2 9 0 2 9 0 2
9 0 2 9 0 2 9 0 2 9 0 2 9 0 2 9 0 2 9 0 2 9 0 2 9 0 2 9 0 2 9 0 2 9 0
2 9 0 2 9 0 2 9 0 2 9 0 2 9 0 2 9 0 2 9 0 2 9 0 2 9 0 2 9 0 2 9 0 2 9
0 2 9 0 2 9 0 2 9 0 2 9 0 2 9 0 2 9 0 2 9 0 2 9 0 2 9 0 2 9 0 2 9 0 2
9 0 2 9 0 2 9 0 2 9 0 2 9 0 2 9 0 2 9 0 2 9 0 2 9 0 2 9 0 2 9 0 2 9 0
2 9 0 2 9 0 2 9 0 2
9 0 2 9 0 2 9 0 2 9 0 2 9 0 2 9 0 2 9 0 2 9 0 2 9 0 2 9 0 2 9 0 2 9 0
2 9 0 2 9 0 2 9 0 2 9 0 2 9 0 2 9 0 2 9 0 2 9 0 2 9 0 2 9 0 2 9 0 2 9
0 2 9 0 2 9 0 2 9 0 2 9 0 2 9 0 2 9 0 2 9 0 2 9 0 2 9 0 2 9 0 2 9 0 2
9 0 2 9 0 2 9 0 2 9 0 2 9 0 2 9 0 2 9 0 2 9 0 2 9 0 2 9 0 2 9 0 2 9 0
2 9 0 2 9 0 2 9 0 2 9 0 2 9 0 2 9 0 2 9 0 2 9 0 2 9 0 2 9 0 2 9 0 2 9
0 2 9 0 2 9 0 2 9 0 2 9 0 2 9 0 2 9 0 2 9 0 2 9 0 2 10 0 2 10 0 2 10 0
2 10 0 2 10 0 2 10 0 2 10 0 2 10 0 2 10 0 2 10 0 2 10 0 2 10 0 2 10 0
2 10 0 2 10 0 2 10 0 2 10 0 2 10 0 2 10 0 2 10 0 2 10 0 2 10 0 2 10 0
2 10 0 2 10 0 2 10 0 2 10 0 2 10 0 2 10 0 2 10 0 2 10 0 2 10 0 2 10 0
2 10 0 2 10 0 2 10 0 2 10 0 2 10 0 2 10 0 2 10 0 2 10 0 2 10 0 2 10 0
2 10 0 2 10 0 2 10 0 2 10 0 2 10 0 2 10 0 2 10 0 2 10 0 2 10 0 2 10 0
2 10 0 2 10 0 2 10 0 2 10 0 2 10 0 2 10 0 2 10 0 2 10 0 2 10 0 2 10 0
2 10 0 2 10 0 2 10 0 2 10 0 2 10 0 2 10 0 2 10 0 2 10 0 2 10 0 2 10 0
2 10 0 2 10 0 2 10 0 2 10 0 2 10 0 2 10 0 2 10 0 2 10 0 2 10 0 2 10 0
2 10 0 2 10 0 2 10 0 2 10 0 2 10 0 2 10 0 2 10 0 2 10 0 2 10 0 2 10 0
2 10 0 2 10 0 2 10 0 2 10 0 2 10 0 2 10 0 2 10 0 2 10 0 2 10 0 2 10 0
2 10 0 2 10 0 2 10 0 2 10 0 2 10 0 2 10 0 2 10 0 2 10 0 2 10 0 2 10 0
2 10 0 2 10 0 2 10 0 2 10 0 2 10 0 2 10 0 2 10 0 2 10 0 2 10 0 2 10 0
2 10 0 2 10 0 2 10 0 2 10 0 2 10 0 2 10 0 2 10 0 2 10 0 2 10 0 2 10 0
2 10 0 2 10 0 2 10 0 2 10 0 2 10 0 2 10 0 2 10 0 2 10 0 2 10 0 2 10 0
2 10 0 2 10 0 2 10 0 2 10 0 2 10 0 2 10 0 2 10 0 2 10 0 2 10 0 2 10 0
2 10 0 2 10 0 2 10 0 2 10 0 2 10 0 2 10 0 2 10 0 2 10 0 2 10 0 2 10 0
2 10 0 2 10 0 2 10 0 2 10 0 2 10 0 2 10 0 2 10 0 2 10 0 2 10 0 2 10 0
2 10 0 2 10 0 2 10 0 2 10 0 2 10 0 2 10 0 2 10 0 2 10 0 2 10 0 2 10 0
2 10 0 2 10 0 2 10 0 2 10 0 2 10 0 2 10 0 2 10 0 2 10 0 2 10 0 2 10 0
2 10 0 2 10 0 2 10 0 2 10 0 2 10 0 2 10 0 2 10 0 2 10 0 2 10 0 2 10 0
2 10 0 2 10 0 2 10 0 2 10 0 2 10 0 2 10 0 2 10 0 2 10 0 2 10 0 2 10 0
2 10 0 2 10 0 2 10 0 2 10 0 2 10 0 2 10 0 2 10 0 2 10 0 2 10 0 2 10 0
2 10 0 2 10 0 2 10 0 2 10 0 2 10 0 2 10 0 2 10 0 2 10 0 2 10 0 2 10 0
2 10 0 2 10 0 2 10 0 2 10 0 2 10 0 2 10 0 2 10 0 2 10 0 2 10 0 2 10 0
2 10 0 2 10 0 2 10 0 2 10 0 2 10 0 2 10 0 2 10 0 2 10 0 2 10 0 2 10 0
2 10 0 2 10 0 2 10 0 2 10 0 2 10 0 2 10 0 2 10 0 2 10 0 2 10 0 2 10 0
2 10 0 2 10 0 2 10 0 2 10 0 2 10 0 2 10 0 2 10 0 2 9 0 2 9 0 2 9 0 2 9
0 2 9 0 2 9 0 2 9 0 2 9 0 2 9 0 2 9 0 2 9 0 2 9 0 2 9 0 2 9 0 2 9 0 2
9 0 2 9 0 2 9 0 2 9 0 2 9 0 2 9 0 2 9 0 2 9 0 2 9 0 2 9 0 2 9 0 2 9 0
2 9 0 2 9 0 2 9 0 2 9 0 2 9 0 2 9 0 2 9 0 2 9 0 2 9 0 2 9 0 2 9 0 2 9
0 2 9 0 2 9 0 2 9 0 2 9 0 2 9 0 2 9 0 2 9 0 2 9 0 2 9 0 2 9 0 2 9 0 2
9 0 2 9 0 2 9 0 2 9 0 2 9 0 2 9 0 2 9 0 2 9 0 2 9 0 2 9 0 2 9 0 2 9 0
2 9 0 2
10 0 2 10 0 2 10 0 2 10 0 2 10 0 2 10 0 2 10 0 2 10 0 2 10 0 2 10 0 2
10 0 2 10 0 2 10 0 2 10 0 2 10 0 2 10 0 2 10 0 2 10 0 2 10 0 2 10 0 2
10 0 2 10 0 2 10 0 2 10 0 2 10 0 2 10 0 2 10 0 2 10 0 2 10 0 2 10 0 2
10 0 2 10 0 2 10 0 2 10 0 2 10 0 2 10 0 2 10 0 2 10 0 2 10 0 2 10 0 2
10 0 2 10 0 2 10 0 2 10 0 2 10 0 2 10 0 2 10 0 2 10 0 2 10 0 2 10 0 2
10 0 2 10 0 2 10 0 2 10 0 2 10 0 2 10 0 2 10 0 2 10 0 2 10 0 2 10 0 2
10 0 2 10 0 2 10 0 2 10 0 2 10 0 2 10 0 2 10 0 2 10 0 2 10 0 2 10 0 2
10 0 2 10 0 2 10 0 2 10 0 2 10 0 2 10 0 2 10 0 2 10 0 2 10 0 2 10 0 2
10 0 2 10 0 2 10 0 2 10 0 2 10 0 2 10 0 2 10 0 2 10 0 2 10 0 2 10 0 2
10 0 2 10 0 2 10 0 2 10 0 2 10 0 2 10 0 2 10 0 2 10 0 2 10 0 2 10 0 2
10 0 2 10 0 2 10 0 2 10 0 2 10 0 2 10 0 2 10 0 2 10 0 2 10 0 2 10 0 2
10 0 2 10 0 2 10 0 2 10 0 2 10 0 2 10 0 2 10 0 2 10 0 2 10 0 2 10 0 2
10 0 2 10 0 2 10 0 2 10 0 2 10 0 2 10 0 2 10 0 2 10 0 2 10 0 2 10 0 2
10 0 2 10 0 2 10 0 2 10 0 2 10 0 2 10 0 2 10 0 2 10 0 2 10 0 2 10 0 2
10 0 2 10 0 2 10 0 2 10 0 2 10 0 2 10 0 2 10 0 2 10 0 2 10 0 2 10 0 2
10 0 2 10 0 2 10 0 2 10 0 2 10 0 2 10 0 2 10 0 2 10 0 2 10 0 2 10 0 2
10 0 2 10 0 2 10 0 2 10 0 2 10 0 2 10 0 2 10 0 2 10 0 2 10 0 2 10 0 2
10 0 2 10 0 2 10 0 2 10 0 2 10 0 2 10 0 2 10 0 2 10 0 2 10 0 2 10 0 2
10 0 2 10 0 2 10 0 2 10 0 2 10 0 2 10 0 2 10 0 2 10 0 2 10 0 2 10 0 2
10 0 2 10 0 2 10 0 2 10 0 2 10 0 2 10 0 2 10 0 2 10 0 2 10 0 2 10 0 2
10 0 2 10 0 2 10 0 2 10 0 2 10 0 2 10 0 2 10 0 2 10 0 2 10 0 2 10 0 2
10 0 2 10 0 2 10 0 2 10 0 2 10 0 2 10 0 2 10 0 2 10 0 2 10 0 2 10 0 2
10 0 2 10 0 2 10 0 2 10 0 2 10 0 2 10 0 2 10 0 2 10 0 2 10 0 2 10 0 2
10 0 2 10 0 2 10 0 2 10 0 2 10 0 2 10 0 2 10 0 2 10 0 2 10 0 2 10 0 2
10 0 2 10 0 2 10 0 2 10 0 2 10 0 2 10 0 2 10 0 2 10 0 2 10 0 2 10 0 2
10 0 2 10 0 2 10 0 2 10 0 2 10 0 2 10 0 2 10 0 2 10 0 2 10 0 2 10 0 2
10 0 2 10 0 2 10 0 2 10 0 2 10 0 2 10 0 2 10 0 2 10 0 2 10 0 2 10 0 2
10 0 2 10 0 2 10 0 2 10 0 2 10 0 2 10 0 2 10 0 2 10 0 2 10 0 2 10 0 2
10 0 2 10 0 2 10 0 2 10 0 2 10 0 2 10 0 2 10 0 2 10 0 2 10 0 2 10 0 2
10 0 2 10 0 2 10 0 2 10 0 2 10 0 2 10 0 2 10 0 2 10 0 2 10 0 2 10 0 2
10 0 2 10 0 2 10 0 2 10 0 2 10 0 2 10 0 2 10 0 2 10 0 2 10 0 2 10 0 2
10 0 2 10 0 2 10 0 2 10 0 2 10 0 2 10 0 2 10 0 2 10 0 2 10 0 2 10 0 2
10 0 2 10 0 2 10 0 2 10 0 2 10 0 2 10 0 2 10 0 2 10 0 2 10 0 2 10 0 2
10 0 2 10 0 2 10 0 2 10 0 2 10 0 2 10 0 2 10 0 2 10 0 2 10 0 2 10 0 2
10 0 2 10 0 2 10 0 2 10 0 2 10 0 2 10 0 2 10 0 2 10 0 2 10 0 2 10 0 2
10 0 2 10 0 2 10 0 2 10 0 2 10 0 2 10 0 2 10 0 2 10 0 2 10 0 2 10 0 2
10 0 2 10 0 2 10 0 2 10 0 2 10 0 2 10 0 2 10 0 2 10 0 2 10 0 2 10 0 2
10 0 2 10 0 2 10 0 2 10 0 2 10 0 2 10 0 2 10 0 2 10 0 2 10 0 2 10 0 2
10 0 2 10 0 2 10 0 2 10 0 2 10 0 2 10 0 2 10 0 2 10 0 2 10 0 2 10 0 2
10 0 2 10 0 2 10 0 2 10 0 2 10 0 2 10 0 2 10 0 2 10 0 2 10 0 2 10 0 2
10 0 2 10 0 2 10 0 2 10 0 2 10 0 2 10 0 2 10 0 2 10 0 2 10 0 2 10 0 2
10 0 2 10 0 2 10 0 2 10 0 2 10 0 2 10 0 2 10 0 2 10 0 2 10 0 2 10 0 2
10 0 2 10 0 2 10 0 2 10 0 2 10 0 2 10 0 2 10 0 2 10 0 2 10 0 2 10 0 2
10 0 2 10 0 2 10 0 2 10 0 2 10 0 2 10 0 2 10 0 2 10 0 2 10 0 2 10 0 2
10 0 2 10 0 2 10 0 2 10 0 2 10 0 2 10 0 2 10 0 2 10 0 2 10 0 2 10 0 2
10 0 2 10 0 2 10 0 2 10 0 2 10 0 2 10 0 2 10 0 2 10 0 2 10 0 2 10 0 2
10 0 2 10 0 2 10 0 2 10 0 2 10 0 2 10 0 2 10 0 2 10 0 2 10 0 2 10 0 2
10 0 2 10 0 2 10 0 2 10 0 2 10 0 2 10 0 2 10 0 2 10 0 2 10 0 2 10 0 2
10 0 2 10 0 2 10 0 2 10 0 2 10 0 2 10 0 2 10 0 2 10 0 2 10 0 2 10 0 2
10 0 2 10 0 2 10 0 2 10 0 2 10 0 2 10 0 2 10 0 2 10 0 2 10 0 2 10 0 2
10 0 2 10 0 2 10 0 2 10 0 2 10 0 2 10 0 2 10 0 2 10 0 2 10 0 2 10 0 2
10 0 2 10 0 2 10 0 2 10 0 2 10 0 2 10 0 2 10 0 2 10 0 2 10 0 2 10 0 2
10 0 2 10 0 2 10 0 2 10 0 2 10 0 2 10 0 2 10 0 2 10 0 2 10 0 2 10 0 2
10 0 2 10 0 2 10 0 2 10 0 2 10 0 2 10 0 2 10 0 2 10 0 2 10 0 2 10 0 2
10 0 2 10 0 2 10 0 2 10 0 2 10 0 2 10 0 2 10 0 2 10 0 2 10 0 2 10 0 2
10 0 2 10 0 2 10 0 2 10 0 2 10 0 2 10 0 2 10 0 2 10 0 2 10 0 2 10 0 2
10 0 2 10 0 2 10 0 2 10 0 2 10 0 2 10 0 2 10 0 2 10 0 2 10 0 2 10 0 2
10 0 2 10 0 2 10 0 2 10 0 2 10 0 2 10 0 2 10 0 2 10 0 2 10 0 2 10 0 2
10 0 2 10 0 2 10 0 2 10 0 2 10 0 2 10 0 2 10 0 2 10 0 2 10 0 2 10 0 2
10 0 2 10 0 2 10 0 2 10 0 2 10 0 2 10 0 2 10 0 2 10 0 2 10 0 2 10 0 2
10 0 2 10 0 2 10 0 2 10 0 2 10 0 2 10 0 2 10 0 2 10 0 2 10 0 2 10 0 2
10 0 2 10 0 2 10 0 2 10 0 2 10 0 2 10 0 2 10 0 2 10 0 2 10 0 2 10 0 2
10 0 2 10 0 2 10 0 2 10 0 2 10 0 2 10 0 2 10 0 2 10 0 2 10 0 2 10 0 2
10 0 2 10 0 2 10 0 2 10 0 2 10 0 2 10 0 2 10 0 2 10 0 2 10 0 2 10 0 2
10 0 2 10 0 2 10 0 2 10 0 2 10 0 2 10 0 2 10 0 2 10 0 2 10 0 2 10 0 2
10 0 2 10 0 2 10 0 2 10 0 2 10 0 2 10 0 2 10 0 2 10 0 2 10 0 2 10 0 2
10 0 2 10 0 2 10 0 2 10 0 2 10 0 2 10 0 2 10 0 2 10 0 2 10 0 2 10 0 2
10 0 2 10 0 2 10 0 2 10 0 2 10 0 2 10 0 2 10 0 2 10 0 2 10 0 2 10 0 2
10 0 2 10 0 2 10 0 2 10 0 2 10 0 2 10 0 2 10 0 2 10 0 2 10 0 2 10 0 2
10 0 2 10 0 2 10 0 2 10 0 2 10 0 2 10 0 2 10 0 2 10 0 2 10 0 2 10 0 2
10 0 2 10 0 2 10 0 2 10 0 2 10 0 2 10 0 2 10 0 2 10 0 2 10 0 2 10 0 2
10 0 2 10 0 2 10 0 2 10 0 2 10 0 2 10 0 2 10 0 2 10 0 2 10 0 2 10 0 2
10 0 2 10 0 2 10 0 2 10 0 2 10 0 2 10 0 2 10 0 2 10 0 2 10 0 2 10 0 2
10 0 2 10 0 2 10 0 2 10 0 2 10 0 2 10 0 2 10 0 2 10 0 2 10 0 2 10 0 2
10 0 2 10 0 2 10 0 2 10 0 2 10 0 2 10 0 2 10 0 2 10 0 2 10 0 2 10 0 2
10 0 2 10 0 2 10 0 2 10 0 2 10 0 2 10 0 2 10 0 2 10 0 2 10 0 2 10 0 2
10 0 2 10 0 2 10 0 2 10 0 2 10 0 2 10 0 2 10 0 2 10 0 2 10 0 2 10 0 2
10 0 2 10 0 2 10 0 2 10 0 2 10 0 2 10 0 2 10 0 2 10 0 2 10 0 2 10 0 2
10 0 2 10 0 2 10 0 2 10 0 2 10 0 2 10 0 2 10 0 2 10 0 2 10 0 2 10 0 2
10 0 2 10 0 2 10 0 2 10 0 2 10 0 2 10 0 2 10 0 2 10 0 2 10 0 2 10 0 2
10 0 2 10 0 2 10 0 2 10 0 2 10 0 2 10 0 2 10 0 2 10 0 2 10 0 2 10 0 2
10 0 2 10 0 2 10 0 2 10 0 2 10 0 2 10 0 2 10 0 2 10 0 2 10 0 2 10 0 2
10 0 2 10 0 2 10 0 2 10 0 2 10 0 2 10 0 2 10 0 2 10 0 2 10 0 2 10 0 2
10 0 2 10 0 2 10 0 2 10 0 2 10 0 2 10 0 2 10 0 2 10 0 2 10 0 2 10 0 2
10 0 2 10 0 2 10 0 2 10 0 2 10 0 2 10 0 2 10 0 2 10 0 2 10 0 2 10 0 2
10 0 2 10 0 2 10 0 2 10 0 2 10 0 2 10 0 2 10 0 2 10 0 2 10 0 2 10 0 2
10 0 2 10 0 2 10 0 2 10 0 2 10 0 2 10 0 2 10 0 2 10 0 2 10 0 2 10 0 2
10 0 2 10 0 2 10 0 2 10 0 2 10 0 2 10 0 2 10 0 2 10 0 2 10 0 2 10 0 2
10 0 2 10 0 2 10 0 2 10 0 2 10 0 2 10 0 2 10 0 2 10 0 2 10 0 2 10 0 2
10 0 2 10 0 2 10 0 2 11 0 2 11 0 2 11 0 2 11 0 2 11 0 2 11 0 2 11 0 2
11 0 2 11 0 2 11 0 2 11 0 2 11 0 2 11 0 2 11 0 2 11 0 2 11 0 2 11 0 2
11 0 2 11 0 2 11 0 2 11 0 2 11 0 2 11 0 2 11 0 2 11 0 2 11 0 2 11 0 2
11 0 2 11 0 2 11 0 2 11 0 2 11 0 2 11 0 2 11 0 2 11 0 2 11 0 2 11 0 2
11 0 2 11 0 2 11 0 2 11 0 2 11 0 2 11 0 2 11 0 2 11 0 2 11 0 2 11 0 2
11 0 2 11 0 2 11 0 2 11 0 2 11 0 2 11 0 2 11 0 2 11 0 2 11 0 2 11 0 2
11 0 2 11 0 2 11 0 2 11 0 2 11 0 2 11 0 2 11 0 2 11 0 2 11 0 2 11 0 2
11 0 2 11 0 2 11 0 2 11 0 2 11 0 2 11 0 2 11 0 2 11 0 2 11 0 2 11 0 2
11 0 2 11 0 2 11 0 2 11 0 2 11 0 2 11 0 2 11 0 2 11 0 2 11 0 2 11 0 2
11 0 2 11 0 2 11 0 2 11 0 2 11 0 2 11 0 2 11 0 2 11 0 2 11 0 2 11 0 2
11 0 2 11 0 2 11 0 2 11 0 2 11 0 2 11 0 2 11 0 2 11 0 2 11 0 2 11 0 2
11 0 2 11 0 2 11 0 2 11 0 2 11 0 2 11 0 2 11 0 2 11 0 2 11 0 2 11 0 2
11 0 2 11 0 2 11 0 2 11 0 2 11 0 2 11 0 2 11 0 2 11 0 2 11 0 2 11 0 2
11 0 2 11 0 2 11 0 2 11 0 2 11 0 2 11 0 2 11 0 2 11 0 2 11 0 2 11 0 2
11 0 2 11 0 2 11 0 2 11 0 2 11 0 2 11 0 2 11 0 2 11 0 2 11 0 2 11 0 2
11 0 2 11 0 2 11 0 2 11 0 2 11 0 2 11 0 2 11 0 2 11 0 2 11 0 2 11 0 2
11 0 2 11 0 2 11 0 2 11 0 2 11 0 2 11 0 2 11 0 2 11 0 2 11 0 2 11 0 2
11 0 2 11 0 2 11 0 2 11 0 2 11 0 2 11 0 2 11 0 2 11 0 2 11 0 2 11 0 2
11 0 2 11 0 2 11 0 2 11 0 2 11 0 2 11 0 2 11 0 2 11 0 2 11 0 2 11 0 2
11 0 2 11 0 2 11 0 2 11 0 2 11 0 2 11 0 2 11 0 2 11 0 2 11 0 2 11 0 2
11 0 2 11 0 2 11 0 2 11 0 2 11 0 2 11 0 2 11 0 2 11 0 2 11 0 2 11 0 2
11 0 2 11 0 2 11 0 2 11 0 2 11 0 2 11 0 2 11 0 2 11 0 2 11 0 2 11 0 2
11 0 2 11 0 2 11 0 2 11 0 2 10 0 2 10 0 2 10 0 2 10 0 2 10 0 2 10 0 2
10 0 2 10 0 2 10 0 2 10 0 2 10 0 2 10 0 2 10 0 2 10 0 2 10 0 2 10 0 2
10 0 2 10 0 2 10 0 2 10 0 2 10 0 2 10 0 2 10 0 2 10 0 2 10 0 2 10 0 2
10 0 2 10 0 2 10 0 2 10 0 2 10 0 2 10 0 2 10 0 2 10 0 2 10 0 2 10 0 2
10 0 2 10 0 2 10 0 2 10 0 2 10 0 2 10 0 2 10 0 2 10 0 2 10 0 2 10 0 2
10 0 2 10 0 2 10 0 2 10 0 2 10 0 2 10 0 2 10 0 2 10 0 2 10 0 2 10 0 2
10 0 2 10 0 2 10 0 2 10 0 2 10 0 2 10 0 2 10 0 2 10 0 2 10 0 2 10 0 2
10 0 2 10 0 2 10 0 2 10 0 2 10 0 2 10 0 2 10 0 2 10 0 2 10 0 2 10 0 2
10 0 2 10 0 2 10 0 2 10 0 2 10 0 2 10 0 2 10 0 2 10 0 2 10 0 2 10 0 2
11 0 2 11 0 2 11 0 2 11 0 2 11 0 2 11 0 2 11 0 2 11 0 2 11 0 2 11 0 2
11 0 2 11 0 2 11 0 2 11 0 2 11 0 2 11 0 2 11 0 2 11 0 2 11 0 2 11 0 2
11 0 2 11 0 2 11 0 2 11 0 2 11 0 2 11 0 2 11 0 2 11 0 2 11 0 2 11 0 2
11 0 2 11 0 2 11 0 2 11 0 2 11 0 2 11 0 2 11 0 2 11 0 2 11 0 2 11 0 2
11 0 2 11 0 2 11 0 2 11 0 2 11 0 2 11 0 2 11 0 2 11 0 2 11 0 2 11 0 2
11 0 2 11 0 2 11 0 2 11 0 2 11 0 2 11 0 2 11 0 2 11 0 2 11 0 2 11 0 2
11 0 2 11 0 2 11 0 2 11 0 2 11 0 2 11 0 2 11 0 2 11 0 2 11 0 2 11 0 2
11 0 2 11 0 2 11 0 2 11 0 2 11 0 2 11 0 2 11 0 2 11 0 2 11 0 2 11 0 2
11 0 2 11 0 2 11 0 2 11 0 2 11 0 2 11 0 2 11 0 2 11 0 2 11 0 2 11 0 2
11 0 2 11 0 2 11 0 2 11 0 2 11 0 2 11 0 2 11 0 2 11 0 2 11 0 2 11 0 2
11 0 2 11 0 2 11 0 2 11 0 2 11 0 2 11 0 2 11 0 2 11 0 2 11 0 2 11 0 2
11 0 2 11 0 2 11 0 2 11 0 2 11 0 2 11 0 2 11 0 2 11 0 2 11 0 2 11 0 2
11 0 2 11 0 2 11 0 2 11 0 2 11 0 2 11 0 2 11 0 2 11 0 2 11 0 2 11 0 2
11 0 2 11 0 2 11 0 2 11 0 2 11 0 2 11 0 2 11 0 2 11 0 2 11 0 2 11 0 2
11 0 2 11 0 2 11 0 2 11 0 2 11 0 2 11 0 2 11 0 2 11 0 2 11 0 2 11 0 2
11 0 2 11 0 2 11 0 2 11 0 2 11 0 2 11 0 2 11 0 2 11 0 2 11 0 2 11 0 2
11 0 2 11 0 2 11 0 2 11 0 2 11 0 2 11 0 2 11 0 2 11 0 2 11 0 2 11 0 2
11 0 2 11 0 2 11 0 2 11 0 2 11 0 2 11 0 2 11 0 2 11 0 2 11 0 2 11 0 2
11 0 2 11 0 2 11 0 2 11 0 2 11 0 2 11 0 2 11 0 2 11 0 2 11 0 2 11 0 2
11 0 2 11 0 2 11 0 2 11 0 2 11 0 2 11 0 2 11 0 2 11 0 2 11 0 2 11 0 2
11 0 2 11 0 2 11 0 2 11 0 2 11 0 2 11 0 2 11 0 2 11 0 2 11 0 2 11 0 2
11 0 2 11 0 2 11 0 2 11 0 2 11 0 2 11 0 2 11 0 2 11 0 2 11 0 2 11 0 2
11 0 2 11 0 2 11 0 2 11 0 2 11 0 2 11 0 2 11 0 2 11 0 2 11 0 2 11 0 2
11 0 2 11 0 2 11 0 2 11 0 2 11 0 2 11 0 2 11 0 2 11 0 2 11 0 2 11 0 2
11 0 2 11 0 2 11 0 2 11 0 2 11 0 2 11 0 2 11 0 2 11 0 2 11 0 2 11 0 2
11 0 2 11 0 2 11 0 2 11 0 2 11 0 2 11 0 2 11 0 2 11 0 2 11 0 2 11 0 2
11 0 2 11 0 2 11 0 2 11 0 2 11 0 2 11 0 2 11 0 2 11 0 2 11 0 2 11 0 2
11 0 2 11 0 2 11 0 2 11 0 2 11 0 2 11 0 2 11 0 2 11 0 2 11 0 2 11 0 2
11 0 2 11 0 2 11 0 2 11 0 2 11 0 2 11 0 2 11 0 2 11 0 2 11 0 2 11 0 2
11 0 2 11 0 2 11 0 2 11 0 2 11 0 2 11 0 2 11 0 2 11 0 2 11 0 2 11 0 2
11 0 2 11 0 2 11 0 2 11 0 2 11 0 2 11 0 2 11 0 2 11 0 2 11 0 2 11 0 2
11 0 2 11 0 2 11 0 2 11 0 2 11 0 2 11 0 2 11 0 2 11 0 2 11 0 2 11 0 2
11 0 2 11 0 2 11 0 2 11 0 2 11 0 2 11 0 2 11 0 2 11 0 2 11 0 2 11 0 2
11 0 2 11 0 2 11 0 2 11 0 2 11 0 2 11 0 2 11 0 2 11 0 2 11 0 2 11 0 2
11 0 2 11 0 2 11 0 2 11 0 2 11 0 2 11 0 2 11 0 2 11 0 2 11 0 2 11 0 2
11 0 2 11 0 2 11 0 2 11 0 2 11 0 2 11 0 2 11 0 2 11 0 2 11 0 2 11 0 2
11 0 2 11 0 2 11 0 2 11 0 2 11 0 2 11 0 2 11 0 2 11 0 2 11 0 2 11 0 2
11 0 2 11 0 2 11 0 2 11 0 2 11 0 2 11 0 2 11 0 2 11 0 2 11 0 2 11 0 2
11 0 2 11 0 2 11 0 2 11 0 2 11 0 2 11 0 2 11 0 2 11 0 2 11 0 2 11 0 2
11 0 2 11 0 2 11 0 2 11 0 2 11 0 2 11 0 2 11 0 2 11 0 2 11 0 2 11 0 2
11 0 2 11 0 2 11 0 2 11 0 2 11 0 2 11 0 2 11 0 2 11 0 2 11 0 2 11 0 2
11 0 2 11 0 2 11 0 2 11 0 2 11 0 2 11 0 2 11 0 2 11 0 2 11 0 2 11 0 2
11 0 2 11 0 2 11 0 2 11 0 2 11 0 2 11 0 2 11 0 2 11 0 2 11 0 2 11 0 2
11 0 2 11 0 2 11 0 2 11 0 2 11 0 2 11 0 2 11 0 2 11 0 2 11 0 2 11 0 2
11 0 2 11 0 2 11 0 2 11 0 2 11 0 2 11 0 2 11 0 2 11 0 2 11 0 2 11 0 2
11 0 2 11 0 2 11 0 2 11 0 2 11 0 2 11 0 2 11 0 2 11 0 2 11 0 2 11 0 2
11 0 2 11 0 2 11 0 2 11 0 2 11 0 2 11 0 2 11 0 2 11 0 2 11 0 2 11 0 2
11 0 2 11 0 2 11 0 2 11 0 2 11 0 2 11 0 2 11 0 2 11 0 2 11 0 2 11 0 2
11 0 2 11 0 2 11 0 2 11 0 2 11 0 2 11 0 2 11 0 2 11 0 2 11 0 2 11 0 2
11 0 2 11 0 2 11 0 2 11 0 2 11 0 2 11 0 2 11 0 2 11 0 2 11 0 2 11 0 2
11 0 2 11 0 2 11 0 2 11 0 2 11 0 2 11 0 2 11 0 2 11 0 2 11 0 2 11 0 2
11 0 2 11 0 2 11 0 2 11 0 2 11 0 2 11 0 2 11 0 2 11 0 2 11 0 2 11 0 2
11 0 2 11 0 2 11 0 2 11 0 2 11 0 2 11 0 2 11 0 2 11 0 2 11 0 2 11 0 2
11 0 2 11 0 2 11 0 2 11 0 2 11 0 2 11 0 2 11 0 2 11 0 2 11 0 2 11 0 2
11 0 2 11 0 2 11 0 2 11 0 2 11 0 2 11 0 2 11 0 2 11 0 2 11 0 2 11 0 2
11 0 2 11 0 2 11 0 2 11 0 2 11 0 2 11 0 2 11 0 2 11 0 2 11 0 2 11 0 2
11 0 2 11 0 2 11 0 2 11 0 2 11 0 2 11 0 2 11 0 2 11 0 2 11 0 2 11 0 2
11 0 2 11 0 2 11 0 2 11 0 2 11 0 2 11 0 2 11 0 2 11 0 2 11 0 2 11 0 2
11 0 2 11 0 2 11 0 2 11 0 2 11 0 2 11 0 2 11 0 2 11 0 2 11 0 2 11 0 2
11 0 2 11 0 2 11 0 2 11 0 2 11 0 2 11 0 2 11 0 2 11 0 2 11 0 2 11 0 2
11 0 2 11 0 2 11 0 2 11 0 2 11 0 2 11 0 2 11 0 2 11 0 2 11 0 2 11 0 2
11 0 2 11 0 2 11 0 2 11 0 2 11 0 2 11 0 2 11 0 2 11 0 2 11 0 2 11 0 2
11 0 2 11 0 2 11 0 2 11 0 2 11 0 2 11 0 2 11 0 2 11 0 2 11 0 2 11 0 2
11 0 2 11 0 2 11 0 2 11 0 2 11 0 2 11 0 2 11 0 2 11 0 2 11 0 2 11 0 2
11 0 2 11 0 2 11 0 2 11 0 2 11 0 2 11 0 2 11 0 2 11 0 2 11 0 2 11 0 2
11 0 2 11 0 2 11 0 2 11 0 2 11 0 2 11 0 2 11 0 2 11 0 2 11 0 2 11 0 2
11 0 2 11 0 2 11 0 2 11 0 2 11 0 2 11 0 2 11 0 2 11 0 2 11 0 2 11 0 2
11 0 2 11 0 2 11 0 2 11 0 2 11 0 2 11 0 2 11 0 2 11 0 2 11 0 2 11 0 2
11 0 2 11 0 2 11 0 2 11 0 2 11 0 2 11 0 2 11 0 2 11 0 2 11 0 2 11 0 2
11 0 2 11 0 2 11 0 2 11 0 2 11 0 2 11 0 2 11 0 2 11 0 2 11 0 2 11 0 2
11 0 2 11 0 2 11 0 2 11 0 2 11 0 2 11 0 2 11 0 2 11 0 2 11 0 2 11 0 2
11 0 2 11 0 2 11 0 2 11 0 2 11 0 2 11 0 2 11 0 2 11 0 2 11 0 2 11 0 2
11 0 2 11 0 2 11 0 2 11 0 2 11 0 2 11 0 2 11 0 2 11 0 2 11 0 2 11 0 2
11 0 2 11 0 2 11 0 2 11 0 2 11 0 2 11 0 2 11 0 2 11 0 2 11 0 2 11 0 2
11 0 2 11 0 2 11 0 2 11 0 2 11 0 2 11 0 2 11 0 2 11 0 2 11 0 2 11 0 2
11 0 2 11 0 2 11 0 2 11 0 2 11 0 2 11 0 2 11 0 2 11 0 2 11 0 2 11 0 2
11 0 2 11 0 2 11 0 2 11 0 2 11 0 2 11 0 2 11 0 2 11 0 2 11 0 2 11 0 2
11 0 2 11 0 2 11 0 2 11 0 2 11 0 2 11 0 2 11 0 2 11 0 2 11 0 2 11 0 2
11 0 2 11 0 2 11 0 2 11 0 2 11 0 2 11 0 2 11 0 2 11 0 2 11 0 2 11 0 2
11 0 2 11 0 2 11 0 2 11 0 2 11 0 2 11 0 2 11 0 2 11 0 2 11 0 2 11 0 2
11 0 2 11 0 2 11 0 2 11 0 2 11 0 2 11 0 2 11 0 2 11 0 2 11 0 2 11 0 2
11 0 2 11 0 2 11 0 2 11 0 2 11 0 2 11 0 2 11 0 2 11 0 2 11 0 2 11 0 2
11 0 2 11 0 2 11 0 2 11 0 2 11 0 2 11 0 2 11 0 2 11 0 2 11 0 2 11 0 2
11 0 2 11 0 2 11 0 2 11 0 2 11 0 2 11 0 2 11 0 2 11 0 2 11 0 2 11 0 2
11 0 2 11 0 2 11 0 2 11 0 2 11 0 2 11 0 2 11 0 2 11 0 2 11 0 2 11 0 2
11 0 2 11 0 2 11 0 2 11 0 2 11 0 2 11 0 2 11 0 2 11 0 2 11 0 2 11 0 2
11 0 2 11 0 2 11 0 2 11 0 2 11 0 2 11 0 2 11 0 2 11 0 2 11 0 2 11 0 2
11 0 2 11 0 2 11 0 2 11 0 2 11 0 2 11 0 2 11 0 2 11 0 2 11 0 2 11 0 2
11 0 2 11 0 2 11 0 2 11 0 2 11 0 2 11 0 2 11 0 2 11 0 2 12 0 2 12 0 2
12 0 2 12 0 2 12 0 2 12 0 2 12 0 2 12 0 2 12 0 2 12 0 2 12 0 2 12 0 2
12 0 2 12 0 2 12 0 2 12 0 2 12 0 2 12 0 2 12 0 2 12 0 2 12 0 2 12 0 2
12 0 2 12 0 2 12 0 2 12 0 2 12 0 2 12 0 2 12 0 2 12 0 2 12 0 2 12 0 2
12 0 2 12 0 2 12 0 2 12 0 2 12 0 2 12 0 2 12 0 2 12 0 2 12 0 2 12 0 2
12 0 2 12 0 2 12 0 2 12 0 2 12 0 2 12 0 2 12 0 2 12 0 2 12 0 2 12 0 2
12 0 2 12 0 2 12 0 2 12 0 2 12 0 2 12 0 2 12 0 2 12 0 2 12 0 2 12 0 2
12 0 2 12 0 2 12 0 2 12 0 2 12 0 2 12 0 2 12 0 2 12 0 2 12 0 2 12 0 2
12 0 2 12 0 2 12 0 2 12 0 2 12 0 2 12 0 2 12 0 2 12 0 2 12 0 2 12 0 2
12 0 2 12 0 2 12 0 2 12 0 2 12 0 2 12 0 2 12 0 2 12 0 2 12 0 2 12 0 2
12 0 2 12 0 2 12 0 2 12 0 2 12 0 2 12 0 2 12 0 2 12 0 2 12 0 2 12 0 2
12 0 2 12 0 2 12 0 2 12 0 2 12 0 2 12 0 2 12 0 2 12 0 2 12 0 2 12 0 2
12 0 2 12 0 2 12 0 2 12 0 2 12 0 2 12 0 2 12 0 2 12 0 2 12 0 2 12 0 2
12 0 2 12 0 2 12 0 2 12 0 2 12 0 2 12 0 2 12 0 2 12 0 2 12 0 2 12 0 2
12 0 2 12 0 2 12 0 2 12 0 2 12 0 2 12 0 2 12 0 2 12 0 2 12 0 2 12 0 2
12 0 2 12 0 2 12 0 2 12 0 2 12 0 2 12 0 2 12 0 2 12 0 2 12 0 2 12 0 2
12 0 2 12 0 2 12 0 2 12 0 2 12 0 2 12 0 2 12 0 2 12 0 2 12 0 2 12 0 2
12 0 2 12 0 2 12 0 2 12 0 2 12 0 2 12 0 2 12 0 2 12 0 2 12 0 2 12 0 2
12 0 2 12 0 2 12 0 2 12 0 2 12 0 2 12 0 2 12 0 2 12 0 2 12 0 2 12 0 2
12 0 2 12 0 2 12 0 2 12 0 2 12 0 2 12 0 2 12 0 2 12 0 2 12 0 2 12 0 2
12 0 2 12 0 2 12 0 2 12 0 2 12 0 2 12 0 2 12 0 2 12 0 2 12 0 2 12 0 2
12 0 2 12 0 2 12 0 2 12 0 2 12 0 2 12 0 2 12 0 2 12 0 2 12 0 2 12 0 2
12 0 2 12 0 2 12 0 2 12 0 2 12 0 2 12 0 2 12 0 2 12 0 2 12 0 2 12 0 2
12 0 2 12 0 2 12 0 2 12 0 2 12 0 2 12 0 2 12 0 2 12 0 2 12 0 2 12 0 2
12 0 2 12 0 2 12 0 2 11 0 2 11 0 2 11 0 2 11 0 2 11 0 2 11 0 2 11 0 2
11 0 2 11 0 2 11 0 2 11 0 2 11 0 2 11 0 2 11 0 2 11 0 2 11 0 2 11 0 2
11 0 2 11 0 2 11 0 2 11 0 2 11 0 2 11 0 2 11 0 2 11 0 2 11 0 2 11 0 2
11 0 2 11 0 2 11 0 2 11 0 2 11 0 2 11 0 2 11 0 2 11 0 2 11 0 2 11 0 2
11 0 2 11 0 2 11 0 2 11 0 2 11 0 2 11 0 2 11 0 2 11 0 2 11 0 2 11 0 2
11 0 2 11 0 2 11 0 2 11 0 2 11 0 2 11 0 2 11 0 2 11 0 2 11 0 2 11 0 2
11 0 2 11 0 2 11 0 2 11 0 2 11 0 2 11 0 2 11 0 2 11 0 2 11 0 2 11 0 2
11 0 2 11 0 2 11 0 2 11 0 2 11 0 2 11 0 2 11 0 2 11 0 2 11 0 2 11 0 2
11 0 2 11 0 2 11 0 2 11 0 2 11 0 2 11 0 2 11 0 2 11 0 2 11 0 2 11 0 2
11 0 2 11 0 2 11 0 2 11 0 2 11 0 2 11 0 2 11 0 2 11 0 2 11 0 2 11 0 2
11 0 2 11 0 2 11 0 2 12 0 2 12 0 2 12 0 2 12 0 2 12 0 2 12 0 2 12 0 2
12 0 2 12 0 2 12 0 2 12 0 2 12 0 2 12 0 2 12 0 2 12 0 2 12 0 2 12 0 2
12 0 2 12 0 2 12 0 2 12 0 2 12 0 2 12 0 2 12 0 2 12 0 2 12 0 2 12 0 2
12 0 2 12 0 2 12 0 2 12 0 2 12 0 2 12 0 2 12 0 2 12 0 2 12 0 2 12 0 2
12 0 2 12 0 2 12 0 2 12 0 2 12 0 2 12 0 2 12 0 2 12 0 2 12 0 2 12 0 2
12 0 2 12 0 2 12 0 2 12 0 2 12 0 2 12 0 2 12 0 2 12 0 2 12 0 2 12 0 2
12 0 2 12 0 2 12 0 2 12 0 2 12 0 2 12 0 2 12 0 2 12 0 2 12 0 2 12 0 2
12 0 2 12 0 2 12 0 2 12 0 2 12 0 2 12 0 2 12 0 2 12 0 2 12 0 2 12 0 2
12 0 2 12 0 2 12 0 2 12 0 2 12 0 2 12 0 2 12 0 2 12 0 2 12 0 2 12 0 2
12 0 2 12 0 2 12 0 2 12 0 2 12 0 2 12 0 2 12 0 2 12 0 2 12 0 2 12 0 2
12 0 2 12 0 2 12 0 2 12 0 2 12 0 2 12 0 2 12 0 2 12 0 2 12 0 2 12 0 2
12 0 2 12 0 2 12 0 2 12 0 2 12 0 2 12 0 2 12 0 2 12 0 2 12 0 2 12 0 2
12 0 2 12 0 2 12 0 2 12 0 2 12 0 2 12 0 2 12 0 2 12 0 2 12 0 2 12 0 2
12 0 2 12 0 2 12 0 2 12 0 2 12 0 2 12 0 2 12 0 2 12 0 2 12 0 2 12 0 2
12 0 2 12 0 2 12 0 2 12 0 2 12 0 2 12 0 2 12 0 2 12 0 2 12 0 2 12 0 2
12 0 2 12 0 2 12 0 2 12 0 2 12 0 2 12 0 2 12 0 2 12 0 2 12 0 2 12 0 2
12 0 2 12 0 2 12 0 2 12 0 2 12 0 2 12 0 2 12 0 2 12 0 2 12 0 2 12 0 2
12 0 2 12 0 2 12 0 2 12 0 2 12 0 2 12 0 2 12 0 2 12 0 2 12 0 2 12 0 2
12 0 2 12 0 2 12 0 2 12 0 2 12 0 2 12 0 2 12 0 2 12 0 2 12 0 2 12 0 2
12 0 2 12 0 2 12 0 2 12 0 2 12 0 2 12 0 2 12 0 2 12 0 2 12 0 2 12 0 2
12 0 2 12 0 2 12 0 2 12 0 2 12 0 2 12 0 2 12 0 2 12 0 2 12 0 2 12 0 2
12 0 2 12 0 2 12 0 2 12 0 2 12 0 2 12 0 2 12 0 2 12 0 2 12 0 2 12 0 2
12 0 2 12 0 2 12 0 2 12 0 2 12 0 2 12 0 2 12 0 2 12 0 2 12 0 2 12 0 2
12 0 2 12 0 2 12 0 2 12 0 2 12 0 2 12 0 2 12 0 2 12 0 2 12 0 2 12 0 2
12 0 2 12 0 2 12 0 2 12 0 2 12 0 2 12 0 2 12 0 2 12 0 2 12 0 2 12 0 2
12 0 2 12 0 2 12 0 2 12 0 2 12 0 2 12 0 2 12 0 2 12 0 2 12 0 2 12 0 2
12 0 2 12 0 2 12 0 2 12 0 2 12 0 2 12 0 2 12 0 2 12 0 2 12 0 2 12 0 2
12 0 2 12 0 2 12 0 2 12 0 2 12 0 2 12 0 2 12 0 2 12 0 2 12 0 2 12 0 2
12 0 2 12 0 2 12 0 2 12 0 2 12 0 2 12 0 2 12 0 2 12 0 2 12 0 2 12 0 2
12 0 2 12 0 2 12 0 2 12 0 2 12 0 2 12 0 2 12 0 2 12 0 2 12 0 2 12 0 2
12 0 2 12 0 2 12 0 2 12 0 2 12 0 2 12 0 2 12 0 2 12 0 2 12 0 2 12 0 2
12 0 2 12 0 2 12 0 2 12 0 2 12 0 2 12 0 2 12 0 2 12 0 2 12 0 2 12 0 2
12 0 2 12 0 2 12 0 2 12 0 2 12 0 2 12 0 2 12 0 2 12 0 2 12 0 2 12 0 2
12 0 2 12 0 2 12 0 2 12 0 2 12 0 2 12 0 2 12 0 2 12 0 2 12 0 2 12 0 2
12 0 2 12 0 2 12 0 2 12 0 2 12 0 2 12 0 2 12 0 2 12 0 2 12 0 2 12 0 2
12 0 2 12 0 2 12 0 2 12 0 2 12 0 2 12 0 2 12 0 2 12 0 2 12 0 2 12 0 2
12 0 2 12 0 2 12 0 2 12 0 2 12 0 2 12 0 2 12 0 2 12 0 2 12 0 2 11 0 2
11 0 2 11 0 2 11 0 2 11 0 2 11 0 2 11 0 2 11 0 2 11 0 2 11 0 2 11 0 2
12 0 2 12 0 2 12 0 2 12 0 2 12 0 2 12 0 2 12 0 2 12 0 2 12 0 2 12 0 2
12 0 2 12 0 2 12 0 2 12 0 2 12 0 2 12 0 2 12 0 2 12 0 2 12 0 2 12 0 2
12 0 2 12 0 2 12 0 2 12 0 2 12 0 2 12 0 2 12 0 2 12 0 2 12 0 2 12 0 2
12 0 2 12 0 2 12 0 2 12 0 2 12 0 2 12 0 2 12 0 2 12 0 2 12 0 2 12 0 2
12 0 2 12 0 2 12 0 2 12 0 2 12 0 2 12 0 2 12 0 2 12 0 2 12 0 2 12 0 2
12 0 2 12 0 2 12 0 2 12 0 2 12 0 2 12 0 2 12 0 2 12 0 2 12 0 2 12 0 2
12 0 2 12 0 2 12 0 2 12 0 2 12 0 2 12 0 2 12 0 2 12 0 2 12 0 2 12 0 2
12 0 2 12 0 2 12 0 2 12 0 2 12 0 2 12 0 2 12 0 2 12 0 2 12 0 2 12 0 2
12 0 2 12 0 2 12 0 2 12 0 2 12 0 2 12 0 2 12 0 2 12 0 2 12 0 2 12 0 2
12 0 2 12 0 2 12 0 2 12 0 2 12 0 2 12 0 2 12 0 2 12 0 2 12 0 2 12 0 2
12 0 2 12 0 2 12 0 2 12 0 2 12 0 2 12 0 2 12 0 2 12 0 2 12 0 2 12 0 2
12 0 2 12 0 2 12 0 2 12 0 2 12 0 2 12 0 2 12 0 2 12 0 2 12 0 2 12 0 2
12 0 2 12 0 2 12 0 2 12 0 2 12 0 2 12 0 2 12 0 2 12 0 2 12 0 2 12 0 2
12 0 2 12 0 2 12 0 2 12 0 2 12 0 2 12 0 2 12 0 2 12 0 2 12 0 2 12 0 2
12 0 2 12 0 2 12 0 2 12 0 2 12 0 2 12 0 2 12 0 2 12 0 2 12 0 2 13 0 2
13 0 2 13 0 2 13 0 2 13 0 2 13 0 2 13 0 2 13 0 2 13 0 2 13 0 2 13 0 2
13 0 2 13 0 2 13 0 2 13 0 2 13 0 2 13 0 2 13 0 2 13 0 2 13 0 2 13 0 2
13 0 2 13 0 2 13 0 2 13 0 2 13 0 2 13 0 2 13 0 2 13 0 2 13 0 2 13 0 2
13 0 2 13 0 2 13 0 2 13 0 2 13 0 2 13 0 2 13 0 2 13 0 2 13 0 2 13 0 2
13 0 2 13 0 2 13 0 2 13 0 2 13 0 2 13 0 2 13 0 2 13 0 2 13 0 2 13 0 2
13 0 2 13 0 2 13 0 2 13 0 2 13 0 2 13 0 2 13 0 2 13 0 2 13 0 2 13 0 2
13 0 2 13 0 2 13 0 2 13 0 2 13 0 2 13 0 2 13 0 2 13 0 2 13 0 2 13 0 2
13 0 2 13 0 2 13 0 2 13 0 2 13 0 2 13 0 2 13 0 2 13 0 2 13 0 2 13 0 2
13 0 2 13 0 2 13 0 2 13 0 2 13 0 2 13 0 2 13 0 2 13 0 2 13 0 2 13 0 2
13 0 2 13 0 2 13 0 2 13 0 2 13 0 2 13 0 2 13 0 2 13 0 2 13 0 2 13 0 2
13 0 2 13 0 2 13 0 2 13 0 2 13 0 2 13 0 2 13 0 2 13 0 2 13 0 2 13 0 2
13 0 2 13 0 2 13 0 2 13 0 2 13 0 2 12 0 2 12 0 2 12 0 2 12 0 2 12 0 2
12 0 2 12 0 2 12 0 2 12 0 2 12 0 2 12 0 2 12 0 2 12 0 2 12 0 2 12 0 2
12 0 2 12 0 2 12 0 2 12 0 2 12 0 2 12 0 2 12 0 2 12 0 2 12 0 2 12 0 2
12 0 2 12 0 2 12 0 2 12 0 2 12 0 2 12 0 2 12 0 2 12 0 2 12 0 2 12 0 2
12 0 2 12 0 2 12 0 2 12 0 2 12 0 2 12 0 2 12 0 2 12 0 2 12 0 2 12 0 2
12 0 2 12 0 2 12 0 2 12 0 2 12 0 2 12 0 2 12 0 2 12 0 2 12 0 2 12 0 2
12 0 2 12 0 2 12 0 2 12 0 2 12 0 2 12 0 2 12 0 2 12 0 2 12 0 2 12 0 2
12 0 2 12 0 2 12 0 2 12 0 2 12 0 2 12 0 2 12 0 2 12 0 2 12 0 2 12 0 2
12 0 2 12 0 2 12 0 2 12 0 2 12 0 2 12 0 2 12 0 2 12 0 2 12 0 2 12 0 2
12 0 2 12 0 2 12 0 2 12 0 2 12 0 2 12 0 2 12 0 2 12 0 2 12 0 2 12 0 2
12 0 2 12 0 2 12 0 2 12 0 2 12 0 2 12 0 2 12 0 2 12 0 2 12 0 2 12 0 2
12 0 2 12 0 2 12 0 2 12 0 2 12 0 2 12 0 2 12 0 2 12 0 2 12 0 2 12 0 2
12 0 2 12 0 2 12 0 2 12 0 2 12 0 2 12 0 2 12 0 2 12 0 2 12 0 2 12 0 2
12 0 2 12 0 2 12 0 2 12 0 2 12 0 2 12 0 2 12 0 2 12 0 2 12 0 2 12 0 2
12 0 2 12 0 2 12 0 2 12 0 2 12 0 2 12 0 2 12 0 2 12 0 2 12 0 2 12 0 2
12 0 2 12 0 2 12 0 2 12 0 2 12 0 2 12 0 2 12 0 2 12 0 2 12 0 2 12 0 2
12 0 2 12 0 2 12 0 2 12 0 2 12 0 2 12 0 2 12 0 2 12 0 2 12 0 2 12 0 2
12 0 2 12 0 2 12 0 2 12 0 2 12 0 2 12 0 2 12 0 2 12 0 2 12 0 2 12 0 2
12 0 2 12 0 2 12 0 2 12 0 2 12 0 2 12 0 2 12 0 2 12 0 2 12 0 2 12 0 2
12 0 2 12 0 2 12 0 2 12 0 2 12 0 2 12 0 2 12 0 2 12 0 2 12 0 2 12 0 2
12 0 2 12 0 2 12 0 2 12 0 2 12 0 2 12 0 2 12 0 2 12 0 2 12 0 2 12 0 2
12 0 2 12 0 2 12 0 2 12 0 2 12 0 2 12 0 2 12 0 2 13 0 2 13 0 2 13 0 2
13 0 2 13 0 2 13 0 2 13 0 2 13 0 2 13 0 2 13 0 2 13 0 2 13 0 2 13 0 2
13 0 2 13 0 2 13 0 2 13 0 2 13 0 2 13 0 2 13 0 2 13 0 2 13 0 2 13 0 2
13 0 2 13 0 2 13 0 2 13 0 2 13 0 2 13 0 2 13 0 2 13 0 2 13 0 2 13 0 2
13 0 2 13 0 2 13 0 2 13 0 2 13 0 2 13 0 2 13 0 2 13 0 2 13 0 2 13 0 2
13 0 2 13 0 2 13 0 2 13 0 2 13 0 2 13 0 2 13 0 2 13 0 2 13 0 2 13 0 2
13 0 2 13 0 2 13 0 2 13 0 2 13 0 2 13 0 2 13 0 2 13 0 2 13 0 2 13 0 2
13 0 2 13 0 2 13 0 2 13 0 2 13 0 2 13 0 2 13 0 2 13 0 2 13 0 2 13 0 2
13 0 2 13 0 2 13 0 2 13 0 2 13 0 2 13 0 2 13 0 2 13 0 2 13 0 2 13 0 2
13 0 2 13 0 2 13 0 2 13 0 2 13 0 2 13 0 2 13 0 2 13 0 2 13 0 2 13 0 2
13 0 2 13 0 2 13 0 2 13 0 2 13 0 2 13 0 2 13 0 2 13 0 2 13 0 2 13 0 2
13 0 2 13 0 2 13 0 2 13 0 2 13 0 2 13 0 2 13 0 2 13 0 2 13 0 2 13 0 2
13 0 2 13 0 2 13 0 2 13 0 2 13 0 2 13 0 2 13 0 2 13 0 2 13 0 2 13 0 2
13 0 2 13 0 2 13 0 2 13 0 2 13 0 2 13 0 2 13 0 2 13 0 2 13 0 2 13 0 2
13 0 2 13 0 2 13 0 2 13 0 2 13 0 2 13 0 2 13 0 2 13 0 2 13 0 2 13 0 2
13 0 2 13 0 2 13 0 2 13 0 2 13 0 2 13 0 2 13 0 2 13 0 2 13 0 2 13 0 2
13 0 2 13 0 2 13 0 2 13 0 2 13 0 2 13 0 2 13 0 2 13 0 2 13 0 2 13 0 2
13 0 2 13 0 2 13 0 2 13 0 2 13 0 2 13 0 2 13 0 2 13 0 2 13 0 2 13 0 2
13 0 2 13 0 2 13 0 2 13 0 2 13 0 2 13 0 2 13 0 2 13 0 2 13 0 2 13 0 2
13 0 2 13 0 2 13 0 2 13 0 2 13 0 2 13 0 2 13 0 2 13 0 2 13 0 2 13 0 2
13 0 2 13 0 2 13 0 2 13 0 2 13 0 2 13 0 2 13 0 2 13 0 2 13 0 2 13 0 2
13 0 2 13 0 2 13 0 2 13 0 2 13 0 2 13 0 2 13 0 2 13 0 2 13 0 2 13 0 2
13 0 2 13 0 2 13 0 2 13 0 2 13 0 2 13 0 2 13 0 2 13 0 2 13 0 2 13 0 2
13 0 2 13 0 2 13 0 2 13 0 2 13 0 2 13 0 2 13 0 2 13 0 2 13 0 2 13 0 2
13 0 2 13 0 2 13 0 2 13 0 2 13 0 2 13 0 2 13 0 2 13 0 2 13 0 2 13 0 2
13 0 2 13 0 2 13 0 2 13 0 2 13 0 2 13 0 2 13 0 2 13 0 2 13 0 2 13 0 2
13 0 2 13 0 2 13 0 2 13 0 2 13 0 2 13 0 2 13 0 2 12 0 2 12 0 2 12 0 2
12 0 2 12 0 2 12 0 2 12 0 2 12 0 2 12 0 2 12 0 2 12 0 2 12 0 2 12 0 2
12 0 2 12 0 2 12 0 2 12 0 2 12 0 2 12 0 2 12 0 2 12 0 2 12 0 2 12 0 2
12 0 2 12 0 2 12 0 2 12 0 2 12 0 2 12 0 2 12 0 2 12 0 2 12 0 2 12 0 2
12 0 2 12 0 2 12 0 2 12 0 2 12 0 2 12 0 2 12 0 2 12 0 2 12 0 2 12 0 2
12 0 2 12 0 2 12 0 2 12 0 2 12 0 2 12 0 2 12 0 2 12 0 2 12 0 2 12 0 2
12 0 2 12 0 2 12 0 2 12 0 2 12 0 2 12 0 2 12 0 2 12 0 2 12 0 2 12 0 2
12 0 2 12 0 2 12 0 2 12 0 2 12 0 2 12 0 2 12 0 2 12 0 2 12 0 2 12 0 2
12 0 2 12 0 2 12 0 2 12 0 2 12 0 2 12 0 2 12 0 2 12 0 2 12 0 2 12 0 2
12 0 2 12 0 2 12 0 2 12 0 2 12 0 2 12 0 2 12 0 2 12 0 2 12 0 2 12 0 2
13 0 2 13 0 2 13 0 2 13 0 2 13 0 2 13 0 2 13 0 2 13 0 2 13 0 2 13 0 2
13 0 2 13 0 2 13 0 2 13 0 2 13 0 2 13 0 2 13 0 2 13 0 2 13 0 2 13 0 2
13 0 2 13 0 2 13 0 2 13 0 2 13 0 2 13 0 2 13 0 2 13 0 2 13 0 2 13 0 2
13 0 2 13 0 2 13 0 2 13 0 2 13 0 2 13 0 2 13 0 2 13 0 2 13 0 2 13 0 2
13 0 2 13 0 2 13 0 2 13 0 2 13 0 2 13 0 2 13 0 2 13 0 2 13 0 2 13 0 2
13 0 2 13 0 2 13 0 2 13 0 2 13 0 2 13 0 2 13 0 2 13 0 2 13 0 2 13 0 2
13 0 2 13 0 2 13 0 2 13 0 2 13 0 2 13 0 2 13 0 2 13 0 2 13 0 2 13 0 2
13 0 2 13 0 2 13 0 2 13 0 2 13 0 2 13 0 2 13 0 2 13 0 2 13 0 2 13 0 2
13 0 2 13 0 2 13 0 2 13 0 2 13 0 2 13 0 2 13 0 2 13 0 2 13 0 2 13 0 2
13 0 2 13 0 2 13 0 2 13 0 2 13 0 2 13 0 2 13 0 2 13 0 2 13 0 2 13 0 2
13 0 2 13 0 2 13 0 2 13 0 2 13 0 2 13 0 2 13 0 2 13 0 2 13 0 2 13 0 2
13 0 2 13 0 2 13 0 2 13 0 2 13 0 2 13 0 2 13 0 2 13 0 2 13 0 2 13 0 2
13 0 2 13 0 2 13 0 2 13 0 2 13 0 2 13 0 2 13 0 2 13 0 2 13 0 2 13 0 2
13 0 2 13 0 2 13 0 2 13 0 2 13 0 2 13 0 2 13 0 2 13 0 2 13 0 2 13 0 2
13 0 2 13 0 2 13 0 2 13 0 2 13 0 2 13 0 2 13 0 2 13 0 2 13 0 2 13 0 2
13 0 2 13 0 2 13 0 2 13 0 2 13 0 2 13 0 2 13 0 2 13 0 2 13 0 2 13 0 2
13 0 2 13 0 2 13 0 2 13 0 2 13 0 2 13 0 2 13 0 2 13 0 2 13 0 2 13 0 2
13 0 2 13 0 2 13 0 2 13 0 2 13 0 2 13 0 2 13 0 2 13 0 2 13 0 2 13 0 2
13 0 2 13 0 2 13 0 2 13 0 2 13 0 2 13 0 2 13 0 2 13 0 2 13 0 2 13 0 2
13 0 2 13 0 2 13 0 2 13 0 2 13 0 2 13 0 2 13 0 2 13 0 2 13 0 2 13 0 2
13 0 2 13 0 2 13 0 2 13 0 2 13 0 2 13 0 2 13 0 2 13 0 2 13 0 2 13 0 2
13 0 2 13 0 2 13 0 2 13 0 2 13 0 2 13 0 2 13 0 2 13 0 2 13 0 2 13 0 2
13 0 2 13 0 2 13 0 2 13 0 2 13 0 2 13 0 2 13 0 2 13 0 2 13 0 2 13 0 2
13 0 2 13 0 2 13 0 2 13 0 2 13 0 2 13 0 2 13 0 2 13 0 2 13 0 2 13 0 2
13 0 2 13 0 2 13 0 2 13 0 2 13 0 2 13 0 2 13 0 2 13 0 2 13 0 2 13 0 2
13 0 2 13 0 2 13 0 2 13 0 2 13 0 2 13 0 2 13 0 2 13 0 2 13 0 2 13 0 2
13 0 2 13 0 2 13 0 2 13 0 2 13 0 2 13 0 2 13 0 2 13 0 2 13 0 2 13 0 2
13 0 2 13 0 2 13 0 2 13 0 2 13 0 2 13 0 2 13 0 2 13 0 2 13 0 2 13 0 2
13 0 2 13 0 2 13 0 2 13 0 2 13 0 2 13 0 2 13 0 2 13 0 2 13 0 2 13 0 2
13 0 2 13 0 2 13 0 2 13 0 2 13 0 2 13 0 2 13 0 2 13 0 2 13 0 2 13 0 2
13 0 2 13 0 2 13 0 2 13 0 2 13 0 2 13 0 2 13 0 2 13 0 2 13 0 2 13 0 2
13 0 2 13 0 2 13 0 2 13 0 2 13 0 2 13 0 2 13 0 2 13 0 2 13 0 2 13 0 2
13 0 2 13 0 2 13 0 2 13 0 2 13 0 2 13 0 2 13 0 2 13 0 2 13 0 2 13 0 2
13 0 2 13 0 2 13 0 2 13 0 2 13 0 2 13 0 2 13 0 2 13 0 2 13 0 2 13 0 2
13 0 2 13 0 2 13 0 2 13 0 2 13 0 2 13 0 2 13 0 2 13 0 2 13 0 2 13 0 2
13 0 2 13 0 2 13 0 2 13 0 2 13 0 2 13 0 2 12 0 2 12 0 2 12 0 2 12 0 2
12 0 2 12 0 2 12 0 2 12 0 2 12 0 2 12 0 2 12 0 2 12 0 2 12 0 2 12 0 2
13 0 2 13 0 2 13 0 2 13 0 2 13 0 2 13 0 2 13 0 2 13 0 2 13 0 2 13 0 2
13 0 2 13 0 2 13 0 2 13 0 2 13 0 2 13 0 2 13 0 2 13 0 2 13 0 2 13 0 2
13 0 2 13 0 2 13 0 2 13 0 2 13 0 2 13 0 2 13 0 2 13 0 2 13 0 2 13 0 2
13 0 2 13 0 2 13 0 2 13 0 2 13 0 2 13 0 2 13 0 2 13 0 2 13 0 2 13 0 2
13 0 2 13 0 2 13 0 2 13 0 2 13 0 2 13 0 2 13 0 2 13 0 2 13 0 2 13 0 2
13 0 2 13 0 2 13 0 2 13 0 2 13 0 2 13 0 2 13 0 2 13 0 2 13 0 2 13 0 2
13 0 2 13 0 2 13 0 2 13 0 2 13 0 2 13 0 2 13 0 2 13 0 2 13 0 2 13 0 2
13 0 2 13 0 2 13 0 2 13 0 2 13 0 2 13 0 2 13 0 2 13 0 2 13 0 2 13 0 2
13 0 2 13 0 2 13 0 2 13 0 2 13 0 2 13 0 2 13 0 2 13 0 2 13 0 2 13 0 2
13 0 2 13 0 2 13 0 2 13 0 2 13 0 2 13 0 2 13 0 2 13 0 2 13 0 2 13 0 2
13 0 2 13 0 2 13 0 2 13 0 2 13 0 2 13 0 2 13 0 2 13 0 2 13 0 2 13 0 2
13 0 2 13 0 2 14 0 2 14 0 2 14 0 2 14 0 2 14 0 2 14 0 2 14 0 2 14 0 2
14 0 2 14 0 2 14 0 2 14 0 2 14 0 2 14 0 2 14 0 2 14 0 2 14 0 2 14 0 2
14 0 2 14 0 2 14 0 2 14 0 2 14 0 2 14 0 2 14 0 2 14 0 2 14 0 2 14 0 2
14 0 2 14 0 2 14 0 2 14 0 2 14 0 2 14 0 2 14 0 2 14 0 2 14 0 2 14 0 2
14 0 2 14 0 2 14 0 2 14 0 2 14 0 2 14 0 2 14 0 2 14 0 2 14 0 2 14 0 2
14 0 2 14 0 2 14 0 2 14 0 2 14 0 2 14 0 2 14 0 2 14 0 2 14 0 2 14 0 2
14 0 2 14 0 2 14 0 2 14 0 2 14 0 2 14 0 2 14 0 2 14 0 2 14 0 2 14 0 2
14 0 2 14 0 2 14 0 2 14 0 2 14 0 2 14 0 2 14 0 2 14 0 2 14 0 2 14 0 2
14 0 2 14 0 2 14 0 2 14 0 2 14 0 2 14 0 2 14 0 2 14 0 2 14 0 2 14 0 2
14 0 2 14 0 2 14 0 2 14 0 2 14 0 2 14 0 2 14 0 2 14 0 2 14 0 2 14 0 2
14 0 2 14 0 2 14 0 2 14 0 2 14 0 2 14 0 2 14 0 2 14 0 2 14 0 2 14 0 2
14 0 2 14 0 2 14 0 2 14 0 2 14 0 2 14 0 2 14 0 2 14 0 2 14 0 2 14 0 2
14 0 2 14 0 2 14 0 2 14 0 2 14 0 2 14 0 2 14 0 2 14 0 2 14 0 2 14 0 2
14 0 2 14 0 2 14 0 2 14 0 2 14 0 2 14 0 2 14 0 2 14 0 2 14 0 2 14 0 2
14 0 2 14 0 2 14 0 2 14 0 2 14 0 2 14 0 2 14 0 2 14 0 2 14 0 2 14 0 2
14 0 2 14 0 2 14 0 2 14 0 2 14 0 2 14 0 2 14 0 2 14 0 2 14 0 2 14 0 2
14 0 2 14 0 2 14 0 2 14 0 2 14 0 2 14 0 2 14 0 2 14 0 2 14 0 2 14 0 2
14 0 2 14 0 2 14 0 2 14 0 2 14 0 2 14 0 2 14 0 2 14 0 2 14 0 2 14 0 2
14 0 2 14 0 2 14 0 2 14 0 2 14 0 2 14 0 2 14 0 2 14 0 2 14 0 2 14 0 2
14 0 2 14 0 2 14 0 2 14 0 2 14 0 2 13 0 2 13 0 2 13 0 2 13 0 2 13 0 2
13 0 2 13 0 2 13 0 2 13 0 2 13 0 2 13 0 2 13 0 2 13 0 2 13 0 2 13 0 2
13 0 2 13 0 2 13 0 2 13 0 2 13 0 2 13 0 2 13 0 2 13 0 2 13 0 2 13 0 2
13 0 2 13 0 2 13 0 2 13 0 2 13 0 2 13 0 2 13 0 2 13 0 2 13 0 2 13 0 2
13 0 2 13 0 2 13 0 2 13 0 2 13 0 2 13 0 2 13 0 2 13 0 2 13 0 2 13 0 2
13 0 2 13 0 2 13 0 2 13 0 2 13 0 2 13 0 2 13 0 2 13 0 2 13 0 2 13 0 2
13 0 2 13 0 2 13 0 2 13 0 2 13 0 2 13 0 2 13 0 2 13 0 2 13 0 2 13 0 2
13 0 2 13 0 2 13 0 2 13 0 2 13 0 2 13 0 2 13 0 2 13 0 2 13 0 2 13 0 2
13 0 2 13 0 2 13 0 2 13 0 2 13 0 2 13 0 2 13 0 2 13 0 2 13 0 2 13 0 2
13 0 2 13 0 2 13 0 2 13 0 2 13 0 2 13 0 2 13 0 2 13 0 2 13 0 2 13 0 2
13 0 2 13 0 2 13 0 2 13 0 2 13 0 2 13 0 2 13 0 2 13 0 2 13 0 2 13 0 2
13 0 2 13 0 2 13 0 2 13 0 2 13 0 2 13 0 2 13 0 2 13 0 2 13 0 2 13 0 2
13 0 2 13 0 2 13 0 2 13 0 2 13 0 2 13 0 2 13 0 2 13 0 2 13 0 2 13 0 2
13 0 2 13 0 2 13 0 2 13 0 2 13 0 2 13 0 2 13 0 2 13 0 2 13 0 2 13 0 2
13 0 2 13 0 2 13 0 2 13 0 2 13 0 2 13 0 2 13 0 2 13 0 2 13 0 2 13 0 2
13 0 2 13 0 2 13 0 2 13 0 2 13 0 2 13 0 2 13 0 2 13 0 2 13 0 2 13 0 2
13 0 2 13 0 2 13 0 2 13 0 2 13 0 2 13 0 2 14 0 2 14 0 2 14 0 2 14 0 2
14 0 2 14 0 2 14 0 2 14 0 2 14 0 2 14 0 2 14 0 2 14 0 2 14 0 2 14 0 2
14 0 2 14 0 2 14 0 2 14 0 2 14 0 2 14 0 2 14 0 2 14 0 2 14 0 2 14 0 2
14 0 2 14 0 2 14 0 2 14 0 2 14 0 2 14 0 2 14 0 2 14 0 2 14 0 2 14 0 2
14 0 2 14 0 2 14 0 2 14 0 2 14 0 2 14 0 2 14 0 2 14 0 2 14 0 2 14 0 2
14 0 2 14 0 2 14 0 2 14 0 2 14 0 2 14 0 2 14 0 2 14 0 2 14 0 2 14 0 2
14 0 2 14 0 2 14 0 2 14 0 2 14 0 2 14 0 2 14 0 2 14 0 2 14 0 2 14 0 2
14 0 2 14 0 2 14 0 2 14 0 2 14 0 2 14 0 2 14 0 2 14 0 2 14 0 2 14 0 2
14 0 2 14 0 2 14 0 2 14 0 2 14 0 2 14 0 2 14 0 2 14 0 2 14 0 2 14 0 2
14 0 2 14 0 2 14 0 2 14 0 2 14 0 2 14 0 2 14 0 2 14 0 2 14 0 2 14 0 2
14 0 2 14 0 2 14 0 2 14 0 2 14 0 2 14 0 2 14 0 2 14 0 2 14 0 2 14 0 2
14 0 2 14 0 2 14 0 2 14 0 2 14 0 2 14 0 2 14 0 2 14 0 2 14 0 2 14 0 2
14 0 2 14 0 2 14 0 2 14 0 2 14 0 2 14 0 2 14 0 2 14 0 2 14 0 2 14 0 2
14 0 2 14 0 2 14 0 2 14 0 2 14 0 2 14 0 2 14 0 2 14 0 2 14 0 2 14 0 2
14 0 2 14 0 2 14 0 2 14 0 2 14 0 2 14 0 2 14 0 2 14 0 2 14 0 2 14 0 2
14 0 2 14 0 2 14 0 2 14 0 2 14 0 2 14 0 2 14 0 2 14 0 2 14 0 2 14 0 2
14 0 2 14 0 2 14 0 2 14 0 2 14 0 2 14 0 2 14 0 2 14 0 2 14 0 2 14 0 2
14 0 2 14 0 2 14 0 2 14 0 2 14 0 2 14 0 2 14 0 2 14 0 2 14 0 2 14 0 2
14 0 2 14 0 2 14 0 2 14 0 2 14 0 2 14 0 2 14 0 2 14 0 2 14 0 2 14 0 2
14 0 2 14 0 2 14 0 2 14 0 2 14 0 2 14 0 2 14 0 2 14 0 2 14 0 2 14 0 2
14 0 2 14 0 2 14 0 2 14 0 2 14 0 2 14 0 2 14 0 2 14 0 2 14 0 2 14 0 2
14 0 2 14 0 2 14 0 2 14 0 2 14 0 2 14 0 2 14 0 2 14 0 2 14 0 2 14 0 2
14 0 2 14 0 2 14 0 2 14 0 2 14 0 2 14 0 2 14 0 2 14 0 2 14 0 2 14 0 2
14 0 2 14 0 2 14 0 2 14 0 2 14 0 2 14 0 2 14 0 2 14 0 2 14 0 2 14 0 2
14 0 2 14 0 2 14 0 2 14 0 2 14 0 2 14 0 2 14 0 2 14 0 2 14 0 2 14 0 2
14 0 2 14 0 2 14 0 2 14 0 2 14 0 2 14 0 2 14 0 2 14 0 2 14 0 2 14 0 2
14 0 2 14 0 2 14 0 2 14 0 2 14 0 2 14 0 2 14 0 2 14 0 2 14 0 2 14 0 2
14 0 2 14 0 2 14 0 2 14 0 2 14 0 2 14 0 2 14 0 2 14 0 2 14 0 2 14 0 2
14 0 2 14 0 2 14 0 2 14 0 2 14 0 2 14 0 2 14 0 2 14 0 2 14 0 2 14 0 2
14 0 2 14 0 2 13 0 2 13 0 2 13 0 2 13 0 2 13 0 2 13 0 2 13 0 2 13 0 2
13 0 2 13 0 2 13 0 2 13 0 2 13 0 2 13 0 2 13 0 2 13 0 2 13 0 2 13 0 2
13 0 2 13 0 2 13 0 2 13 0 2 13 0 2 13 0 2 13 0 2 13 0 2 13 0 2 13 0 2
13 0 2 13 0 2 13 0 2 13 0 2 13 0 2 13 0 2 13 0 2 13 0 2 13 0 2 13 0 2
13 0 2 13 0 2 13 0 2 13 0 2 13 0 2 13 0 2 13 0 2 13 0 2 13 0 2 13 0 2
13 0 2 13 0 2 13 0 2 13 0 2 13 0 2 13 0 2 13 0 2 13 0 2 13 0 2 13 0 2
13 0 2 13 0 2 13 0 2 13 0 2 13 0 2 13 0 2 13 0 2 13 0 2 13 0 2 13 0 2
13 0 2 13 0 2 13 0 2 13 0 2 13 0 2 13 0 2 13 0 2 13 0 2 13 0 2 13 0 2
14 0 2 14 0 2 14 0 2 14 0 2 14 0 2 14 0 2 14 0 2 14 0 2 14 0 2 14 0 2
14 0 2 14 0 2 14 0 2 14 0 2 14 0 2 14 0 2 14 0 2 14 0 2 14 0 2 14 0 2
14 0 2 14 0 2 14 0 2 14 0 2 14 0 2 14 0 2 14 0 2 14 0 2 14 0 2 14 0 2
14 0 2 14 0 2 14 0 2 14 0 2 14 0 2 14 0 2 14 0 2 14 0 2 14 0 2 14 0 2
14 0 2 14 0 2 14 0 2 14 0 2 14 0 2 14 0 2 14 0 2 14 0 2 14 0 2 14 0 2
14 0 2 14 0 2 14 0 2 14 0 2 14 0 2 14 0 2 14 0 2 14 0 2 14 0 2 14 0 2
14 0 2 14 0 2 14 0 2 14 0 2 14 0 2 14 0 2 14 0 2 14 0 2 14 0 2 14 0 2
14 0 2 14 0 2 14 0 2 14 0 2 14 0 2 14 0 2 14 0 2 14 0 2 14 0 2 14 0 2
14 0 2 14 0 2 14 0 2 14 0 2 14 0 2 14 0 2 14 0 2 14 0 2 14 0 2 14 0 2
14 0 2 14 0 2 14 0 2 14 0 2 14 0 2 14 0 2 14 0 2 14 0 2 14 0 2 14 0 2
14 0 2 14 0 2 14 0 2 14 0 2 15 0 2 15 0 2 15 0 2 15 0 2 7 0 2 11 0 2
14 0 3 16 0 3 18 0 4 19 0 4 21 0 4 22 0 5 23 0 5 24 0 5 25 0 5 25 0 5
25 0 5 25 0 5 23 0 5 15 0 2 15 0 2 15 0 2 15 0 2 15 0 2 15 0 2 15 0 2
15 0 2 15 0 2 15 0 2 15 0 2 15 0 2 15 0 2 15 0 2 15 0 2 15 0 2 15 0 2
15 0 2 15 0 2 15 0 2 15 0 2 15 0 2 15 0 2 15 0 2 15 0 2 15 0 2 15 0 2
15 0 2 15 0 2 15 0 2 15 0 2 15 0 2 15 0 2 15 0 2 15 0 2 15 0 2 15 0 2
15 0 2 15 0 2 15 0 2 15 0 2 15 0 2 15 0 2 15 0 2 15 0 2 15 0 2 15 0 2
15 0 2 15 0 2 15 0 2 15 0 2 15 0 2 15 0 2 15 0 2 15 0 2 15 0 2 15 0 2
15 0 2 15 0 2 15 0 2 15 0 2 15 0 2 15 0 2 15 0 2 15 0 2 15 0 2 15 0 2
15 0 2 15 0 2 15 0 2 15 0 2 15 0 2 15 0 2 15 0 2 15 0 2 15 0 2 15 0 2
15 0 2 15 0 2 15 0 2 15 0 2 15 0 2 15 0 2 15 0 2 15 0 2 15 0 2 15 0 2
15 0 2 15 0 2 15 0 2 15 0 2 15 0 2 15 0 2 15 0 2 15 0 2 15 0 2 15 0 2
15 0 2 15 0 2 15 0 2 15 0 2 15 0 2 15 0 2 15 0 2 15 0 2 15 0 2 15 0 2
15 0 2 15 0 2 15 0 2 15 0 2 15 0 2 15 0 2 15 0 2 15 0 2 15 0 2 15 0 2
15 0 2 15 0 2 15 0 2 15 0 2 15 0 2 15 0 2 15 0 2 15 0 2 15 0 2 15 0 2
15 0 2 15 0 2 15 0 2 15 0 2 15 0 2 15 0 2 14 0 2 14 0 2 14 0 2 14 0 2
14 0 2 14 0 2 14 0 2 14 0 2 14 0 2 14 0 2 14 0 2 14 0 2 14 0 2 14 0 2
14 0 2 14 0 2 14 0 2 14 0 2 14 0 2 14 0 2 14 0 2 14 0 2 14 0 2 14 0 2
14 0 2 14 0 2 14 0 2 14 0 2 14 0 2 14 0 2 14 0 2 14 0 2 14 0 2 14 0 2
14 0 2 14 0 2 14 0 2 14 0 2 14 0 2 14 0 2 14 0 2 14 0 2 14 0 2 14 0 2
14 0 2 14 0 2 14 0 2 14 0 2 14 0 2 14 0 2 14 0 2 14 0 2 14 0 2 14 0 2
14 0 2 14 0 2 14 0 2 14 0 2 14 0 2 14 0 2 14 0 2 14 0 2 14 0 2 14 0 2
14 0 2 14 0 2 14 0 2 14 0 2 14 0 2 14 0 2 14 0 2 14 0 2 14 0 2 14 0 2
14 0 2 14 0 2 14 0 2 14 0 2 14 0 2 14 0 2 14 0 2 14 0 2 14 0 2 14 0 2
14 0 2 14 0 2 14 0 2 14 0 2 14 0 2 14 0 2 14 0 2 14 0 2 14 0 2 14 0 2
14 0 2 14 0 2 14 0 2 14 0 2 14 0 2 14 0 2 14 0 2 14 0 2 14 0 2 13 0 2
13 0 2 13 0 2 13 0 2 13 0 2 13 0 2 13 0 2 13 0 2 13 0 2 13 0 2 13 0 2
14 0 2 14 0 2 14 0 2 14 0 2 14 0 2 14 0 2 14 0 2 14 0 2 14 0 2 14 0 2
14 0 2 14 0 2 14 0 2 14 0 2 14 0 2 14 0 2 14 0 2 14 0 2 14 0 2 14 0 2
14 0 2 14 0 2 14 0 2 14 0 2 14 0 2 14 0 2 14 0 2 14 0 2 14 0 2 14 0 2
14 0 2 14 0 2 14 0 2 14 0 2 14 0 2 14 0 2 14 0 2 14 0 2 14 0 2 14 0 2
14 0 2 14 0 2 14 0 2 14 0 2 14 0 2 14 0 2 14 0 2 14 0 2 14 0 2 14 0 2
14 0 2 14 0 2 14 0 2 14 0 2 14 0 2 14 0 2 14 0 2 14 0 2 14 0 2 14 0 2
14 0 2 14 0 2 14 0 2 14 0 2 14 0 2 14 0 2 14 0 2 14 0 2 14 0 2 14 0 2
14 0 2 14 0 2 14 0 2 14 0 2 14 0 2 14 0 2 14 0 2 14 0 2 14 0 2 14 0 2
14 0 2 14 0 2 14 0 2 14 0 2 14 0 2 14 0 2 14 0 2 14 0 2 14 0 2 15 0 2
15 0 2 15 0 2 15 0 2 15 0 2 15 0 2 15 0 2 15 0 2 15 0 2 15 0 2 15 0 2
15 0 2 15 0 2 15 0 2 15 0 2 15 0 2 15 0 2 15 0 2 15 0 2 15 0 2 15 0 2
15 0 2 15 0 2 15 0 2 15 0 2 15 0 2 15 0 2 15 0 2 15 0 2 15 0 2 15 0 2
15 0 2 15 0 2 15 0 2 15 0 2 15 0 2 15 0 2 15 0 2 15 0 2 15 0 2 15 0 2
15 0 2 15 0 2 15 0 2 15 0 2 15 0 2 5 0 1 9 0 2 12 0 3 15 0 3 17 0 3 19
0 4 21 0 4 22 0 5 24 0 5 25 0 5 26 0 5 27 0 6 28 0 6 29 0 6 30 0 6 30
0 6 31 0 6 31 0 6 30 0 6 29 0 6 28 0 6 15 0 3 15 0 3 15 0 3 15 0 3 15
0 3 15 0 3 15 0 3 15 0 3 15 0 3 15 0 3 15 0 3 15 0 3 15 0 3 15 0 3 15
0 3 15 0 3 15 0 3 15 0 3 15 0 3 15 0 3 15 0 3 15 0 3 15 0 3 15 0 3 15
0 3 15 0 3 15 0 3 15 0 3 15 0 3 15 0 3 15 0 3 15 0 3 15 0 3 15 0 3 15
0 3 15 0 3 15 0 3 15 0 3 15 0 3 15 0 3 15 0 3 15 0 3 15 0 3 15 0 3 15
0 3 15 0 3 15 0 3 15 0 3 15 0 3 15 0 3 15 0 3 15 0 3 15 0 3 15 0 3 15
0 3 15 0 3 15 0 3 15 0 3 15 0 3 15 0 3 15 0 3 15 0 3 15 0 3 15 0 3 15
0 3 15 0 3 15 0 3 15 0 3 15 0 3 15 0 3 15 0 3 15 0 3 15 0 3 15 0 3 15
0 3 15 0 3 15 0 3 15 0 3 15 0 3 15 0 3 15 0 3 15 0 3 15 0 3 15 0 3 15
0 3 15 0 3 15 0 3 15 0 3 15 0 3 15 0 3 15 0 3 15 0 3 15 0 3 15 0 3 15
0 3 15 0 3 15 0 3 15 0 3 15 0 3 15 0 3 15 0 3 15 0 3 15 0 3 15 0 3 15
0 3 15 0 3 15 0 3 15 0 3 15 0 3 15 0 3 15 0 3 15 0 3 15 0 3 15 0 2 15
0 2 15 0 2 15 0 2 15 0 2 15 0 2 15 0 2 15 0 2 15 0 2 15 0 2 15 0 2 15
0 2 15 0 2 15 0 2 15 0 2 15 0 2 15 0 2 15 0 2 15 0 2 15 0 2 15 0 2 15
0 2 15 0 2 15 0 2 15 0 2 15 0 2 15 0 2 15 0 2 15 0 2 15 0 2 15 0 2 15
0 2 15 0 2 15 0 2 15 0 2 15 0 2 15 0 2 15 0 2 15 0 2 15 0 2 15 0 2 15
0 2 15 0 2 15 0 2 15 0 2 15 0 2 15 0 2 15 0 2 15 0 2 15 0 2 15 0 2 15
0 2 15 0 2 15 0 2 15 0 2 15 0 2 15 0 2 15 0 2 15 0 2 15 0 2 15 0 2 15
0 2 14 0 2 14 0 2 14 0 2 14 0 2 14 0 2 14 0 2 14 0 2 14 0 2 14 0 2 14
0 2 14 0 2 14 0 2 14 0 2 14 0 2 14 0 2 14 0 2 14 0 2 14 0 2 14 0 2 14
0 2 14 0 2 14 0 2 14 0 2 14 0 2 14 0 2 14 0 2 14 0 2 14 0 2 14 0 2 14
0 2 14 0 2 14 0 2 14 0 2 14 0 2 14 0 2 14 0 2 14 0 2 14 0 2 14 0 2 14
0 2 14 0 2 14 0 2 14 0 2 14 0 2 14 0 2 14 0 2 14 0 2 14 0 2 14 0 2 14
0 2 14 0 2 14 0 2 14 0 2 14 0 2 14 0 2 14 0 2 14 0 2 14 0 2 14 0 2 14
0 2 14 0 2 14 0 2 14 0 2 14 0 2 14 0 2 14 0 2 14 0 2 14 0 2 14 0 2
14 0 2 14 0 2 14 0 2 14 0 2 14 0 2 14 0 2 14 0 2 14 0 2 14 0 2 14 0 2
14 0 2 14 0 2 14 0 2 14 0 2 14 0 2 14 0 2 14 0 2 14 0 2 14 0 2 14 0 2
14 0 2 14 0 2 14 0 2 14 0 2 14 0 2 14 0 2 14 0 2 14 0 2 14 0 2 14 0 2
14 0 2 14 0 2 14 0 2 14 0 2 14 0 2 14 0 2 14 0 2 14 0 2 14 0 2 14 0 2
14 0 2 14 0 2 14 0 2 14 0 2 14 0 2 14 0 2 14 0 2 14 0 2 14 0 2 14 0 2
14 0 2 14 0 2 14 0 2 14 0 2 14 0 2 14 0 2 15 0 2 15 0 2 15 0 2 15 0 2
15 0 2 15 0 2 15 0 2 15 0 2 15 0 2 15 0 2 15 0 2 15 0 2 15 0 2 15 0 2
15 0 2 15 0 2 15 0 2 15 0 2 15 0 2 15 0 2 15 0 2 15 0 2 15 0 2 15 0 2
15 0 2 15 0 2 15 0 2 15 0 2 15 0 2 15 0 2 15 0 2 15 0 2 15 0 2 15 0 2
15 0 2 15 0 2 15 0 2 15 0 2 15 0 2 15 0 2 15 0 2 15 0 2 15 0 2 15 0 2
15 0 2 15 0 2 15 0 2 15 0 2 15 0 3 15 0 3 15 0 3 15 0 3 15 0 3 15 0 3
15 0 3 15 0 3 15 0 3 15 0 3 15 0 3 15 0 3 15 0 3 15 0 3 15 0 3 15 0 3
15 0 3 15 0 3 15 0 3 15 0 3 15 0 3 15 0 3 15 0 3 15 0 3 15 0 3 15 0 3
15 0 3 15 0 3 15 0 3 5 0 1 9 0 2 11 0 2 14 0 3 16 0 3 18 0 4 20 0 4 22
0 5 24 0 5 25 0 5 27 0 5 28 0 6 29 0 6 30 0 6 31 0 6 32 0 7 33 0 7 34
0 7 34 0 7 35 0 7 35 0 7 35 0 7 34 0 7 33 0 7 32 0 7 28 0 6 16 0 3 16
0 3 16 0 3 16 0 3 16 0 3 16 0 3 16 0 3 16 0 3 16 0 3 16 0 3 16 0 3 16
0 3 16 0 3 16 0 3 16 0 3 16 0 3 16 0 3 16 0 3 16 0 3 16 0 3 16 0 3 16
0 3 16 0 3 16 0 3 16 0 3 16 0 3 16 0 3 16 0 3 16 0 3 16 0 3 16 0 3 16
0 3 16 0 3 16 0 3 16 0 3 16 0 3 16 0 3 16 0 3 16 0 3 16 0 3 16 0 3 16
0 3 16 0 3 16 0 3 16 0 3 16 0 3 16 0 3 16 0 3 16 0 3 16 0 3 16 0 3 16
0 3 16 0 3 16 0 3 16 0 3 16 0 3 16 0 3 16 0 3 16 0 3 16 0 3 16 0 3 16
0 3 16 0 3 16 0 3 16 0 3 16 0 3 16 0 3 16 0 3 16 0 3 16 0 3 16 0 3 16
0 3 16 0 3 16 0 3 16 0 3 16 0 3 16 0 3 16 0 3 16 0 3 16 0 3 16 0 3 16
0 3 16 0 3 16 0 3 16 0 3 16 0 3 16 0 3 16 0 3 16 0 3 16 0 3 16 0 3 16
0 3 16 0 3 16 0 3 16 0 3 16 0 3 16 0 3 16 0 3 16 0 3 16 0 3 16 0 3 16
0 3 16 0 3 16 0 3 16 0 3 16 0 3 16 0 3 16 0 3 16 0 3 16 0 3 16 0 3 16
0 3 16 0 3 16 0 3 16 0 3 16 0 3 15 0 3 15 0 3 15 0 3 15 0 3 15 0 3 15
0 3 15 0 3 15 0 3 15 0 3 15 0 3 15 0 3 15 0 3 15 0 3 15 0 3 15 0 3 15
0 3 15 0 3 15 0 3 15 0 3 15 0 3 15 0 3 15 0 3 15 0 3 15 0 3 15 0 3 15
0 3 15 0 3 15 0 3 15 0 3 15 0 3 15 0 3 15 0 3 15 0 3 15 0 3 15 0 3 15
0 3 15 0 3 15 0 3 15 0 3 15 0 3 15 0 3 15 0 3 15 0 3 15 0 2 15 0 2 15
0 2 15 0 2 15 0 2 15 0 2 15 0 2 15 0 2 15 0 2 15 0 2 15 0 2 15 0 2 15
0 2 15 0 2 15 0 2 15 0 2 15 0 2 15 0 2 15 0 2 15 0 2 15 0 2 15 0 2 15
0 2 15 0 2 15 0 2 15 0 2 15 0 2 15 0 2 15 0 2 15 0 2 15 0 2 15 0 2 15
0 2 15 0 2 15 0 2 15 0 2 15 0 2 15 0 2 15 0 2 15 0 2 15 0 2 15 0 2 15
0 2 15 0 2 15 0 2 15 0 2 15 0 2 15 0 2 14 0 2 14 0 2 14 0 2 14 0 2 14
0 2 14 0 2 14 0 2 14 0 2 14 0 2 14 0 2 14 0 2 14 0 2 14 0 2 14 0 2 14
0 2 14 0 2 14 0 2 14 0 2 14 0 2 14 0 2 14 0 2 14 0 2 14 0 2 14 0 2 14
0 2 14 0 2 14 0 2 14 0 2 14 0 2 14 0 2 14 0 2 14 0 2 14 0 2 14 0 2
14 0 2 14 0 2 14 0 2 14 0 2 14 0 2 14 0 2 14 0 2 14 0 2 14 0 2 14 0 2
14 0 2 14 0 2 14 0 2 14 0 2 14 0 2 14 0 2 14 0 2 14 0 2 14 0 2 14 0 2
14 0 2 14 0 2 14 0 2 14 0 2 14 0 2 14 0 2 14 0 2 14 0 2 15 0 2 15 0 2
15 0 2 15 0 2 15 0 2 15 0 2 15 0 2 15 0 2 15 0 2 15 0 2 15 0 2 15 0 2
15 0 2 15 0 2 15 0 2 15 0 2 15 0 2 15 0 2 15 0 2 15 0 2 15 0 2 15 0 2
15 0 2 15 0 2 15 0 2 15 0 2 15 0 2 15 0 2 15 0 2 15 0 2 15 0 2 15 0 2
15 0 2 15 0 2 15 0 2 15 0 2 15 0 2 15 0 2 15 0 2 15 0 2 15 0 2 15 0 2
15 0 2 15 0 3 15 0 3 15 0 3 15 0 3 15 0 3 15 0 3 15 0 3 15 0 3 15 0 3
15 0 3 15 0 3 15 0 3 15 0 3 15 0 3 15 0 3 15 0 3 15 0 3 15 0 3 15 0 3
15 0 3 15 0 3 15 0 3 15 0 3 15 0 3 15 0 3 15 0 3 15 0 3 15 0 3 15 0 3
15 0 3 15 0 3 15 0 3 15 0 3 16 0 3 16 0 3 16 0 3 16 0 3 16 0 3 16 0 3
16 0 3 16 0 3 16 0 3 16 0 3 16 0 3 16 0 3 16 0 3 16 0 3 16 0 3 16 0 3
16 0 3 16 0 3 16 0 3 16 0 3 16 0 3 16 0 3 16 0 3 16 0 3 16 0 3 16 0 3
16 0 3 3 0 1 7 0 1 10 0 2 12 0 3 15 0 3 17 0 3 19 0 4 21 0 4 23 0 5 24
0 5 26 0 5 27 0 6 29 0 6 30 0 6 31 0 6 33 0 7 34 0 7 35 0 7 35 0 7 36
0 7 37 0 8 37 0 8 38 0 8 38 0 8 38 0 8 38 0 8 37 0 8 36 0 7 34 0 7 29
0 6 16 0 3 16 0 3 16 0 3 16 0 3 16 0 3 16 0 3 16 0 3 16 0 3 16 0 3 16
0 3 16 0 3 16 0 3 16 0 3 16 0 3 16 0 3 16 0 3 16 0 3 16 0 3 16 0 3 16
0 3 16 0 3 16 0 3 16 0 3 16 0 3 16 0 3 16 0 3 16 0 3 16 0 3 16 0 3 16
0 3 16 0 3 16 0 3 16 0 3 16 0 3 16 0 3 16 0 3 16 0 3 16 0 3 16 0 3 16
0 3 16 0 3 16 0 3 16 0 3 16 0 3 16 0 3 16 0 3 16 0 3 16 0 3 16 0 3 16
0 3 16 0 3 16 0 3 16 0 3 16 0 3 16 0 3 16 0 3 16 0 3 16 0 3 16 0 3 16
0 3 16 0 3 16 0 3 16 0 3 16 0 3 16 0 3 16 0 3 16 0 3 16 0 3 16 0 3 16
0 3 16 0 3 16 0 3 16 0 3 16 0 3 16 0 3 16 0 3 16 0 3 16 0 3 16 0 3 16
0 3 16 0 3 16 0 3 16 0 3 16 0 3 16 0 3 16 0 3 16 0 3 16 0 3 16 0 3 16
0 3 16 0 3 16 0 3 16 0 3 16 0 3 16 0 3 16 0 3 16 0 3 16 0 3 16 0 3 16
0 3 16 0 3 16 0 3 16 0 3 16 0 3 16 0 3 16 0 3 16 0 3 16 0 3 16 0 3 16
0 3 16 0 3 16 0 3 16 0 3 16 0 3 16 0 3 16 0 3 16 0 3 16 0 3 16 0 3 16
0 3 16 0 3 16 0 3 16 0 3 16 0 3 16 0 3 16 0 3 16 0 3 16 0 3 16 0 3 16
0 3 16 0 3 16 0 3 16 0 3 16 0 3 16 0 3 16 0 3 16 0 3 16 0 3 16 0 3 16
0 3 16 0 3 16 0 3 16 0 3 16 0 3 16 0 3 16 0 3 16 0 3 16 0 3 16 0 3 16
0 3 16 0 3 16 0 3 16 0 3 16 0 3 16 0 3 16 0 3 16 0 3 16 0 3 15 0 3 15
0 3 15 0 3 15 0 3 15 0 3 15 0 3 15 0 3 15 0 3 15 0 3 15 0 3 15 0 3 15
0 3 15 0 3 15 0 3 15 0 3 15 0 3 15 0 3 15 0 3 15 0 3 15 0 3 15 0 3 15
0 3 15 0 3 15 0 3 15 0 3 15 0 3 15 0 3 15 0 3 15 0 3 15 0 3 15 0 3 15
0 3 15 0 3 15 0 2 15 0 2 15 0 2 15 0 2 15 0 2 15 0 2 15 0 2 15 0 2 15
0 2 15 0 2 15 0 2 15 0 2 15 0 2 15 0 2 15 0 2 15 0 2 15 0 2 15 0 2 15
0 2 15 0 2 15 0 2 15 0 2 15 0 2 15 0 2 15 0 2 15 0 2 15 0 2 15 0 2 15
0 2 15 0 2 15 0 2 15 0 2 15 0 2 15 0 2 15 0 2 15 0 2 15 0 2 15 0 2 15
0 2 15 0 2 15 0 2 15 0 2 15 0 2 15 0 2 14 0 2 14 0 2 14 0 2 14 0 2
14 0 2 14 0 2 15 0 2 15 0 2 15 0 2 15 0 2 15 0 2 15 0 2 15 0 2 15 0 2
15 0 2 15 0 2 15 0 2 15 0 2 15 0 2 15 0 2 15 0 2 15 0 2 15 0 2 15 0 2
15 0 2 15 0 2 15 0 2 15 0 2 15 0 2 15 0 2 15 0 2 15 0 2 15 0 2 15 0 2
15 0 2 15 0 2 15 0 2 15 0 2 15 0 2 15 0 2 15 0 2 15 0 2 15 0 2 15 0 2
15 0 2 15 0 2 15 0 2 15 0 3 15 0 3 15 0 3 15 0 3 15 0 3 15 0 3 15 0 3
15 0 3 15 0 3 15 0 3 15 0 3 15 0 3 15 0 3 15 0 3 15 0 3 15 0 3 15 0 3
15 0 3 15 0 3 15 0 3 15 0 3 15 0 3 15 0 3 15 0 3 15 0 3 15 0 3 15 0 3
15 0 3 15 0 3 15 0 3 16 0 3 16 0 3 16 0 3 16 0 3 16 0 3 16 0 3 16 0 3
16 0 3 16 0 3 16 0 3 16 0 3 16 0 3 16 0 3 16 0 3 16 0 3 16 0 3 16 0 3
16 0 3 16 0 3 16 0 3 16 0 3 16 0 3 16 0 3 16 0 3 16 0 3 16 0 3 16 0 3
16 0 3 16 0 3 16 0 3 16 0 3 16 0 3 16 0 3 16 0 3 16 0 3 16 0 3 16 0 3
16 0 3 16 0 3 16 0 3 16 0 3 16 0 3 16 0 3 16 0 3 16 0 3 16 0 3 16 0 3
16 0 3 16 0 3 16 0 3 16 0 3 16 0 3 16 0 3 16 0 3 16 0 3 16 0 3 3 0 1 4
0 1 7 0 1 10 0 2 13 0 3 15 0 3 17 0 4 19 0 4 21 0 4 23 0 5 25 0 5 26 0
5 28 0 6 29 0 6 31 0 6 32 0 7 33 0 7 35 0 7 36 0 7 37 0 8 38 0 8 38 0
8 39 0 8 40 0 8 40 0 8 41 0 8 41 0 8 41 0 8 40 0 8 40 0 8 39 0 8 37 0
8 35 0 7 17 0 3 17 0 3 17 0 3 17 0 3 17 0 3 17 0 3 17 0 3 17 0 3 17 0
3 17 0 3 17 0 3 17 0 3 17 0 3 17 0 3 17 0 3 17 0 3 17 0 3 17 0 3 17 0
3 17 0 3 17 0 3 17 0 3 17 0 3 17 0 3 17 0 3 17 0 3 17 0 3 17 0 3 17 0
3 17 0 3 17 0 3 17 0 3 17 0 3 17 0 3 17 0 3 17 0 3 17 0 3 17 0 3 17 0
3 17 0 3 17 0 3 17 0 3 17 0 3 17 0 3 17 0 3 17 0 3 17 0 3 17 0 3 17 0
3 17 0 3 17 0 3 17 0 3 17 0 3 17 0 3 17 0 3 17 0 3 17 0 3 17 0 3 17 0
3 17 0 3 17 0 3 17 0 3 17 0 3 17 0 3 17 0 3 17 0 3 17 0 3 17 0 3 17 0
3 17 0 3 17 0 3 17 0 3 17 0 3 17 0 3 17 0 3 17 0 3 17 0 3 17 0 3 17 0
3 17 0 3 17 0 3 17 0 3 17 0 3 17 0 3 17 0 3 17 0 3 17 0 3 17 0 3 17 0
3 17 0 3 17 0 3 17 0 3 17 0 3 17 0 3 17 0 3 17 0 3 17 0 3 17 0 3 17 0
3 17 0 3 17 0 3 17 0 3 17 0 3 17 0 3 17 0 3 17 0 3 17 0 3 17 0 3 17 0
3 17 0 3 16 0 3 16 0 3 16 0 3 16 0 3 16 0 3 16 0 3 16 0 3 16 0 3 16 0
3 16 0 3 16 0 3 16 0 3 16 0 3 16 0 3 16 0 3 16 0 3 16 0 3 16 0 3 16 0
3 16 0 3 16 0 3 16 0 3 16 0 3 16 0 3 16 0 3 16 0 3 16 0 3 16 0 3 16 0
3 16 0 3 16 0 3 16 0 3 16 0 3 16 0 3 16 0 3 16 0 3 16 0 3 16 0 3 16 0
3 16 0 3 16 0 3 16 0 3 16 0 3 16 0 3 16 0 3 16 0 3 16 0 3 16 0 3 16 0
3 16 0 3 16 0 3 16 0 3 16 0 3 16 0 3 16 0 3 16 0 3 16 0 3 16 0 3 16 0
3 16 0 3 16 0 3 16 0 3 16 0 3 16 0 3 16 0 3 16 0 3 16 0 3 16 0 3 16 0
3 16 0 3 16 0 3 16 0 3 16 0 3 16 0 3 16 0 3 16 0 3 16 0 3 16 0 3 16 0
3 16 0 3 15 0 3 15 0 3 15 0 3 15 0 3 15 0 3 15 0 3 15 0 3 15 0 3 15 0
3 15 0 3 15 0 3 15 0 3 15 0 3 15 0 3 15 0 3 15 0 3 15 0 3 15 0 3 15 0
3 15 0 3 15 0 3 15 0 3 15 0 3 15 0 3 15 0 3 15 0 3 15 0 3 15 0 3 15 0
3 15 0 2 15 0 2 15 0 2 15 0 2 15 0 2 15 0 2 15 0 2 15 0 2 15 0 2 15 0
2 15 0 2 15 0 2 15 0 2 15 0 2 15 0 2 15 0 2 15 0 2 15 0 2 15 0 2
15 0 2 15 0 2 15 0 2 15 0 2 15 0 2 15 0 2 15 0 2 15 0 2 15 0 2 15 0 2
15 0 2 15 0 2 15 0 2 15 0 2 15 0 2 15 0 2 15 0 2 15 0 2 15 0 2 15 0 3
15 0 3 15 0 3 15 0 3 15 0 3 15 0 3 15 0 3 15 0 3 15 0 3 15 0 3 15 0 3
15 0 3 15 0 3 15 0 3 15 0 3 15 0 3 15 0 3 15 0 3 15 0 3 15 0 3 15 0 3
15 0 3 15 0 3 15 0 3 15 0 3 15 0 3 15 0 3 15 0 3 16 0 3 16 0 3 16 0 3
16 0 3 16 0 3 16 0 3 16 0 3 16 0 3 16 0 3 16 0 3 16 0 3 16 0 3 16 0 3
16 0 3 16 0 3 16 0 3 16 0 3 16 0 3 16 0 3 16 0 3 16 0 3 16 0 3 16 0 3
16 0 3 16 0 3 16 0 3 16 0 3 16 0 3 16 0 3 16 0 3 16 0 3 16 0 3 16 0 3
16 0 3 16 0 3 16 0 3 16 0 3 16 0 3 16 0 3 16 0 3 16 0 3 16 0 3 16 0 3
16 0 3 16 0 3 16 0 3 16 0 3 16 0 3 16 0 3 16 0 3 16 0 3 16 0 3 16 0 3
16 0 3 16 0 3 16 0 3 16 0 3 16 0 3 16 0 3 16 0 3 16 0 3 16 0 3 16 0 3
16 0 3 16 0 3 17 0 3 17 0 3 17 0 3 17 0 3 17 0 3 17 0 3 17 0 3 17 0 3
17 0 3 17 0 3 17 0 3 17 0 3 17 0 3 17 0 3 17 0 3 17 0 3 3 0 1 4 0 1 7
0 1 10 0 2 12 0 3 15 0 3 17 0 3 19 0 4 21 0 4 23 0 5 25 0 5 26 0 5 28
0 6 29 0 6 31 0 6 32 0 7 34 0 7 35 0 7 36 0 7 37 0 8 38 0 8 39 0 8 40
0 8 41 0 8 42 0 9 42 0 9 43 0 9 43 0 9 43 0 9 43 0 9 43 0 9 42 0 9 41
0 9 40 0 8 38 0 8 33 0 7 17 0 3 17 0 3 17 0 3 17 0 3 17 0 3 17 0 3 17
0 3 17 0 3 17 0 3 17 0 3 17 0 3 17 0 3 17 0 3 17 0 3 17 0 3 17 0 3 17
0 3 17 0 3 17 0 3 17 0 3 17 0 3 17 0 3 17 0 3 17 0 3 17 0 3 17 0 3 17
0 3 17 0 3 17 0 3 17 0 3 17 0 3 17 0 3 17 0 3 17 0 3 17 0 3 17 0 3 17
0 3 17 0 3 17 0 3 17 0 3 17 0 3 17 0 3 17 0 3 17 0 3 17 0 3 17 0 3 17
0 3 17 0 3 17 0 3 17 0 3 17 0 3 17 0 3 17 0 3 17 0 3 17 0 3 17 0 3 17
0 3 17 0 3 17 0 3 17 0 3 17 0 3 17 0 3 17 0 3 17 0 3 17 0 3 17 0 3 17
0 3 17 0 3 17 0 3 17 0 3 17 0 3 17 0 3 17 0 3 17 0 3 17 0 3 17 0 3 17
0 3 17 0 3 17 0 3 17 0 3 17 0 3 17 0 3 17 0 3 17 0 3 17 0 3 17 0 3 17
0 3 17 0 3 17 0 3 17 0 3 17 0 3 17 0 3 17 0 3 17 0 3 17 0 3 17 0 3 17
0 3 17 0 3 17 0 3 17 0 3 17 0 3 17 0 3 17 0 3 17 0 3 17 0 3 17 0 3 17
0 3 17 0 3 17 0 3 17 0 3 17 0 3 17 0 3 17 0 3 17 0 3 17 0 3 17 0 3 17
0 3 17 0 3 17 0 3 17 0 3 17 0 3 17 0 3 17 0 3 17 0 3 17 0 3 17 0 3 17
0 3 17 0 3 17 0 3 17 0 3 17 0 3 17 0 3 17 0 3 17 0 3 17 0 3 17 0 3 17
0 3 17 0 3 17 0 3 17 0 3 17 0 3 17 0 3 17 0 3 17 0 3 17 0 3 17 0 3 17
0 3 17 0 3 17 0 3 16 0 3 16 0 3 16 0 3 16 0 3 16 0 3 16 0 3 16 0 3 16
0 3 16 0 3 16 0 3 16 0 3 16 0 3 16 0 3 16 0 3 16 0 3 16 0 3 16 0 3 16
0 3 16 0 3 16 0 3 16 0 3 16 0 3 16 0 3 16 0 3 16 0 3 16 0 3 16 0 3 16
0 3 16 0 3 16 0 3 16 0 3 16 0 3 16 0 3 16 0 3 16 0 3 16 0 3 16 0 3 16
0 3 16 0 3 16 0 3 16 0 3 16 0 3 16 0 3 16 0 3 16 0 3 16 0 3 16 0 3 16
0 3 16 0 3 16 0 3 16 0 3 16 0 3 16 0 3 16 0 3 16 0 3 16 0 3 16 0 3 16
0 3 16 0 3 16 0 3 16 0 3 16 0 3 16 0 3 16 0 3 16 0 3 16 0 3 15 0 3 15
0 3 15 0 3 15 0 3 15 0 3 15 0 3 15 0 3 15 0 3 15 0 3 15 0 3 15 0 3 15
0 3 15 0 3 15 0 3 15 0 3 15 0 3 15 0 3 15 0 3 15 0 3 15 0 3 15 0 3
15 0 3 15 0 3 15 0 3 15 0 3 15 0 3 15 0 3 15 0 3 15 0 3 15 0 3 15 0 3
15 0 3 15 0 3 15 0 3 15 0 3 15 0 3 15 0 3 15 0 3 15 0 3 15 0 3 15 0 3
15 0 3 15 0 3 15 0 3 15 0 3 16 0 3 16 0 3 16 0 3 16 0 3 16 0 3 16 0 3
16 0 3 16 0 3 16 0 3 16 0 3 16 0 3 16 0 3 16 0 3 16 0 3 16 0 3 16 0 3
16 0 3 16 0 3 16 0 3 16 0 3 16 0 3 16 0 3 16 0 3 16 0 3 16 0 3 16 0 3
16 0 3 16 0 3 16 0 3 16 0 3 16 0 3 16 0 3 16 0 3 16 0 3 16 0 3 16 0 3
16 0 3 16 0 3 16 0 3 16 0 3 16 0 3 16 0 3 16 0 3 16 0 3 16 0 3 16 0 3
16 0 3 16 0 3 16 0 3 16 0 3 16 0 3 16 0 3 16 0 3 16 0 3 16 0 3 16 0 3
16 0 3 16 0 3 16 0 3 16 0 3 17 0 3 17 0 3 17 0 3 17 0 3 17 0 3 17 0 3
17 0 3 17 0 3 17 0 3 17 0 3 17 0 3 17 0 3 17 0 3 17 0 3 17 0 3 17 0 3
17 0 3 17 0 3 17 0 3 17 0 3 17 0 3 17 0 3 17 0 3 17 0 3 17 0 3 17 0 3
17 0 3 17 0 3 17 0 3 17 0 3 17 0 3 17 0 3 17 0 3 17 0 3 17 0 3 17 0 3
17 0 3 17 0 3 17 0 3 17 0 3 17 0 3 17 0 3 3 0 1 3 0 1 4 0 1 7 0 1 9 0
2 12 0 2 14 0 3 17 0 3 19 0 4 21 0 4 23 0 5 24 0 5 26 0 5 28 0 6 29 0
6 31 0 6 32 0 7 34 0 7 35 0 7 36 0 7 37 0 8 39 0 8 40 0 8 41 0 8 42 0
9 42 0 9 43 0 9 44 0 9 44 0 9 45 0 9 45 0 9 45 0 9 45 0 9 45 0 9 44 0
9 43 0 9 42 0 9 40 0 8 36 0 7 18 0 3 18 0 3 18 0 3 18 0 3 18 0 3 18 0
3 18 0 3 18 0 3 18 0 3 18 0 3 18 0 3 18 0 3 18 0 3 18 0 3 18 0 3 18 0
3 18 0 3 18 0 3 18 0 3 18 0 3 18 0 3 18 0 3 18 0 3 18 0 3 18 0 3 18 0
3 18 0 3 18 0 3 18 0 3 18 0 3 18 0 3 18 0 3 18 0 3 18 0 3 18 0 3 18 0
3 18 0 3 18 0 3 56 0 6 62 0 6 66 0 6 69 0 7 71 0 7 73 0 7 74 0 7 75 0
7 75 0 7 74 0 7 73 0 7 70 0 7 64 0 6 18 0 3 18 0 3 18 0 3 18 0 3 18 0
3 18 0 3 18 0 3 18 0 3 18 0 3 18 0 3 18 0 3 18 0 3 18 0 3 18 0 3 18 0
3 18 0 3 18 0 3 18 0 3 18 0 3 18 0 3 18 0 3 18 0 3 18 0 3 18 0 3 18 0
3 18 0 3 18 0 3 18 0 3 18 0 3 18 0 3 18 0 3 18 0 3 18 0 3 18 0 3 18 0
3 18 0 3 18 0 3 18 0 3 18 0 3 18 0 3 18 0 3 18 0 3 18 0 3 18 0 3 18 0
3 18 0 3 18 0 3 18 0 3 18 0 3 18 0 3 18 0 3 18 0 3 18 0 3 18 0 3 18 0
3 18 0 3 18 0 3 18 0 3 18 0 3 17 0 3 17 0 3 17 0 3 17 0 3 17 0 3 17 0
3 17 0 3 17 0 3 17 0 3 17 0 3 17 0 3 17 0 3 17 0 3 17 0 3 17 0 3 17 0
3 17 0 3 17 0 3 17 0 3 17 0 3 17 0 3 17 0 3 17 0 3 17 0 3 17 0 3 17 0
3 17 0 3 17 0 3 17 0 3 17 0 3 17 0 3 17 0 3 17 0 3 17 0 3 17 0 3 17 0
3 17 0 3 17 0 3 17 0 3 17 0 3 17 0 3 17 0 3 17 0 3 17 0 3 17 0 3 17 0
3 17 0 3 17 0 3 17 0 3 17 0 3 17 0 3 17 0 3 17 0 3 17 0 3 17 0 3 17 0
3 17 0 3 17 0 3 17 0 3 17 0 3 17 0 3 17 0 3 17 0 3 17 0 3 17 0 3 17 0
3 17 0 3 17 0 3 16 0 3 16 0 3 16 0 3 16 0 3 16 0 3 16 0 3 16 0 3 16 0
3 16 0 3 16 0 3 16 0 3 16 0 3 16 0 3 16 0 3 16 0 3 16 0 3 16 0 3 16 0
3 16 0 3 16 0 3 16 0 3 16 0 3 16 0 3 16 0 3 16 0 3 16 0 3 16 0 3 16 0
3 16 0 3 16 0 3 16 0 3 16 0 3 16 0 3 16 0 3 16 0 3 16 0 3 16 0 3 16 0
3 16 0 3 16 0 3 16 0 3 16 0 3 16 0 3 16 0 3 16 0 3 16 0 3 16 0 3 16 0
3 16 0 3 16 0 3 16 0 3 16 0 3 16 0 3 16 0 3 16 0 3 16 0 3 16 0 3
15 0 3 15 0 3 16 0 3 16 0 3 16 0 3 16 0 3 16 0 3 16 0 3 16 0 3 16 0 3
16 0 3 16 0 3 16 0 3 16 0 3 16 0 3 16 0 3 16 0 3 16 0 3 16 0 3 16 0 3
16 0 3 16 0 3 16 0 3 16 0 3 16 0 3 16 0 3 16 0 3 16 0 3 16 0 3 16 0 3
16 0 3 16 0 3 16 0 3 16 0 3 16 0 3 16 0 3 16 0 3 16 0 3 16 0 3 16 0 3
16 0 3 16 0 3 16 0 3 16 0 3 16 0 3 16 0 3 16 0 3 16 0 3 16 0 3 16 0 3
16 0 3 16 0 3 16 0 3 16 0 3 16 0 3 16 0 3 16 0 3 16 0 3 16 0 3 16 0 3
17 0 3 17 0 3 17 0 3 17 0 3 17 0 3 17 0 3 17 0 3 17 0 3 17 0 3 17 0 3
17 0 3 17 0 3 17 0 3 17 0 3 17 0 3 17 0 3 17 0 3 17 0 3 17 0 3 17 0 3
17 0 3 17 0 3 17 0 3 17 0 3 17 0 3 17 0 3 17 0 3 17 0 3 17 0 3 17 0 3
17 0 3 17 0 3 17 0 3 17 0 3 17 0 3 17 0 3 17 0 3 17 0 3 17 0 3 17 0 3
17 0 3 17 0 3 17 0 3 17 0 3 17 0 3 17 0 3 17 0 3 17 0 3 17 0 3 17 0 3
17 0 3 17 0 3 17 0 3 17 0 3 17 0 3 17 0 3 18 0 3 18 0 3 18 0 3 18 0 3
18 0 3 18 0 3 18 0 3 18 0 3 18 0 3 3 0 1 3 0 1 3 0 1 6 0 1 9 0 2 11 0
2 14 0 3 16 0 3 18 0 4 20 0 4 22 0 5 24 0 5 26 0 5 27 0 6 29 0 6 30 0
6 32 0 7 33 0 7 35 0 7 36 0 7 37 0 8 39 0 8 40 0 8 41 0 8 42 0 9 43 0
9 44 0 9 44 0 9 45 0 9 46 0 9 46 0 10 47 0 10 47 0 10 47 0 10 47 0 10
47 0 10 46 0 9 45 0 9 44 0 9 42 0 9 38 0 8 18 0 3 18 0 3 18 0 3 18 0 3
18 0 3 18 0 3 18 0 3 18 0 3 18 0 3 18 0 3 18 0 3 18 0 3 18 0 3 18 0 3
18 0 3 18 0 3 18 0 3 18 0 3 18 0 3 18 0 3 18 0 3 18 0 3 18 0 3 18 0 3
18 0 3 18 0 3 18 0 3 18 0 3 18 0 3 18 0 3 18 0 3 18 0 3 18 0 3 18 0 3
56 0 5 62 0 6 67 0 7 71 0 7 74 0 7 77 0 8 79 0 8 81 0 8 83 0 8 84 0 8
85 0 8 85 0 8 85 0 8 85 0 8 84 0 8 83 0 8 80 0 8 76 0 7 70 0 7 18 0 3
18 0 3 18 0 3 18 0 3 18 0 3 18 0 3 18 0 3 18 0 3 18 0 3 18 0 3 18 0 3
18 0 3 18 0 3 18 0 3 18 0 3 18 0 3 18 0 3 18 0 3 18 0 3 18 0 3 18 0 3
18 0 3 18 0 3 18 0 3 18 0 3 18 0 3 18 0 3 18 0 3 18 0 3 18 0 3 18 0 3
18 0 3 18 0 3 18 0 3 18 0 3 18 0 3 18 0 3 18 0 3 18 0 3 18 0 3 18 0 3
18 0 3 18 0 3 18 0 3 18 0 3 18 0 3 18 0 3 18 0 3 18 0 3 18 0 3 18 0 3
18 0 3 18 0 3 18 0 3 18 0 3 18 0 3 18 0 3 18 0 3 18 0 3 18 0 3 18 0 3
18 0 3 18 0 3 18 0 3 18 0 3 18 0 3 18 0 3 18 0 3 18 0 3 18 0 3 18 0 3
18 0 3 18 0 3 18 0 3 18 0 3 18 0 3 18 0 3 18 0 3 18 0 3 18 0 3 18 0 3
18 0 3 18 0 3 18 0 3 18 0 3 18 0 3 18 0 3 18 0 3 18 0 3 18 0 3 18 0 3
18 0 3 18 0 3 17 0 3 17 0 3 17 0 3 17 0 3 17 0 3 17 0 3 17 0 3 17 0 3
17 0 3 17 0 3 17 0 3 17 0 3 17 0 3 17 0 3 17 0 3 17 0 3 17 0 3 17 0 3
17 0 3 17 0 3 17 0 3 17 0 3 17 0 3 17 0 3 17 0 3 17 0 3 17 0 3 17 0 3
17 0 3 17 0 3 17 0 3 17 0 3 17 0 3 17 0 3 17 0 3 17 0 3 17 0 3 17 0 3
17 0 3 17 0 3 17 0 3 17 0 3 17 0 3 17 0 3 17 0 3 17 0 3 17 0 3 17 0 3
17 0 3 17 0 3 17 0 3 17 0 3 17 0 3 17 0 3 17 0 3 17 0 3 16 0 3 16 0 3
16 0 3 16 0 3 16 0 3 16 0 3 16 0 3 16 0 3 16 0 3 16 0 3 16 0 3 16 0 3
16 0 3 16 0 3 16 0 3 16 0 3 16 0 3 16 0 3 16 0 3 16 0 3 16 0 3 16 0 3
16 0 3 16 0 3 16 0 3 16 0 3 16 0 3 16 0 3 16 0 3 16 0 3 16 0 3 16 0 3
16 0 3 16 0 3 16 0 3 16 0 3 16 0 3 16 0 3 16 0 3 16 0 3 16 0 3 16 0 3
16 0 3 16 0 3 16 0 3 16 0 3 16 0 3 16 0 3 16 0 3 16 0 3 16 0 3 16 0 3
16 0 3 16 0 3 16 0 3 16 0 3 16 0 3 16 0 3 16 0 3 16 0 3 16 0 3 16 0 3
16 0 3 16 0 3 16 0 3 16 0 3 16 0 3 16 0 3 16 0 3 16 0 3 17 0 3 17 0 3
17 0 3 17 0 3 17 0 3 17 0 3 17 0 3 17 0 3 17 0 3 17 0 3 17 0 3 17 0 3
17 0 3 17 0 3 17 0 3 17 0 3 17 0 3 17 0 3 17 0 3 17 0 3 17 0 3 17 0 3
17 0 3 17 0 3 17 0 3 17 0 3 17 0 3 17 0 3 17 0 3 17 0 3 17 0 3 17 0 3
17 0 3 17 0 3 17 0 3 17 0 3 17 0 3 17 0 3 17 0 3 17 0 3 17 0 3 17 0 3
17 0 3 17 0 3 17 0 3 17 0 3 17 0 3 17 0 3 17 0 3 17 0 3 17 0 3 17 0 3
18 0 3 18 0 3 18 0 3 18 0 3 18 0 3 18 0 3 18 0 3 18 0 3 18 0 3 18 0 3
18 0 3 18 0 3 18 0 3 18 0 3 18 0 3 18 0 3 18 0 3 18 0 3 18 0 3 18 0 3
18 0 3 18 0 3 18 0 3 18 0 3 18 0 3 18 0 3 18 0 3 18 0 3 18 0 3 18 0 3
18 0 3 18 0 3 18 0 3 18 0 3 3 0 1 3 0 1 3 0 1 5 0 1 8 0 2 10 0 2 13 0
3 15 0 3 17 0 4 19 0 4 21 0 4 23 0 5 25 0 5 27 0 5 28 0 6 30 0 6 31 0
6 33 0 7 34 0 7 36 0 7 37 0 8 38 0 8 40 0 8 41 0 8 42 0 9 43 0 9 44 0
9 45 0 9 46 0 9 46 0 10 47 0 10 48 0 10 48 0 10 48 0 10 48 0 10 48 0
10 48 0 10 48 0 10 47 0 10 46 0 10 45 0 9 43 0 9 39 0 8 19 0 3 19 0 3
19 0 3 19 0 3 19 0 3 19 0 3 19 0 3 19 0 3 19 0 3 19 0 3 19 0 3 19 0 3
19 0 3 19 0 3 19 0 3 19 0 3 19 0 3 19 0 3 19 0 3 19 0 3 19 0 3 19 0 3
19 0 3 19 0 3 19 0 3 19 0 3 19 0 3 19 0 3 19 0 3 19 0 3 46 0 5 57 0 6
63 0 6 68 0 7 72 0 7 76 0 7 79 0 8 82 0 8 84 0 8 86 0 8 88 0 9 90 0 9
91 0 9 92 0 9 92 0 9 93 0 9 93 0 9 92 0 9 91 0 9 90 0 9 88 0 9 85 0 8
81 0 8 75 0 7 19 0 3 19 0 3 19 0 3 19 0 3 19 0 3 19 0 3 19 0 3 19 0 3
19 0 3 19 0 3 19 0 3 19 0 3 19 0 3 19 0 3 19 0 3 19 0 3 19 0 3 19 0 3
19 0 3 19 0 3 19 0 3 19 0 3 19 0 3 19 0 3 19 0 3 19 0 3 19 0 3 19 0 3
19 0 3 19 0 3 19 0 3 19 0 3 19 0 3 19 0 3 19 0 3 19 0 3 19 0 3 19 0 3
19 0 3 19 0 3 19 0 3 19 0 3 19 0 3 19 0 3 19 0 3 19 0 3 19 0 3 19 0 3
19 0 3 19 0 3 19 0 3 19 0 3 19 0 3 19 0 3 19 0 3 19 0 3 19 0 3 19 0 3
19 0 3 19 0 3 18 0 3 18 0 3 18 0 3 18 0 3 18 0 3 18 0 3 18 0 3 18 0 3
18 0 3 18 0 3 18 0 3 18 0 3 18 0 3 18 0 3 18 0 3 18 0 3 18 0 3 18 0 3
18 0 3 18 0 3 18 0 3 18 0 3 18 0 3 18 0 3 18 0 3 18 0 3 18 0 3 18 0 3
18 0 3 18 0 3 18 0 3 18 0 3 18 0 3 18 0 3 18 0 3 18 0 3 18 0 3 18 0 3
18 0 3 18 0 3 18 0 3 18 0 3 18 0 3 18 0 3 18 0 3 18 0 3 18 0 3 18 0 3
18 0 3 18 0 3 18 0 3 18 0 3 18 0 3 18 0 3 18 0 3 18 0 3 18 0 3 18 0 3
17 0 3 17 0 3 17 0 3 17 0 3 17 0 3 17 0 3 17 0 3 17 0 3 17 0 3 17 0 3
17 0 3 17 0 3 17 0 3 17 0 3 17 0 3 17 0 3 17 0 3 17 0 3 17 0 3 17 0 3
17 0 3 17 0 3 17 0 3 17 0 3 17 0 3 17 0 3 17 0 3 17 0 3 17 0 3 17 0 3
17 0 3 17 0 3 17 0 3 17 0 3 17 0 3 17 0 3 17 0 3 17 0 3 17 0 3 17 0 3
17 0 3 17 0 3 17 0 3 17 0 3 17 0 3 17 0 3 17 0 3 17 0 3 17 0 3 17 0 3
17 0 3 17 0 3 16 0 3 16 0 3 16 0 3 16 0 3 16 0 3 16 0 3 16 0 3 16 0 3
16 0 3
16 0 3 16 0 3 16 0 3 16 0 3 16 0 3 16 0 3 16 0 3 16 0 3 16 0 3 16 0 3
16 0 3 16 0 3 16 0 3 16 0 3 16 0 3 16 0 3 16 0 3 16 0 3 16 0 3 17 0 3
17 0 3 17 0 3 17 0 3 17 0 3 17 0 3 17 0 3 17 0 3 17 0 3 17 0 3 17 0 3
17 0 3 17 0 3 17 0 3 17 0 3 17 0 3 17 0 3 17 0 3 17 0 3 17 0 3 17 0 3
17 0 3 17 0 3 17 0 3 17 0 3 17 0 3 17 0 3 17 0 3 17 0 3 17 0 3 17 0 3
17 0 3 17 0 3 17 0 3 17 0 3 17 0 3 17 0 3 17 0 3 17 0 3 17 0 3 17 0 3
17 0 3 17 0 3 17 0 3 17 0 3 17 0 3 17 0 3 17 0 3 17 0 3 18 0 3 18 0 3
18 0 3 18 0 3 18 0 3 18 0 3 18 0 3 18 0 3 18 0 3 18 0 3 18 0 3 18 0 3
18 0 3 18 0 3 18 0 3 18 0 3 18 0 3 18 0 3 18 0 3 18 0 3 18 0 3 18 0 3
18 0 3 18 0 3 18 0 3 18 0 3 18 0 3 18 0 3 18 0 3 18 0 3 18 0 3 18 0 3
18 0 3 18 0 3 18 0 3 18 0 3 18 0 3 18 0 3 18 0 3 18 0 3 18 0 3 18 0 3
18 0 3 18 0 3 18 0 3 18 0 3 18 0 3 18 0 3 18 0 3 19 0 3 19 0 3 19 0 3
19 0 3 19 0 3 19 0 3 3 0 1 3 0 1 3 0 1 4 0 1 7 0 1 9 0 2 12 0 2 14 0 3
16 0 3 18 0 4 20 0 4 22 0 5 24 0 5 26 0 5 27 0 6 29 0 6 31 0 6 32 0 7
34 0 7 35 0 7 37 0 8 38 0 8 39 0 8 40 0 8 42 0 9 43 0 9 44 0 9 45 0 9
46 0 9 47 0 10 47 0 10 48 0 10 49 0 10 49 0 10 49 0 10 50 0 10 50 0 10
50 0 10 50 0 10 49 0 10 49 0 10 47 0 10 46 0 9 44 0 9 40 0 8 19 0 3 19
0 3 19 0 3 19 0 3 19 0 3 19 0 3 19 0 3 19 0 3 19 0 3 19 0 3 19 0 3 19
0 3 19 0 3 19 0 3 19 0 3 19 0 3 19 0 3 19 0 3 19 0 3 19 0 3 20 0 3 20
0 3 20 0 3 20 0 3 20 0 3 20 0 3 20 0 3 40 0 4 54 0 5 61 0 6 66 0 7 71
0 7 75 0 7 79 0 8 82 0 8 85 0 8 88 0 9 90 0 9 92 0 9 94 0 9 95 0 9 96
0 9 97 0 10 98 0 10 98 0 10 98 0 10 98 0 10 98 0 10 97 0 9 95 0 9 93 0
9 91 0 9 88 0 9 83 0 8 75 0 7 20 0 3 20 0 3 20 0 3 20 0 3 20 0 3 20 0
3 20 0 3 20 0 3 20 0 3 20 0 3 20 0 3 20 0 3 20 0 3 20 0 3 20 0 3 20 0
3 20 0 3 20 0 3 20 0 3 20 0 3 19 0 3 19 0 3 19 0 3 19 0 3 19 0 3 19 0
3 19 0 3 19 0 3 19 0 3 19 0 3 19 0 3 19 0 3 19 0 3 19 0 3 19 0 3 19 0
3 19 0 3 19 0 3 19 0 3 19 0 3 19 0 3 19 0 3 19 0 3 19 0 3 19 0 3 19 0
3 19 0 3 19 0 3 19 0 3 19 0 3 19 0 3 19 0 3 19 0 3 19 0 3 19 0 3 19 0
3 19 0 3 19 0 3 19 0 3 19 0 3 19 0 3 19 0 3 19 0 3 19 0 3 19 0 3 19 0
3 19 0 3 19 0 3 19 0 3 19 0 3 19 0 3 19 0 3 19 0 3 19 0 3 19 0 3 19 0
3 19 0 3 19 0 3 19 0 3 19 0 3 19 0 3 19 0 3 19 0 3 19 0 3 19 0 3 19 0
3 19 0 3 19 0 3 19 0 3 19 0 3 18 0 3 18 0 3 18 0 3 18 0 3 18 0 3 18 0
3 18 0 3 18 0 3 18 0 3 18 0 3 18 0 3 18 0 3 18 0 3 18 0 3 18 0 3 18 0
3 18 0 3 18 0 3 18 0 3 18 0 3 18 0 3 18 0 3 18 0 3 18 0 3 18 0 3 18 0
3 18 0 3 18 0 3 18 0 3 18 0 3 18 0 3 18 0 3 18 0 3 18 0 3 18 0 3 18 0
3 18 0 3 18 0 3 18 0 3 18 0 3 18 0 3 18 0 3 18 0 3 18 0 3 18 0 3 18 0
3 18 0 3 18 0 3 18 0 3 17 0 3 17 0 3 17 0 3 17 0 3 17 0 3 17 0 3 17 0
3 17 0 3 17 0 3 17 0 3 17 0 3 17 0 3 17 0 3 17 0 3 17 0 3 17 0 3 17 0
3 17 0 3 17 0 3 17 0 3 17 0 3 17 0 3 17 0 3 17 0 3 17 0 3 17 0 3 17 0
3 17 0 3 17 0 3 17 0 3 17 0 3 17 0 3 17 0 3 17 0 3 17 0 3 17 0 3 17 0
3 17 0 3
16 0 3 17 0 3 17 0 3 17 0 3 17 0 3 17 0 3 17 0 3 17 0 3 17 0 3 17 0 3
17 0 3 17 0 3 17 0 3 17 0 3 17 0 3 17 0 3 17 0 3 17 0 3 17 0 3 17 0 3
17 0 3 17 0 3 17 0 3 17 0 3 17 0 3 17 0 3 17 0 3 17 0 3 17 0 3 17 0 3
17 0 3 17 0 3 17 0 3 17 0 3 17 0 3 17 0 3 17 0 3 17 0 3 17 0 3 17 0 3
17 0 3 17 0 3 17 0 3 17 0 3 17 0 3 17 0 3 17 0 3 17 0 3 17 0 3 18 0 3
18 0 3 18 0 3 18 0 3 18 0 3 18 0 3 18 0 3 18 0 3 18 0 3 18 0 3 18 0 3
18 0 3 18 0 3 18 0 3 18 0 3 18 0 3 18 0 3 18 0 3 18 0 3 18 0 3 18 0 3
18 0 3 18 0 3 18 0 3 18 0 3 18 0 3 18 0 3 18 0 3 18 0 3 18 0 3 18 0 3
18 0 3 18 0 3 18 0 3 18 0 3 18 0 3 18 0 3 18 0 3 18 0 3 18 0 3 18 0 3
18 0 3 18 0 3 18 0 3 18 0 3 19 0 3 19 0 3 19 0 3 19 0 3 19 0 3 19 0 3
19 0 3 19 0 3 19 0 3 19 0 3 19 0 3 19 0 3 19 0 3 19 0 3 19 0 3 19 0 3
19 0 3 19 0 3 19 0 3 19 0 3 19 0 3 19 0 3 19 0 3 19 0 3 19 0 3 19 0 3
19 0 3 19 0 3 3 0 1 3 0 1 3 0 1 3 0 1 5 0 1 8 0 2 10 0 2 13 0 3 15 0 3
17 0 4 19 0 4 21 0 4 23 0 5 25 0 5 26 0 5 28 0 6 30 0 6 31 0 6 33 0 7
34 0 7 36 0 7 37 0 8 39 0 8 40 0 8 41 0 8 42 0 9 43 0 9 44 0 9 45 0 9
46 0 10 47 0 10 48 0 10 49 0 10 49 0 10 50 0 10 50 0 10 51 0 10 51 0
11 51 0 11 51 0 10 51 0 10 50 0 10 49 0 10 48 0 10 47 0 10 44 0 9 40 0
8 20 0 3 20 0 3 20 0 3 20 0 3 20 0 3 20 0 3 20 0 3 20 0 3 20 0 3 20 0
3 20 0 3 20 0 3 20 0 3 20 0 3 20 0 3 20 0 3 20 0 3 20 0 3 20 0 3 20 0
3 20 0 3 20 0 3 20 0 3 20 0 3 20 0 3 48 0 5 57 0 6 63 0 6 68 0 7 73 0
7 77 0 8 81 0 8 84 0 8 87 0 9 90 0 9 92 0 9 94 0 9 96 0 9 98 0 10 99 0
10 101 0 10 102 0 10 102 0 10 103 0 10 103 0 10 103 0 10 103 0 10 102
0 10 101 0 10 100 0 10 98 0 10 95 0 9 92 0 9 88 0 9 81 0 8 70 0 7 20 0
3 20 0 3 20 0 3 20 0 3 20 0 3 20 0 3 20 0 3 20 0 3 20 0 3 20 0 3 20 0
3 20 0 3 20 0 3 20 0 3 20 0 3 20 0 3 20 0 3 20 0 3 20 0 3 20 0 3 20 0
3 20 0 3 20 0 3 20 0 3 20 0 3 20 0 3 20 0 3 20 0 3 20 0 3 20 0 3 20 0
3 20 0 3 20 0 3 20 0 3 20 0 3 20 0 3 20 0 3 20 0 3 20 0 3 20 0 3 20 0
3 20 0 3 20 0 3 20 0 3 20 0 3 20 0 3 20 0 3 20 0 3 20 0 3 20 0 3 20 0
3 20 0 3 20 0 3 20 0 3 20 0 3 20 0 3 20 0 3 20 0 3 20 0 3 20 0 3 20 0
3 20 0 3 20 0 3 20 0 3 19 0 3 19 0 3 19 0 3 19 0 3 19 0 3 19 0 3 19 0
3 19 0 3 19 0 3 19 0 3 19 0 3 19 0 3 19 0 3 19 0 3 19 0 3 19 0 3 19 0
3 19 0 3 19 0 3 19 0 3 19 0 3 19 0 3 19 0 3 19 0 3 19 0 3 19 0 3 19 0
3 19 0 3 19 0 3 19 0 3 19 0 3 19 0 3 19 0 3 19 0 3 19 0 3 19 0 3 19 0
3 19 0 3 19 0 3 19 0 3 19 0 3 19 0 3 19 0 3 19 0 3 19 0 3 19 0 3 19 0
3 19 0 3 19 0 3 18 0 3 18 0 3 18 0 3 18 0 3 18 0 3 18 0 3 18 0 3 18 0
3 18 0 3 18 0 3 18 0 3 18 0 3 18 0 3 18 0 3 18 0 3 18 0 3 18 0 3 18 0
3 18 0 3 18 0 3 18 0 3 18 0 3 18 0 3 18 0 3 18 0 3 18 0 3 18 0 3 18 0
3 18 0 3 18 0 3 18 0 3 18 0 3 18 0 3 18 0 3 18 0 3 18 0 3 18 0 3 18 0
3 18 0 3 18 0 3 18 0 3 18 0 3 18 0 3 18 0 3 18 0 3 17 0 3 17 0 3 17 0
3 17 0 3 17 0 3 17 0 3 17 0 3 17 0 3 17 0 3 17 0 3 17 0 3 17 0 3 17 0
3 17 0 3 17 0 3 17 0 3 17 0 3
17 0 3 17 0 3 17 0 3 17 0 3 17 0 3 17 0 3 17 0 3 17 0 3 17 0 3 17 0 3
17 0 3 17 0 3 17 0 3 17 0 3 17 0 3 17 0 3 17 0 3 17 0 3 17 0 3 17 0 3
17 0 3 17 0 3 17 0 3 17 0 3 17 0 3 17 0 3 17 0 3 17 0 3 17 0 3 17 0 3
17 0 3 18 0 3 18 0 3 18 0 3 18 0 3 18 0 3 18 0 3 18 0 3 18 0 3 18 0 3
18 0 3 18 0 3 18 0 3 18 0 3 18 0 3 18 0 3 18 0 3 18 0 3 18 0 3 18 0 3
18 0 3 18 0 3 18 0 3 18 0 3 18 0 3 18 0 3 18 0 3 18 0 3 18 0 3 18 0 3
18 0 3 18 0 3 18 0 3 18 0 3 18 0 3 18 0 3 18 0 3 18 0 3 18 0 3 18 0 3
18 0 3 18 0 3 18 0 3 18 0 3 19 0 3 19 0 3 19 0 3 19 0 3 19 0 3 19 0 3
19 0 3 19 0 3 19 0 3 19 0 3 19 0 3 19 0 3 19 0 3 19 0 3 19 0 3 19 0 3
19 0 3 19 0 3 19 0 3 19 0 3 19 0 3 19 0 3 19 0 3 19 0 3 19 0 3 19 0 3
19 0 3 19 0 3 19 0 3 19 0 3 19 0 3 19 0 3 19 0 3 19 0 3 19 0 3 19 0 3
19 0 3 19 0 3 19 0 3 19 0 3 19 0 3 19 0 3 20 0 3 20 0 3 20 0 3 20 0 3
20 0 3 20 0 3 3 0 1 3 0 1 3 0 1 4 0 1 6 0 1 9 0 2 11 0 2 14 0 3 16 0 3
18 0 4 20 0 4 22 0 4 24 0 5 25 0 5 27 0 6 29 0 6 30 0 6 32 0 7 34 0 7
35 0 7 36 0 7 38 0 8 39 0 8 40 0 8 42 0 9 43 0 9 44 0 9 45 0 9 46 0 9
47 0 10 48 0 10 49 0 10 50 0 10 50 0 10 51 0 10 51 0 11 52 0 11 52 0
11 52 0 11 52 0 11 52 0 11 52 0 11 51 0 10 50 0 10 49 0 10 47 0 10 44
0 9 39 0 8 21 0 3 21 0 3 21 0 3 21 0 3 21 0 3 21 0 3 21 0 3 21 0 3 21
0 3 21 0 3 21 0 3 21 0 3 21 0 3 21 0 3 21 0 3 21 0 3 21 0 3 21 0 3 21
0 3 21 0 3 21 0 3 21 0 3 21 0 3 50 0 5 58 0 6 64 0 6 69 0 7 74 0 7 78
0 8 82 0 8 85 0 8 88 0 9 91 0 9 93 0 9 96 0 9 98 0 10 100 0 10 102 0
10 103 0 10 104 0 10 105 0 10 106 0 10 107 0 10 107 0 10 107 0 10 107
0 10 106 0 10 106 0 10 104 0 10 103 0 10 101 0 10 98 0 10 95 0 9 91 0
9 85 0 8 76 0 7 21 0 3 21 0 3 21 0 3 21 0 3 21 0 3 21 0 3 21 0 3 21 0
3 21 0 3 21 0 3 21 0 3 21 0 3 21 0 3 21 0 3 21 0 3 21 0 3 21 0 3 21 0
3 21 0 3 21 0 3 21 0 3 21 0 3 21 0 3 21 0 3 21 0 3 21 0 3 21 0 3 21 0
3 21 0 3 21 0 3 21 0 3 21 0 3 21 0 3 21 0 3 21 0 3 21 0 3 21 0 3 20 0
3 20 0 3 20 0 3 20 0 3 20 0 3 20 0 3 20 0 3 20 0 3 20 0 3 20 0 3 20 0
3 20 0 3 20 0 3 20 0 3 20 0 3 20 0 3 20 0 3 20 0 3 20 0 3 20 0 3 20 0
3 20 0 3 20 0 3 20 0 3 20 0 3 20 0 3 20 0 3 20 0 3 20 0 3 20 0 3 20 0
3 20 0 3 20 0 3 20 0 3 20 0 3 20 0 3 20 0 3 20 0 3 20 0 3 20 0 3 20 0
3 20 0 3 20 0 3 20 0 3 20 0 3 20 0 3 20 0 3 20 0 3 20 0 3 20 0 3 20 0
3 20 0 3 20 0 3 20 0 3 19 0 3 19 0 3 19 0 3 19 0 3 19 0 3 19 0 3 19 0
3 19 0 3 19 0 3 19 0 3 19 0 3 19 0 3 19 0 3 19 0 3 19 0 3 19 0 3 19 0
3 19 0 3 19 0 3 19 0 3 19 0 3 19 0 3 19 0 3 19 0 3 19 0 3 19 0 3 19 0
3 19 0 3 19 0 3 19 0 3 19 0 3 19 0 3 19 0 3 19 0 3 19 0 3 19 0 3 19 0
3 19 0 3 19 0 3 19 0 3 19 0 3 19 0 3 18 0 3 18 0 3 18 0 3 18 0 3 18 0
3 18 0 3 18 0 3 18 0 3 18 0 3 18 0 3 18 0 3 18 0 3 18 0 3 18 0 3 18 0
3 18 0 3 18 0 3 18 0 3 18 0 3 18 0 3 18 0 3 18 0 3 18 0 3 18 0 3 18 0
3 18 0 3 18 0 3 18 0 3 18 0 3 18 0 3 18 0 3 18 0 3 18 0 3 18 0 3 18 0
3 18 0 3 18 0 3 18 0 3 18 0 3 18 0 3 18 0 3
17 0 3 17 0 3 17 0 3 17 0 3 17 0 3 17 0 3 17 0 3 17 0 3 17 0 3 17 0 3
17 0 3 17 0 3 17 0 3 17 0 3 17 0 3 18 0 3 18 0 3 18 0 3 18 0 3 18 0 3
18 0 3 18 0 3 18 0 3 18 0 3 18 0 3 18 0 3 18 0 3 18 0 3 18 0 3 18 0 3
18 0 3 18 0 3 18 0 3 18 0 3 18 0 3 18 0 3 18 0 3 18 0 3 18 0 3 18 0 3
18 0 3 18 0 3 18 0 3 18 0 3 18 0 3 18 0 3 18 0 3 18 0 3 18 0 3 18 0 3
18 0 3 18 0 3 18 0 3 18 0 3 18 0 3 18 0 3 19 0 3 19 0 3 19 0 3 19 0 3
19 0 3 19 0 3 19 0 3 19 0 3 19 0 3 19 0 3 19 0 3 19 0 3 19 0 3 19 0 3
19 0 3 19 0 3 19 0 3 19 0 3 19 0 3 19 0 3 19 0 3 19 0 3 19 0 3 19 0 3
19 0 3 19 0 3 19 0 3 19 0 3 19 0 3 19 0 3 19 0 3 19 0 3 19 0 3 19 0 3
19 0 3 19 0 3 19 0 3 19 0 3 19 0 3 20 0 3 20 0 3 20 0 3 20 0 3 20 0 3
20 0 3 20 0 3 20 0 3 20 0 3 20 0 3 20 0 3 20 0 3 20 0 3 20 0 3 20 0 3
20 0 3 20 0 3 20 0 3 20 0 3 20 0 3 20 0 3 20 0 3 20 0 3 20 0 3 20 0 3
20 0 3 3 0 1 3 0 1 3 0 1 3 0 1 5 0 1 7 0 2 10 0 2 12 0 3 14 0 3 16 0 3
18 0 4 20 0 4 22 0 5 24 0 5 26 0 5 28 0 6 29 0 6 31 0 6 32 0 7 34 0 7
35 0 7 37 0 8 38 0 8 40 0 8 41 0 8 42 0 9 43 0 9 45 0 9 46 0 9 47 0 10
48 0 10 49 0 10 49 0 10 50 0 10 51 0 10 51 0 11 52 0 11 52 0 11 53 0
11 53 0 11 53 0 11 53 0 11 53 0 11 52 0 11 51 0 11 50 0 10 49 0 10 47
0 10 44 0 9 37 0 8 21 0 4 21 0 4 21 0 4 21 0 4 21 0 4 21 0 4 21 0 4 21
0 4 21 0 4 21 0 4 21 0 4 21 0 4 21 0 4 21 0 4 21 0 4 21 0 4 21 0 4 21
0 4 21 0 4 21 0 4 38 0 4 50 0 5 58 0 6 64 0 6 69 0 7 74 0 7 78 0 8 82
0 8 85 0 8 88 0 9 91 0 9 94 0 9 97 0 9 99 0 10 101 0 10 103 0 10 105 0
10 106 0 10 107 0 10 108 0 11 109 0 11 110 0 11 110 0 11 110 0 11 110
0 11 110 0 11 109 0 11 108 0 11 107 0 10 105 0 10 103 0 10 101 0 10 97
0 10 93 0 9 87 0 9 79 0 8 21 0 4 21 0 4 21 0 4 21 0 4 21 0 4 21 0 4 21
0 4 21 0 4 21 0 4 21 0 4 21 0 4 21 0 4 21 0 4 21 0 4 21 0 4 21 0 4 21
0 4 21 0 4 21 0 4 21 0 4 21 0 4 21 0 4 21 0 4 21 0 4 21 0 4 21 0 4 21
0 4 21 0 4 21 0 4 21 0 4 21 0 4 21 0 4 21 0 4 21 0 4 21 0 4 21 0 4 21
0 4 21 0 4 21 0 3 21 0 3 21 0 3 21 0 3 21 0 3 21 0 3 21 0 3 21 0 3 21
0 3 21 0 3 21 0 3 21 0 3 21 0 3 21 0 3 21 0 3 21 0 3 21 0 3 21 0 3 21
0 3 21 0 3 21 0 3 21 0 3 21 0 3 21 0 3 21 0 3 21 0 3 21 0 3 21 0 3 21
0 3 21 0 3 21 0 3 21 0 3 20 0 3 20 0 3 20 0 3 20 0 3 20 0 3 20 0 3 20
0 3 20 0 3 20 0 3 20 0 3 20 0 3 20 0 3 20 0 3 20 0 3 20 0 3 20 0 3 20
0 3 20 0 3 20 0 3 20 0 3 20 0 3 20 0 3 20 0 3 20 0 3 20 0 3 20 0 3 20
0 3 20 0 3 20 0 3 20 0 3 20 0 3 20 0 3 20 0 3 20 0 3 20 0 3 20 0 3 20
0 3 20 0 3 20 0 3 20 0 3 20 0 3 20 0 3 19 0 3 19 0 3 19 0 3 19 0 3 19
0 3 19 0 3 19 0 3 19 0 3 19 0 3 19 0 3 19 0 3 19 0 3 19 0 3 19 0 3 19
0 3 19 0 3 19 0 3 19 0 3 19 0 3 19 0 3 19 0 3 19 0 3 19 0 3 19 0 3 19
0 3 19 0 3 19 0 3 19 0 3 19 0 3 19 0 3 19 0 3 19 0 3 19 0 3 19 0 3 19
0 3 19 0 3 19 0 3 19 0 3 19 0 3 18 0 3 18 0 3 18 0 3 18 0 3 18 0 3 18
0 3 18 0 3 18 0 3 18 0 3 18 0 3 18 0 3 18 0 3 18 0 3 18 0 3 18 0 3 18
0 3 18 0 3 18 0 3 18 0 3 18 0 3 18 0 3 18 0 3
18 0 3 18 0 3 18 0 3 18 0 3 18 0 3 18 0 3 18 0 3 18 0 3 18 0 3 18 0 3
18 0 3 18 0 3 18 0 3 18 0 3 18 0 3 18 0 3 18 0 3 18 0 3 18 0 3 18 0 3
18 0 3 18 0 3 18 0 3 18 0 3 18 0 3 18 0 3 18 0 3 18 0 3 18 0 3 18 0 3
18 0 3 18 0 3 18 0 3 18 0 3 18 0 3 18 0 3 18 0 3 18 0 3 18 0 3 18 0 3
19 0 3 19 0 3 19 0 3 19 0 3 19 0 3 19 0 3 19 0 3 19 0 3 19 0 3 19 0 3
19 0 3 19 0 3 19 0 3 19 0 3 19 0 3 19 0 3 19 0 3 19 0 3 19 0 3 19 0 3
19 0 3 19 0 3 19 0 3 19 0 3 19 0 3 19 0 3 19 0 3 19 0 3 19 0 3 19 0 3
19 0 3 19 0 3 19 0 3 19 0 3 19 0 3 19 0 3 19 0 3 20 0 3 20 0 3 20 0 3
20 0 3 20 0 3 20 0 3 20 0 3 20 0 3 20 0 3 20 0 3 20 0 3 20 0 3 20 0 3
20 0 3 20 0 3 20 0 3 20 0 3 20 0 3 20 0 3 20 0 3 20 0 3 20 0 3 20 0 3
20 0 3 20 0 3 20 0 3 20 0 3 20 0 3 20 0 3 20 0 3 20 0 3 20 0 3 20 0 3
20 0 3 20 0 3 20 0 3 20 0 3 21 0 3 21 0 3 21 0 3 21 0 3 21 0 3 21 0 3
3 0 1 3 0 1 3 0 1 3 0 1 3 0 1 6 0 1 8 0 2 11 0 2 13 0 3 15 0 3 17 0 4
19 0 4 21 0 4 23 0 5 25 0 5 26 0 5 28 0 6 30 0 6 31 0 6 33 0 7 34 0 7
36 0 7 37 0 8 39 0 8 40 0 8 41 0 8 43 0 9 44 0 9 45 0 9 46 0 9 47 0 10
48 0 10 49 0 10 50 0 10 51 0 10 51 0 11 52 0 11 53 0 11 53 0 11 53 0
11 54 0 11 54 0 11 54 0 11 54 0 11 53 0 11 53 0 11 52 0 11 51 0 10 49
0 10 46 0 10 42 0 9 22 0 4 22 0 4 22 0 4 22 0 4 22 0 4 22 0 4 22 0 4
22 0 4 22 0 4 22 0 4 22 0 4 22 0 4 22 0 4 22 0 4 22 0 4 22 0 4 22 0 4
22 0 4 22 0 4 37 0 4 49 0 5 57 0 6 63 0 6 68 0 7 73 0 7 77 0 8 81 0 8
85 0 8 88 0 9 91 0 9 94 0 9 97 0 9 99 0 10 102 0 10 104 0 10 105 0 10
107 0 10 109 0 11 110 0 11 111 0 11 112 0 11 113 0 11 113 0 11 113 0
11 113 0 11 113 0 11 112 0 11 112 0 11 111 0 11 109 0 11 107 0 10 105
0 10 102 0 10 99 0 10 94 0 9 88 0 9 80 0 8 22 0 4 22 0 4 22 0 4 22 0 4
22 0 4 22 0 4 22 0 4 22 0 4 22 0 4 22 0 4 22 0 4 22 0 4 22 0 4 22 0 4
22 0 4 22 0 4 22 0 4 22 0 4 22 0 4 22 0 4 22 0 4 22 0 4 22 0 4 22 0 4
22 0 4 22 0 4 22 0 4 22 0 4 22 0 4 22 0 4 22 0 4 22 0 4 22 0 4 22 0 4
22 0 4 22 0 4 22 0 4 22 0 4 22 0 4 22 0 4 22 0 4 22 0 4 22 0 4 22 0 4
22 0 4 22 0 4 22 0 4 22 0 4 22 0 4 22 0 4 22 0 4 21 0 4 21 0 4 21 0 4
21 0 4 21 0 4 21 0 4 21 0 4 21 0 4 21 0 4 21 0 4 21 0 4 21 0 4 21 0 4
21 0 4 21 0 4 21 0 4 21 0 4 21 0 4 21 0 3 21 0 3 21 0 3 21 0 3 21 0 3
21 0 3 21 0 3 21 0 3 21 0 3 21 0 3 21 0 3 21 0 3 21 0 3 21 0 3 21 0 3
21 0 3 21 0 3 21 0 3 21 0 3 21 0 3 21 0 3 21 0 3 21 0 3 21 0 3 20 0 3
20 0 3 20 0 3 20 0 3 20 0 3 20 0 3 20 0 3 20 0 3 20 0 3 20 0 3 20 0 3
20 0 3 20 0 3 20 0 3 20 0 3 20 0 3 20 0 3 20 0 3 20 0 3 20 0 3 20 0 3
20 0 3 20 0 3 20 0 3 20 0 3 20 0 3 20 0 3 20 0 3 20 0 3 20 0 3 20 0 3
20 0 3 20 0 3 20 0 3 20 0 3 20 0 3 20 0 3 19 0 3 19 0 3 19 0 3 19 0 3
19 0 3 19 0 3 19 0 3 19 0 3 19 0 3 19 0 3 19 0 3 19 0 3 19 0 3 19 0 3
19 0 3 19 0 3 19 0 3 19 0 3 19 0 3 19 0 3 19 0 3 19 0 3 19 0 3 19 0 3
19 0 3 19 0 3 19 0 3 19 0 3 19 0 3 19 0 3 19 0 3 19 0 3 19 0 3 19 0 3
19 0 3 19 0 3 19 0 3 19 0 3 18 0 3 18 0 3 18 0 3 18 0 3
18 0 3 18 0 3 18 0 3 18 0 3 18 0 3 18 0 3 18 0 3 18 0 3 18 0 3 18 0 3
18 0 3 18 0 3 18 0 3 18 0 3 18 0 3 18 0 3 18 0 3 18 0 3 18 0 3 18 0 3
18 0 3 18 0 3 18 0 3 18 0 3 18 0 3 19 0 3 19 0 3 19 0 3 19 0 3 19 0 3
19 0 3 19 0 3 19 0 3 19 0 3 19 0 3 19 0 3 19 0 3 19 0 3 19 0 3 19 0 3
19 0 3 19 0 3 19 0 3 19 0 3 19 0 3 19 0 3 19 0 3 19 0 3 19 0 3 19 0 3
19 0 3 19 0 3 19 0 3 19 0 3 19 0 3 19 0 3 19 0 3 19 0 3 19 0 3 19 0 3
19 0 3 20 0 3 20 0 3 20 0 3 20 0 3 20 0 3 20 0 3 20 0 3 20 0 3 20 0 3
20 0 3 20 0 3 20 0 3 20 0 3 20 0 3 20 0 3 20 0 3 20 0 3 20 0 3 20 0 3
20 0 3 20 0 3 20 0 3 20 0 3 20 0 3 20 0 3 20 0 3 20 0 3 20 0 3 20 0 3
20 0 3 20 0 3 20 0 3 20 0 3 20 0 3 21 0 3 21 0 3 21 0 3 21 0 3 21 0 3
21 0 3 21 0 3 21 0 3 21 0 3 21 0 3 21 0 3 21 0 3 21 0 3 21 0 3 21 0 3
21 0 3 21 0 3 21 0 3 21 0 3 21 0 3 21 0 3 21 0 4 21 0 4 21 0 4 21 0 4
3 0 1 3 0 1 3 0 1 3 0 1 4 0 1 6 0 1 9 0 2 11 0 2 13 0 3 15 0 3 17 0 4
19 0 4 21 0 4 23 0 5 25 0 5 27 0 5 28 0 6 30 0 6 32 0 7 33 0 7 35 0 7
36 0 7 38 0 8 39 0 8 40 0 8 42 0 9 43 0 9 44 0 9 45 0 9 46 0 10 47 0
10 48 0 10 49 0 10 50 0 10 51 0 10 52 0 11 52 0 11 53 0 11 53 0 11 54
0 11 54 0 11 54 0 11 54 0 11 54 0 11 54 0 11 54 0 11 53 0 11 52 0 11
50 0 10 48 0 10 45 0 9 40 0 8 22 0 4 22 0 4 22 0 4 22 0 4 22 0 4 23 0
4 23 0 4 23 0 4 23 0 4 23 0 4 23 0 4 23 0 4 23 0 4 23 0 4 23 0 4 23 0
4 23 0 4 35 0 3 47 0 5 55 0 5 62 0 6 67 0 7 72 0 7 76 0 7 80 0 8 84 0
8 88 0 9 91 0 9 94 0 9 97 0 9 99 0 10 102 0 10 104 0 10 106 0 10 108 0
11 109 0 11 111 0 11 112 0 11 113 0 11 114 0 11 115 0 11 115 0 11 116
0 11 116 0 11 115 0 11 115 0 11 114 0 11 113 0 11 112 0 11 110 0 11
108 0 11 106 0 10 103 0 10 99 0 10 95 0 9 89 0 9 80 0 8 23 0 4 23 0 4
23 0 4 23 0 4 23 0 4 23 0 4 23 0 4 23 0 4 23 0 4 23 0 4 23 0 4 23 0 4
23 0 4 23 0 4 23 0 4 23 0 4 23 0 4 23 0 4 23 0 4 23 0 4 23 0 4 23 0 4
23 0 4 23 0 4 23 0 4 23 0 4 23 0 4 23 0 4 23 0 4 23 0 4 22 0 4 22 0 4
22 0 4 22 0 4 22 0 4 22 0 4 22 0 4 22 0 4 22 0 4 22 0 4 22 0 4 22 0 4
22 0 4 22 0 4 22 0 4 22 0 4 22 0 4 22 0 4 22 0 4 22 0 4 22 0 4 22 0 4
22 0 4 22 0 4 22 0 4 22 0 4 22 0 4 22 0 4 22 0 4 22 0 4 22 0 4 22 0 4
22 0 4 22 0 4 22 0 4 22 0 4 22 0 4 22 0 4 22 0 4 22 0 4 22 0 4 22 0 4
22 0 4 22 0 4 22 0 4 22 0 4 22 0 4 21 0 4 21 0 4 21 0 4 21 0 4 21 0 4
21 0 4 21 0 4 21 0 4 21 0 4 21 0 4 21 0 4 21 0 4 21 0 4 21 0 4 21 0 3
21 0 3 21 0 3 21 0 3 21 0 3 21 0 3 21 0 3 21 0 3 21 0 3 21 0 3 21 0 3
21 0 3 21 0 3 21 0 3 21 0 3 21 0 3 21 0 3 21 0 3 21 0 3 21 0 3 21 0 3
20 0 3 20 0 3 20 0 3 20 0 3 20 0 3 20 0 3 20 0 3 20 0 3 20 0 3 20 0 3
20 0 3 20 0 3 20 0 3 20 0 3 20 0 3 20 0 3 20 0 3 20 0 3 20 0 3 20 0 3
20 0 3 20 0 3 20 0 3 20 0 3 20 0 3 20 0 3 20 0 3 20 0 3 20 0 3 20 0 3
20 0 3 20 0 3 20 0 3 20 0 3 20 0 3 19 0 3 19 0 3 19 0 3 19 0 3 19 0 3
19 0 3 19 0 3 19 0 3 19 0 3 19 0 3 19 0 3 19 0 3 19 0 3 19 0 3 19 0 3
19 0 3 19 0 3 19 0 3 19 0 3 19 0 3 19 0 3 19 0 3 19 0 3 19 0 3
18 0 3 18 0 3 18 0 3 18 0 3 18 0 3 18 0 3 18 0 3 18 0 3 18 0 3 18 0 3
19 0 3 19 0 3 19 0 3 19 0 3 19 0 3 19 0 3 19 0 3 19 0 3 19 0 3 19 0 3
19 0 3 19 0 3 19 0 3 19 0 3 19 0 3 19 0 3 19 0 3 19 0 3 19 0 3 19 0 3
19 0 3 19 0 3 19 0 3 19 0 3 19 0 3 19 0 3 19 0 3 19 0 3 19 0 3 19 0 3
19 0 3 19 0 3 19 0 3 19 0 3 19 0 3 19 0 3 20 0 3 20 0 3 20 0 3 20 0 3
20 0 3 20 0 3 20 0 3 20 0 3 20 0 3 20 0 3 20 0 3 20 0 3 20 0 3 20 0 3
20 0 3 20 0 3 20 0 3 20 0 3 20 0 3 20 0 3 20 0 3 20 0 3 20 0 3 20 0 3
20 0 3 20 0 3 20 0 3 20 0 3 20 0 3 20 0 3 20 0 3 20 0 3 20 0 3 21 0 3
21 0 3 21 0 3 21 0 3 21 0 3 21 0 3 21 0 3 21 0 3 21 0 3 21 0 3 21 0 3
21 0 3 21 0 3 21 0 3 21 0 3 21 0 3 21 0 3 21 0 3 21 0 3 21 0 4 21 0 4
21 0 4 21 0 4 21 0 4 21 0 4 21 0 4 21 0 4 21 0 4 21 0 4 21 0 4 21 0 4
21 0 4 22 0 4 22 0 4 22 0 4 22 0 4 22 0 4 22 0 4 22 0 4 22 0 4 3 0 1 3
0 1 3 0 1 3 0 1 3 0 1 5 0 1 7 0 1 9 0 2 12 0 2 14 0 3 16 0 3 18 0 4 20
0 4 22 0 4 23 0 5 25 0 5 27 0 6 29 0 6 30 0 6 32 0 7 33 0 7 35 0 7 36
0 7 38 0 8 39 0 8 40 0 8 42 0 9 43 0 9 44 0 9 45 0 9 47 0 10 48 0 10
49 0 10 50 0 10 50 0 10 51 0 11 52 0 11 53 0 11 53 0 11 54 0 11 54 0
11 55 0 11 55 0 11 55 0 11 55 0 11 55 0 11 54 0 11 54 0 11 53 0 11 52
0 11 50 0 10 47 0 10 44 0 9 35 0 7 23 0 4 23 0 4 23 0 4 23 0 4 23 0 4
23 0 4 23 0 4 23 0 4 23 0 4 23 0 4 23 0 4 23 0 4 23 0 4 23 0 4 23 0 4
35 0 3 45 0 4 53 0 5 60 0 6 65 0 6 70 0 7 75 0 7 79 0 8 83 0 8 87 0 8
90 0 9 93 0 9 96 0 9 99 0 10 101 0 10 104 0 10 106 0 10 108 0 11 110 0
11 111 0 11 113 0 11 114 0 11 115 0 11 116 0 11 117 0 11 117 0 11 118
0 11 118 0 12 118 0 12 117 0 11 117 0 11 116 0 11 115 0 11 113 0 11
111 0 11 109 0 11 106 0 10 103 0 10 99 0 10 94 0 9 88 0 9 78 0 8 24 0
4 23 0 4 23 0 4 23 0 4 23 0 4 23 0 4 23 0 4 23 0 4 23 0 4 23 0 4 23 0
4 23 0 4 23 0 4 23 0 4 23 0 4 23 0 4 23 0 4 23 0 4 23 0 4 23 0 4 23 0
4 23 0 4 23 0 4 23 0 4 23 0 4 23 0 4 23 0 4 23 0 4 23 0 4 23 0 4 23 0
4 23 0 4 23 0 4 23 0 4 23 0 4 23 0 4 23 0 4 23 0 4 23 0 4 23 0 4 23 0
4 23 0 4 23 0 4 23 0 4 23 0 4 23 0 4 23 0 4 23 0 4 23 0 4 23 0 4 23 0
4 23 0 4 23 0 4 23 0 4 23 0 4 23 0 4 23 0 4 23 0 4 23 0 4 23 0 4 23 0
4 22 0 4 22 0 4 22 0 4 22 0 4 22 0 4 22 0 4 22 0 4 22 0 4 22 0 4 22 0
4 22 0 4 22 0 4 22 0 4 22 0 4 22 0 4 22 0 4 22 0 4 22 0 4 22 0 4 22 0
4 22 0 4 22 0 4 22 0 4 22 0 4 22 0 4 22 0 4 22 0 4 22 0 4 22 0 4 22 0
4 22 0 4 22 0 4 22 0 4 22 0 4 22 0 4 22 0 4 21 0 4 21 0 4 21 0 4 21 0
4 21 0 4 21 0 4 21 0 4 21 0 4 21 0 4 21 0 4 21 0 4 21 0 4 21 0 4 21 0
3 21 0 3 21 0 3 21 0 3 21 0 3 21 0 3 21 0 3 21 0 3 21 0 3 21 0 3 21 0
3 21 0 3 21 0 3 21 0 3 21 0 3 21 0 3 21 0 3 21 0 3 21 0 3 20 0 3 20 0
3 20 0 3 20 0 3 20 0 3 20 0 3 20 0 3 20 0 3 20 0 3 20 0 3 20 0 3 20 0
3 20 0 3 20 0 3 20 0 3 20 0 3 20 0 3 20 0 3 20 0 3 20 0 3 20 0 3 20 0
3 20 0 3 20 0 3 20 0 3 20 0 3 20 0 3 20 0 3 20 0 3 20 0 3 20 0 3 20 0
3 20 0 3 19 0 3 19 0 3 19 0 3 19 0 3 19 0 3 19 0 3 19 0 3 19 0 3
19 0 3 19 0 3 19 0 3 19 0 3 19 0 3 19 0 3 19 0 3 19 0 3 19 0 3 19 0 3
19 0 3 19 0 3 19 0 3 19 0 3 19 0 3 19 0 3 19 0 3 19 0 3 19 0 3 19 0 3
19 0 3 19 0 3 19 0 3 19 0 3 19 0 3 19 0 3 19 0 3 19 0 3 19 0 3 19 0 3
19 0 3 19 0 3 20 0 3 20 0 3 20 0 3 20 0 3 20 0 3 20 0 3 20 0 3 20 0 3
20 0 3 20 0 3 20 0 3 20 0 3 20 0 3 20 0 3 20 0 3 20 0 3 20 0 3 20 0 3
20 0 3 20 0 3 20 0 3 20 0 3 20 0 3 20 0 3 20 0 3 20 0 3 20 0 3 20 0 3
20 0 3 20 0 3 20 0 3 20 0 3 21 0 3 21 0 3 21 0 3 21 0 3 21 0 3 21 0 3
21 0 3 21 0 3 21 0 3 21 0 3 21 0 3 21 0 3 21 0 3 21 0 3 21 0 3 21 0 3
21 0 3 21 0 3 21 0 4 21 0 4 21 0 4 21 0 4 21 0 4 21 0 4 21 0 4 21 0 4
21 0 4 21 0 4 21 0 4 21 0 4 22 0 4 22 0 4 22 0 4 22 0 4 22 0 4 22 0 4
22 0 4 22 0 4 22 0 4 22 0 4 22 0 4 22 0 4 22 0 4 22 0 4 22 0 4 22 0 4
22 0 4 22 0 4 22 0 4 22 0 4 22 0 4 22 0 4 22 0 4 22 0 4 22 0 4 3 0 1 3
0 1 3 0 1 3 0 1 3 0 1 5 0 1 7 0 2 10 0 2 12 0 2 14 0 3 16 0 3 18 0 4
20 0 4 22 0 5 24 0 5 25 0 5 27 0 6 29 0 6 30 0 6 32 0 7 34 0 7 35 0 7
36 0 8 38 0 8 39 0 8 41 0 8 42 0 9 43 0 9 44 0 9 46 0 9 47 0 10 48 0
10 49 0 10 50 0 10 51 0 11 52 0 11 52 0 11 53 0 11 54 0 11 54 0 11 55
0 11 55 0 11 55 0 11 55 0 11 55 0 11 55 0 11 55 0 11 54 0 11 54 0 11
52 0 11 51 0 10 49 0 10 46 0 9 41 0 8 24 0 4 24 0 4 24 0 4 24 0 4 24 0
4 24 0 4 24 0 4 24 0 4 24 0 4 24 0 4 24 0 4 24 0 4 24 0 4 24 0 4 24 0
4 41 0 4 50 0 5 57 0 6 63 0 6 68 0 7 73 0 7 77 0 8 81 0 8 85 0 8 88 0
9 92 0 9 95 0 9 98 0 10 100 0 10 103 0 10 105 0 10 107 0 10 109 0 11
111 0 11 113 0 11 114 0 11 115 0 11 117 0 11 118 0 11 118 0 12 119 0
12 119 0 12 119 0 12 119 0 12 119 0 12 119 0 12 118 0 12 117 0 11 115
0 11 114 0 11 112 0 11 109 0 11 106 0 10 103 0 10 99 0 10 93 0 9 86 0
8 75 0 7 24 0 4 24 0 4 24 0 4 24 0 4 24 0 4 24 0 4 24 0 4 24 0 4 24 0
4 24 0 4 24 0 4 24 0 4 24 0 4 24 0 4 24 0 4 24 0 4 24 0 4 24 0 4 24 0
4 24 0 4 24 0 4 24 0 4 24 0 4 24 0 4 24 0 4 24 0 4 24 0 4 24 0 4 24 0
4 24 0 4 24 0 4 24 0 4 24 0 4 24 0 4 24 0 4 24 0 4 24 0 4 24 0 4 24 0
4 24 0 4 24 0 4 24 0 4 24 0 4 24 0 4 24 0 4 24 0 4 24 0 4 23 0 4 23 0
4 23 0 4 23 0 4 23 0 4 23 0 4 23 0 4 23 0 4 23 0 4 23 0 4 23 0 4 23 0
4 23 0 4 23 0 4 23 0 4 23 0 4 23 0 4 23 0 4 23 0 4 23 0 4 23 0 4 23 0
4 23 0 4 23 0 4 23 0 4 23 0 4 23 0 4 23 0 4 23 0 4 23 0 4 23 0 4 23 0
4 23 0 4 23 0 4 23 0 4 23 0 4 22 0 4 22 0 4 22 0 4 22 0 4 22 0 4 22 0
4 22 0 4 22 0 4 22 0 4 22 0 4 22 0 4 22 0 4 22 0 4 22 0 4 22 0 4 22 0
4 22 0 4 22 0 4 22 0 4 22 0 4 22 0 4 22 0 4 22 0 4 22 0 4 22 0 4 22 0
4 22 0 4 22 0 4 22 0 4 22 0 4 22 0 4 21 0 4 21 0 4 21 0 4 21 0 4 21 0
4 21 0 4 21 0 4 21 0 4 21 0 4 21 0 4 21 0 4 21 0 4 21 0 3 21 0 3 21 0
3 21 0 3 21 0 3 21 0 3 21 0 3 21 0 3 21 0 3 21 0 3 21 0 3 21 0 3 21 0
3 21 0 3 21 0 3 21 0 3 21 0 3 21 0 3 20 0 3 20 0 3 20 0 3 20 0 3 20 0
3 20 0 3 20 0 3 20 0 3 20 0 3 20 0 3 20 0 3 20 0 3 20 0 3 20 0 3 20 0
3 20 0 3 20 0 3 20 0 3 20 0 3 20 0 3 20 0 3 20 0 3 20 0 3 20 0 3 20 0
3
19 0 3 19 0 3 19 0 3 19 0 3 19 0 3 19 0 3 19 0 3 19 0 3 19 0 3 19 0 3
19 0 3 19 0 3 19 0 3 19 0 3 19 0 3 19 0 3 19 0 3 19 0 3 19 0 3 20 0 3
20 0 3 20 0 3 20 0 3 20 0 3 20 0 3 20 0 3 20 0 3 20 0 3 20 0 3 20 0 3
20 0 3 20 0 3 20 0 3 20 0 3 20 0 3 20 0 3 20 0 3 20 0 3 20 0 3 20 0 3
20 0 3 20 0 3 20 0 3 20 0 3 20 0 3 20 0 3 20 0 3 20 0 3 20 0 3 20 0 3
21 0 3 21 0 3 21 0 3 21 0 3 21 0 3 21 0 3 21 0 3 21 0 3 21 0 3 21 0 3
21 0 3 21 0 3 21 0 3 21 0 3 21 0 3 21 0 3 21 0 3 21 0 3 21 0 4 21 0 4
21 0 4 21 0 4 21 0 4 21 0 4 21 0 4 21 0 4 21 0 4 21 0 4 21 0 4 21 0 4
22 0 4 22 0 4 22 0 4 22 0 4 22 0 4 22 0 4 22 0 4 22 0 4 22 0 4 22 0 4
22 0 4 22 0 4 22 0 4 22 0 4 22 0 4 22 0 4 22 0 4 22 0 4 22 0 4 22 0 4
22 0 4 22 0 4 22 0 4 22 0 4 22 0 4 22 0 4 22 0 4 22 0 4 23 0 4 23 0 4
23 0 4 23 0 4 23 0 4 23 0 4 23 0 4 23 0 4 23 0 4 23 0 4 3 0 1 3 0 1 3
0 1 3 0 1 3 0 1 3 0 1 5 0 1 8 0 2 10 0 2 12 0 3 14 0 3 16 0 3 18 0 4
20 0 4 22 0 5 24 0 5 26 0 5 27 0 6 29 0 6 30 0 6 32 0 7 34 0 7 35 0 7
37 0 8 38 0 8 39 0 8 41 0 8 42 0 9 43 0 9 44 0 9 46 0 9 47 0 10 48 0
10 49 0 10 50 0 10 51 0 11 53 0 11 53 0 11 54 0 11 54 0 11 55 0 11 55
0 11 55 0 11 55 0 11 56 0 11 56 0 11 56 0 11 55 0 11 55 0 11 54 0 11
53 0 11 52 0 11 50 0 10 48 0 10 44 0 9 34 0 7 24 0 4 25 0 4 25 0 4 25
0 4 25 0 4 25 0 4 25 0 4 25 0 4 25 0 4 25 0 4 25 0 4 25 0 4 25 0 4 36
0 4 46 0 5 54 0 5 60 0 6 66 0 6 70 0 7 75 0 7 79 0 8 83 0 8 87 0 8 90
0 9 93 0 9 96 0 9 99 0 10 102 0 10 104 0 10 106 0 10 109 0 11 110 0 11
112 0 11 114 0 11 115 0 11 117 0 11 118 0 12 119 0 12 120 0 12 120 0
12 121 0 12 121 0 12 121 0 12 121 0 12 120 0 12 119 0 12 118 0 12 117
0 11 116 0 11 114 0 11 112 0 11 109 0 11 106 0 10 102 0 10 97 0 10 92
0 9 84 0 8 69 0 7 25 0 4 25 0 4 25 0 4 25 0 4 25 0 4 25 0 4 25 0 4 25
0 4 25 0 4 25 0 4 25 0 4 25 0 4 25 0 4 25 0 4 25 0 4 25 0 4 25 0 4 25
0 4 25 0 4 25 0 4 25 0 4 25 0 4 25 0 4 25 0 4 25 0 4 25 0 4 25 0 4 25
0 4 25 0 4 25 0 4 25 0 4 25 0 4 25 0 4 24 0 4 24 0 4 24 0 4 24 0 4 24
0 4 24 0 4 24 0 4 24 0 4 24 0 4 24 0 4 24 0 4 24 0 4 24 0 4 24 0 4 24
0 4 24 0 4 24 0 4 24 0 4 24 0 4 24 0 4 24 0 4 24 0 4 24 0 4 24 0 4 24
0 4 24 0 4 24 0 4 24 0 4 24 0 4 24 0 4 24 0 4 24 0 4 24 0 4 24 0 4 24
0 4 24 0 4 24 0 4 24 0 4 23 0 4 23 0 4 23 0 4 23 0 4 23 0 4 23 0 4 23
0 4 23 0 4 23 0 4 23 0 4 23 0 4 23 0 4 23 0 4 23 0 4 23 0 4 23 0 4 23
0 4 23 0 4 23 0 4 23 0 4 23 0 4 23 0 4 23 0 4 23 0 4 23 0 4 23 0 4 23
0 4 23 0 4 23 0 4 22 0 4 22 0 4 22 0 4 22 0 4 22 0 4 22 0 4 22 0 4 22
0 4 22 0 4 22 0 4 22 0 4 22 0 4 22 0 4 22 0 4 22 0 4 22 0 4 22 0 4 22
0 4 22 0 4 22 0 4 22 0 4 22 0 4 22 0 4 22 0 4 22 0 4 22 0 4 22 0 4 22
0 4 22 0 4 21 0 4 21 0 4 21 0 4 21 0 4 21 0 4 21 0 4 21 0 4 21 0 4 21
0 4 21 0 4 21 0 4 21 0 3 21 0 3 21 0 3 21 0 3 21 0 3 21 0 3 21 0 3 21
0 3 21 0 3 21 0 3 21 0 3 21 0 3 21 0 3 21 0 3 21 0 3 21 0 3 21 0 3 21
0 3 20 0 3 20 0 3 20 0 3 20 0 3 20 0 3 20 0 3 20 0 3 20 0 3 20 0 3 20
0 3
19 0 3 19 0 3 19 0 3 19 0 3 19 0 3 19 0 3 20 0 3 20 0 3 20 0 3 20 0 3
20 0 3 20 0 3 20 0 3 20 0 3 20 0 3 20 0 3 20 0 3 20 0 3 20 0 3 20 0 3
20 0 3 20 0 3 20 0 3 20 0 3 20 0 3 20 0 3 20 0 3 20 0 3 20 0 3 20 0 3
20 0 3 20 0 3 20 0 3 20 0 3 20 0 3 20 0 3 20 0 3 21 0 3 21 0 3 21 0 3
21 0 3 21 0 3 21 0 3 21 0 3 21 0 3 21 0 3 21 0 3 21 0 3 21 0 3 21 0 3
21 0 3 21 0 3 21 0 3 21 0 3 21 0 3 21 0 4 21 0 4 21 0 4 21 0 4 21 0 4
21 0 4 21 0 4 21 0 4 21 0 4 21 0 4 21 0 4 22 0 4 22 0 4 22 0 4 22 0 4
22 0 4 22 0 4 22 0 4 22 0 4 22 0 4 22 0 4 22 0 4 22 0 4 22 0 4 22 0 4
22 0 4 22 0 4 22 0 4 22 0 4 22 0 4 22 0 4 22 0 4 22 0 4 22 0 4 22 0 4
22 0 4 22 0 4 22 0 4 23 0 4 23 0 4 23 0 4 23 0 10 24 0 11 26 0 12 27 0
12 28 0 13 29 0 13 30 0 14 31 0 14 32 0 15 33 0 15 33 0 15 33 0 15 23
0 4 23 0 4 23 0 4 23 0 4 23 0 4 23 0 4 23 0 4 23 0 4 23 0 4 23 0 4 3 0
1 3 0 1 3 0 1 3 0 1 3 0 1 3 0 1 6 0 1 8 0 2 10 0 2 12 0 3 14 0 3 16 0
3 18 0 4 20 0 4 22 0 5 24 0 5 26 0 5 27 0 6 29 0 6 30 0 6 32 0 7 34 0
7 35 0 7 36 0 8 38 0 8 39 0 8 41 0 8 42 0 9 43 0 9 44 0 9 46 0 9 47 0
10 48 0 10 49 0 10 51 0 11 53 0 12 55 0 13 57 0 13 57 0 13 57 0 13 56
0 12 55 0 12 55 0 11 56 0 11 56 0 11 56 0 11 56 0 11 56 0 11 55 0 11
55 0 11 54 0 11 53 0 11 51 0 10 49 0 10 46 0 9 40 0 8 25 0 4 25 0 4 25
0 4 25 0 4 25 0 4 25 0 4 25 0 4 25 0 4 25 0 4 25 0 4 25 0 4 25 0 4 35
0 3 42 0 4 50 0 5 57 0 6 63 0 6 68 0 7 72 0 7 77 0 8 81 0 8 84 0 8 88
0 9 91 0 9 94 0 9 97 0 10 100 0 10 103 0 10 105 0 10 107 0 11 110 0 11
111 0 11 113 0 11 115 0 11 116 0 11 118 0 12 119 0 12 120 0 12 121 0
12 121 0 12 122 0 12 122 0 12 122 0 12 122 0 12 121 0 12 121 0 12 120
0 12 119 0 12 117 0 11 116 0 11 114 0 11 111 0 11 108 0 11 105 0 10
100 0 10 95 0 9 89 0 9 80 0 8 26 0 4 26 0 4 26 0 4 26 0 4 26 0 4 26 0
4 26 0 4 26 0 4 26 0 4 26 0 4 26 0 4 26 0 4 26 0 4 26 0 4 26 0 4 26 0
4 26 0 4 26 0 4 26 0 4 26 0 4 25 0 4 25 0 4 25 0 4 25 0 4 25 0 4 25 0
4 25 0 4 25 0 4 25 0 4 25 0 4 25 0 4 25 0 4 25 0 4 25 0 4 25 0 4 25 0
4 25 0 4 25 0 4 25 0 4 25 0 4 25 0 4 25 0 4 25 0 4 25 0 4 25 0 4 25 0
4 25 0 4 25 0 4 25 0 4 25 0 4 25 0 4 25 0 4 25 0 4 25 0 4 25 0 4 25 0
4 25 0 4 25 0 4 25 0 4 25 0 4 25 0 4 24 0 4 24 0 4 24 0 4 24 0 4 24 0
4 24 0 4 24 0 4 24 0 4 24 0 4 24 0 4 24 0 4 24 0 4 24 0 4 24 0 4 24 0
4 24 0 4 24 0 4 24 0 4 24 0 4 24 0 4 24 0 4 24 0 4 24 0 4 24 0 4 24 0
4 24 0 4 24 0 4 24 0 4 24 0 4 23 0 4 23 0 4 23 0 4 23 0 4 23 0 4 23 0
4 23 0 4 23 0 4 23 0 4 23 0 4 23 0 4 23 0 4 23 0 4 23 0 4 23 0 4 23 0
4 23 0 4 23 0 4 23 0 4 23 0 4 23 0 4 23 0 4 23 0 4 23 0 4 23 0 4 23 0
4 23 0 4 22 0 4 22 0 4 22 0 4 22 0 4 22 0 4 22 0 4 22 0 4 22 0 4 22 0
4 22 0 4 22 0 4 22 0 4 22 0 4 22 0 4 22 0 4 22 0 4 22 0 4 22 0 4 22 0
4 22 0 4 22 0 4 22 0 4 22 0 4 22 0 4 22 0 4 22 0 4 22 0 4 21 0 4 21 0
4 21 0 4 21 0 4 21 0 4 21 0 4 21 0 4 21 0 4 21 0 4 21 0 4 21 0 4 21 0
3 21 0 3 21 0 3 21 0 3 21 0 3 21 0 3 21 0 3 21 0 3 21 0 3 21 0 3 21 0
3 21 0 3 21 0 3
20 0 3 20 0 3 20 0 3 20 0 3 20 0 3 20 0 3 20 0 3 20 0 3 20 0 3 20 0 3
20 0 3 20 0 3 20 0 3 20 0 3 20 0 3 20 0 3 20 0 3 20 0 3 20 0 3 20 0 3
20 0 3 20 0 3 20 0 3 20 0 3 20 0 3 21 0 3 21 0 3 21 0 3 21 0 3 21 0 3
21 0 3 21 0 3 21 0 3 21 0 3 21 0 3 21 0 3 21 0 3 21 0 3 21 0 3 21 0 3
21 0 3 21 0 3 21 0 3 21 0 4 21 0 4 21 0 4 21 0 4 21 0 4 21 0 4 21 0 4
21 0 4 21 0 4 21 0 4 22 0 4 22 0 4 22 0 4 22 0 4 22 0 4 22 0 4 22 0 4
22 0 4 22 0 4 22 0 4 22 0 4 22 0 4 22 0 4 22 0 4 22 0 4 22 0 4 22 0 4
22 0 4 22 0 4 22 0 4 22 0 4 22 0 4 22 0 4 22 0 4 22 0 4 22 0 4 23 0 4
23 0 4 23 0 4 23 0 4 23 0 4 23 0 4 23 0 4 23 0 4 23 0 4 23 0 4 23 0 4
16 0 7 19 0 9 20 0 9 22 0 10 23 0 11 24 0 11 26 0 12 27 0 12 28 0 13
29 0 13 30 0 14 31 0 14 32 0 15 33 0 15 34 0 16 35 0 16 36 0 16 37 0
17 37 0 17 38 0 17 39 0 18 39 0 18 39 0 18 24 0 4 24 0 4 24 0 4 24 0 4
3 0 1 3 0 1 3 0 1 3 0 1 3 0 1 3 0 1 4 0 1 6 0 1 8 0 2 10 0 2 13 0 3 15
0 3 17 0 3 18 0 4 20 0 4 22 0 5 24 0 5 26 0 5 27 0 6 29 0 6 30 0 6 32
0 7 34 0 7 35 0 7 36 0 7 38 0 8 39 0 8 41 0 8 42 0 9 43 0 9 44 0 9 45
0 9 47 0 10 48 0 10 50 0 11 53 0 12 57 0 14 61 0 16 64 0 17 65 0 17 63
0 16 60 0 14 57 0 13 56 0 12 56 0 12 56 0 11 56 0 12 56 0 12 56 0 11
55 0 11 55 0 11 54 0 11 53 0 11 52 0 11 50 0 10 47 0 10 43 0 9 26 0 4
26 0 4 26 0 4 26 0 4 26 0 4 26 0 4 26 0 4 26 0 4 26 0 4 26 0 4 26 0 4
26 0 4 37 0 4 46 0 4 53 0 5 59 0 6 64 0 6 69 0 7 74 0 7 78 0 8 82 0 8
86 0 8 89 0 9 92 0 9 95 0 9 98 0 10 101 0 10 104 0 10 106 0 10 108 0
11 110 0 11 112 0 11 114 0 11 116 0 11 117 0 11 118 0 12 120 0 12 121
0 12 121 0 12 122 0 12 122 0 12 123 0 12 123 0 12 123 0 12 122 0 12
122 0 12 121 0 12 120 0 12 119 0 12 117 0 11 115 0 11 113 0 11 110 0
11 107 0 10 103 0 10 98 0 10 93 0 9 85 0 8 73 0 7 27 0 4 27 0 4 27 0 4
26 0 4 26 0 4 26 0 4 26 0 4 26 0 4 26 0 4 26 0 4 26 0 4 26 0 4 26 0 4
26 0 4 26 0 4 26 0 4 26 0 4 26 0 4 26 0 4 26 0 4 26 0 4 26 0 4 26 0 4
26 0 4 26 0 4 26 0 4 26 0 4 26 0 4 26 0 4 26 0 4 26 0 4 26 0 4 26 0 4
26 0 4 26 0 4 26 0 4 26 0 4 26 0 4 26 0 4 26 0 4 26 0 4 26 0 4 26 0 4
26 0 4 26 0 4 26 0 4 26 0 4 26 0 4 26 0 4 26 0 4 26 0 4 25 0 4 25 0 4
25 0 4 25 0 4 25 0 4 25 0 4 25 0 4 25 0 4 25 0 4 25 0 4 25 0 4 25 0 4
25 0 4 25 0 4 25 0 4 25 0 4 25 0 4 25 0 4 25 0 4 25 0 4 25 0 4 25 0 4
25 0 4 25 0 4 25 0 4 25 0 4 25 0 4 25 0 4 24 0 4 24 0 4 24 0 4 24 0 4
24 0 4 24 0 4 24 0 4 24 0 4 24 0 4 24 0 4 24 0 4 24 0 4 24 0 4 24 0 4
24 0 4 24 0 4 24 0 4 24 0 4 24 0 4 24 0 4 24 0 4 24 0 4 24 0 4 24 0 4
24 0 4 24 0 4 23 0 4 23 0 4 23 0 4 23 0 4 23 0 4 23 0 4 23 0 4 23 0 4
23 0 4 23 0 4 23 0 4 23 0 4 23 0 4 23 0 4 23 0 4 23 0 4 23 0 4 23 0 4
23 0 4 23 0 4 23 0 4 23 0 4 23 0 4 23 0 4 23 0 4 22 0 4 22 0 4 22 0 4
22 0 4 22 0 4 22 0 4 22 0 4 22 0 4 22 0 4 22 0 4 22 0 4 22 0 4 22 0 4
22 0 4 22 0 4 22 0 4 22 0 4 22 0 4 22 0 4 22 0 4 22 0 4 22 0 4 22 0 4
22 0 4 22 0 4 22 0 4 21 0 4 21 0 4 21 0 4 21 0 4 21 0 4 21 0 4 21 0 4
21 0 4 21 0 4 21 0 4 21 0 4
20 0 3 20 0 3 20 0 3 20 0 3 20 0 3 20 0 3 20 0 3 20 0 3 20 0 3 20 0 3
20 0 3 20 0 3 20 0 3 20 0 3 21 0 3 21 0 3 21 0 3 21 0 3 21 0 3 21 0 3
21 0 3 21 0 3 21 0 3 21 0 3 21 0 3 21 0 3 21 0 3 21 0 3 21 0 3 21 0 3
21 0 3 21 0 4 21 0 4 21 0 4 21 0 4 21 0 4 21 0 4 21 0 4 21 0 4 21 0 4
21 0 4 21 0 4 22 0 4 22 0 4 22 0 4 22 0 4 22 0 4 22 0 4 22 0 4 22 0 4
22 0 4 22 0 4 22 0 4 22 0 4 22 0 4 22 0 4 22 0 4 22 0 4 22 0 4 22 0 4
22 0 4 22 0 4 22 0 4 22 0 4 22 0 4 22 0 4 22 0 4 23 0 4 23 0 4 23 0 4
23 0 4 23 0 4 23 0 4 23 0 4 23 0 4 23 0 4 23 0 4 23 0 4 23 0 4 23 0 4
23 0 4 23 0 4 23 0 4 23 0 4 23 0 4 23 0 4 23 0 4 14 0 7 16 0 7 18 0 8
20 0 9 21 0 10 22 0 10 23 0 11 25 0 11 26 0 12 27 0 12 28 0 13 29 0 13
30 0 14 31 0 14 32 0 15 33 0 15 34 0 16 35 0 16 36 0 16 37 0 17 38 0
17 39 0 18 40 0 18 40 0 18 41 0 19 42 0 19 42 0 19 43 0 19 43 0 19 42
0 19 3 0 1 3 0 1 3 0 1 3 0 1 3 0 1 3 0 1 4 0 1 6 0 1 8 0 2 10 0 2 13 0
3 15 0 3 17 0 3 18 0 4 20 0 4 22 0 5 24 0 5 25 0 5 27 0 6 29 0 6 30 0
6 32 0 7 33 0 7 35 0 7 36 0 7 38 0 8 39 0 8 40 0 8 42 0 9 43 0 9 44 0
9 45 0 9 47 0 10 49 0 10 51 0 12 57 0 14 64 0 17 72 0 21 78 1 24 79 1
25 75 1 22 68 0 18 61 0 15 57 0 13 56 0 12 56 0 12 56 0 12 56 0 12 56
0 11 55 0 11 55 0 11 54 0 11 53 0 11 52 0 11 50 0 10 48 0 10 44 0 9 37
0 8 27 0 4 27 0 4 27 0 4 27 0 4 27 0 4 27 0 4 27 0 4 27 0 4 27 0 4 27
0 4 35 0 3 41 0 4 49 0 5 55 0 5 61 0 6 66 0 6 71 0 7 75 0 7 79 0 8 83
0 8 87 0 8 90 0 9 93 0 9 96 0 9 99 0 10 102 0 10 104 0 10 107 0 10 109
0 11 111 0 11 113 0 11 115 0 11 116 0 11 118 0 12 119 0 12 120 0 12
121 0 12 122 0 12 123 0 12 123 0 12 123 0 12 123 0 12 123 0 12 123 0
12 123 0 12 122 0 12 121 0 12 120 0 12 118 0 12 116 0 11 114 0 11 111
0 11 108 0 11 105 0 10 101 0 10 96 0 9 89 0 9 80 0 8 27 0 5 27 0 5 27
0 5 27 0 5 27 0 5 27 0 5 27 0 5 27 0 5 27 0 5 27 0 5 27 0 5 27 0 5 27
0 5 27 0 5 27 0 5 27 0 5 27 0 5 27 0 4 27 0 4 27 0 4 27 0 4 27 0 4 27
0 4 27 0 4 27 0 4 27 0 4 27 0 4 27 0 4 27 0 4 27 0 4 27 0 4 27 0 4 27
0 4 27 0 4 27 0 4 27 0 4 27 0 4 27 0 4 27 0 4 27 0 4 27 0 4 27 0 4 27
0 4 26 0 4 26 0 4 26 0 4 26 0 4 26 0 4 26 0 4 26 0 4 26 0 4 26 0 4 26
0 4 26 0 4 26 0 4 26 0 4 26 0 4 26 0 4 26 0 4 26 0 4 26 0 4 26 0 4 26
0 4 26 0 4 26 0 4 26 0 4 26 0 4 26 0 4 26 0 4 26 0 4 26 0 4 26 0 4 25
0 4 25 0 4 25 0 4 25 0 4 25 0 4 25 0 4 25 0 4 25 0 4 25 0 4 25 0 4 25
0 4 25 0 4 25 0 4 25 0 4 25 0 4 25 0 4 25 0 4 25 0 4 25 0 4 25 0 4 25
0 4 25 0 4 25 0 4 25 0 4 24 0 4 24 0 4 24 0 4 24 0 4 24 0 4 24 0 4 24
0 4 24 0 4 24 0 4 24 0 4 24 0 4 24 0 4 24 0 4 24 0 4 24 0 4 24 0 4 24
0 4 24 0 4 24 0 4 24 0 4 24 0 4 24 0 4 24 0 4 24 0 4 23 0 4 23 0 4 23
0 4 23 0 4 23 0 4 23 0 4 23 0 4 23 0 4 23 0 4 23 0 4 23 0 4 23 0 4 23
0 4 23 0 4 23 0 4 23 0 4 23 0 4 23 0 4 23 0 4 23 0 4 23 0 4 23 0 4 23
0 4 23 0 4 22 0 4 22 0 4 22 0 4 22 0 4 22 0 4 22 0 4 22 0 4 22 0 4 22
0 4 22 0 4 22 0 4 22 0 4 22 0 4 22 0 4 22 0 4 22 0 4 22 0 4 22 0 4 22
0 4 22 0 4 22 0 4 22 0 4 22 0 4
20 0 3 20 0 3 20 0 3 21 0 3 21 0 3 21 0 3 21 0 3 21 0 3 21 0 3 21 0 3
21 0 3 21 0 3 21 0 3 21 0 3 21 0 3 21 0 3 21 0 3 21 0 3 21 0 3 21 0 3
21 0 4 21 0 4 21 0 4 21 0 4 21 0 4 21 0 4 21 0 4 21 0 4 21 0 4 21 0 4
22 0 4 22 0 4 22 0 4 22 0 4 22 0 4 22 0 4 22 0 4 22 0 4 22 0 4 22 0 4
22 0 4 22 0 4 22 0 4 22 0 4 22 0 4 22 0 4 22 0 4 22 0 4 22 0 4 22 0 4
22 0 4 22 0 4 22 0 4 22 0 4 22 0 4 23 0 4 23 0 4 23 0 4 23 0 4 23 0 4
23 0 4 23 0 4 23 0 4 23 0 4 23 0 4 23 0 4 23 0 4 23 0 4 23 0 4 23 0 4
23 0 4 23 0 4 23 0 4 23 0 4 23 0 4 23 0 4 23 0 4 23 0 4 23 0 4 24 0 4
24 0 4 24 0 4 24 0 4 24 0 4 13 0 6 13 0 6 15 0 7 17 0 8 18 0 8 19 0 9
21 0 9 22 0 10 23 0 11 24 0 11 26 0 12 27 0 12 28 0 13 29 0 13 30 0 14
31 0 14 32 0 15 33 0 15 34 0 15 35 0 16 36 0 16 37 0 17 38 0 17 39 0
18 40 0 18 41 0 18 41 0 19 42 0 19 43 0 20 44 0 20 44 0 20 45 0 20 45
0 21 46 0 21 45 0 21 3 0 1 3 0 1 3 0 1 3 0 1 4 0 1 6 0 1 8 0 2 10 0 2
13 0 3 14 0 3 16 0 3 18 0 4 20 0 4 22 0 5 24 0 5 25 0 5 27 0 6 29 0 6
30 0 6 32 0 7 33 0 7 35 0 7 36 0 7 37 0 8 39 0 8 40 0 8 41 0 9 43 0 9
44 0 9 45 0 9 47 0 10 49 0 11 53 0 12 61 0 16 72 0 22 86 1 29 98 1 35
101 1 36 94 1 32 81 1 25 68 0 18 60 0 14 57 0 12 56 0 12 56 0 11 56 0
11 56 0 11 55 0 11 55 0 11 54 0 11 53 0 11 52 0 11 51 0 10 48 0 10 45
0 9 40 0 8 27 0 5 28 0 5 28 0 5 28 0 5 28 0 5 28 0 5 28 0 5 28 0 5 28
0 5 28 0 5 35 0 3 43 0 4 51 0 5 57 0 6 62 0 6 67 0 7 72 0 7 76 0 7 80
0 8 84 0 8 87 0 9 91 0 9 94 0 9 97 0 9 99 0 10 102 0 10 105 0 10 107 0
10 109 0 11 111 0 11 113 0 11 115 0 11 116 0 11 118 0 12 119 0 12 120
0 12 121 0 12 122 0 12 123 0 12 123 0 12 124 0 12 124 0 12 124 0 12
123 0 12 123 0 12 122 0 12 121 0 12 120 0 12 119 0 12 117 0 11 115 0
11 113 0 11 110 0 11 106 0 10 102 0 10 98 0 10 92 0 9 84 0 8 72 0 7 28
0 5 28 0 5 28 0 5 28 0 5 28 0 5 28 0 5 28 0 5 28 0 5 28 0 5 28 0 5 28
0 5 28 0 5 28 0 5 28 0 5 28 0 5 28 0 5 28 0 5 28 0 5 28 0 5 28 0 5 28
0 5 28 0 5 28 0 5 28 0 5 28 0 5 28 0 5 28 0 5 28 0 5 28 0 5 28 0 5 28
0 5 28 0 5 28 0 5 28 0 5 28 0 5 27 0 5 27 0 5 27 0 5 27 0 5 27 0 5 27
0 5 27 0 5 27 0 5 27 0 5 27 0 5 27 0 5 27 0 5 27 0 4 27 0 4 27 0 4 27
0 4 27 0 4 27 0 4 27 0 4 27 0 4 27 0 4 27 0 4 27 0 4 27 0 4 27 0 4 27
0 4 27 0 4 27 0 4 27 0 4 26 0 4 26 0 4 26 0 4 26 0 4 26 0 4 26 0 4 26
0 4 26 0 4 26 0 4 26 0 4 26 0 4 26 0 4 26 0 4 26 0 4 26 0 4 26 0 4 26
0 4 26 0 4 26 0 4 26 0 4 26 0 4 26 0 4 26 0 4 26 0 4 25 0 4 25 0 4 25
0 4 25 0 4 25 0 4 25 0 4 25 0 4 25 0 4 25 0 4 25 0 4 25 0 4 25 0 4 25
0 4 25 0 4 25 0 4 25 0 4 25 0 4 25 0 4 25 0 4 25 0 4 25 0 4 25 0 4 24
0 4 24 0 4 24 0 4 24 0 4 24 0 4 24 0 4 24 0 4 24 0 4 24 0 4 24 0 4 24
0 4 24 0 4 24 0 4 24 0 4 24 0 4 24 0 4 24 0 4 24 0 4 24 0 4 24 0 4 24
0 4 24 0 4 23 0 4 23 0 4 23 0 4 23 0 4 23 0 4 23 0 4 23 0 4 23 0 4 23
0 4 23 0 4 23 0 4 23 0 4 23 0 4 23 0 4 23 0 4 23 0 4 23 0 4 23 0 4 23
0 4 23 0 4 23 0 4 23 0 4 23 0 4 23 0 4 22 0 4 22 0 4 22 0 4 22 0 4 22
0 4 22 0 4 22 0 4 22 0 4 22 0 4 22 0 4
21 0 3 21 0 3 21 0 3 21 0 3 21 0 3 21 0 3 21 0 3 21 0 3 21 0 3 21 0 4
21 0 4 21 0 4 21 0 4 21 0 4 21 0 4 21 0 4 21 0 4 21 0 4 21 0 4 21 0 4
22 0 4 22 0 4 22 0 4 22 0 4 22 0 4 22 0 4 22 0 4 22 0 4 22 0 4 22 0 4
22 0 4 22 0 4 22 0 4 22 0 4 22 0 4 22 0 4 22 0 4 22 0 4 22 0 4 22 0 4
22 0 4 22 0 4 22 0 4 22 0 4 22 0 4 23 0 4 23 0 4 23 0 4 23 0 4 23 0 4
23 0 4 23 0 4 23 0 4 23 0 4 23 0 4 23 0 4 23 0 4 23 0 4 23 0 4 23 0 4
23 0 4 23 0 4 23 0 4 23 0 4 23 0 4 23 0 4 23 0 4 23 0 4 24 0 4 24 0 4
24 0 4 24 0 4 24 0 4 24 0 4 24 0 4 24 0 4 24 0 4 24 0 4 24 0 4 24 0 4
24 0 4 24 0 4 13 0 6 13 0 6 14 0 6 15 0 7 16 0 7 18 0 8 19 0 9 20 0 9
22 0 10 23 0 10 24 0 11 25 0 11 26 0 12 27 0 12 28 0 13 29 0 13 30 0
14 31 0 14 32 0 15 33 0 15 34 0 16 35 0 16 36 0 17 37 0 17 38 0 17 39
0 18 40 0 18 41 0 19 42 0 19 43 0 19 44 0 20 44 0 20 45 0 21 46 0 21
47 0 21 47 0 21 48 0 22 48 0 22 48 0 22 46 0 21 3 0 1 4 0 1 6 0 1 8 0
2 10 0 2 12 0 3 14 0 3 16 0 3 18 0 4 20 0 4 22 0 4 23 0 5 25 0 5 27 0
6 28 0 6 30 0 6 31 0 6 33 0 7 34 0 7 36 0 7 37 0 8 39 0 8 40 0 8 41 0
8 42 0 9 44 0 9 45 0 9 46 0 10 49 0 11 54 0 13 64 0 18 80 1 26 100 1
36 117 1 45 123 1 48 114 1 43 96 1 33 77 1 23 64 0 16 58 0 13 56 0 12
56 0 11 56 0 11 56 0 11 55 0 11 55 0 11 54 0 11 53 0 11 52 0 11 51 0
10 49 0 10 46 0 9 41 0 9 28 0 5 28 0 5 28 0 5 28 0 5 28 0 5 28 0 5 28
0 5 28 0 5 29 0 5 35 0 3 37 0 4 46 0 4 52 0 5 58 0 6 63 0 6 68 0 7 73
0 7 77 0 7 81 0 8 84 0 8 88 0 9 91 0 9 94 0 9 97 0 9 100 0 10 102 0 10
105 0 10 107 0 10 109 0 11 111 0 11 113 0 11 115 0 11 117 0 11 118 0
12 119 0 12 120 0 12 122 0 12 122 0 12 123 0 12 124 0 12 124 0 12 124
0 12 124 0 12 124 0 12 123 0 12 123 0 12 122 0 12 121 0 12 119 0 12
118 0 12 116 0 11 113 0 11 111 0 11 107 0 11 104 0 10 99 0 10 94 0 9
87 0 9 78 0 8 29 0 5 29 0 5 29 0 5 29 0 5 29 0 5 29 0 5 29 0 5 29 0 5
29 0 5 29 0 5 29 0 5 29 0 5 29 0 5 29 0 5 29 0 5 29 0 5 29 0 5 29 0 5
29 0 5 29 0 5 29 0 5 29 0 5 29 0 5 29 0 5 29 0 5 29 0 5 29 0 5 29 0 5
29 0 5 29 0 5 28 0 5 28 0 5 28 0 5 28 0 5 28 0 5 28 0 5 28 0 5 28 0 5
28 0 5 28 0 5 28 0 5 28 0 5 28 0 5 28 0 5 28 0 5 28 0 5 28 0 5 28 0 5
28 0 5 28 0 5 28 0 5 28 0 5 28 0 5 28 0 5 28 0 5 28 0 5 28 0 5 28 0 5
27 0 5 27 0 5 27 0 5 27 0 5 27 0 5 27 0 5 27 0 5 27 0 5 27 0 5 27 0 4
27 0 4 27 0 4 27 0 4 27 0 4 27 0 4 27 0 4 27 0 4 27 0 4 27 0 4 27 0 4
27 0 4 27 0 4 27 0 4 26 0 4 26 0 4 26 0 4 26 0 4 26 0 4 26 0 4 26 0 4
26 0 4 26 0 4 26 0 4 26 0 4 26 0 4 26 0 4 26 0 4 26 0 4 26 0 4 26 0 4
26 0 4 26 0 4 26 0 4 26 0 4 25 0 4 25 0 4 25 0 4 25 0 4 25 0 4 25 0 4
25 0 4 25 0 4 25 0 4 25 0 4 25 0 4 25 0 4 25 0 4 25 0 4 25 0 4 25 0 4
25 0 4 25 0 4 25 0 4 25 0 4 25 0 4 24 0 4 24 0 4 24 0 4 24 0 4 24 0 4
24 0 4 24 0 4 24 0 4 24 0 4 24 0 4 24 0 4 24 0 4 24 0 4 24 0 4 24 0 4
24 0 4 24 0 4 24 0 4 24 0 4 24 0 4 24 0 4 24 0 4 23 0 4 23 0 4 23 0 4
23 0 4 23 0 4 23 0 4 23 0 4 23 0 4 23 0 4 23 0 4 23 0 4 23 0 4 23 0 4
23 0 4 23 0 4 23 0 4 23 0 4 23 0 4 23 0 4 23 0 4 23 0 4
21 0 4 21 0 4 21 0 4 21 0 4 21 0 4 21 0 4 21 0 4 21 0 4 21 0 4 22 0 4
22 0 4 22 0 4 22 0 4 22 0 4 22 0 4 22 0 4 22 0 4 22 0 4 22 0 4 22 0 4
22 0 4 22 0 4 22 0 4 22 0 4 22 0 4 22 0 4 22 0 4 22 0 4 22 0 4 22 0 4
22 0 4 22 0 4 22 0 4 22 0 4 23 0 4 23 0 4 23 0 4 23 0 4 23 0 4 23 0 4
23 0 4 23 0 4 23 0 4 23 0 4 23 0 4 23 0 4 23 0 4 23 0 4 23 0 4 23 0 4
23 0 4 23 0 4 23 0 4 23 0 4 23 0 4 23 0 4 23 0 4 24 0 4 24 0 4 24 0 4
24 0 4 24 0 4 24 0 4 24 0 4 24 0 4 24 0 4 24 0 4 24 0 4 24 0 4 24 0 4
24 0 4 24 0 4 24 0 4 24 0 4 24 0 4 24 0 4 24 0 4 24 0 4 25 0 4 25 0 4
13 0 6 13 0 6 13 0 6 13 0 6 15 0 7 16 0 7 17 0 8 19 0 8 20 0 9 21 0 10
22 0 10 23 0 11 24 0 11 25 0 12 27 0 12 28 0 13 29 0 13 30 0 14 31 0
14 32 0 14 33 0 15 34 0 15 35 0 16 36 0 16 37 0 17 38 0 17 39 0 18 40
0 18 41 0 18 42 0 19 42 0 19 43 0 20 44 0 20 45 0 20 46 0 21 47 0 21
47 0 22 48 0 22 49 0 22 49 0 22 50 0 23 50 0 23 50 0 23 48 0 22 6 0 1
8 0 2 10 0 2 12 0 3 14 0 3 16 0 3 18 0 4 20 0 4 21 0 4 23 0 5 25 0 5
26 0 5 28 0 6 30 0 6 31 0 6 33 0 7 34 0 7 35 0 7 37 0 8 38 0 8 40 0 8
41 0 8 42 0 9 43 0 9 45 0 9 46 0 10 49 0 11 54 0 13 65 0 19 83 1 28
106 1 40 128 1 50 137 1 55 129 1 51 108 1 39 84 1 27 67 0 18 59 0 13
56 0 12 55 0 11 55 0 11 55 0 11 55 0 11 55 0 11 54 0 11 53 0 11 52 0
11 51 0 10 49 0 10 46 0 10 42 0 9 29 0 5 29 0 5 29 0 5 29 0 5 29 0 5
29 0 5 29 0 5 29 0 5 29 0 5 35 0 3 40 0 4 47 0 5 53 0 5 59 0 6 64 0 6
69 0 7 73 0 7 77 0 8 81 0 8 84 0 8 88 0 9 91 0 9 94 0 9 97 0 9 100 0
10 102 0 10 105 0 10 107 0 10 109 0 11 111 0 11 113 0 11 115 0 11 116
0 11 118 0 12 119 0 12 121 0 12 122 0 12 124 0 13 124 0 13 124 0 13
124 0 12 124 0 12 124 0 12 124 0 12 123 0 12 123 0 12 122 0 12 121 0
12 120 0 12 118 0 12 116 0 11 114 0 11 111 0 11 108 0 11 105 0 10 100
0 10 96 0 9 89 0 9 81 0 8 67 0 7 30 0 5 30 0 5 30 0 5 30 0 5 30 0 5 30
0 5 30 0 5 30 0 5 30 0 5 30 0 5 30 0 5 30 0 5 30 0 5 30 0 5 30 0 5 30
0 5 30 0 5 30 0 5 30 0 5 30 0 5 30 0 5 30 0 5 30 0 5 30 0 5 29 0 5 29
0 5 29 0 5 29 0 5 29 0 5 29 0 5 29 0 5 29 0 5 29 0 5 29 0 5 29 0 5 29
0 5 29 0 5 29 0 5 29 0 5 29 0 5 29 0 5 29 0 5 29 0 5 29 0 5 29 0 5 29
0 5 29 0 5 29 0 5 29 0 5 29 0 5 29 0 5 29 0 5 29 0 5 28 0 5 28 0 5 28
0 5 28 0 5 28 0 5 28 0 5 28 0 5 28 0 5 28 0 5 28 0 5 28 0 5 28 0 5 28
0 5 28 0 5 28 0 5 28 0 5 28 0 5 28 0 5 28 0 5 28 0 5 28 0 5 28 0 5 27
0 5 27 0 5 27 0 5 27 0 5 27 0 5 27 0 5 27 0 5 27 0 4 27 0 4 27 0 4 27
0 4 27 0 4 27 0 4 27 0 4 27 0 4 27 0 4 27 0 4 27 0 4 27 0 4 27 0 4 26
0 4 26 0 4 26 0 4 26 0 4 26 0 4 26 0 4 26 0 4 26 0 4 26 0 4 26 0 4 26
0 4 26 0 4 26 0 4 26 0 4 26 0 4 26 0 4 26 0 4 26 0 4 26 0 4 26 0 4 25
0 4 25 0 4 25 0 4 25 0 4 25 0 4 25 0 4 25 0 4 25 0 4 25 0 4 25 0 4 25
0 4 25 0 4 25 0 4 25 0 4 25 0 4 25 0 4 25 0 4 25 0 4 25 0 4 25 0 4 24
0 4 24 0 4 24 0 4 24 0 4 24 0 4 24 0 4 24 0 4 24 0 4 24 0 4 24 0 4 24
0 4 24 0 4 24 0 4 24 0 4 24 0 4 24 0 4 24 0 4 24 0 4 24 0 4 24 0 4 24
0 4 23 0 4 23 0 4 23 0 4 23 0 4 23 0 4 23 0 4 23 0 4 23 0 4 23 0 4
22 0 4 22 0 4 22 0 4 22 0 4 22 0 4 22 0 4 22 0 4 22 0 4 22 0 4 22 0 4
22 0 4 22 0 4 22 0 4 22 0 4 22 0 4 22 0 4 22 0 4 22 0 4 22 0 4 22 0 4
22 0 4 22 0 4 22 0 4 22 0 4 23 0 4 23 0 4 23 0 4 23 0 4 23 0 4 23 0 4
23 0 4 23 0 4 23 0 4 23 0 4 23 0 4 23 0 4 23 0 4 23 0 4 23 0 4 23 0 4
23 0 4 23 0 4 23 0 4 23 0 4 23 0 4 23 0 4 23 0 4 24 0 4 24 0 4 24 0 4
9 0 1 9 0 1 9 0 1 9 0 1 9 0 1 9 0 1 9 0 1 9 0 1 9 0 1 9 0 1 9 0 1 9 0
1 9 0 1 9 0 1 9 0 1 9 0 1 9 0 1 9 0 1 9 0 1 9 0 1 9 0 1 9 0 1 9 0 1 9
0 1 9 0 1 9 0 1 9 0 1 9 0 1 13 0 6 13 0 6 13 0 6 13 0 6 13 0 6 14 0 6
15 0 7 17 0 8 18 0 8 19 0 9 20 0 9 21 0 10 22 0 10 24 0 11 25 0 11 26
0 12 27 0 12 28 0 13 29 0 13 30 0 14 31 0 14 32 0 15 33 0 15 34 0 15
35 0 16 36 0 16 37 0 17 38 0 17 39 0 18 40 0 18 41 0 19 42 0 19 43 0
19 44 0 20 44 0 20 45 0 21 46 0 21 47 0 21 48 0 22 49 0 22 49 0 22 50
0 23 51 0 23 51 0 23 51 0 23 52 0 23 51 0 23 8 0 2 10 0 2 12 0 2 14 0
3 16 0 3 18 0 4 19 0 4 21 0 4 23 0 5 25 0 5 26 0 5 28 0 6 29 0 6 31 0
6 32 0 7 34 0 7 35 0 7 37 0 8 38 0 8 39 0 8 40 0 8 42 0 9 43 0 9 44 0
9 46 0 10 48 0 11 53 0 13 63 0 18 80 1 26 103 1 38 125 1 49 136 1 55
130 1 51 110 1 41 86 1 28 69 0 19 59 0 14 56 0 12 55 0 11 55 0 11 55 0
11 55 0 11 54 0 11 54 0 11 53 0 11 52 0 11 51 0 10 49 0 10 46 0 10 43
0 9 35 0 7 30 0 5 30 0 5 30 0 5 30 0 5 30 0 5 9 0 1 9 0 1 35 0 3 35 0
3 41 0 4 48 0 5 54 0 5 60 0 6 64 0 6 69 0 7 73 0 7 77 0 8 81 0 8 85 0
8 88 0 9 91 0 9 94 0 9 97 0 9 100 0 10 102 0 10 105 0 10 107 0 10 109
0 11 111 0 11 113 0 11 115 0 11 116 0 11 118 0 12 119 0 12 121 0 12
125 0 14 129 0 16 131 0 16 129 0 15 126 0 13 124 0 12 124 0 12 124 0
12 123 0 12 123 0 12 122 0 12 121 0 12 120 0 12 118 0 12 116 0 11 114
0 11 112 0 11 109 0 11 105 0 10 101 0 10 97 0 9 91 0 9 84 0 8 73 0 7
31 0 5 31 0 5 31 0 5 31 0 5 31 0 5 31 0 5 31 0 5 31 0 5 31 0 5 31 0 5
31 0 5 31 0 5 31 0 5 31 0 5 31 0 5 31 0 5 31 0 5 31 0 5 31 0 5 31 0 5
30 0 5 30 0 5 30 0 5 30 0 5 30 0 5 30 0 5 30 0 5 30 0 5 30 0 5 30 0 5
30 0 5 30 0 5 30 0 5 30 0 5 30 0 5 30 0 5 30 0 5 30 0 5 30 0 5 30 0 5
30 0 5 30 0 5 30 0 5 30 0 5 30 0 5 30 0 5 30 0 5 30 0 5 30 0 5 29 0 5
29 0 5 29 0 5 29 0 5 29 0 5 29 0 5 29 0 5 29 0 5 29 0 5 29 0 5 29 0 5
29 0 5 29 0 5 29 0 5 29 0 5 29 0 5 29 0 5 29 0 5 29 0 5 29 0 5 29 0 5
28 0 5 28 0 5 28 0 5 28 0 5 28 0 5 28 0 5 28 0 5 28 0 5 28 0 5 28 0 5
28 0 5 28 0 5 28 0 5 28 0 5 28 0 5 28 0 5 28 0 5 28 0 5 28 0 5 27 0 5
27 0 5 27 0 5 27 0 5 27 0 5 27 0 5 27 0 5 27 0 4 27 0 4 27 0 4 27 0 4
27 0 4 27 0 4 27 0 4 27 0 4 27 0 4 27 0 4 27 0 4 27 0 4 26 0 4 26 0 4
26 0 4 26 0 4 26 0 4 26 0 4 26 0 4 26 0 4 26 0 4 26 0 4 26 0 4 26 0 4
26 0 4 26 0 4 26 0 4 26 0 4 26 0 4 26 0 4 26 0 4 25 0 4 25 0 4 25 0 4
25 0 4 25 0 4 25 0 4 25 0 4 25 0 4 25 0 4 25 0 4 25 0 4 25 0 4 25 0 4
25 0 4 25 0 4 25 0 4 25 0 4 25 0 4 25 0 4 24 0 4 24 0 4 24 0 4 24 0 4
24 0 4 24 0 4 24 0 4 24 0 4 24 0 4 24 0 4 24 0 4 24 0 4 24 0 4 24 0 4
24 0 4 24 0 4 24 0 4 24 0 4 24 0 4
22 0 4 22 0 4 22 0 4 22 0 4 22 0 4 22 0 4 22 0 4 22 0 4 22 0 4 22 0 4
22 0 4 22 0 4 22 0 4 22 0 4 22 0 4 23 0 4 23 0 4 23 0 4 23 0 4 23 0 4
23 0 4 23 0 4 23 0 4 23 0 4 23 0 4 23 0 4 23 0 4 23 0 4 23 0 4 23 0 4
23 0 4 23 0 4 23 0 4 23 0 4 23 0 4 23 0 4 23 0 4 24 0 4 24 0 4 24 0 4
24 0 4 24 0 4 24 0 4 24 0 4 24 0 4 9 0 1 9 0 1 9 0 1 9 0 1 9 0 1 9 0 1
9 0 1 9 0 1 9 0 1 9 0 1 9 0 1 9 0 1 9 0 1 9 0 1 9 0 1 9 0 1 9 0 1 9 0
1 9 0 1 9 0 1 9 0 1 9 0 1 9 0 1 9 0 1 9 0 1 9 0 1 9 0 1 9 0 1 9 0 1 9
0 1 9 0 1 13 0 6 13 0 6 13 0 6 13 0 6 13 0 6 13 0 6 13 0 6 15 0 7 16 0
7 17 0 8 18 0 8 19 0 9 21 0 9 22 0 10 23 0 10 24 0 11 25 0 11 26 0 12
27 0 12 28 0 13 29 0 13 30 0 14 31 0 14 32 0 15 33 0 15 34 0 16 35 0
16 36 0 16 37 0 17 38 0 17 39 0 18 40 0 18 41 0 19 42 0 19 43 0 20 44
0 20 45 0 20 46 0 21 46 0 21 47 0 22 48 0 22 49 0 22 50 0 23 51 0 23
51 0 23 52 0 24 52 0 24 53 0 24 53 0 24 53 0 24 52 0 24 12 0 2 14 0 3
15 0 3 17 0 4 19 0 4 21 0 4 22 0 5 24 0 5 26 0 5 27 0 6 29 0 6 30 0 6
32 0 7 33 0 7 35 0 7 36 0 7 37 0 8 39 0 8 40 0 8 41 0 8 42 0 9 44 0 9
45 0 9 47 0 10 51 0 12 59 0 16 73 1 23 91 1 32 110 1 42 120 1 47 117 1
45 102 1 36 82 1 26 67 0 18 58 0 13 55 0 12 55 0 11 55 0 11 55 0 11 54
0 11 54 0 11 54 0 11 53 0 11 52 0 11 50 0 10 49 0 10 46 0 10 43 0 9 37
0 8 9 0 1 9 0 1 9 0 1 9 0 1 9 0 1 9 0 1 9 0 1 35 0 3 35 0 3 42 0 4 49
0 5 55 0 5 60 0 6 65 0 6 69 0 7 73 0 7 77 0 8 81 0 8 84 0 8 88 0 9 91
0 9 94 0 9 97 0 9 99 0 10 102 0 10 104 0 10 107 0 10 109 0 11 111 0 11
112 0 11 114 0 11 116 0 11 117 0 12 119 0 12 124 0 14 133 0 18 144 1
24 148 1 26 142 1 22 132 0 17 126 0 13 124 0 12 123 0 12 123 0 12 122
0 12 122 0 12 121 0 12 119 0 12 118 0 12 116 0 11 114 0 11 112 0 11
109 0 11 106 0 10 102 0 10 97 0 10 92 0 9 85 0 8 76 0 7 32 0 5 32 0 5
32 0 5 32 0 5 32 0 5 32 0 5 32 0 5 32 0 5 32 0 5 32 0 5 32 0 5 32 0 5
32 0 5 32 0 5 32 0 5 32 0 5 32 0 5 32 0 5 31 0 5 31 0 5 31 0 5 31 0 5
31 0 5 31 0 5 31 0 5 31 0 5 31 0 5 31 0 5 31 0 5 31 0 5 31 0 5 31 0 5
31 0 5 31 0 5 31 0 5 31 0 5 31 0 5 31 0 5 31 0 5 31 0 5 31 0 5 31 0 5
31 0 5 31 0 5 31 0 5 31 0 5 30 0 5 30 0 5 30 0 5 30 0 5 30 0 5 30 0 5
30 0 5 30 0 5 30 0 5 30 0 5 30 0 5 30 0 5 30 0 5 30 0 5 30 0 5 30 0 5
30 0 5 30 0 5 30 0 5 30 0 5 29 0 5 29 0 5 29 0 5 29 0 5 29 0 5 29 0 5
29 0 5 29 0 5 29 0 5 29 0 5 29 0 5 29 0 5 29 0 5 29 0 5 29 0 5 29 0 5
29 0 5 29 0 5 29 0 5 28 0 5 28 0 5 28 0 5 28 0 5 28 0 5 28 0 5 28 0 5
28 0 5 28 0 5 28 0 5 28 0 5 28 0 5 28 0 5 28 0 5 28 0 5 28 0 5 28 0 5
27 0 5 27 0 5 27 0 5 27 0 5 27 0 5 27 0 5 27 0 5 27 0 4 27 0 4 27 0 4
27 0 4 27 0 4 27 0 4 27 0 4 27 0 4 27 0 4 27 0 4 27 0 4 26 0 4 26 0 4
26 0 4 26 0 4 26 0 4 26 0 4 26 0 4 26 0 4 26 0 4 26 0 4 26 0 4 26 0 4
26 0 4 26 0 4 26 0 4 26 0 4 26 0 4 26 0 4 25 0 4 25 0 4 25 0 4 25 0 4
25 0 4 25 0 4 25 0 4 25 0 4 25 0 4 25 0 4 25 0 4 25 0 4 25 0 4 25 0 4
25 0 4 25 0 4 25 0 4 25 0 4 25 0 4 24 0 4 24 0 4 24 0 4 24 0 4 24 0 4
24 0 4 24 0 4 24 0 4
22 0 4 22 0 4 22 0 4 22 0 4 22 0 4 22 0 4 23 0 4 23 0 4 23 0 4 23 0 4
23 0 4 23 0 4 23 0 4 23 0 4 23 0 4 23 0 4 23 0 4 23 0 4 23 0 4 23 0 4
23 0 4 23 0 4 23 0 4 23 0 4 23 0 4 23 0 4 23 0 4 23 0 4 24 0 4 24 0 4
24 0 4 24 0 4 24 0 4 24 0 4 24 0 4 24 0 4 24 0 4 24 0 4 24 0 4 24 0 4
24 0 4 24 0 4 9 0 1 9 0 1 9 0 1 9 0 1 9 0 1 9 0 1 9 0 1 9 0 1 9 0 1 9
0 1 9 0 1 9 0 1 9 0 1 9 0 1 9 0 1 9 0 1 9 0 1 9 0 1 9 0 1 9 0 1 9 0 1
9 0 1 9 0 1 9 0 1 9 0 1 9 0 1 9 0 1 9 0 1 9 0 1 9 0 1 9 0 1 9 0 1 9 0
1 13 0 6 13 0 6 13 0 6 13 0 6 13 0 6 13 0 6 13 0 6 14 0 6 15 0 7 16 0
7 17 0 8 19 0 8 20 0 9 21 0 9 22 0 10 23 0 10 24 0 11 25 0 11 26 0 12
27 0 12 28 0 13 29 0 13 30 0 14 31 0 14 32 0 15 33 0 15 34 0 16 35 0
16 36 0 16 37 0 17 38 0 17 39 0 18 40 0 18 41 0 19 42 0 19 43 0 20 44
0 20 45 0 20 46 0 21 47 0 21 48 0 22 48 0 22 49 0 22 50 0 23 51 0 23
52 0 23 52 0 24 53 0 24 53 0 24 54 0 25 54 0 25 54 0 25 54 0 25 13 0 3
15 0 3 17 0 3 19 0 4 20 0 4 22 0 5 24 0 5 25 0 5 27 0 6 28 0 6 30 0 6
31 0 6 33 0 7 34 0 7 36 0 7 37 0 8 38 0 8 39 0 8 41 0 8 42 0 9 43 0 9
44 0 9 46 0 10 49 0 11 54 0 14 64 0 18 77 1 25 90 1 31 98 1 35 97 1 34
87 1 29 74 0 22 63 0 16 57 0 13 55 0 11 54 0 11 54 0 11 54 0 11 54 0
11 54 0 11 53 0 11 52 0 11 51 0 11 50 0 10 48 0 10 46 0 9 43 0 9 37 0
8 9 0 1 9 0 1 9 0 1 9 0 1 9 0 1 9 0 1 9 0 1 35 0 3 35 0 3 43 0 4 49 0
5 55 0 5 60 0 6 65 0 6 69 0 7 73 0 7 77 0 8 81 0 8 84 0 8 87 0 9 91 0
9 93 0 9 96 0 9 99 0 10 101 0 10 104 0 10 106 0 10 108 0 11 110 0 11
112 0 11 114 0 11 115 0 11 117 0 12 120 0 12 127 0 16 143 1 24 163 1
34 172 1 38 161 1 32 141 1 22 128 0 15 124 0 12 123 0 12 122 0 12 122
0 12 121 0 12 120 0 12 119 0 12 117 0 11 116 0 11 114 0 11 111 0 11
109 0 11 106 0 10 102 0 10 98 0 10 92 0 9 86 0 8 78 0 8 62 0 6 33 0 5
33 0 5 33 0 5 33 0 5 33 0 5 33 0 5 33 0 5 33 0 5 33 0 5 33 0 5 33 0 5
33 0 5 33 0 5 33 0 5 33 0 5 32 0 5 32 0 5 32 0 5 32 0 5 32 0 5 32 0 5
32 0 5 32 0 5 32 0 5 32 0 5 32 0 5 32 0 5 32 0 5 32 0 5 32 0 5 32 0 5
32 0 5 32 0 5 32 0 5 32 0 5 32 0 5 32 0 5 32 0 5 32 0 5 32 0 5 32 0 5
32 0 5 32 0 5 31 0 5 31 0 5 31 0 5 31 0 5 31 0 5 31 0 5 31 0 5 31 0 5
31 0 5 31 0 5 31 0 5 31 0 5 31 0 5 31 0 5 31 0 5 31 0 5 31 0 5 31 0 5
31 0 5 31 0 5 30 0 5 30 0 5 30 0 5 30 0 5 30 0 5 30 0 5 30 0 5 30 0 5
30 0 5 30 0 5 30 0 5 30 0 5 30 0 5 30 0 5 30 0 5 30 0 5 30 0 5 29 0 5
29 0 5 29 0 5 29 0 5 29 0 5 29 0 5 29 0 5 29 0 5 29 0 5 29 0 5 29 0 5
29 0 5 29 0 5 29 0 5 29 0 5 29 0 5 29 0 5 28 0 5 28 0 5 28 0 5 28 0 5
28 0 5 28 0 5 28 0 5 28 0 5 28 0 5 28 0 5 28 0 5 28 0 5 28 0 5 28 0 5
28 0 5 28 0 5 27 0 5 27 0 5 27 0 5 27 0 5 27 0 5 27 0 5 27 0 4 27 0 4
27 0 4 27 0 4 27 0 4 27 0 4 27 0 4 27 0 4 27 0 4 27 0 4 27 0 4 26 0 4
26 0 4 26 0 4 26 0 4 26 0 4 26 0 4 26 0 4 26 0 4 26 0 4 26 0 4 26 0 4
26 0 4 26 0 4 26 0 4 26 0 4 26 0 4 26 0 4 26 0 4 25 0 4 25 0 4 25 0 4
25 0 4 25 0 4 25 0 4 25 0 4 25 0 4 25 0 4 25 0 4 25 0 4 25 0 4 25 0 4
25 0 4 25 0 4 25 0 4
23 0 4 23 0 4 23 0 4 23 0 4 23 0 4 23 0 4 23 0 4 23 0 4 23 0 4 23 0 4
23 0 4 23 0 4 23 0 4 23 0 4 23 0 4 23 0 4 23 0 4 23 0 4 23 0 4 24 0 4
24 0 4 24 0 4 24 0 4 24 0 4 24 0 4 24 0 4 24 0 4 24 0 4 24 0 4 24 0 4
24 0 4 24 0 4 24 0 4 24 0 4 24 0 4 24 0 4 24 0 4 24 0 4 24 0 4 24 0 4
9 0 1 9 0 1 9 0 1 9 0 1 9 0 1 9 0 1 9 0 1 9 0 1 9 0 1 9 0 1 9 0 1 9 0
1 9 0 1 9 0 1 9 0 1 9 0 1 9 0 1 9 0 1 9 0 1 9 0 1 9 0 1 9 0 1 9 0 1 9
0 1 9 0 1 9 0 1 9 0 1 9 0 1 9 0 1 9 0 1 9 0 1 9 0 1 9 0 1 9 0 1 13 0 6
13 0 6 13 0 6 13 0 6 13 0 6 13 0 6 13 0 6 13 0 6 14 0 6 15 0 7 17 0 8
18 0 8 19 0 9 20 0 9 21 0 10 22 0 10 23 0 11 24 0 11 25 0 11 26 0 12
27 0 12 28 0 13 29 0 13 30 0 14 31 0 14 32 0 15 33 0 15 34 0 16 35 0
16 36 0 17 37 0 17 38 0 17 39 0 18 40 0 18 41 0 19 42 0 19 43 0 20 44
0 20 45 0 20 46 0 21 47 0 21 48 0 22 48 0 22 49 0 22 50 0 23 51 0 23
52 0 24 53 0 24 53 0 24 54 0 25 54 0 25 55 0 25 55 0 25 55 0 25 55 0
25 54 0 24 16 0 3 18 0 4 20 0 4 22 0 4 23 0 5 25 0 5 26 0 5 28 0 6 29
0 6 31 0 6 32 0 7 34 0 7 35 0 7 36 0 7 38 0 8 39 0 8 40 0 8 41 0 9 42
0 9 44 0 9 45 0 9 47 0 10 50 0 12 56 0 14 64 0 18 72 0 22 77 1 24 77 1
24 72 0 21 64 0 17 58 0 14 55 0 12 54 0 11 53 0 11 53 0 11 53 0 11 53
0 11 53 0 11 52 0 11 52 0 11 51 0 10 50 0 10 48 0 10 46 0 9 43 0 9 37
0 8 9 0 1 9 0 1 9 0 1 9 0 1 9 0 1 9 0 1 9 0 1 35 0 3 36 0 4 43 0 4 49
0 5 55 0 5 60 0 6 65 0 6 69 0 7 73 0 7 77 0 8 80 0 8 84 0 8 87 0 9 90
0 9 93 0 9 96 0 9 98 0 10 101 0 10 103 0 10 105 0 10 107 0 11 109 0 11
111 0 11 113 0 11 114 0 11 116 0 11 119 0 12 127 0 16 146 1 25 170 1
38 182 1 44 170 1 37 146 1 24 129 0 16 123 0 13 122 0 12 122 0 12 121
0 12 120 0 12 119 0 12 118 0 12 117 0 11 115 0 11 113 0 11 111 0 11
108 0 11 105 0 10 102 0 10 98 0 10 93 0 9 87 0 8 79 0 8 66 0 6 34 0 6
34 0 6 34 0 6 34 0 6 34 0 6 34 0 6 34 0 6 34 0 6 34 0 6 34 0 6 34 0 6
34 0 6 34 0 6 34 0 6 34 0 6 33 0 6 33 0 6 33 0 6 33 0 6 33 0 6 33 0 6
33 0 6 33 0 6 33 0 6 33 0 6 33 0 6 33 0 5 33 0 5 33 0 5 33 0 5 33 0 5
33 0 5 33 0 5 33 0 5 33 0 5 33 0 5 33 0 5 33 0 5 33 0 5 33 0 5 33 0 5
33 0 5 32 0 5 32 0 5 32 0 5 32 0 5 32 0 5 32 0 5 32 0 5 32 0 5 32 0 5
32 0 5 32 0 5 32 0 5 32 0 5 32 0 5 32 0 5 32 0 5 32 0 5 32 0 5 31 0 5
31 0 5 31 0 5 31 0 5 31 0 5 31 0 5 31 0 5 31 0 5 31 0 5 31 0 5 31 0 5
31 0 5 31 0 5 31 0 5 31 0 5 31 0 5 31 0 5 30 0 5 30 0 5 30 0 5 30 0 5
30 0 5 30 0 5 30 0 5 30 0 5 30 0 5 30 0 5 30 0 5 30 0 5 30 0 5 30 0 5
30 0 5 30 0 5 29 0 5 29 0 5 29 0 5 29 0 5 29 0 5 29 0 5 29 0 5 29 0 5
29 0 5 29 0 5 29 0 5 29 0 5 29 0 5 29 0 5 29 0 5 28 0 5 28 0 5 28 0 5
28 0 5 28 0 5 28 0 5 28 0 5 28 0 5 28 0 5 28 0 5 28 0 5 28 0 5 28 0 5
28 0 5 28 0 5 28 0 5 27 0 5 27 0 5 27 0 5 27 0 5 27 0 5 27 0 5 27 0 4
27 0 4 27 0 4 27 0 4 27 0 4 27 0 4 27 0 4 27 0 4 27 0 4 27 0 4 27 0 4
26 0 4 26 0 4 26 0 4 26 0 4 26 0 4 26 0 4 26 0 4 26 0 4 26 0 4 26 0 4
26 0 4 26 0 4 26 0 4 26 0 4 26 0 4 26 0 4 26 0 4 25 0 4 25 0 4 25 0 4
25 0 4 25 0 4 25 0 4
23 0 4 23 0 4 23 0 4 23 0 4 23 0 4 23 0 4 23 0 4 23 0 4 23 0 4 23 0 4
23 0 4 24 0 4 24 0 4 24 0 4 24 0 4 24 0 4 24 0 4 24 0 4 24 0 4 24 0 4
24 0 4 24 0 4 24 0 4 24 0 4 24 0 4 24 0 4 24 0 4 24 0 4 24 0 4 24 0 4
24 0 4 25 0 4 25 0 4 25 0 4 25 0 4 25 0 4 25 0 4 25 0 4 25 0 4 9 0 1 9
0 1 9 0 1 9 0 1 9 0 1 9 0 1 9 0 1 9 0 1 9 0 1 9 0 1 9 0 1 9 0 1 9 0 1
9 0 1 9 0 1 9 0 1 9 0 1 9 0 1 9 0 1 9 0 1 9 0 1 9 0 1 9 0 1 9 0 1 9 0
1 9 0 1 9 0 1 9 0 1 9 0 1 9 0 1 9 0 1 9 0 1 9 0 1 13 0 6 13 0 6 13 0 6
13 0 6 13 0 6 13 0 6 13 0 6 13 0 6 13 0 6 13 0 6 14 0 7 16 0 7 17 0 8
18 0 8 19 0 9 20 0 9 21 0 10 22 0 10 23 0 11 24 0 11 25 0 11 26 0 12
27 0 12 28 0 13 29 0 13 30 0 14 31 0 14 32 0 15 33 0 15 34 0 16 35 0
16 36 0 16 37 0 17 38 0 17 39 0 18 40 0 18 41 0 19 42 0 19 43 0 20 44
0 20 45 0 20 46 0 21 47 0 21 48 0 22 48 0 22 49 0 22 50 0 23 51 0 23
52 0 24 53 0 24 53 0 24 54 0 25 55 0 25 55 0 25 56 0 25 56 0 26 56 0
26 56 0 26 55 0 25 18 0 4 19 0 4 21 0 4 23 0 5 24 0 5 26 0 5 27 0 6 29
0 6 30 0 6 32 0 7 33 0 7 34 0 7 36 0 7 37 0 8 38 0 8 40 0 8 41 0 8 42
0 9 43 0 9 44 0 9 46 0 10 48 0 10 51 0 12 55 0 13 59 0 15 62 0 17 63 0
17 60 0 16 57 0 14 55 0 12 53 0 11 53 0 11 53 0 11 53 0 11 53 0 11 53
0 11 52 0 11 52 0 11 51 0 11 50 0 10 49 0 10 47 0 10 45 0 9 42 0 9 37
0 8 9 0 1 9 0 1 9 0 1 9 0 1 9 0 1 9 0 1 35 0 3 35 0 3 36 0 4 43 0 4 49
0 5 55 0 5 60 0 6 64 0 6 68 0 7 72 0 7 76 0 7 80 0 8 83 0 8 86 0 8 89
0 9 92 0 9 95 0 9 98 0 10 100 0 10 102 0 10 105 0 10 107 0 10 109 0 11
110 0 11 112 0 11 114 0 11 115 0 11 118 0 12 124 0 15 138 1 22 157 1
31 167 1 36 158 1 32 140 1 22 127 0 15 122 0 12 121 0 12 121 0 12 120
0 12 120 0 12 119 0 12 118 0 11 116 0 11 115 0 11 113 0 11 110 0 11
108 0 11 105 0 10 101 0 10 97 0 10 93 0 9 87 0 8 79 0 8 68 0 7 35 0 6
35 0 6 35 0 6 35 0 6 35 0 6 35 0 6 35 0 6 35 0 6 35 0 6 35 0 6 35 0 6
35 0 6 35 0 6 35 0 6 35 0 6 35 0 6 34 0 6 34 0 6 34 0 6 34 0 6 34 0 6
34 0 6 34 0 6 34 0 6 34 0 6 34 0 6 34 0 6 34 0 6 34 0 6 34 0 6 34 0 6
34 0 6 34 0 6 34 0 6 34 0 6 34 0 6 34 0 6 34 0 6 34 0 6 34 0 6 34 0 6
33 0 6 33 0 6 33 0 6 33 0 6 33 0 6 33 0 6 33 0 5 33 0 5 33 0 5 33 0 5
33 0 5 33 0 5 33 0 5 33 0 5 33 0 5 33 0 5 33 0 5 33 0 5 32 0 5 32 0 5
32 0 5 32 0 5 32 0 5 32 0 5 32 0 5 32 0 5 32 0 5 32 0 5 32 0 5 32 0 5
32 0 5 32 0 5 32 0 5 32 0 5 31 0 5 31 0 5 31 0 5 31 0 5 31 0 5 31 0 5
31 0 5 31 0 5 31 0 5 31 0 5 31 0 5 31 0 5 31 0 5 31 0 5 31 0 5 30 0 5
30 0 5 30 0 5 30 0 5 30 0 5 30 0 5 30 0 5 30 0 5 30 0 5 30 0 5 30 0 5
30 0 5 30 0 5 30 0 5 29 0 5 29 0 5 29 0 5 29 0 5 29 0 5 29 0 5 29 0 5
29 0 5 29 0 5 29 0 5 29 0 5 29 0 5 29 0 5 29 0 5 29 0 5 28 0 5 28 0 5
28 0 5 28 0 5 28 0 5 28 0 5 28 0 5 28 0 5 28 0 5 28 0 5 28 0 5 28 0 5
28 0 5 28 0 5 28 0 5 28 0 5 27 0 5 27 0 5 27 0 5 27 0 5 27 0 5 27 0 5
27 0 4 27 0 4 27 0 4 27 0 4 27 0 4 27 0 4 27 0 4 27 0 4 27 0 4 27 0 4
26 0 4 26 0 4 26 0 4 26 0 4 26 0 4 26 0 4 26 0 4 26 0 4 26 0 4 26 0 4
26 0 4 26 0 4 26 0 4
23 0 4 23 0 4 24 0 4 24 0 4 24 0 4 24 0 4 24 0 4 24 0 4 24 0 4 24 0 4
24 0 4 24 0 4 24 0 4 24 0 4 24 0 4 24 0 4 24 0 4 24 0 4 24 0 4 24 0 4
24 0 4 24 0 4 24 0 4 25 0 4 25 0 4 25 0 4 25 0 4 25 0 4 25 0 4 25 0 4
25 0 4 25 0 4 25 0 4 25 0 4 25 0 4 25 0 4 25 0 4 25 0 4 25 0 4 9 0 1 9
0 1 9 0 1 9 0 1 9 0 1 9 0 1 9 0 1 9 0 1 9 0 1 9 0 1 9 0 1 9 0 1 9 0 1
9 0 1 9 0 1 9 0 1 9 0 1 9 0 1 9 0 1 9 0 1 9 0 1 9 0 1 9 0 1 9 0 1 9 0
1 9 0 1 9 0 1 9 0 1 9 0 1 9 0 1 9 0 1 9 0 1 13 0 6 13 0 6 13 0 6 13 0
6 13 0 6 13 0 6 13 0 6 13 0 6 13 0 6 13 0 6 13 0 6 15 0 7 16 0 7 17 0
8 18 0 8 19 0 9 20 0 9 21 0 10 22 0 10 23 0 11 24 0 11 25 0 11 26 0 12
27 0 12 28 0 13 29 0 13 30 0 14 31 0 14 32 0 15 33 0 15 34 0 16 35 0
16 36 0 16 37 0 17 38 0 17 39 0 18 40 0 18 41 0 19 42 0 19 43 0 20 44
0 20 45 0 20 46 0 21 47 0 21 48 0 22 48 0 22 49 0 22 50 0 23 51 0 23
52 0 24 53 0 24 54 0 24 54 0 25 55 0 25 56 0 25 56 0 26 57 0 26 57 0
26 57 0 26 57 0 26 56 0 26 19 0 4 21 0 4 22 0 5 24 0 5 25 0 5 27 0 6
28 0 6 30 0 6 31 0 6 33 0 7 34 0 7 35 0 7 36 0 8 38 0 8 39 0 8 40 0 8
41 0 8 42 0 9 43 0 9 45 0 9 46 0 10 48 0 10 50 0 11 52 0 12 54 0 13 54
0 13 54 0 12 53 0 12 52 0 11 52 0 11 52 0 11 52 0 11 52 0 11 52 0 11
52 0 11 52 0 11 51 0 11 50 0 10 50 0 10 48 0 10 47 0 10 45 0 9 41 0 9
37 0 8 9 0 1 9 0 1 9 0 1 9 0 1 9 0 1 9 0 1 35 0 3 35 0 3 36 0 4 43 0 4
49 0 5 54 0 5 59 0 6 64 0 6 68 0 7 72 0 7 75 0 7 79 0 8 82 0 8 85 0 8
88 0 9 91 0 9 94 0 9 97 0 9 99 0 10 101 0 10 104 0 10 106 0 10 108 0
11 109 0 11 111 0 11 113 0 11 114 0 11 116 0 12 119 0 13 127 0 16 136
0 21 142 1 24 138 1 22 130 0 17 123 0 13 121 0 12 120 0 12 120 0 12
119 0 12 119 0 12 118 0 12 117 0 11 115 0 11 114 0 11 112 0 11 110 0
11 107 0 10 104 0 10 101 0 10 97 0 9 92 0 9 86 0 8 79 0 8 69 0 7 36 0
6 36 0 6 36 0 6 36 0 6 36 0 6 36 0 6 36 0 6 36 0 6 36 0 6 36 0 6 36 0
6 36 0 6 36 0 6 36 0 6 36 0 6 36 0 6 36 0 6 36 0 6 35 0 6 35 0 6 35 0
6 35 0 6 35 0 6 35 0 6 35 0 6 35 0 6 35 0 6 35 0 6 35 0 6 35 0 6 35 0
6 35 0 6 35 0 6 35 0 6 35 0 6 35 0 6 35 0 6 35 0 6 35 0 6 35 0 6 35 0
6 34 0 6 34 0 6 34 0 6 34 0 6 34 0 6 34 0 6 34 0 6 34 0 6 34 0 6 34 0
6 34 0 6 34 0 6 34 0 6 34 0 6 34 0 6 34 0 6 34 0 6 33 0 6 33 0 6 33 0
6 33 0 6 33 0 6 33 0 5 33 0 5 33 0 5 33 0 5 33 0 5 33 0 5 33 0 5 33 0
5 33 0 5 33 0 5 32 0 5 32 0 5 32 0 5 32 0 5 32 0 5 32 0 5 32 0 5 32 0
5 32 0 5 32 0 5 32 0 5 32 0 5 32 0 5 32 0 5 31 0 5 31 0 5 31 0 5 31 0
5 31 0 5 31 0 5 31 0 5 31 0 5 31 0 5 31 0 5 31 0 5 31 0 5 31 0 5 31 0
5 30 0 5 30 0 5 30 0 5 30 0 5 30 0 5 30 0 5 30 0 5 30 0 5 30 0 5 30 0
5 30 0 5 30 0 5 30 0 5 30 0 5 29 0 5 29 0 5 29 0 5 29 0 5 29 0 5 29 0
5 29 0 5 29 0 5 29 0 5 29 0 5 29 0 5 29 0 5 29 0 5 29 0 5 28 0 5 28 0
5 28 0 5 28 0 5 28 0 5 28 0 5 28 0 5 28 0 5 28 0 5 28 0 5 28 0 5 28 0
5 28 0 5 28 0 5 28 0 5 27 0 5 27 0 5 27 0 5 27 0 5 27 0 5 27 0 5 27 0
4 27 0 4 27 0 4 27 0 4 27 0 4 27 0 4 27 0 4 27 0 4 27 0 4 27 0 4 26 0
4 26 0 4 26 0 4 26 0 4
24 0 4 24 0 4 24 0 4 24 0 4 24 0 4 24 0 4 24 0 4 24 0 4 24 0 4 24 0 4
24 0 4 24 0 4 24 0 4 24 0 4 24 0 4 25 0 4 25 0 4 25 0 4 25 0 4 25 0 4
25 0 4 25 0 4 25 0 4 25 0 4 25 0 4 25 0 4 25 0 4 25 0 4 25 0 4 25 0 4
25 0 4 25 0 4 25 0 4 26 0 4 26 0 4 26 0 4 26 0 4 26 0 4 26 0 4 9 0 1 9
0 1 9 0 1 9 0 1 9 0 1 9 0 1 9 0 1 9 0 1 9 0 1 9 0 1 9 0 1 9 0 1 9 0 1
9 0 1 9 0 1 9 0 1 9 0 1 9 0 1 9 0 1 9 0 1 9 0 1 9 0 1 9 0 1 9 0 1 9 0
1 9 0 1 9 0 1 9 0 1 9 0 1 9 0 1 9 0 1 13 0 6 13 0 6 13 0 6 13 0 6 13 0
6 13 0 6 13 0 6 13 0 6 13 0 6 13 0 6 13 0 6 14 0 6 15 0 7 16 0 7 17 0
8 18 0 8 19 0 9 20 0 9 21 0 10 22 0 10 23 0 11 24 0 11 25 0 11 26 0 12
27 0 12 28 0 13 29 0 13 30 0 14 31 0 14 32 0 15 33 0 15 34 0 16 35 0
16 36 0 16 37 0 17 38 0 17 39 0 18 40 0 18 41 0 19 42 0 19 43 0 19 44
0 20 45 0 20 46 0 21 47 0 21 47 0 22 48 0 22 49 0 22 50 0 23 51 0 23
52 0 24 53 0 24 54 0 24 54 0 25 55 0 25 56 0 25 56 0 26 57 0 26 58 0
26 58 0 26 58 0 26 58 0 26 57 0 26 20 0 4 22 0 4 23 0 5 25 0 5 26 0 5
28 0 6 29 0 6 30 0 6 32 0 7 33 0 7 34 0 7 36 0 7 37 0 8 38 0 8 39 0 8
40 0 8 42 0 9 43 0 9 44 0 9 45 0 9 46 0 10 47 0 10 48 0 10 49 0 11 50
0 11 50 0 11 50 0 11 51 0 11 51 0 10 51 0 10 51 0 11 51 0 11 51 0 11
51 0 11 51 0 10 50 0 10 50 0 10 49 0 10 47 0 10 46 0 9 44 0 9 41 0 8
36 0 7 9 0 1 9 0 1 9 0 1 9 0 1 9 0 1 9 0 1 35 0 3 35 0 3 36 0 4 43 0 4
48 0 5 54 0 5 58 0 6 63 0 6 67 0 7 71 0 7 75 0 7 78 0 8 81 0 8 85 0 8
88 0 9 90 0 9 93 0 9 96 0 9 98 0 10 100 0 10 102 0 10 105 0 10 106 0
10 108 0 11 110 0 11 111 0 11 113 0 11 114 0 11 116 0 12 119 0 13 123
0 14 125 0 15 124 0 15 122 0 13 120 0 12 119 0 12 119 0 12 119 0 12
118 0 12 117 0 11 117 0 11 115 0 11 114 0 11 113 0 11 111 0 11 109 0
11 106 0 10 103 0 10 100 0 10 96 0 9 91 0 9 86 0 8 79 0 8 69 0 7 37 0
6 37 0 6 37 0 6 37 0 6 37 0 6 37 0 6 37 0 6 37 0 6 37 0 6 37 0 6 37 0
6 37 0 6 37 0 6 37 0 6 37 0 6 37 0 6 37 0 6 37 0 6 37 0 6 37 0 6 37 0
6 36 0 6 36 0 6 36 0 6 36 0 6 36 0 6 36 0 6 36 0 6 36 0 6 36 0 6 36 0
6 36 0 6 36 0 6 36 0 6 36 0 6 36 0 6 36 0 6 36 0 6 36 0 6 36 0 6 36 0
6 35 0 6 35 0 6 35 0 6 35 0 6 35 0 6 35 0 6 35 0 6 35 0 6 35 0 6 35 0
6 35 0 6 35 0 6 35 0 6 35 0 6 35 0 6 35 0 6 34 0 6 34 0 6 34 0 6 34 0
6 34 0 6 34 0 6 34 0 6 34 0 6 34 0 6 34 0 6 34 0 6 34 0 6 34 0 6 34 0
6 33 0 6 33 0 6 33 0 6 33 0 6 33 0 6 33 0 5 33 0 5 33 0 5 33 0 5 33 0
5 33 0 5 33 0 5 33 0 5 33 0 5 32 0 5 32 0 5 32 0 5 32 0 5 32 0 5 32 0
5 32 0 5 32 0 5 32 0 5 32 0 5 32 0 5 32 0 5 32 0 5 31 0 5 31 0 5 31 0
5 31 0 5 31 0 5 31 0 5 31 0 5 31 0 5 31 0 5 31 0 5 31 0 5 31 0 5 31 0
5 30 0 5 30 0 5 30 0 5 30 0 5 30 0 5 30 0 5 30 0 5 30 0 5 30 0 5 30 0
5 30 0 5 30 0 5 30 0 5 30 0 5 29 0 5 29 0 5 29 0 5 29 0 5 29 0 5 29 0
5 29 0 5 29 0 5 29 0 5 29 0 5 29 0 5 29 0 5 29 0 5 29 0 5 28 0 5 28 0
5 28 0 5 28 0 5 28 0 5 28 0 5 28 0 5 28 0 5 28 0 5 28 0 5 28 0 5 28 0
5 28 0 5 28 0 5 28 0 5 27 0 5 27 0 5 27 0 5 27 0 5 27 0 5 27 0 5 27 0
4 27 0 4 27 0 4 27 0 4
24 0 4 24 0 4 24 0 4 24 0 4 24 0 4 24 0 4 24 0 4 25 0 4 25 0 4 25 0 4
25 0 4 25 0 4 25 0 4 25 0 4 25 0 4 25 0 4 25 0 4 25 0 4 25 0 4 25 0 4
25 0 4 25 0 4 25 0 4 25 0 4 25 0 4 25 0 4 26 0 4 26 0 4 26 0 4 26 0 4
26 0 4 26 0 4 26 0 4 26 0 4 26 0 4 26 0 4 26 0 4 26 0 4 26 0 4 26 0 4
9 0 1 9 0 1 9 0 1 9 0 1 9 0 1 9 0 1 9 0 1 9 0 1 9 0 1 9 0 1 9 0 1 9 0
1 9 0 1 9 0 1 9 0 1 9 0 1 9 0 1 9 0 1 9 0 1 9 0 1 9 0 1 9 0 1 9 0 1 9
0 1 9 0 1 9 0 1 9 0 1 9 0 1 9 0 1 13 0 6 13 0 6 13 0 6 13 0 6 13 0 6
13 0 6 13 0 6 13 0 6 13 0 6 13 0 6 13 0 6 13 0 6 14 0 6 15 0 7 16 0 7
17 0 8 18 0 8 19 0 9 20 0 9 21 0 10 22 0 10 23 0 11 24 0 11 25 0 11 26
0 12 27 0 12 28 0 13 29 0 13 30 0 14 31 0 14 32 0 15 33 0 15 34 0 15
35 0 16 36 0 16 37 0 17 38 0 17 39 0 18 40 0 18 41 0 19 42 0 19 43 0
19 44 0 20 44 0 20 45 0 21 46 0 21 47 0 22 48 0 22 49 0 22 50 0 23 51
0 23 52 0 24 53 0 24 53 0 24 54 0 25 55 0 25 56 0 25 56 0 26 57 0 26
58 0 26 58 0 26 59 0 27 59 0 27 59 0 27 58 0 26 21 0 4 22 0 5 24 0 5
25 0 5 27 0 6 28 0 6 30 0 6 31 0 6 32 0 7 34 0 7 35 0 7 36 0 7 37 0 8
39 0 8 40 0 8 41 0 8 42 0 9 43 0 9 44 0 9 45 0 9 46 0 9 47 0 10 47 0
10 48 0 10 49 0 10 49 0 10 49 0 10 50 0 10 50 0 10 50 0 10 50 0 10 50
0 10 50 0 10 50 0 10 49 0 10 49 0 10 48 0 10 47 0 10 45 0 9 43 0 9 40
0 8 35 0 7 9 0 1 9 0 1 9 0 1 9 0 1 9 0 1 9 0 1 35 0 3 35 0 3 35 0 3 42
0 4 48 0 5 53 0 5 58 0 6 62 0 6 66 0 6 70 0 7 74 0 7 77 0 8 80 0 8 83
0 8 86 0 8 89 0 9 92 0 9 94 0 9 97 0 9 99 0 10 101 0 10 103 0 10 105 0
10 107 0 10 109 0 11 110 0 11 111 0 11 113 0 11 114 0 11 115 0 12 117
0 12 118 0 12 118 0 12 118 0 12 118 0 12 118 0 12 117 0 11 117 0 11
117 0 11 116 0 11 115 0 11 114 0 11 113 0 11 111 0 11 109 0 11 107 0
10 105 0 10 102 0 10 99 0 10 95 0 9 90 0 9 85 0 8 78 0 8 69 0 7 38 0 6
38 0 6 38 0 6 38 0 6 38 0 6 38 0 6 38 0 6 38 0 6 38 0 6 38 0 6 38 0 6
38 0 6 38 0 6 38 0 6 38 0 6 38 0 6 38 0 6 38 0 6 38 0 6 38 0 6 38 0 6
38 0 6 38 0 6 37 0 6 37 0 6 37 0 6 37 0 6 37 0 6 37 0 6 37 0 6 37 0 6
37 0 6 37 0 6 37 0 6 37 0 6 37 0 6 37 0 6 37 0 6 37 0 6 37 0 6 37 0 6
37 0 6 36 0 6 36 0 6 36 0 6 36 0 6 36 0 6 36 0 6 36 0 6 36 0 6 36 0 6
36 0 6 36 0 6 36 0 6 36 0 6 36 0 6 36 0 6 35 0 6 35 0 6 35 0 6 35 0 6
35 0 6 35 0 6 35 0 6 35 0 6 35 0 6 35 0 6 35 0 6 35 0 6 35 0 6 35 0 6
34 0 6 34 0 6 34 0 6 34 0 6 34 0 6 34 0 6 34 0 6 34 0 6 34 0 6 34 0 6
34 0 6 34 0 6 33 0 6 33 0 6 33 0 6 33 0 6 33 0 5 33 0 5 33 0 5 33 0 5
33 0 5 33 0 5 33 0 5 33 0 5 33 0 5 32 0 5 32 0 5 32 0 5 32 0 5 32 0 5
32 0 5 32 0 5 32 0 5 32 0 5 32 0 5 32 0 5 32 0 5 31 0 5 31 0 5 31 0 5
31 0 5 31 0 5 31 0 5 31 0 5 31 0 5 31 0 5 31 0 5 31 0 5 31 0 5 31 0 5
30 0 5 30 0 5 30 0 5 30 0 5 30 0 5 30 0 5 30 0 5 30 0 5 30 0 5 30 0 5
30 0 5 30 0 5 30 0 5 29 0 5 29 0 5 29 0 5 29 0 5 29 0 5 29 0 5 29 0 5
29 0 5 29 0 5 29 0 5 29 0 5 29 0 5 29 0 5 29 0 5 28 0 5 28 0 5 28 0 5
28 0 5 28 0 5 28 0 5 28 0 5 28 0 5 28 0 5 28 0 5 28 0 5 28 0 5 28 0 5
28 0 5 28 0 5 27 0 5
25 0 4 25 0 4 25 0 4 25 0 4 25 0 4 25 0 4 25 0 4 25 0 4 25 0 4 25 0 4
25 0 4 25 0 4 25 0 4 25 0 4 25 0 4 25 0 4 25 0 4 25 0 4 26 0 4 26 0 4
26 0 4 26 0 4 26 0 4 26 0 4 26 0 4 26 0 4 26 0 4 26 0 4 26 0 4 26 0 4
26 0 4 26 0 4 26 0 4 26 0 4 26 0 4 27 0 4 27 0 4 27 0 4 27 0 4 27 0 4
27 0 4 9 0 1 9 0 1 9 0 1 9 0 1 9 0 1 9 0 1 9 0 1 9 0 1 9 0 1 9 0 1 9 0
1 9 0 1 9 0 1 9 0 1 9 0 1 9 0 1 9 0 1 9 0 1 9 0 1 9 0 1 9 0 1 9 0 1 9
0 1 9 0 1 9 0 1 9 0 1 9 0 1 13 0 6 13 0 6 13 0 6 13 0 6 13 0 6 13 0 6
13 0 6 13 0 6 13 0 6 13 0 6 13 0 6 13 0 6 13 0 6 14 0 6 15 0 7 16 0 7
17 0 8 18 0 8 19 0 9 20 0 9 21 0 10 22 0 10 23 0 10 24 0 11 25 0 11 26
0 12 27 0 12 28 0 13 29 0 13 30 0 14 31 0 14 32 0 15 33 0 15 34 0 15
35 0 16 36 0 16 37 0 17 38 0 17 39 0 18 40 0 18 41 0 18 41 0 19 42 0
19 43 0 20 44 0 20 45 0 21 46 0 21 47 0 21 48 0 22 49 0 22 50 0 23 51
0 23 52 0 23 52 0 24 53 0 24 54 0 25 55 0 25 56 0 25 56 0 26 57 0 26
58 0 26 58 0 27 59 0 27 59 0 27 59 0 27 59 0 27 58 0 27 22 0 4 23 0 5
25 0 5 26 0 5 28 0 6 29 0 6 30 0 6 32 0 7 33 0 7 34 0 7 35 0 7 37 0 8
38 0 8 39 0 8 40 0 8 41 0 8 42 0 9 43 0 9 44 0 9 45 0 9 45 0 9 46 0 10
47 0 10 47 0 10 48 0 10 48 0 10 49 0 10 49 0 10 49 0 10 49 0 10 49 0
10 49 0 10 49 0 10 48 0 10 48 0 10 47 0 10 45 0 9 44 0 9 42 0 9 38 0 8
33 0 7 9 0 1 9 0 1 9 0 1 9 0 1 9 0 1 9 0 1 35 0 3 35 0 3 35 0 3 41 0 4
47 0 5 52 0 5 57 0 6 61 0 6 65 0 6 69 0 7 72 0 7 76 0 7 79 0 8 82 0 8
85 0 8 88 0 9 91 0 9 93 0 9 96 0 9 98 0 10 100 0 10 102 0 10 104 0 10
106 0 10 107 0 10 109 0 11 110 0 11 111 0 11 112 0 11 113 0 11 114 0
11 115 0 11 116 0 11 116 0 11 116 0 11 116 0 11 116 0 11 116 0 11 115
0 11 115 0 11 114 0 11 113 0 11 111 0 11 110 0 11 108 0 11 106 0 10
103 0 10 101 0 10 97 0 10 94 0 9 89 0 9 84 0 8 77 0 8 68 0 7 39 0 7 39
0 7 39 0 7 39 0 7 39 0 7 39 0 7 39 0 7 39 0 6 39 0 6 39 0 6 39 0 6 39
0 6 39 0 6 39 0 6 39 0 6 39 0 6 39 0 6 39 0 6 39 0 6 39 0 6 39 0 6 39
0 6 39 0 6 39 0 6 39 0 6 39 0 6 39 0 6 38 0 6 38 0 6 38 0 6 38 0 6 38
0 6 38 0 6 38 0 6 38 0 6 38 0 6 38 0 6 38 0 6 38 0 6 38 0 6 38 0 6 38
0 6 38 0 6 38 0 6 37 0 6 37 0 6 37 0 6 37 0 6 37 0 6 37 0 6 37 0 6 37
0 6 37 0 6 37 0 6 37 0 6 37 0 6 37 0 6 37 0 6 36 0 6 36 0 6 36 0 6 36
0 6 36 0 6 36 0 6 36 0 6 36 0 6 36 0 6 36 0 6 36 0 6 36 0 6 35 0 6 35
0 6 35 0 6 35 0 6 35 0 6 35 0 6 35 0 6 35 0 6 35 0 6 35 0 6 35 0 6 35
0 6 34 0 6 34 0 6 34 0 6 34 0 6 34 0 6 34 0 6 34 0 6 34 0 6 34 0 6 34
0 6 34 0 6 34 0 6 33 0 6 33 0 6 33 0 6 33 0 6 33 0 5 33 0 5 33 0 5 33
0 5 33 0 5 33 0 5 33 0 5 33 0 5 32 0 5 32 0 5 32 0 5 32 0 5 32 0 5 32
0 5 32 0 5 32 0 5 32 0 5 32 0 5 32 0 5 32 0 5 31 0 5 31 0 5 31 0 5 31
0 5 31 0 5 31 0 5 31 0 5 31 0 5 31 0 5 31 0 5 31 0 5 31 0 5 30 0 5 30
0 5 30 0 5 30 0 5 30 0 5 30 0 5 30 0 5 30 0 5 30 0 5 30 0 5 30 0 5 30
0 5 30 0 5 29 0 5 29 0 5 29 0 5 29 0 5 29 0 5 29 0 5 29 0 5 29 0 5 29
0 5 29 0 5 29 0 5 29 0 5 29 0 5 29 0 5 28 0 5 28 0 5 28 0 5 28 0 5 28
0 5 28 0 5 28 0 5
25 0 4 25 0 4 25 0 4 25 0 4 25 0 4 25 0 4 25 0 4 25 0 4 25 0 4 25 0 4
25 0 4 26 0 4 26 0 4 26 0 4 26 0 4 26 0 4 26 0 4 26 0 4 26 0 4 26 0 4
26 0 4 26 0 4 26 0 4 26 0 4 26 0 4 26 0 4 26 0 4 26 0 4 27 0 4 27 0 4
27 0 4 27 0 4 27 0 4 27 0 4 27 0 4 27 0 4 27 0 4 27 0 4 27 0 5 27 0 5
27 0 5 27 0 5 9 0 1 9 0 1 9 0 1 9 0 1 9 0 1 9 0 1 9 0 1 9 0 1 9 0 1 9
0 1 9 0 1 9 0 1 9 0 1 9 0 1 9 0 1 9 0 1 9 0 1 9 0 1 9 0 1 9 0 1 9 0 1
9 0 1 9 0 1 9 0 1 9 0 1 13 0 6 13 0 6 13 0 6 13 0 6 13 0 6 13 0 6 13 0
6 13 0 6 13 0 6 13 0 6 13 0 6 13 0 6 13 0 6 13 0 6 14 0 6 15 0 7 16 0
7 17 0 8 18 0 8 19 0 9 20 0 9 21 0 10 22 0 10 23 0 10 24 0 11 25 0 11
26 0 12 27 0 12 28 0 13 29 0 13 30 0 14 31 0 14 32 0 14 33 0 15 34 0
15 35 0 16 36 0 16 36 0 17 37 0 17 38 0 17 39 0 18 40 0 18 41 0 19 42
0 19 43 0 20 44 0 20 45 0 20 46 0 21 47 0 21 48 0 22 49 0 22 50 0 23
51 0 23 51 0 23 52 0 24 53 0 24 54 0 25 55 0 25 56 0 25 56 0 26 57 0
26 58 0 26 58 0 27 59 0 27 59 0 27 60 0 27 60 0 27 60 0 27 58 0 27 22
0 5 24 0 5 25 0 5 27 0 6 28 0 6 30 0 6 31 0 6 32 0 7 33 0 7 35 0 7 36
0 7 37 0 8 38 0 8 39 0 8 40 0 8 41 0 8 42 0 9 43 0 9 44 0 9 44 0 9 45
0 9 46 0 9 46 0 10 47 0 10 47 0 10 48 0 10 48 0 10 48 0 10 48 0 10 48
0 10 48 0 10 48 0 10 47 0 10 47 0 10 46 0 9 44 0 9 43 0 9 40 0 8 37 0
8 31 0 6 9 0 1 9 0 1 9 0 1 9 0 1 9 0 1 9 0 1 35 0 3 35 0 3 35 0 3 40 0
4 46 0 4 51 0 5 55 0 5 60 0 6 64 0 6 68 0 7 71 0 7 75 0 7 78 0 8 81 0
8 84 0 8 87 0 8 89 0 9 92 0 9 94 0 9 96 0 9 98 0 10 100 0 10 102 0 10
104 0 10 106 0 10 107 0 10 108 0 11 110 0 11 111 0 11 112 0 11 113 0
11 113 0 11 114 0 11 114 0 11 114 0 11 114 0 11 114 0 11 114 0 11 114
0 11 113 0 11 112 0 11 111 0 11 110 0 11 108 0 11 106 0 10 104 0 10
102 0 10 99 0 10 96 0 9 92 0 9 88 0 9 82 0 8 76 0 7 67 0 7 41 0 7 40 0
7 40 0 7 40 0 7 40 0 7 40 0 7 40 0 7 40 0 7 40 0 7 40 0 7 40 0 7 40 0
7 40 0 7 40 0 7 40 0 7 40 0 7 40 0 7 40 0 7 40 0 7 40 0 7 40 0 7 40 0
7 40 0 7 40 0 7 40 0 7 40 0 7 40 0 7 40 0 7 40 0 7 40 0 7 39 0 7 39 0
7 39 0 7 39 0 7 39 0 7 39 0 6 39 0 6 39 0 6 39 0 6 39 0 6 39 0 6 39 0
6 39 0 6 39 0 6 39 0 6 38 0 6 38 0 6 38 0 6 38 0 6 38 0 6 38 0 6 38 0
6 38 0 6 38 0 6 38 0 6 38 0 6 38 0 6 38 0 6 37 0 6 37 0 6 37 0 6 37 0
6 37 0 6 37 0 6 37 0 6 37 0 6 37 0 6 37 0 6 37 0 6 37 0 6 36 0 6 36 0
6 36 0 6 36 0 6 36 0 6 36 0 6 36 0 6 36 0 6 36 0 6 36 0 6 36 0 6 35 0
6 35 0 6 35 0 6 35 0 6 35 0 6 35 0 6 35 0 6 35 0 6 35 0 6 35 0 6 35 0
6 34 0 6 34 0 6 34 0 6 34 0 6 34 0 6 34 0 6 34 0 6 34 0 6 34 0 6 34 0
6 34 0 6 33 0 6 33 0 6 33 0 6 33 0 6 33 0 5 33 0 5 33 0 5 33 0 5 33 0
5 33 0 5 33 0 5 33 0 5 32 0 5 32 0 5 32 0 5 32 0 5 32 0 5 32 0 5 32 0
5 32 0 5 32 0 5 32 0 5 32 0 5 32 0 5 31 0 5 31 0 5 31 0 5 31 0 5 31 0
5 31 0 5 31 0 5 31 0 5 31 0 5 31 0 5 31 0 5 31 0 5 30 0 5 30 0 5 30 0
5 30 0 5 30 0 5 30 0 5 30 0 5 30 0 5 30 0 5 30 0 5 30 0 5 30 0 5 30 0
5 29 0 5 29 0 5 29 0 5 29 0 5 29 0 5 29 0 5 29 0 5 29 0 5 29 0 5 29 0
5 29 0 5 29 0 5
25 0 4 25 0 4 25 0 4 25 0 4 26 0 4 26 0 4 26 0 4 26 0 4 26 0 4 26 0 4
26 0 4 26 0 4 26 0 4 26 0 4 26 0 4 26 0 4 26 0 4 26 0 4 26 0 4 26 0 4
26 0 4 27 0 4 27 0 4 27 0 4 27 0 4 27 0 4 27 0 4 27 0 4 27 0 4 27 0 4
27 0 4 27 0 4 27 0 5 27 0 5 27 0 5 27 0 5 27 0 5 28 0 5 28 0 5 28 0 5
28 0 5 28 0 5 28 0 5 28 0 5 9 0 1 9 0 1 9 0 1 9 0 1 9 0 1 9 0 1 9 0 1
9 0 1 9 0 1 9 0 1 9 0 1 9 0 1 9 0 1 9 0 1 9 0 1 9 0 1 9 0 1 9 0 1 9 0
1 9 0 1 9 0 1 9 0 1 13 0 6 13 0 6 13 0 6 13 0 6 13 0 6 13 0 6 13 0 6
13 0 6 13 0 6 13 0 6 13 0 6 13 0 6 13 0 6 13 0 6 13 0 6 14 0 6 15 0 7
16 0 7 17 0 8 18 0 8 19 0 9 20 0 9 21 0 9 22 0 10 23 0 10 24 0 11 25 0
11 26 0 12 27 0 12 28 0 13 29 0 13 30 0 13 31 0 14 32 0 14 32 0 15 33
0 15 34 0 16 35 0 16 36 0 17 37 0 17 38 0 17 39 0 18 40 0 18 41 0 19
42 0 19 43 0 20 44 0 20 45 0 20 46 0 21 47 0 21 48 0 22 48 0 22 49 0
22 50 0 23 51 0 23 52 0 24 53 0 24 54 0 24 55 0 25 55 0 25 56 0 26 57
0 26 58 0 26 58 0 27 59 0 27 59 0 27 60 0 27 60 0 27 60 0 27 60 0 27
58 0 27 23 0 5 25 0 5 26 0 5 27 0 6 29 0 6 30 0 6 31 0 6 33 0 7 34 0 7
35 0 7 36 0 7 37 0 8 38 0 8 39 0 8 40 0 8 41 0 8 42 0 9 43 0 9 43 0 9
44 0 9 45 0 9 45 0 9 46 0 9 46 0 10 47 0 10 47 0 10 47 0 10 47 0 10 47
0 10 47 0 10 47 0 10 46 0 9 45 0 9 44 0 9 43 0 9 41 0 9 39 0 8 35 0 7
29 0 6 9 0 1 9 0 1 9 0 1 9 0 1 9 0 1 9 0 1 35 0 3 35 0 3 35 0 3 39 0 4
44 0 4 49 0 5 54 0 5 58 0 6 62 0 6 66 0 6 70 0 7 73 0 7 76 0 7 79 0 8
82 0 8 85 0 8 88 0 9 90 0 9 92 0 9 95 0 9 97 0 9 99 0 10 101 0 10 102
0 10 104 0 10 105 0 10 107 0 10 108 0 11 109 0 11 110 0 11 111 0 11
111 0 11 112 0 11 112 0 11 113 0 11 113 0 11 113 0 11 112 0 11 112 0
11 111 0 11 110 0 11 109 0 11 108 0 11 106 0 10 105 0 10 103 0 10 100
0 10 97 0 10 94 0 9 90 0 9 86 0 8 81 0 8 74 0 7 65 0 6 42 0 7 42 0 7
42 0 7 42 0 7 42 0 7 42 0 7 42 0 7 42 0 7 42 0 7 42 0 7 42 0 7 42 0 7
41 0 7 41 0 7 41 0 7 41 0 7 41 0 7 41 0 7 41 0 7 41 0 7 41 0 7 41 0 7
41 0 7 41 0 7 41 0 7 41 0 7 41 0 7 41 0 7 41 0 7 41 0 7 41 0 7 41 0 7
41 0 7 40 0 7 40 0 7 40 0 7 40 0 7 40 0 7 40 0 7 40 0 7 40 0 7 40 0 7
40 0 7 40 0 7 40 0 7 40 0 7 40 0 7 39 0 7 39 0 7 39 0 7 39 0 7 39 0 6
39 0 6 39 0 6 39 0 6 39 0 6 39 0 6 39 0 6 39 0 6 38 0 6 38 0 6 38 0 6
38 0 6 38 0 6 38 0 6 38 0 6 38 0 6 38 0 6 38 0 6 38 0 6 37 0 6 37 0 6
37 0 6 37 0 6 37 0 6 37 0 6 37 0 6 37 0 6 37 0 6 37 0 6 37 0 6 36 0 6
36 0 6 36 0 6 36 0 6 36 0 6 36 0 6 36 0 6 36 0 6 36 0 6 36 0 6 35 0 6
35 0 6 35 0 6 35 0 6 35 0 6 35 0 6 35 0 6 35 0 6 35 0 6 35 0 6 35 0 6
34 0 6 34 0 6 34 0 6 34 0 6 34 0 6 34 0 6 34 0 6 34 0 6 34 0 6 34 0 6
33 0 6 33 0 6 33 0 6 33 0 6 33 0 5 33 0 5 33 0 5 33 0 5 33 0 5 33 0 5
33 0 5 33 0 5 32 0 5 32 0 5 32 0 5 32 0 5 32 0 5 32 0 5 32 0 5 32 0 5
32 0 5 32 0 5 32 0 5 31 0 5 31 0 5 31 0 5 31 0 5 31 0 5 31 0 5 31 0 5
31 0 5 31 0 5 31 0 5 31 0 5 31 0 5 30 0 5 30 0 5 30 0 5 30 0 5 30 0 5
30 0 5 30 0 5 30 0 5 30 0 5 30 0 5 30 0 5 30 0 5 30 0 5 29 0 5 29 0 5
29 0 5 29 0 5
26 0 4 26 0 4 26 0 4 26 0 4 26 0 4 26 0 4 26 0 4 26 0 4 26 0 4 26 0 4
26 0 4 26 0 4 26 0 4 26 0 4 26 0 4 27 0 4 27 0 4 27 0 4 27 0 4 27 0 4
27 0 4 27 0 4 27 0 4 27 0 4 27 0 4 27 0 5 27 0 5 27 0 5 27 0 5 27 0 5
27 0 5 28 0 5 28 0 5 28 0 5 28 0 5 28 0 5 28 0 5 28 0 5 28 0 5 28 0 5
28 0 5 28 0 5 28 0 5 28 0 5 28 0 5 29 0 5 9 0 1 9 0 1 9 0 1 9 0 1 9 0
1 9 0 1 9 0 1 9 0 1 9 0 1 9 0 1 9 0 1 9 0 1 9 0 1 9 0 1 9 0 1 9 0 1 9
0 1 9 0 1 9 0 1 13 0 6 13 0 6 13 0 6 13 0 6 13 0 6 13 0 6 13 0 6 13 0
6 13 0 6 13 0 6 13 0 6 13 0 6 13 0 6 13 0 6 13 0 6 13 0 6 14 0 6 15 0
7 16 0 7 17 0 8 18 0 8 19 0 9 20 0 9 21 0 9 22 0 10 23 0 10 24 0 11 25
0 11 26 0 12 26 0 12 27 0 12 28 0 13 29 0 13 30 0 14 31 0 14 32 0 15
33 0 15 34 0 16 35 0 16 36 0 16 37 0 17 38 0 17 39 0 18 40 0 18 41 0
19 42 0 19 43 0 19 44 0 20 44 0 20 45 0 21 46 0 21 47 0 21 48 0 22 49
0 22 50 0 23 51 0 23 52 0 24 53 0 24 53 0 24 54 0 25 55 0 25 56 0 25
57 0 26 57 0 26 58 0 26 59 0 27 59 0 27 60 0 27 60 0 27 60 0 28 60 0
28 60 0 27 57 0 26 24 0 5 25 0 5 26 0 5 28 0 6 29 0 6 30 0 6 32 0 6 33
0 7 34 0 7 35 0 7 36 0 7 37 0 8 38 0 8 39 0 8 40 0 8 41 0 8 42 0 9 42
0 9 43 0 9 44 0 9 44 0 9 45 0 9 45 0 9 46 0 9 46 0 9 46 0 9 46 0 9 46
0 9 46 0 9 45 0 9 45 0 9 44 0 9 43 0 9 42 0 9 40 0 8 37 0 8 34 0 7 23
0 5 9 0 1 9 0 1 9 0 1 9 0 1 9 0 1 9 0 1 35 0 3 35 0 3 35 0 3 37 0 4 43
0 4 48 0 5 52 0 5 57 0 6 61 0 6 65 0 6 68 0 7 72 0 7 75 0 7 78 0 8 81
0 8 83 0 8 86 0 8 88 0 9 91 0 9 93 0 9 95 0 9 97 0 9 99 0 10 101 0 10
102 0 10 104 0 10 105 0 10 106 0 10 107 0 10 108 0 11 109 0 11 110 0
11 110 0 11 110 0 11 111 0 11 111 0 11 111 0 11 110 0 11 110 0 11 109
0 11 108 0 11 107 0 11 106 0 10 105 0 10 103 0 10 101 0 10 98 0 10 95
0 9 92 0 9 88 0 9 84 0 8 79 0 8 72 0 7 62 0 6 43 0 7 43 0 7 43 0 7 43
0 7 43 0 7 43 0 7 43 0 7 43 0 7 43 0 7 43 0 7 43 0 7 43 0 7 43 0 7 43
0 7 43 0 7 43 0 7 43 0 7 43 0 7 43 0 7 42 0 7 42 0 7 42 0 7 42 0 7 42
0 7 42 0 7 42 0 7 42 0 7 42 0 7 42 0 7 42 0 7 42 0 7 42 0 7 42 0 7 42
0 7 42 0 7 42 0 7 41 0 7 41 0 7 41 0 7 41 0 7 41 0 7 41 0 7 41 0 7 41
0 7 41 0 7 41 0 7 41 0 7 41 0 7 41 0 7 40 0 7 40 0 7 40 0 7 40 0 7 40
0 7 40 0 7 40 0 7 40 0 7 40 0 7 40 0 7 40 0 7 39 0 7 1 0 16 1 0 17 1 0
17 1 0 17 1 0 17 1 0 16 1 0 15 39 0 6 39 0 6 38 0 6 38 0 6 38 0 6 38 0
6 38 0 6 38 0 6 38 0 6 38 0 6 38 0 6 38 0 6 37 0 6 37 0 6 37 0 6 37 0
6 37 0 6 37 0 6 37 0 6 37 0 6 37 0 6 37 0 6 36 0 6 36 0 6 36 0 6 36 0
6 36 0 6 36 0 6 36 0 6 36 0 6 36 0 6 36 0 6 35 0 6 35 0 6 35 0 6 35 0
6 35 0 6 35 0 6 35 0 6 35 0 6 35 0 6 35 0 6 35 0 6 34 0 6 34 0 6 34 0
6 34 0 6 34 0 6 34 0 6 34 0 6 34 0 6 34 0 6 34 0 6 33 0 6 33 0 6 33 0
6 33 0 6 33 0 5 33 0 5 33 0 5 33 0 5 33 0 5 33 0 5 33 0 5 32 0 5 32 0
5 32 0 5 32 0 5 32 0 5 32 0 5 32 0 5 32 0 5 32 0 5 32 0 5 32 0 5 31 0
5 31 0 5 31 0 5 31 0 5 31 0 5 31 0 5 31 0 5 31 0 5 31 0 5 31 0 5 31 0
5 31 0 5 30 0 5 30 0 5 30 0 5 30 0 5 30 0 5 30 0 5 30 0 5 30 0 5 30 0
5
26 0 4 26 0 4 26 0 4 26 0 4 26 0 4 26 0 4 26 0 4 26 0 4 27 0 4 27 0 4
27 0 4 27 0 4 27 0 4 27 0 4 27 0 4 27 0 4 27 0 4 27 0 4 27 0 5 27 0 5
27 0 5 27 0 5 27 0 5 27 0 5 28 0 5 28 0 5 28 0 5 28 0 5 28 0 5 28 0 5
28 0 5 28 0 5 28 0 5 28 0 5 28 0 5 28 0 5 28 0 5 28 0 5 28 0 5 29 0 5
29 0 5 29 0 5 29 0 5 29 0 5 29 0 5 29 0 5 29 0 5 29 0 5 9 0 1 9 0 1 9
0 1 9 0 1 9 0 1 9 0 1 9 0 1 9 0 1 9 0 1 9 0 1 9 0 1 9 0 1 9 0 1 9 0 1
9 0 1 9 0 1 9 0 1 13 0 6 13 0 6 13 0 6 13 0 6 13 0 6 13 0 6 13 0 6 13
0 6 13 0 6 13 0 6 13 0 6 13 0 6 13 0 6 13 0 6 13 0 6 13 0 6 14 0 6 15
0 7 16 0 7 17 0 8 18 0 8 19 0 8 20 0 9 21 0 9 21 0 10 22 0 10 23 0 11
24 0 11 25 0 12 26 0 12 27 0 12 28 0 13 29 0 13 30 0 14 31 0 14 32 0
15 33 0 15 34 0 15 35 0 16 36 0 16 37 0 17 38 0 17 39 0 18 40 0 18 40
0 18 41 0 19 42 0 19 43 0 20 44 0 20 45 0 21 46 0 21 47 0 21 48 0 22
49 0 22 50 0 23 51 0 23 51 0 23 52 0 24 53 0 24 54 0 25 55 0 25 56 0
25 56 0 26 57 0 26 58 0 26 59 0 27 59 0 27 60 0 27 60 0 27 61 0 28 61
0 28 61 0 28 60 0 27 23 0 5 24 0 5 25 0 5 27 0 6 28 0 6 29 0 6 31 0 6
32 0 7 33 0 7 34 0 7 35 0 7 36 0 7 37 0 8 38 0 8 39 0 8 40 0 8 41 0 8
41 0 9 42 0 9 43 0 9 43 0 9 44 0 9 44 0 9 44 0 9 45 0 9 45 0 9 45 0 9
45 0 9 44 0 9 44 0 9 44 0 9 43 0 9 42 0 9 40 0 8 38 0 8 36 0 7 31 0 6
9 0 1 9 0 1 9 0 1 9 0 1 9 0 1 9 0 1 9 0 1 35 0 3 35 0 3 35 0 3 35 0 3
41 0 4 46 0 5 51 0 5 55 0 5 59 0 6 63 0 6 66 0 6 70 0 7 73 0 7 76 0 7
79 0 8 82 0 8 84 0 8 87 0 8 89 0 9 91 0 9 93 0 9 95 0 9 97 0 9 99 0 10
100 0 10 102 0 10 103 0 10 104 0 10 105 0 10 106 0 10 107 0 10 108 0
11 108 0 11 108 0 11 109 0 11 109 0 11 109 0 11 108 0 11 108 0 11 107
0 10 106 0 10 105 0 10 104 0 10 102 0 10 101 0 10 99 0 10 96 0 9 93 0
9 90 0 9 86 0 8 82 0 8 76 0 7 70 0 7 60 0 6 44 0 7 44 0 7 44 0 7 44 0
7 44 0 7 44 0 7 44 0 7 44 0 7 44 0 7 44 0 7 44 0 7 44 0 7 44 0 7 44 0
7 44 0 7 44 0 7 44 0 7 44 0 7 44 0 7 44 0 7 44 0 7 44 0 7 44 0 7 44 0
7 43 0 7 43 0 7 43 0 7 43 0 7 43 0 7 43 0 7 43 0 7 43 0 7 43 0 7 43 0
7 43 0 7 43 0 7 43 0 7 43 0 7 43 0 7 42 0 7 42 0 7 42 0 7 42 0 7 42 0
7 42 0 7 42 0 7 42 0 7 42 0 7 42 0 7 42 0 7 42 0 7 41 0 7 41 0 7 41 0
7 41 0 7 41 0 7 41 0 7 41 0 7 1 0 18 1 0 19 1 0 19 1 0 19 1 0 19 1 0
18 1 0 18 1 0 18 1 0 17 1 0 17 1 0 16 1 0 16 1 0 15 1 0 13 39 0 7 39 0
7 39 0 6 39 0 6 39 0 6 39 0 6 39 0 6 39 0 6 38 0 6 38 0 6 38 0 6 38 0
6 38 0 6 38 0 6 38 0 6 38 0 6 38 0 6 38 0 6 37 0 6 37 0 6 37 0 6 37 0
6 37 0 6 37 0 6 37 0 6 37 0 6 37 0 6 36 0 6 36 0 6 36 0 6 36 0 6 36 0
6 36 0 6 36 0 6 36 0 6 36 0 6 36 0 6 35 0 6 35 0 6 35 0 6 35 0 6 35 0
6 35 0 6 35 0 6 35 0 6 35 0 6 35 0 6 34 0 6 34 0 6 34 0 6 34 0 6 34 0
6 34 0 6 34 0 6 34 0 6 34 0 6 34 0 6 33 0 6 33 0 6 33 0 6 33 0 5 33 0
5 33 0 5 33 0 5 33 0 5 33 0 5 33 0 5 33 0 5 32 0 5 32 0 5 32 0 5 32 0
5 32 0 5 32 0 5 32 0 5 32 0 5 32 0 5 32 0 5 32 0 5 31 0 5 31 0 5 31 0
5 31 0 5 31 0 5 31 0 5 31 0 5 31 0 5 31 0 5 31 0 5 31 0 5 31 0 5 30 0
5
26 0 4 26 0 4 27 0 4 27 0 4 27 0 4 27 0 4 27 0 4 27 0 4 27 0 4 27 0 4
27 0 4 27 0 4 27 0 5 27 0 5 27 0 5 27 0 5 27 0 5 27 0 5 28 0 5 28 0 5
28 0 5 28 0 5 28 0 5 28 0 5 28 0 5 28 0 5 28 0 5 28 0 5 28 0 5 28 0 5
28 0 5 28 0 5 28 0 5 29 0 5 29 0 5 29 0 5 29 0 5 29 0 5 29 0 5 29 0 5
29 0 5 29 0 5 29 0 5 29 0 5 29 0 5 29 0 5 30 0 5 30 0 5 30 0 5 30 0 5
9 0 1 9 0 1 9 0 1 9 0 1 9 0 1 9 0 1 9 0 1 9 0 1 9 0 1 9 0 1 9 0 1 9 0
1 9 0 1 9 0 1 13 0 6 13 0 6 13 0 6 13 0 6 13 0 6 13 0 6 13 0 6 13 0 6
13 0 6 13 0 6 13 0 6 13 0 6 13 0 6 13 0 6 13 0 6 13 0 6 13 0 6 13 0 6
14 0 7 15 0 7 16 0 7 17 0 8 18 0 8 19 0 9 20 0 9 21 0 10 22 0 10 23 0
11 24 0 11 25 0 11 26 0 12 27 0 12 28 0 13 29 0 13 30 0 14 31 0 14 32
0 14 33 0 15 34 0 15 35 0 16 35 0 16 36 0 17 37 0 17 38 0 17 39 0 18
40 0 18 41 0 19 42 0 19 43 0 20 44 0 20 45 0 20 46 0 21 47 0 21 48 0
22 48 0 22 49 0 22 50 0 23 51 0 23 52 0 24 53 0 24 54 0 24 55 0 25 55
0 25 56 0 26 57 0 26 58 0 26 58 0 27 59 0 27 60 0 27 60 0 27 61 0 28
61 0 28 61 0 28 61 0 28 59 0 27 23 0 5 25 0 5 26 0 5 27 0 6 28 0 6 30
0 6 31 0 6 32 0 7 33 0 7 34 0 7 35 0 7 36 0 7 37 0 8 38 0 8 39 0 8 39
0 8 40 0 8 41 0 8 41 0 9 42 0 9 42 0 9 43 0 9 43 0 9 43 0 9 44 0 9 44
0 9 43 0 9 43 0 9 43 0 9 42 0 9 41 0 8 40 0 8 39 0 8 36 0 8 34 0 7 29
0 6 9 0 1 9 0 1 9 0 1 9 0 1 9 0 1 9 0 1 9 0 1 35 0 3 35 0 3 35 0 3 35
0 3 39 0 4 44 0 4 49 0 5 53 0 5 57 0 6 61 0 6 65 0 6 68 0 7 71 0 7 74
0 7 77 0 8 80 0 8 82 0 8 85 0 8 87 0 9 89 0 9 91 0 9 93 0 9 95 0 9 97
0 9 98 0 10 100 0 10 101 0 10 102 0 10 103 0 10 104 0 10 105 0 10 105
0 10 106 0 10 106 0 10 107 0 10 107 0 10 106 0 10 106 0 10 106 0 10
105 0 10 104 0 10 103 0 10 102 0 10 100 0 10 98 0 10 96 0 9 94 0 9 91
0 9 88 0 9 84 0 8 79 0 8 74 0 7 67 0 7 56 0 5 46 0 8 46 0 8 46 0 8 46
0 8 46 0 8 46 0 8 46 0 8 46 0 8 46 0 8 45 0 8 45 0 8 45 0 8 45 0 8 45
0 8 45 0 8 45 0 8 45 0 8 45 0 7 45 0 7 45 0 7 45 0 7 45 0 7 45 0 7 45
0 7 45 0 7 45 0 7 45 0 7 45 0 7 45 0 7 44 0 7 44 0 7 44 0 7 44 0 7 44
0 7 44 0 7 44 0 7 44 0 7 44 0 7 44 0 7 44 0 7 44 0 7 44 0 7 43 0 7 43
0 7 43 0 7 43 0 7 43 0 7 43 0 7 43 0 7 43 0 7 43 0 7 43 0 7 43 0 7 42
0 7 42 0 7 42 0 7 1 0 18 1 0 19 1 0 19 1 0 19 1 0 19 1 0 19 1 0 19 1 0
19 1 0 19 1 0 18 1 0 18 1 0 17 1 0 17 1 0 16 1 0 16 1 0 15 1 0 14 1 0
12 40 0 7 40 0 7 40 0 7 40 0 7 40 0 7 40 0 7 40 0 7 39 0 7 39 0 7 39 0
6 39 0 6 39 0 6 39 0 6 39 0 6 39 0 6 39 0 6 38 0 6 38 0 6 38 0 6 38 0
6 38 0 6 38 0 6 38 0 6 38 0 6 37 0 6 37 0 6 37 0 6 37 0 6 37 0 6 37 0
6 37 0 6 37 0 6 37 0 6 37 0 6 36 0 6 36 0 6 36 0 6 36 0 6 36 0 6 36 0
6 36 0 6 36 0 6 36 0 6 35 0 6 35 0 6 35 0 6 35 0 6 35 0 6 35 0 6 35 0
6 35 0 6 35 0 6 35 0 6 34 0 6 34 0 6 34 0 6 34 0 6 34 0 6 34 0 6 34 0
6 34 0 6 34 0 6 34 0 6 33 0 6 33 0 6 33 0 6 33 0 5 33 0 5 33 0 5 33 0
5 33 0 5 33 0 5 33 0 5 32 0 5 32 0 5 32 0 5 32 0 5 32 0 5 32 0 5 32 0
5 32 0 5 32 0 5 32 0 5 32 0 5 31 0 5 31 0 5 31 0 5 31 0 5 31 0 5 31 0
5
27 0 4 27 0 4 27 0 4 27 0 4 27 0 4 27 0 4 27 0 5 27 0 5 27 0 5 27 0 5
27 0 5 27 0 5 28 0 5 28 0 5 28 0 5 28 0 5 28 0 5 28 0 5 28 0 5 28 0 5
28 0 5 28 0 5 28 0 5 28 0 5 28 0 5 28 0 5 28 0 5 29 0 5 29 0 5 29 0 5
29 0 5 29 0 5 29 0 5 29 0 5 29 0 5 29 0 5 29 0 5 29 0 5 29 0 5 29 0 5
30 0 5 30 0 5 30 0 5 30 0 5 30 0 5 30 0 5 30 0 5 30 0 5 30 0 5 30 0 5
30 0 5 30 0 5 30 0 5 9 0 1 9 0 1 9 0 1 9 0 1 9 0 1 9 0 1 9 0 1 9 0 1 9
0 1 9 0 1 13 0 6 13 0 6 13 0 6 13 0 6 13 0 6 13 0 6 13 0 6 13 0 6 13 0
6 13 0 6 13 0 6 13 0 6 13 0 6 13 0 6 13 0 6 13 0 6 13 0 6 13 0 6 13 0
6 14 0 6 15 0 7 16 0 7 17 0 8 18 0 8 19 0 9 20 0 9 21 0 10 22 0 10 23
0 10 24 0 11 25 0 11 26 0 12 27 0 12 28 0 13 29 0 13 30 0 13 30 0 14
31 0 14 32 0 15 33 0 15 34 0 16 35 0 16 36 0 16 37 0 17 38 0 17 39 0
18 40 0 18 41 0 19 42 0 19 43 0 19 44 0 20 44 0 20 45 0 21 46 0 21 47
0 21 48 0 22 49 0 22 50 0 23 51 0 23 52 0 23 53 0 24 53 0 24 54 0 25
55 0 25 56 0 25 57 0 26 57 0 26 58 0 26 59 0 27 59 0 27 60 0 27 60 0
28 61 0 28 61 0 28 61 0 28 60 0 27 58 0 26 23 0 5 25 0 5 26 0 5 27 0 6
28 0 6 30 0 6 31 0 6 32 0 7 33 0 7 34 0 7 35 0 7 36 0 7 37 0 8 38 0 8
38 0 8 39 0 8 40 0 8 40 0 8 41 0 8 41 0 8 42 0 9 42 0 9 42 0 9 42 0 9
42 0 9 42 0 9 42 0 9 41 0 8 41 0 8 40 0 8 38 0 8 37 0 8 35 0 7 31 0 6
25 0 5 9 0 1 9 0 1 9 0 1 9 0 1 9 0 1 9 0 1 9 0 1 9 0 1 35 0 3 35 0 3
35 0 3 37 0 4 42 0 4 47 0 5 51 0 5 55 0 5 59 0 6 63 0 6 66 0 6 69 0 7
72 0 7 75 0 7 78 0 8 80 0 8 83 0 8 85 0 8 87 0 9 89 0 9 91 0 9 93 0 9
95 0 9 96 0 9 97 0 10 99 0 10 100 0 10 101 0 10 102 0 10 103 0 10 103
0 10 104 0 10 104 0 10 104 0 10 104 0 10 104 0 10 104 0 10 103 0 10
103 0 10 102 0 10 101 0 10 99 0 10 98 0 10 96 0 9 94 0 9 91 0 9 89 0 9
85 0 8 81 0 8 77 0 8 71 0 7 64 0 6 51 0 5 47 0 8 47 0 8 47 0 8 47 0 8
47 0 8 47 0 8 47 0 8 47 0 8 47 0 8 47 0 8 47 0 8 47 0 8 47 0 8 47 0 8
47 0 8 47 0 8 47 0 8 47 0 8 46 0 8 46 0 8 46 0 8 46 0 8 46 0 8 46 0 8
46 0 8 46 0 8 46 0 8 46 0 8 46 0 8 46 0 8 46 0 8 46 0 8 46 0 8 45 0 8
45 0 8 45 0 8 45 0 8 45 0 7 45 0 7 45 0 7 45 0 7 45 0 7 45 0 7 45 0 7
45 0 7 44 0 7 44 0 7 44 0 7 44 0 7 44 0 7 44 0 7 44 0 7 44 0 7 44 0 7
1 0 17 1 0 19 1 0 19 1 0 19 1 0 20 1 0 20 1 0 20 1 0 19 1 0 19 1 0 19
1 0 19 1 0 18 1 0 18 1 0 18 1 0 17 1 0 17 1 0 16 1 0 15 1 0 15 1 0 14
1 0 13 41 0 7 41 0 7 41 0 7 41 0 7 41 0 7 41 0 7 40 0 7 40 0 7 40 0 7
40 0 7 40 0 7 40 0 7 40 0 7 40 0 7 39 0 7 39 0 7 39 0 7 39 0 6 39 0 6
39 0 6 39 0 6 39 0 6 39 0 6 38 0 6 38 0 6 38 0 6 38 0 6 38 0 6 38 0 6
38 0 6 38 0 6 37 0 6 37 0 6 37 0 6 37 0 6 37 0 6 37 0 6 37 0 6 37 0 6
37 0 6 36 0 6 36 0 6 36 0 6 36 0 6 36 0 6 36 0 6 36 0 6 36 0 6 36 0 6
35 0 6 35 0 6 35 0 6 35 0 6 35 0 6 35 0 6 35 0 6 35 0 6 35 0 6 35 0 6
34 0 6 34 0 6 34 0 6 34 0 6 34 0 6 34 0 6 34 0 6 34 0 6 34 0 6 34 0 6
33 0 6 33 0 6 33 0 6 33 0 5 33 0 5 33 0 5 33 0 5 33 0 5 33 0 5 33 0 5
32 0 5 32 0 5 32 0 5 32 0 5 32 0 5 32 0 5 32 0 5 32 0 5 32 0 5 32 0 5
27 0 5 27 0 5 27 0 5 27 0 5 27 0 5 27 0 5 28 0 5 28 0 5 28 0 5 28 0 5
28 0 5 28 0 5 28 0 5 28 0 5 28 0 5 28 0 5 28 0 5 28 0 5 28 0 5 28 0 5
28 0 5 29 0 5 29 0 5 29 0 5 29 0 5 29 0 5 29 0 5 29 0 5 29 0 5 29 0 5
29 0 5 29 0 5 29 0 5 29 0 5 30 0 5 30 0 5 30 0 5 30 0 5 30 0 5 30 0 5
30 0 5 30 0 5 30 0 5 30 0 5 30 0 5 30 0 5 30 0 5 31 0 5 31 0 5 31 0 5
31 0 5 31 0 5 31 0 5 31 0 5 31 0 5 31 0 5 9 0 1 9 0 1 9 0 1 9 0 1 9 0
1 9 0 1 9 0 1 13 0 6 13 0 6 13 0 6 13 0 6 13 0 6 13 0 6 13 0 6 13 0 6
13 0 6 13 0 6 13 0 6 13 0 6 13 0 6 13 0 6 13 0 6 13 0 6 13 0 6 13 0 6
13 0 6 14 0 6 15 0 7 16 0 7 17 0 8 18 0 8 19 0 9 20 0 9 21 0 9 22 0 10
23 0 10 24 0 11 25 0 11 26 0 12 26 0 12 27 0 12 28 0 13 29 0 13 30 0
14 31 0 14 32 0 15 33 0 15 34 0 15 35 0 16 36 0 16 37 0 17 38 0 17 39
0 18 39 0 18 40 0 18 41 0 19 42 0 19 43 0 20 44 0 20 45 0 20 46 0 21
47 0 21 48 0 22 49 0 22 49 0 23 50 0 23 51 0 23 52 0 24 53 0 24 54 0
25 55 0 25 55 0 25 56 0 26 57 0 26 58 0 26 58 0 27 59 0 27 60 0 27 60
0 27 61 0 28 61 0 28 61 0 28 61 0 28 60 0 27 22 0 5 24 0 5 25 0 5 26 0
5 27 0 6 29 0 6 30 0 6 31 0 6 32 0 7 33 0 7 34 0 7 35 0 7 35 0 7 36 0
7 37 0 8 38 0 8 38 0 8 39 0 8 39 0 8 40 0 8 40 0 8 40 0 8 41 0 8 41 0
8 41 0 8 40 0 8 40 0 8 40 0 8 39 0 8 38 0 8 37 0 8 35 0 7 32 0 7 28 0
6 9 0 1 9 0 1 9 0 1 9 0 1 9 0 1 9 0 1 9 0 1 9 0 1 9 0 1 35 0 3 35 0 3
35 0 3 35 0 3 40 0 4 45 0 4 49 0 5 53 0 5 57 0 6 60 0 6 64 0 6 67 0 7
70 0 7 73 0 7 76 0 7 78 0 8 81 0 8 83 0 8 85 0 8 87 0 9 89 0 9 91 0 9
92 0 9 94 0 9 95 0 9 96 0 9 98 0 10 99 0 10 100 0 10 100 0 10 101 0 10
101 0 10 102 0 10 102 0 10 102 0 10 102 0 10 101 0 10 101 0 10 100 0
10 99 0 10 98 0 10 97 0 9 95 0 9 93 0 9 91 0 9 89 0 9 86 0 8 83 0 8 79
0 8 74 0 7 68 0 7 60 0 6 45 0 4 48 0 8 48 0 8 48 0 8 48 0 8 48 0 8 48
0 8 48 0 8 48 0 8 48 0 8 48 0 8 48 0 8 48 0 8 48 0 8 48 0 8 48 0 8 48
0 8 48 0 8 48 0 8 48 0 8 48 0 8 48 0 8 48 0 8 48 0 8 48 0 8 48 0 8 47
0 8 47 0 8 47 0 8 47 0 8 47 0 8 47 0 8 47 0 8 47 0 8 47 0 8 47 0 8 47
0 8 47 0 8 46 0 8 46 0 8 46 0 8 46 0 8 46 0 8 46 0 8 46 0 8 46 0 8 46
0 8 46 0 8 46 0 8 45 0 8 45 0 8 45 0 7 45 0 7 45 0 7 1 0 18 1 0 19 1 0
19 1 0 20 1 0 20 1 0 20 1 0 20 1 0 20 1 0 19 1 0 19 1 0 19 1 0 19 1 0
18 1 0 18 1 0 18 1 0 17 1 0 17 1 0 16 1 0 15 1 0 15 1 0 14 1 0 13 1 0
12 1 0 10 42 0 7 42 0 7 42 0 7 42 0 7 41 0 7 41 0 7 41 0 7 41 0 7 41 0
7 41 0 7 41 0 7 41 0 7 40 0 7 40 0 7 40 0 7 40 0 7 40 0 7 40 0 7 40 0
7 40 0 7 39 0 7 39 0 7 39 0 7 39 0 6 39 0 6 39 0 6 39 0 6 39 0 6 39 0
6 38 0 6 38 0 6 38 0 6 38 0 6 38 0 6 38 0 6 38 0 6 38 0 6 37 0 6 37 0
6 37 0 6 37 0 6 37 0 6 37 0 6 37 0 6 37 0 6 37 0 6 36 0 6 36 0 6 36 0
6 36 0 6 36 0 6 36 0 6 36 0 6 36 0 6 36 0 6 35 0 6 35 0 6 35 0 6 35 0
6 35 0 6 35 0 6 35 0 6 35 0 6 35 0 6 34 0 6 34 0 6 34 0 6 34 0 6 34 0
6 34 0 6 34 0 6 34 0 6 34 0 6 34 0 6 33 0 6 33 0 6 33 0 6 33 0 5 33 0
5 33 0 5 33 0 5 33 0 5 33 0 5 33 0 5 32 0 5 32 0 5 32 0 5
28 0 5 28 0 5 28 0 5 28 0 5 28 0 5 28 0 5 28 0 5 28 0 5 28 0 5 28 0 5
28 0 5 28 0 5 28 0 5 28 0 5 28 0 5 29 0 5 29 0 5 29 0 5 29 0 5 29 0 5
29 0 5 29 0 5 29 0 5 29 0 5 29 0 5 29 0 5 29 0 5 29 0 5 29 0 5 30 0 5
30 0 5 30 0 5 30 0 5 30 0 5 30 0 5 30 0 5 30 0 5 30 0 5 30 0 5 30 0 5
30 0 5 30 0 5 31 0 5 31 0 5 31 0 5 31 0 5 31 0 5 31 0 5 31 0 5 31 0 5
31 0 5 31 0 5 31 0 5 32 0 5 32 0 5 32 0 5 32 0 5 32 0 5 32 0 5 9 0 1 9
0 1 9 0 1 13 0 6 13 0 6 13 0 6 13 0 6 13 0 6 13 0 6 13 0 6 13 0 6 13 0
6 13 0 6 13 0 6 13 0 6 13 0 6 13 0 6 13 0 6 13 0 6 13 0 6 13 0 6 13 0
6 13 0 6 14 0 6 15 0 7 16 0 7 17 0 8 18 0 8 19 0 9 20 0 9 21 0 9 22 0
10 22 0 10 23 0 11 24 0 11 25 0 11 26 0 12 27 0 12 28 0 13 29 0 13 30
0 14 31 0 14 32 0 14 33 0 15 34 0 15 35 0 16 35 0 16 36 0 17 37 0 17
38 0 17 39 0 18 40 0 18 41 0 19 42 0 19 43 0 19 44 0 20 45 0 20 45 0
21 46 0 21 47 0 22 48 0 22 49 0 22 50 0 23 51 0 23 52 0 24 53 0 24 53
0 24 54 0 25 55 0 25 56 0 25 57 0 26 57 0 26 58 0 26 59 0 27 59 0 27
60 0 27 60 0 28 61 0 28 61 0 28 61 0 28 60 0 28 59 0 27 23 0 5 24 0 5
25 0 5 26 0 5 27 0 6 28 0 6 30 0 6 31 0 6 32 0 6 32 0 7 33 0 7 34 0 7
35 0 7 36 0 7 36 0 7 37 0 8 38 0 8 38 0 8 38 0 8 39 0 8 39 0 8 39 0 8
39 0 8 39 0 8 39 0 8 39 0 8 38 0 8 37 0 8 36 0 7 35 0 7 33 0 7 30 0 6
25 0 5 9 0 1 9 0 1 9 0 1 9 0 1 9 0 1 9 0 1 9 0 1 9 0 1 9 0 1 35 0 3 35
0 3 35 0 3 35 0 3 37 0 4 42 0 4 47 0 5 51 0 5 55 0 5 58 0 6 62 0 6 65
0 6 68 0 7 71 0 7 73 0 7 76 0 7 78 0 8 80 0 8 83 0 8 85 0 8 87 0 8 88
0 9 90 0 9 91 0 9 93 0 9 94 0 9 95 0 9 96 0 9 97 0 9 98 0 10 98 0 10
99 0 10 99 0 10 99 0 10 99 0 10 99 0 10 99 0 10 98 0 10 98 0 10 97 0 9
96 0 9 94 0 9 93 0 9 91 0 9 89 0 9 86 0 8 83 0 8 80 0 8 75 0 7 70 0 7
64 0 6 55 0 5 50 0 8 50 0 8 50 0 8 50 0 8 50 0 8 50 0 8 50 0 8 50 0 8
50 0 8 50 0 8 50 0 8 50 0 8 50 0 8 50 0 8 50 0 8 50 0 8 49 0 8 49 0 8
49 0 8 49 0 8 49 0 8 49 0 8 49 0 8 49 0 8 49 0 8 49 0 8 49 0 8 49 0 8
49 0 8 49 0 8 49 0 8 48 0 8 48 0 8 48 0 8 48 0 8 48 0 8 48 0 8 48 0 8
48 0 8 48 0 8 48 0 8 48 0 8 47 0 8 47 0 8 47 0 8 47 0 8 47 0 8 47 0 8
47 0 8 47 0 8 47 0 8 46 0 8 46 0 8 1 0 18 1 0 19 1 0 19 1 0 19 1 0 20
1 0 20 1 0 20 1 0 20 1 0 19 1 0 19 1 0 19 1 0 19 1 0 19 1 0 18 1 0 18
1 0 17 1 0 17 1 0 16 1 0 16 1 0 15 1 0 15 1 0 14 1 0 13 1 0 12 1 0 11
1 0 10 43 0 7 43 0 7 43 0 7 43 0 7 42 0 7 42 0 7 42 0 7 42 0 7 42 0 7
42 0 7 42 0 7 42 0 7 41 0 7 41 0 7 41 0 7 41 0 7 41 0 7 41 0 7 41 0 7
40 0 7 40 0 7 40 0 7 40 0 7 40 0 7 40 0 7 40 0 7 40 0 7 39 0 7 39 0 7
39 0 6 39 0 6 39 0 6 39 0 6 39 0 6 39 0 6 38 0 6 38 0 6 38 0 6 38 0 6
38 0 6 38 0 6 38 0 6 38 0 6 37 0 6 37 0 6 37 0 6 37 0 6 37 0 6 37 0 6
37 0 6 37 0 6 37 0 6 36 0 6 36 0 6 36 0 6 36 0 6 36 0 6 36 0 6 36 0 6
36 0 6 36 0 6 35 0 6 35 0 6 35 0 6 35 0 6 35 0 6 35 0 6 35 0 6 35 0 6
35 0 6 34 0 6 34 0 6 34 0 6 34 0 6 34 0 6 34 0 6 34 0 6 34 0 6 34 0 6
34 0 6 33 0 6 33 0 6 33 0 6 33 0 5 33 0 5 33 0 5
28 0 5 28 0 5 28 0 5 28 0 5 28 0 5 28 0 5 28 0 5 28 0 5 28 0 5 29 0 5
29 0 5 29 0 5 29 0 5 29 0 5 29 0 5 29 0 5 29 0 5 29 0 5 29 0 5 29 0 5
29 0 5 29 0 5 29 0 5 30 0 5 30 0 5 30 0 5 30 0 5 30 0 5 30 0 5 30 0 5
30 0 5 30 0 5 30 0 5 30 0 5 30 0 5 30 0 5 31 0 5 31 0 5 31 0 5 31 0 5
31 0 5 31 0 5 31 0 5 31 0 5 31 0 5 31 0 5 31 0 5 31 0 5 32 0 5 32 0 5
32 0 5 32 0 5 32 0 5 32 0 5 32 0 5 32 0 5 32 0 5 32 0 5 32 0 5 33 0 5
33 0 5 13 0 6 13 0 6 13 0 6 13 0 6 13 0 6 13 0 6 13 0 6 13 0 6 13 0 6
13 0 6 13 0 6 13 0 6 13 0 6 13 0 6 13 0 6 13 0 6 13 0 6 13 0 6 13 0 6
13 0 6 13 0 6 14 0 6 15 0 7 16 0 7 17 0 8 17 0 8 18 0 8 19 0 9 20 0 9
21 0 10 22 0 10 23 0 11 24 0 11 25 0 11 26 0 12 27 0 12 28 0 13 29 0
13 30 0 13 30 0 14 31 0 14 32 0 15 33 0 15 34 0 16 35 0 16 36 0 16 37
0 17 38 0 17 39 0 18 40 0 18 41 0 18 41 0 19 42 0 19 43 0 20 44 0 20
45 0 21 46 0 21 47 0 21 48 0 22 49 0 22 50 0 23 51 0 23 52 0 24 53 0
24 53 0 24 54 0 25 55 0 25 55 0 25 56 0 26 57 0 26 58 0 26 58 0 27 59
0 27 60 0 27 60 0 27 61 0 28 61 0 28 61 0 28 61 0 28 60 0 27 21 0 4 23
0 5 24 0 5 25 0 5 26 0 5 27 0 6 28 0 6 29 0 6 30 0 6 31 0 6 32 0 7 33
0 7 34 0 7 34 0 7 35 0 7 36 0 7 36 0 7 37 0 8 37 0 8 37 0 8 38 0 8 38
0 8 38 0 8 38 0 8 37 0 8 37 0 8 36 0 7 35 0 7 34 0 7 32 0 7 30 0 6 27
0 6 19 0 4 47 0 8 47 0 8 9 0 1 9 0 1 9 0 1 9 0 1 9 0 1 9 0 1 9 0 1 35
0 3 35 0 3 35 0 3 35 0 3 35 0 3 40 0 4 44 0 4 48 0 5 52 0 5 56 0 5 59
0 6 62 0 6 65 0 6 68 0 7 71 0 7 73 0 7 76 0 7 78 0 8 80 0 8 82 0 8 84
0 8 86 0 8 87 0 9 89 0 9 90 0 9 92 0 9 93 0 9 94 0 9 95 0 9 95 0 9 96
0 9 96 0 9 97 0 9 97 0 9 97 0 9 96 0 9 96 0 9 96 0 9 95 0 9 94 0 9 93
0 9 91 0 9 90 0 9 88 0 9 86 0 8 83 0 8 80 0 8 76 0 7 72 0 7 67 0 7 60
0 6 50 0 5 51 0 9 51 0 9 51 0 9 51 0 9 51 0 9 51 0 9 51 0 9 51 0 8 51
0 8 51 0 8 51 0 8 51 0 8 51 0 8 51 0 8 51 0 8 51 0 8 51 0 8 51 0 8 51
0 8 51 0 8 51 0 8 51 0 8 51 0 8 51 0 8 50 0 8 50 0 8 50 0 8 50 0 8 50
0 8 50 0 8 50 0 8 50 0 8 50 0 8 50 0 8 50 0 8 50 0 8 49 0 8 49 0 8 49
0 8 49 0 8 49 0 8 49 0 8 49 0 8 49 0 8 49 0 8 48 0 8 48 0 8 48 0 8 48
0 8 48 0 8 48 0 8 48 0 8 1 0 17 1 0 18 1 0 19 1 0 19 1 0 19 1 0 19 1 0
19 1 0 19 1 0 19 1 0 19 1 0 19 1 0 19 1 0 19 1 0 18 1 0 18 1 0 18 1 0
17 1 0 17 1 0 16 1 0 16 1 0 15 1 0 15 1 0 14 1 0 13 1 0 13 1 0 12 1 0
11 1 0 9 44 0 7 44 0 7 44 0 7 44 0 7 43 0 7 43 0 7 43 0 7 43 0 7 43 0
7 43 0 7 43 0 7 42 0 7 42 0 7 42 0 7 42 0 7 42 0 7 42 0 7 42 0 7 41 0
7 41 0 7 41 0 7 41 0 7 41 0 7 41 0 7 41 0 7 40 0 7 40 0 7 40 0 7 40 0
7 40 0 7 40 0 7 40 0 7 40 0 7 39 0 7 39 0 7 39 0 6 39 0 6 39 0 6 39 0
6 39 0 6 39 0 6 38 0 6 38 0 6 38 0 6 38 0 6 38 0 6 38 0 6 38 0 6 38 0
6 37 0 6 37 0 6 37 0 6 37 0 6 37 0 6 37 0 6 37 0 6 37 0 6 36 0 6 36 0
6 36 0 6 36 0 6 36 0 6 36 0 6 36 0 6 36 0 6 36 0 6 35 0 6 35 0 6 35 0
6 35 0 6 35 0 6 35 0 6 35 0 6 35 0 6 35 0 6 34 0 6 34 0 6 34 0 6 34 0
6 34 0 6 34 0 6 34 0 6 34 0 6 34 0 6 34 0 6
28 0 5 28 0 5 28 0 5 28 0 5 29 0 5 29 0 5 29 0 5 29 0 5 29 0 5 29 0 5
29 0 5 29 0 5 29 0 5 29 0 5 29 0 5 29 0 5 29 0 5 29 0 5 30 0 5 30 0 5
30 0 5 30 0 5 30 0 5 30 0 5 30 0 5 30 0 5 30 0 5 30 0 5 30 0 5 30 0 5
30 0 5 31 0 5 31 0 5 31 0 5 31 0 5 31 0 5 31 0 5 31 0 5 31 0 5 31 0 5
31 0 5 31 0 5 31 0 5 32 0 5 32 0 5 32 0 5 32 0 5 32 0 5 32 0 5 32 0 5
32 0 5 32 0 5 32 0 5 32 0 5 33 0 5 33 0 5 33 0 5 33 0 5 33 0 5 33 0 5
33 0 5 13 0 6 13 0 6 13 0 6 13 0 6 13 0 6 13 0 6 13 0 6 13 0 6 13 0 6
13 0 6 13 0 6 13 0 6 13 0 6 13 0 6 13 0 6 13 0 6 13 0 6 13 0 6 13 0 6
13 0 6 13 0 6 13 0 6 14 0 7 15 0 7 16 0 7 17 0 8 18 0 8 19 0 9 20 0 9
21 0 10 22 0 10 23 0 10 24 0 11 25 0 11 26 0 12 26 0 12 27 0 12 28 0
13 29 0 13 30 0 14 31 0 14 32 0 15 33 0 15 34 0 15 35 0 16 36 0 16 37
0 17 37 0 17 38 0 17 39 0 18 40 0 18 41 0 19 42 0 19 43 0 20 44 0 20
45 0 20 46 0 21 46 0 21 47 0 22 48 0 22 49 0 22 51 0 23 53 0 24 55 0
25 55 0 25 54 0 25 54 0 25 55 0 25 56 0 25 57 0 26 57 0 26 58 0 26 59
0 27 59 0 27 60 0 27 60 0 27 61 0 28 61 0 28 61 0 28 60 0 27 58 0 27
21 0 4 23 0 5 24 0 5 25 0 5 26 0 5 27 0 6 28 0 6 29 0 6 30 0 6 31 0 6
31 0 6 32 0 7 33 0 7 34 0 7 34 0 7 35 0 7 35 0 7 35 0 7 36 0 7 36 0 7
36 0 7 36 0 7 36 0 7 35 0 7 35 0 7 34 0 7 33 0 7 32 0 7 30 0 6 27 0 6
23 0 5 48 0 8 48 0 8 48 0 8 48 0 8 48 0 8 9 0 1 9 0 1 9 0 1 9 0 1 9 0
1 9 0 1 35 0 3 35 0 3 35 0 3 35 0 3 37 0 4 41 0 4 46 0 4 50 0 5 53 0 5
57 0 6 60 0 6 63 0 6 66 0 6 68 0 7 71 0 7 73 0 7 76 0 7 78 0 8 80 0 8
81 0 8 83 0 8 85 0 8 86 0 8 88 0 9 89 0 9 90 0 9 91 0 9 92 0 9 93 0 9
93 0 9 94 0 9 94 0 9 94 0 9 94 0 9 94 0 9 93 0 9 93 0 9 92 0 9 91 0 9
90 0 9 88 0 9 87 0 8 85 0 8 82 0 8 80 0 8 77 0 7 73 0 7 68 0 7 63 0 6
55 0 5 42 0 4 53 0 9 53 0 9 53 0 9 53 0 9 53 0 9 53 0 9 53 0 9 53 0 9
53 0 9 53 0 9 53 0 9 53 0 9 53 0 9 53 0 9 53 0 9 52 0 9 52 0 9 52 0 9
52 0 9 52 0 9 52 0 9 52 0 9 52 0 9 52 0 9 52 0 9 52 0 9 52 0 9 52 0 9
52 0 9 52 0 9 51 0 9 51 0 9 51 0 8 51 0 8 51 0 8 51 0 8 51 0 8 51 0 8
51 0 8 51 0 8 50 0 8 50 0 8 50 0 8 50 0 8 50 0 8 50 0 8 50 0 8 50 0 8
49 0 8 49 0 8 49 0 8 1 0 16 1 0 18 1 0 18 1 0 19 1 0 19 1 0 19 1 0 19
1 0 19 1 0 19 1 0 19 1 0 19 1 0 19 1 0 19 1 0 18 1 0 18 1 0 18 1 0 17
1 0 17 1 0 16 1 0 16 1 0 16 1 0 15 1 0 14 1 0 14 1 0 13 1 0 12 1 0 12
1 0 11 1 0 10 45 0 7 45 0 7 45 0 7 45 0 7 44 0 7 44 0 7 44 0 7 44 0 7
44 0 7 44 0 7 44 0 7 43 0 7 43 0 7 43 0 7 43 0 7 43 0 7 43 0 7 43 0 7
42 0 7 42 0 7 42 0 7 42 0 7 42 0 7 42 0 7 42 0 7 41 0 7 41 0 7 41 0 7
41 0 7 41 0 7 41 0 7 41 0 7 40 0 7 40 0 7 40 0 7 40 0 7 40 0 7 40 0 7
40 0 7 40 0 7 39 0 7 39 0 7 39 0 6 39 0 6 39 0 6 39 0 6 39 0 6 38 0 6
38 0 6 38 0 6 38 0 6 38 0 6 38 0 6 38 0 6 38 0 6 37 0 6 37 0 6 37 0 6
37 0 6 37 0 6 37 0 6 37 0 6 37 0 6 37 0 6 36 0 6 36 0 6 36 0 6 36 0 6
36 0 6 36 0 6 36 0 6 36 0 6 36 0 6 35 0 6 35 0 6 35 0 6 35 0 6 35 0 6
35 0 6 35 0 6 35 0 6 35 0 6 34 0 6 34 0 6 34 0 6
29 0 5 29 0 5 29 0 5 29 0 5 29 0 5 29 0 5 29 0 5 29 0 5 29 0 5 29 0 5
29 0 5 29 0 5 29 0 5 30 0 5 30 0 5 30 0 5 30 0 5 30 0 5 30 0 5 30 0 5
30 0 5 30 0 5 30 0 5 30 0 5 30 0 5 30 0 5 31 0 5 31 0 5 31 0 5 31 0 5
31 0 5 31 0 5 31 0 5 31 0 5 31 0 5 31 0 5 31 0 5 31 0 5 32 0 5 32 0 5
32 0 5 32 0 5 32 0 5 32 0 5 32 0 5 32 0 5 32 0 5 32 0 5 32 0 5 33 0 5
33 0 5 33 0 5 33 0 5 33 0 5 33 0 5 33 0 5 33 0 6 33 0 6 33 0 6 34 0 6
13 0 6 13 0 6 13 0 6 13 0 6 13 0 6 13 0 6 13 0 6 13 0 6 13 0 6 13 0 6
13 0 6 13 0 6 13 0 6 13 0 6 13 0 6 13 0 6 13 0 6 13 0 6 13 0 6 13 0 6
13 0 6 13 0 6 13 0 6 14 0 6 15 0 7 16 0 7 17 0 8 18 0 8 19 0 9 20 0 9
21 0 9 22 0 10 22 0 10 23 0 11 24 0 11 25 0 11 26 0 12 27 0 12 28 0 13
29 0 13 30 0 14 31 0 14 32 0 14 32 0 15 33 0 15 34 0 16 35 0 16 36 0
16 37 0 17 38 0 17 39 0 18 40 0 18 41 0 18 42 0 19 42 0 19 43 0 20 44
0 20 45 0 21 46 0 21 47 0 21 48 0 22 49 0 22 52 0 24 58 0 27 64 0 30
64 0 30 59 0 27 55 0 25 55 0 25 55 0 25 56 0 26 57 0 26 58 0 26 58 0
27 59 0 27 59 0 27 60 0 27 60 0 27 61 0 28 61 0 28 60 0 27 59 0 27 20
0 4 21 0 4 22 0 5 23 0 5 25 0 5 26 0 5 27 0 5 27 0 6 28 0 6 29 0 6 30
0 6 31 0 6 31 0 6 32 0 7 33 0 7 33 0 7 34 0 7 34 0 7 34 0 7 34 0 7 34
0 7 34 0 7 34 0 7 34 0 7 33 0 7 32 0 7 31 0 6 30 0 6 27 0 6 24 0 5 17
0 3 49 0 8 49 0 8 49 0 8 49 0 8 49 0 8 49 0 8 50 0 8 50 0 8 9 0 1 9 0
1 9 0 1 35 0 3 35 0 3 35 0 3 35 0 3 35 0 3 38 0 4 43 0 4 47 0 5 50 0 5
54 0 5 57 0 6 60 0 6 63 0 6 66 0 6 68 0 7 71 0 7 73 0 7 75 0 7 77 0 8
79 0 8 81 0 8 82 0 8 84 0 8 85 0 8 86 0 8 87 0 9 88 0 9 89 0 9 90 0 9
90 0 9 91 0 9 91 0 9 91 0 9 91 0 9 91 0 9 90 0 9 90 0 9 89 0 9 88 0 9
87 0 8 85 0 8 84 0 8 81 0 8 79 0 8 76 0 7 73 0 7 69 0 7 64 0 6 58 0 6
50 0 5 54 0 9 54 0 9 54 0 9 54 0 9 54 0 9 54 0 9 54 0 9 54 0 9 54 0 9
54 0 9 54 0 9 54 0 9 54 0 9 54 0 9 54 0 9 54 0 9 54 0 9 54 0 9 54 0 9
54 0 9 54 0 9 54 0 9 54 0 9 54 0 9 53 0 9 53 0 9 53 0 9 53 0 9 53 0 9
53 0 9 53 0 9 53 0 9 53 0 9 53 0 9 53 0 9 53 0 9 52 0 9 52 0 9 52 0 9
52 0 9 52 0 9 52 0 9 52 0 9 52 0 9 51 0 9 51 0 9 51 0 8 51 0 8 51 0 8
51 0 8 51 0 8 51 0 8 1 0 17 1 0 18 1 0 18 1 0 19 1 0 19 1 0 19 1 0 19
1 0 19 1 0 19 1 0 19 1 0 19 1 0 19 1 0 18 1 0 18 1 0 18 1 0 17 1 0 17
1 0 17 1 0 16 1 0 16 1 0 15 1 0 15 1 0 14 1 0 14 1 0 13 1 0 12 1 0 12
1 0 11 1 0 10 1 0 8 46 0 8 46 0 8 46 0 8 46 0 8 45 0 8 45 0 8 45 0 7
45 0 7 45 0 7 45 0 7 45 0 7 44 0 7 44 0 7 44 0 7 44 0 7 44 0 7 44 0 7
43 0 7 43 0 7 43 0 7 43 0 7 43 0 7 43 0 7 43 0 7 42 0 7 42 0 7 42 0 7
42 0 7 42 0 7 42 0 7 42 0 7 41 0 7 41 0 7 41 0 7 41 0 7 41 0 7 41 0 7
41 0 7 40 0 7 40 0 7 40 0 7 40 0 7 40 0 7 40 0 7 40 0 7 39 0 7 39 0 7
39 0 6 39 0 6 39 0 6 39 0 6 39 0 6 39 0 6 38 0 6 38 0 6 38 0 6 38 0 6
38 0 6 38 0 6 38 0 6 38 0 6 37 0 6 37 0 6 37 0 6 37 0 6 37 0 6 37 0 6
37 0 6 37 0 6 36 0 6 36 0 6 36 0 6 36 0 6 36 0 6 36 0 6 36 0 6 36 0 6
36 0 6 35 0 6 35 0 6 35 0 6 35 0 6 35 0 6 35 0 6
29 0 5 29 0 5 29 0 5 29 0 5 29 0 5 29 0 5 29 0 5 29 0 5 30 0 5 30 0 5
30 0 5 30 0 5 30 0 5 30 0 5 30 0 5 30 0 5 30 0 5 30 0 5 30 0 5 30 0 5
30 0 5 31 0 5 31 0 5 31 0 5 31 0 5 31 0 5 31 0 5 31 0 5 31 0 5 31 0 5
31 0 5 31 0 5 31 0 5 32 0 5 32 0 5 32 0 5 32 0 5 32 0 5 32 0 5 32 0 5
32 0 5 32 0 5 32 0 5 32 0 5 33 0 5 33 0 5 33 0 5 33 0 5 33 0 5 33 0 5
33 0 5 33 0 6 33 0 6 33 0 6 33 0 6 34 0 6 34 0 6 34 0 6 34 0 6 34 0 6
13 0 6 13 0 6 13 0 6 13 0 6 13 0 6 13 0 6 13 0 6 13 0 6 13 0 6 13 0 6
13 0 6 13 0 6 13 0 6 13 0 6 13 0 6 13 0 6 13 0 6 13 0 6 13 0 6 13 0 6
13 0 6 13 0 6 13 0 6 14 0 6 15 0 7 16 0 7 17 0 8 18 0 8 19 0 8 19 0 9
20 0 9 21 0 10 22 0 10 23 0 11 24 0 11 25 0 11 26 0 12 27 0 12 28 0 13
29 0 13 29 0 13 30 0 14 31 0 14 32 0 15 33 0 15 34 0 15 35 0 16 36 0
16 37 0 17 38 0 17 38 0 17 39 0 18 40 0 18 41 0 19 42 0 19 43 0 20 44
0 20 45 0 20 46 0 21 46 0 21 47 0 22 49 0 22 54 0 25 66 0 31 82 1 39
87 1 42 75 0 35 60 0 28 55 0 25 55 0 25 56 0 25 56 0 26 57 0 26 58 0
26 58 0 27 59 0 27 60 0 27 60 0 27 60 0 27 60 0 27 60 0 27 60 0 27 57
0 26 20 0 4 21 0 4 22 0 5 23 0 5 24 0 5 25 0 5 26 0 5 27 0 6 28 0 6 29
0 6 29 0 6 30 0 6 30 0 6 31 0 6 31 0 6 32 0 7 32 0 7 32 0 7 32 0 7 32
0 7 32 0 7 32 0 7 32 0 6 31 0 6 30 0 6 29 0 6 27 0 6 24 0 5 20 0 4 50
0 8 50 0 8 50 0 8 50 0 8 50 0 8 50 0 8 51 0 8 51 0 8 51 0 8 51 0 8 51
0 8 51 0 9 9 0 1 35 0 3 35 0 3 35 0 3 35 0 3 35 0 3 40 0 4 44 0 4 47 0
5 51 0 5 54 0 5 57 0 6 60 0 6 63 0 6 65 0 6 68 0 7 70 0 7 72 0 7 74 0
7 76 0 7 78 0 8 79 0 8 81 0 8 82 0 8 83 0 8 84 0 8 85 0 8 86 0 8 87 0
8 87 0 9 88 0 9 88 0 9 88 0 9 88 0 9 88 0 9 87 0 9 87 0 8 86 0 8 85 0
8 83 0 8 82 0 8 80 0 8 78 0 8 76 0 7 73 0 7 69 0 7 65 0 6 60 0 6 53 0
5 56 0 9 56 0 9 56 0 9 56 0 9 56 0 9 56 0 9 56 0 9 56 0 9 56 0 9 56 0
9 56 0 9 56 0 9 56 0 9 56 0 9 56 0 9 56 0 9 56 0 9 56 0 9 55 0 9 55 0
9 55 0 9 55 0 9 55 0 9 55 0 9 55 0 9 55 0 9 55 0 9 55 0 9 55 0 9 55 0
9 55 0 9 54 0 9 54 0 9 54 0 9 54 0 9 54 0 9 54 0 9 54 0 9 54 0 9 54 0
9 54 0 9 53 0 9 53 0 9 53 0 9 53 0 9 53 0 9 53 0 9 53 0 9 53 0 9 52 0
9 52 0 9 52 0 9 1 0 16 1 0 17 1 0 18 1 0 18 1 0 18 1 0 18 1 0 19 1 0
19 1 0 19 1 0 18 1 0 18 4 0 20 3 0 19 1 0 18 1 0 17 1 0 17 1 0 17 1 0
17 1 0 16 1 0 16 1 0 15 1 0 15 1 0 14 1 0 14 1 0 13 1 0 13 1 0 12 1 0
11 1 0 11 1 0 10 1 0 9 1 0 7 47 0 8 47 0 8 47 0 8 47 0 8 46 0 8 46 0 8
46 0 8 46 0 8 46 0 8 46 0 8 45 0 8 45 0 8 45 0 7 45 0 7 45 0 7 45 0 7
44 0 7 44 0 7 44 0 7 44 0 7 44 0 7 44 0 7 44 0 7 43 0 7 43 0 7 43 0 7
43 0 7 43 0 7 43 0 7 42 0 7 42 0 7 42 0 7 42 0 7 42 0 7 42 0 7 42 0 7
41 0 7 41 0 7 41 0 7 41 0 7 41 0 7 41 0 7 41 0 7 40 0 7 40 0 7 40 0 7
40 0 7 40 0 7 40 0 7 40 0 7 39 0 7 39 0 7 39 0 7 39 0 6 39 0 6 39 0 6
39 0 6 39 0 6 38 0 6 38 0 6 38 0 6 38 0 6 38 0 6 38 0 6 38 0 6 38 0 6
37 0 6 37 0 6 37 0 6 37 0 6 37 0 6 37 0 6 37 0 6 37 0 6 36 0 6 36 0 6
36 0 6 36 0 6 36 0 6 36 0 6 36 0 6 36 0 6 36 0 6
29 0 5 29 0 5 29 0 5 30 0 5 30 0 5 30 0 5 30 0 5 30 0 5 30 0 5 30 0 5
30 0 5 30 0 5 30 0 5 30 0 5 30 0 5 30 0 5 31 0 5 31 0 5 31 0 5 31 0 5
31 0 5 31 0 5 31 0 5 31 0 5 31 0 5 31 0 5 31 0 5 31 0 5 32 0 5 32 0 5
32 0 5 32 0 5 32 0 5 32 0 5 32 0 5 32 0 5 32 0 5 32 0 5 32 0 5 33 0 5
33 0 5 33 0 5 33 0 5 33 0 5 33 0 5 33 0 5 33 0 5 33 0 6 33 0 6 33 0 6
34 0 6 34 0 6 34 0 6 34 0 6 34 0 6 34 0 6 34 0 6 34 0 6 34 0 6 34 0 6
13 0 6 13 0 6 13 0 6 13 0 6 13 0 6 13 0 6 13 0 6 13 0 6 13 0 6 13 0 6
13 0 6 13 0 6 13 0 6 13 0 6 13 0 6 13 0 6 13 0 6 13 0 6 13 0 6 13 0 6
13 0 6 13 0 6 13 0 6 14 0 6 15 0 7 15 0 7 16 0 7 17 0 8 18 0 8 19 0 9
20 0 9 21 0 10 22 0 10 23 0 10 24 0 11 25 0 11 25 0 12 26 0 12 27 0 12
28 0 13 29 0 13 30 0 14 31 0 14 32 0 14 33 0 15 34 0 15 34 0 16 35 0
16 36 0 16 37 0 17 38 0 17 39 0 18 40 0 18 41 0 18 42 0 19 42 0 19 43
0 20 44 0 20 45 0 21 46 0 21 47 0 21 49 0 22 54 0 25 70 0 33 98 1 48
115 1 57 101 1 49 73 0 34 58 0 26 55 0 25 55 0 25 56 0 25 57 0 26 57 0
26 58 0 26 59 0 27 59 0 27 60 0 27 60 0 27 60 0 27 60 0 27 60 0 27 58
0 27 18 0 4 19 0 4 21 0 4 22 0 4 23 0 5 24 0 5 24 0 5 25 0 5 26 0 5 27
0 6 28 0 6 28 0 6 29 0 6 29 0 6 30 0 6 30 0 6 30 0 6 31 0 6 31 0 6 31
0 6 30 0 6 30 0 6 29 0 6 29 0 6 27 0 6 26 0 5 24 0 5 20 0 4 51 0 8 51
0 8 51 0 8 51 0 8 51 0 9 51 0 9 52 0 9 52 0 9 52 0 9 52 0 9 52 0 9 52
0 9 53 0 9 53 0 9 53 0 9 53 0 9 9 0 1 35 0 3 35 0 3 36 0 4 41 0 4 44 0
4 48 0 5 51 0 5 54 0 5 57 0 6 60 0 6 62 0 6 65 0 6 67 0 7 69 0 7 71 0
7 73 0 7 75 0 7 76 0 7 78 0 8 79 0 8 80 0 8 81 0 8 82 0 8 83 0 8 84 0
8 84 0 8 85 0 8 85 0 8 85 0 8 85 0 8 84 0 8 84 0 8 83 0 8 82 0 8 81 0
8 80 0 8 78 0 8 77 0 7 74 0 7 72 0 7 69 0 7 65 0 6 60 0 6 57 0 10 57 0
10 57 0 10 57 0 10 57 0 10 57 0 10 57 0 10 57 0 10 57 0 10 57 0 10 57
0 10 57 0 10 57 0 10 57 0 10 57 0 10 57 0 9 57 0 9 57 0 9 57 0 9 57 0
9 57 0 9 57 0 9 57 0 9 57 0 9 57 0 9 57 0 9 57 0 9 57 0 9 56 0 9 56 0
9 56 0 9 56 0 9 56 0 9 56 0 9 56 0 9 56 0 9 56 0 9 56 0 9 55 0 9 55 0
9 55 0 9 55 0 9 55 0 9 55 0 9 55 0 9 55 0 9 55 0 9 54 0 9 54 0 9 54 0
9 54 0 9 54 0 9 54 0 9 54 0 9 1 0 16 1 0 17 1 0 17 1 0 18 1 0 18 1 0
18 1 0 18 1 0 18 1 0 18 1 0 18 1 0 18 1 0 18 1 0 18 1 0 17 1 0 17 1 0
17 1 0 16 1 0 16 1 0 16 1 0 15 1 0 15 1 0 14 1 0 14 1 0 13 1 0 13 1 0
12 1 0 12 1 0 11 1 0 10 1 0 9 1 0 8 1 0 7 48 0 8 48 0 8 48 0 8 48 0 8
47 0 8 47 0 8 47 0 8 47 0 8 47 0 8 47 0 8 46 0 8 46 0 8 46 0 8 46 0 8
46 0 8 46 0 8 45 0 8 45 0 8 45 0 7 45 0 7 45 0 7 45 0 7 45 0 7 44 0 7
44 0 7 44 0 7 44 0 7 44 0 7 44 0 7 43 0 7 43 0 7 43 0 7 43 0 7 43 0 7
43 0 7 42 0 7 42 0 7 42 0 7 42 0 7 42 0 7 42 0 7 42 0 7 41 0 7 41 0 7
41 0 7 41 0 7 41 0 7 41 0 7 41 0 7 40 0 7 40 0 7 40 0 7 40 0 7 40 0 7
40 0 7 40 0 7 39 0 7 39 0 7 39 0 6 39 0 6 39 0 6 39 0 6 39 0 6 39 0 6
38 0 6 38 0 6 38 0 6 38 0 6 38 0 6 38 0 6 38 0 6 37 0 6 37 0 6 37 0 6
37 0 6 37 0 6 37 0 6 37 0 6 37 0 6 37 0 6 36 0 6 36 0 6 36 0 6
30 0 5 30 0 5 30 0 5 30 0 5 30 0 5 30 0 5 30 0 5 30 0 5 30 0 5 30 0 5
30 0 5 31 0 5 31 0 5 31 0 5 31 0 5 31 0 5 31 0 5 31 0 5 31 0 5 31 0 5
31 0 5 31 0 5 31 0 5 31 0 5 32 0 5 32 0 5 32 0 5 32 0 5 32 0 5 32 0 5
32 0 5 32 0 5 32 0 5 32 0 5 32 0 5 33 0 5 33 0 5 33 0 5 33 0 5 33 0 5
33 0 5 33 0 5 33 0 6 33 0 6 33 0 6 34 0 6 34 0 6 34 0 6 34 0 6 34 0 6
34 0 6 34 0 6 34 0 6 34 0 6 34 0 6 35 0 6 35 0 6 35 0 6 35 0 6 13 0 6
13 0 6 13 0 6 13 0 6 13 0 6 13 0 6 13 0 6 13 0 6 13 0 6 13 0 6 13 0 6
13 0 6 13 0 6 13 0 6 13 0 6 13 0 6 13 0 6 13 0 6 13 0 6 13 0 6 13 0 6
13 0 6 13 0 6 13 0 6 13 0 6 14 0 6 15 0 7 16 0 7 17 0 8 18 0 8 19 0 9
20 0 9 21 0 9 21 0 10 22 0 10 23 0 11 24 0 11 25 0 11 26 0 12 27 0 12
28 0 13 29 0 13 30 0 13 30 0 14 31 0 14 32 0 15 33 0 15 34 0 15 35 0
16 36 0 16 37 0 17 38 0 17 38 0 17 39 0 18 40 0 18 41 0 19 42 0 19 43
0 19 44 0 20 45 0 20 45 0 21 46 0 21 48 0 22 52 0 24 66 0 31 96 1 47
124 1 62 118 1 58 85 1 41 61 0 29 55 0 25 55 0 25 55 0 25 56 0 26 57 0
26 57 0 26 58 0 26 59 0 27 59 0 27 59 0 27 60 0 27 60 0 27 60 0 27 59
0 27 17 0 3 18 0 4 19 0 4 20 0 4 21 0 4 22 0 5 23 0 5 24 0 5 25 0 5 25
0 5 26 0 5 27 0 5 27 0 6 28 0 6 28 0 6 28 0 6 28 0 6 29 0 6 29 0 6 28
0 6 28 0 6 28 0 6 27 0 6 26 0 5 25 0 5 23 0 5 20 0 4 14 0 3 52 0 9 52
0 9 52 0 9 52 0 9 52 0 9 53 0 9 53 0 9 53 0 9 53 0 9 53 0 9 53 0 9 54
0 9 54 0 9 54 0 9 54 0 9 54 0 9 54 0 9 55 0 9 55 0 9 55 0 9 37 0 4 41
0 4 45 0 4 48 0 5 51 0 5 54 0 5 57 0 6 59 0 6 62 0 6 64 0 6 66 0 6 68
0 7 70 0 7 72 0 7 73 0 7 75 0 7 76 0 7 77 0 8 78 0 8 79 0 8 80 0 8 80
0 8 81 0 8 81 0 8 81 0 8 81 0 8 81 0 8 81 0 8 81 0 8 80 0 8 79 0 8 78
0 8 76 0 7 75 0 7 73 0 7 70 0 7 68 0 7 59 0 10 59 0 10 59 0 10 59 0 10
59 0 10 59 0 10 59 0 10 59 0 10 59 0 10 59 0 10 59 0 10 59 0 10 59 0
10 59 0 10 59 0 10 59 0 10 59 0 10 59 0 10 59 0 10 59 0 10 59 0 10 59
0 10 59 0 10 59 0 10 59 0 10 58 0 10 58 0 10 58 0 10 58 0 10 58 0 10
58 0 10 58 0 10 58 0 10 58 0 10 58 0 10 58 0 10 58 0 10 57 0 10 57 0
10 57 0 9 57 0 9 57 0 9 57 0 9 57 0 9 57 0 9 57 0 9 56 0 9 56 0 9 56 0
9 56 0 9 56 0 9 56 0 9 56 0 9 55 0 9 55 0 9 55 0 9 1 0 14 1 0 16 1 0
16 1 0 17 1 0 17 1 0 17 1 0 18 1 0 18 1 0 18 1 0 18 1 0 17 1 0 17 1 0
17 1 0 17 1 0 17 1 0 17 1 0 16 1 0 16 1 0 16 1 0 15 1 0 15 1 0 14 1 0
14 1 0 14 1 0 13 1 0 13 1 0 12 1 0 11 1 0 11 1 0 10 1 0 9 1 0 8 1 0 7
1 0 7 49 0 8 49 0 8 49 0 8 49 0 8 48 0 8 48 0 8 48 0 8 48 0 8 48 0 8
48 0 8 47 0 8 47 0 8 47 0 8 47 0 8 47 0 8 47 0 8 46 0 8 46 0 8 46 0 8
46 0 8 46 0 8 46 0 8 45 0 8 45 0 7 45 0 7 45 0 7 45 0 7 45 0 7 44 0 7
44 0 7 44 0 7 44 0 7 44 0 7 44 0 7 43 0 7 43 0 7 43 0 7 43 0 7 43 0 7
43 0 7 42 0 7 42 0 7 42 0 7 42 0 7 42 0 7 42 0 7 42 0 7 41 0 7 41 0 7
41 0 7 41 0 7 41 0 7 41 0 7 41 0 7 40 0 7 40 0 7 40 0 7 40 0 7 40 0 7
40 0 7 40 0 7 39 0 7 39 0 7 39 0 6 39 0 6 39 0 6 39 0 6 39 0 6 38 0 6
38 0 6 38 0 6 38 0 6 38 0 6 38 0 6 38 0 6 38 0 6 37 0 6 37 0 6 37 0 6
37 0 6 37 0 6 37 0 6
30 0 5 30 0 5 30 0 5 30 0 5 30 0 5 30 0 5 30 0 5 31 0 5 31 0 5 31 0 5
31 0 5 31 0 5 31 0 5 31 0 5 31 0 5 31 0 5 31 0 5 31 0 5 31 0 5 32 0 5
32 0 5 32 0 5 32 0 5 32 0 5 32 0 5 32 0 5 32 0 5 32 0 5 32 0 5 32 0 5
33 0 5 33 0 5 33 0 5 33 0 5 33 0 5 33 0 5 33 0 5 33 0 5 33 0 6 33 0 6
33 0 6 34 0 6 34 0 6 9 0 1 9 0 1 9 0 1 9 0 1 9 0 1 9 0 1 9 0 1 9 0 1 9
0 1 9 0 1 9 0 1 9 0 1 9 0 1 9 0 1 9 0 1 9 0 1 13 0 6 13 0 6 13 0 6 13
0 6 13 0 6 13 0 6 13 0 6 13 0 6 13 0 6 13 0 6 13 0 6 13 0 6 13 0 6 13
0 6 13 0 6 13 0 6 13 0 6 13 0 6 13 0 6 13 0 6 13 0 6 13 0 6 13 0 6 13
0 6 13 0 6 14 0 6 15 0 7 16 0 7 17 0 8 18 0 8 18 0 8 19 0 9 20 0 9 21
0 10 22 0 10 23 0 10 24 0 11 25 0 11 26 0 12 26 0 12 27 0 12 28 0 13
29 0 13 30 0 14 31 0 14 32 0 14 33 0 15 34 0 15 34 0 16 35 0 16 36 0
16 37 0 17 38 0 17 39 0 18 40 0 18 41 0 18 41 0 19 42 0 19 43 0 20 44
0 20 45 0 20 46 0 21 47 0 21 49 0 23 58 0 27 79 1 38 105 1 51 109 1 54
86 1 42 63 0 29 55 0 25 54 0 25 55 0 25 56 0 25 56 0 26 57 0 26 58 0
26 58 0 26 59 0 27 59 0 27 59 0 27 59 0 27 59 0 27 59 0 27 57 0 26 16
0 3 17 0 4 18 0 4 19 0 4 20 0 4 21 0 4 22 0 5 23 0 5 24 0 5 24 0 5 25
0 5 25 0 5 26 0 5 26 0 5 26 0 5 26 0 5 27 0 5 26 0 5 26 0 5 26 0 5 25
0 5 25 0 5 23 0 5 22 0 4 19 0 4 15 0 3 53 0 9 53 0 9 53 0 9 53 0 9 53
0 9 53 0 9 54 0 9 54 0 9 54 0 9 54 0 9 54 0 9 55 0 9 55 0 9 55 0 9 55
0 9 55 0 9 55 0 9 56 0 9 56 0 9 56 0 9 56 0 9 56 0 9 56 0 9 57 0 9 57
0 9 57 0 9 57 0 9 57 0 9 56 0 5 58 0 6 61 0 6 63 0 6 65 0 6 67 0 7 68
0 7 70 0 7 71 0 7 73 0 7 74 0 7 75 0 7 76 0 7 76 0 7 77 0 8 78 0 8 78
0 8 78 0 8 78 0 8 78 0 8 77 0 8 77 0 8 76 0 7 75 0 7 60 0 10 60 0 10
60 0 10 60 0 10 60 0 10 60 0 10 60 0 10 60 0 10 60 0 10 60 0 10 61 0
10 61 0 10 61 0 10 61 0 10 61 0 10 61 0 10 61 0 10 61 0 10 61 0 10 61
0 10 61 0 10 61 0 10 61 0 10 60 0 10 60 0 10 60 0 10 60 0 10 60 0 10
60 0 10 60 0 10 60 0 10 60 0 10 60 0 10 60 0 10 60 0 10 60 0 10 60 0
10 60 0 10 60 0 10 59 0 10 59 0 10 59 0 10 59 0 10 59 0 10 59 0 10 59
0 10 59 0 10 59 0 10 58 0 10 58 0 10 58 0 10 58 0 10 58 0 10 58 0 10
58 0 10 57 0 10 57 0 10 57 0 9 57 0 9 57 0 9 57 0 9 57 0 9 1 0 14 1 0
15 1 0 16 1 0 16 1 0 17 1 0 17 1 0 17 1 0 17 1 0 17 1 0 17 1 0 17 1 0
17 1 0 17 1 0 16 1 0 16 1 0 16 1 0 16 1 0 15 1 0 15 1 0 15 1 0 14 1 0
14 1 0 14 1 0 13 1 0 13 1 0 12 1 0 12 1 0 11 1 0 10 1 0 10 1 0 9 1 0 8
1 0 7 1 0 7 50 0 8 50 0 8 50 0 8 50 0 8 50 0 8 49 0 8 49 0 8 49 0 8 49
0 8 49 0 8 48 0 8 48 0 8 48 0 8 48 0 8 48 0 8 48 0 8 47 0 8 47 0 8 47
0 8 47 0 8 47 0 8 47 0 8 46 0 8 46 0 8 46 0 8 46 0 8 46 0 8 45 0 8 45
0 8 45 0 7 45 0 7 45 0 7 45 0 7 44 0 7 44 0 7 44 0 7 44 0 7 44 0 7 44
0 7 43 0 7 43 0 7 43 0 7 43 0 7 43 0 7 43 0 7 43 0 7 42 0 7 42 0 7 42
0 7 42 0 7 42 0 7 42 0 7 41 0 7 41 0 7 41 0 7 41 0 7 41 0 7 41 0 7 41
0 7 40 0 7 40 0 7 40 0 7 40 0 7 40 0 7 40 0 7 40 0 7 39 0 7 39 0 7 39
0 6 39 0 6 39 0 6 39 0 6 39 0 6 39 0 6 38 0 6 38 0 6 38 0 6 38 0 6 38
0 6 38 0 6 38 0 6 38 0 6
30 0 5 30 0 5 31 0 5 31 0 5 31 0 5 31 0 5 31 0 5 31 0 5 31 0 5 31 0 5
31 0 5 31 0 5 31 0 5 31 0 5 31 0 5 32 0 5 32 0 5 32 0 5 32 0 5 32 0 5
32 0 5 32 0 5 32 0 5 32 0 5 32 0 5 32 0 5 33 0 5 33 0 5 33 0 5 33 0 5
33 0 5 33 0 5 33 0 5 33 0 6 33 0 6 33 0 6 9 0 1 9 0 1 9 0 1 9 0 1 9 0
1 9 0 1 9 0 1 9 0 1 9 0 1 9 0 1 9 0 1 9 0 1 9 0 1 9 0 1 9 0 1 9 0 1 9
0 1 9 0 1 9 0 1 9 0 1 9 0 1 9 0 1 13 0 6 13 0 6 13 0 6 13 0 6 13 0 6
13 0 6 13 0 6 13 0 6 13 0 6 13 0 6 13 0 6 13 0 6 13 0 6 13 0 6 13 0 6
13 0 6 13 0 6 13 0 6 13 0 6 13 0 6 13 0 6 13 0 6 13 0 6 13 0 6 13 0 6
13 0 6 14 0 6 14 0 7 15 0 7 16 0 7 17 0 8 18 0 8 19 0 9 20 0 9 21 0 9
22 0 10 23 0 10 23 0 11 24 0 11 25 0 11 26 0 12 27 0 12 28 0 13 29 0
13 30 0 13 30 0 14 31 0 14 32 0 15 33 0 15 34 0 15 35 0 16 36 0 16 37
0 17 37 0 17 38 0 17 39 0 18 40 0 18 41 0 19 42 0 19 43 0 19 44 0 20
44 0 20 45 0 21 46 0 21 48 0 22 51 0 24 61 0 29 76 0 37 84 1 40 74 0
35 60 0 28 54 0 25 54 0 24 54 0 25 55 0 25 56 0 25 56 0 26 57 0 26 58
0 26 58 0 26 58 0 27 59 0 27 59 0 27 59 0 27 58 0 27 57 0 26 15 0 3 16
0 3 17 0 3 18 0 4 19 0 4 19 0 4 20 0 4 21 0 4 22 0 4 22 0 5 23 0 5 23
0 5 24 0 5 24 0 5 24 0 5 24 0 5 24 0 5 24 0 5 24 0 5 23 0 5 23 0 5 22
0 4 20 0 4 18 0 4 14 0 3 53 0 9 54 0 9 54 0 9 54 0 9 54 0 9 54 0 9 55
0 9 55 0 9 55 0 9 55 0 9 55 0 9 55 0 9 56 0 9 56 0 9 56 0 9 56 0 9 56
0 9 57 0 9 57 0 9 57 0 9 57 0 9 57 0 10 57 0 10 58 0 10 58 0 10 58 0
10 58 0 10 58 0 10 58 0 10 59 0 10 59 0 10 59 0 10 59 0 10 59 0 10 59
0 10 60 0 10 60 0 10 60 0 10 60 0 10 60 0 10 60 0 10 60 0 10 60 0 10
61 0 10 61 0 10 61 0 10 61 0 10 61 0 10 61 0 10 61 0 10 61 0 10 61 0
10 61 0 10 62 0 10 62 0 10 62 0 10 62 0 10 62 0 10 62 0 10 62 0 10 62
0 10 62 0 10 62 0 10 62 0 10 62 0 10 62 0 10 62 0 10 62 0 10 62 0 10
62 0 10 62 0 10 62 0 10 62 0 10 62 0 10 62 0 10 62 0 10 62 0 10 62 0
10 62 0 10 62 0 10 62 0 10 62 0 10 62 0 10 62 0 10 62 0 10 62 0 10 62
0 10 61 0 10 61 0 10 61 0 10 61 0 10 61 0 10 61 0 10 61 0 10 61 0 10
61 0 10 61 0 10 60 0 10 60 0 10 60 0 10 60 0 10 60 0 10 60 0 10 60 0
10 60 0 10 59 0 10 59 0 10 59 0 10 59 0 10 59 0 10 59 0 10 59 0 10 58
0 10 58 0 10 58 0 10 1 0 14 1 0 15 1 0 16 1 0 16 1 0 16 1 0 16 1 0 17
1 0 17 1 0 17 1 0 17 1 0 16 1 0 16 1 0 16 1 0 16 1 0 16 1 0 15 1 0 15
1 0 15 1 0 15 1 0 14 1 0 14 1 0 13 1 0 13 1 0 13 1 0 12 1 0 12 1 0 11
1 0 11 1 0 10 1 0 9 1 0 9 1 0 8 1 0 7 1 0 7 52 0 9 51 0 9 51 0 8 51 0
8 51 0 8 51 0 8 50 0 8 50 0 8 50 0 8 50 0 8 50 0 8 49 0 8 49 0 8 49 0
8 49 0 8 49 0 8 48 0 8 48 0 8 48 0 8 48 0 8 48 0 8 48 0 8 47 0 8 47 0
8 47 0 8 47 0 8 47 0 8 46 0 8 46 0 8 46 0 8 46 0 8 46 0 8 46 0 8 45 0
8 45 0 7 45 0 7 45 0 7 45 0 7 45 0 7 44 0 7 44 0 7 44 0 7 44 0 7 44 0
7 44 0 7 43 0 7 43 0 7 43 0 7 43 0 7 43 0 7 43 0 7 42 0 7 42 0 7 42 0
7 42 0 7 42 0 7 42 0 7 42 0 7 41 0 7 41 0 7 41 0 7 41 0 7 41 0 7 41 0
7 40 0 7 40 0 7 40 0 7 40 0 7 40 0 7 40 0 7 40 0 7 39 0 7 39 0 7 39 0
7 39 0 6 39 0 6 39 0 6 39 0 6 39 0 6 38 0 6 38 0 6 38 0 6
31 0 5 31 0 5 31 0 5 31 0 5 31 0 5 31 0 5 31 0 5 31 0 5 31 0 5 31 0 5
32 0 5 32 0 5 32 0 5 32 0 5 32 0 5 32 0 5 32 0 5 32 0 5 32 0 5 32 0 5
32 0 5 32 0 5 33 0 5 33 0 5 33 0 5 33 0 5 33 0 5 33 0 5 33 0 5 33 0 6
33 0 6 33 0 6 9 0 1 9 0 1 9 0 1 9 0 1 9 0 1 9 0 1 9 0 1 9 0 1 9 0 1 9
0 1 9 0 1 9 0 1 9 0 1 9 0 1 9 0 1 9 0 1 9 0 1 9 0 1 9 0 1 9 0 1 9 0 1
9 0 1 9 0 1 9 0 1 9 0 1 9 0 1 13 0 6 13 0 6 13 0 6 13 0 6 13 0 6 13 0
6 13 0 6 13 0 6 13 0 6 13 0 6 13 0 6 13 0 6 13 0 6 13 0 6 13 0 6 13 0
6 13 0 6 13 0 6 13 0 6 13 0 6 13 0 6 13 0 6 13 0 6 13 0 6 13 0 6 13 0
6 13 0 6 14 0 6 15 0 7 16 0 7 17 0 8 18 0 8 19 0 8 19 0 9 20 0 9 21 0
10 22 0 10 23 0 10 24 0 11 25 0 11 26 0 12 27 0 12 27 0 12 28 0 13 29
0 13 30 0 14 31 0 14 32 0 14 33 0 15 34 0 15 34 0 16 35 0 16 36 0 16
37 0 17 38 0 17 39 0 18 40 0 18 40 0 18 41 0 19 42 0 19 43 0 20 44 0
20 45 0 20 46 0 21 47 0 21 48 0 22 52 0 24 58 0 27 62 0 29 61 0 28 56
0 26 53 0 24 53 0 24 54 0 24 54 0 25 55 0 25 56 0 25 56 0 26 57 0 26
57 0 26 58 0 26 58 0 27 58 0 27 58 0 27 58 0 26 57 0 26 13 0 3 14 0 3
15 0 3 16 0 3 17 0 3 18 0 4 18 0 4 19 0 4 20 0 4 20 0 4 21 0 4 21 0 4
22 0 4 22 0 5 22 0 5 22 0 5 22 0 5 22 0 4 21 0 4 21 0 4 20 0 4 18 0 4
54 0 9 54 0 9 54 0 9 54 0 9 55 0 9 55 0 9 55 0 9 55 0 9 55 0 9 56 0 9
56 0 9 56 0 9 56 0 9 56 0 9 57 0 9 57 0 9 57 0 9 57 0 9 57 0 10 58 0
10 58 0 10 58 0 10 58 0 10 58 0 10 59 0 10 59 0 10 59 0 10 59 0 10 59
0 10 59 0 10 60 0 10 60 0 10 60 0 10 60 0 10 60 0 10 60 0 10 61 0 10
61 0 10 61 0 10 61 0 10 61 0 10 61 0 10 61 0 10 62 0 10 62 0 10 62 0
10 62 0 10 62 0 10 62 0 10 62 0 10 62 0 10 63 0 10 63 0 10 63 0 10 63
0 10 63 0 10 63 0 10 63 0 10 63 0 10 63 0 10 63 0 11 63 0 11 63 0 11
64 0 11 64 0 11 64 0 11 64 0 11 64 0 11 64 0 11 64 0 11 64 0 11 64 0
11 64 0 11 64 0 11 64 0 11 64 0 11 64 0 11 64 0 11 64 0 11 64 0 11 64
0 11 64 0 11 64 0 11 64 0 11 63 0 11 63 0 11 63 0 11 63 0 11 63 0 10
63 0 10 63 0 10 63 0 10 63 0 10 63 0 10 63 0 10 63 0 10 63 0 10 62 0
10 62 0 10 62 0 10 62 0 10 62 0 10 62 0 10 62 0 10 62 0 10 61 0 10 61
0 10 61 0 10 61 0 10 61 0 10 61 0 10 61 0 10 60 0 10 60 0 10 60 0 10
60 0 10 60 0 10 60 0 10 1 0 14 1 0 14 1 0 15 1 0 15 1 0 16 1 0 16 1 0
16 1 0 16 1 0 16 1 0 16 1 0 16 1 0 16 1 0 16 1 0 15 1 0 15 1 0 15 1 0
15 1 0 14 1 0 14 1 0 14 1 0 13 1 0 13 1 0 13 1 0 12 1 0 12 1 0 11 1 0
11 1 0 10 1 0 9 1 0 9 1 0 8 1 0 7 1 0 7 1 0 7 53 0 9 52 0 9 52 0 9 52
0 9 52 0 9 52 0 9 51 0 9 51 0 9 51 0 8 51 0 8 51 0 8 50 0 8 50 0 8 50
0 8 50 0 8 50 0 8 50 0 8 49 0 8 49 0 8 49 0 8 49 0 8 49 0 8 48 0 8 48
0 8 48 0 8 48 0 8 48 0 8 47 0 8 47 0 8 47 0 8 47 0 8 47 0 8 46 0 8 46
0 8 46 0 8 46 0 8 46 0 8 46 0 8 45 0 8 45 0 8 45 0 7 45 0 7 45 0 7 45
0 7 44 0 7 44 0 7 44 0 7 44 0 7 44 0 7 44 0 7 43 0 7 43 0 7 43 0 7 43
0 7 43 0 7 43 0 7 42 0 7 42 0 7 42 0 7 42 0 7 42 0 7 42 0 7 42 0 7 41
0 7 41 0 7 41 0 7 41 0 7 41 0 7 41 0 7 40 0 7 40 0 7 40 0 7 40 0 7 40
0 7 40 0 7 40 0 7 40 0 7 39 0 7 39 0 7 39 0 6 39 0 6 39 0 6
31 0 5 31 0 5 31 0 5 31 0 5 31 0 5 31 0 5 32 0 5 32 0 5 32 0 5 32 0 5
32 0 5 32 0 5 32 0 5 32 0 5 32 0 5 32 0 5 32 0 5 32 0 5 33 0 5 33 0 5
33 0 5 33 0 5 33 0 5 33 0 5 33 0 5 33 0 6 33 0 6 33 0 6 33 0 6 34 0 6
9 0 1 9 0 1 9 0 1 9 0 1 9 0 1 9 0 1 9 0 1 9 0 1 9 0 1 9 0 1 9 0 1 9 0
1 9 0 1 9 0 1 9 0 1 9 0 1 9 0 1 9 0 1 9 0 1 9 0 1 9 0 1 9 0 1 9 0 1 9
0 1 9 0 1 9 0 1 9 0 1 9 0 1 13 0 6 13 0 6 13 0 6 13 0 6 13 0 6 13 0 6
13 0 6 13 0 6 13 0 6 13 0 6 13 0 6 13 0 6 13 0 6 13 0 6 13 0 6 13 0 6
13 0 6 13 0 6 13 0 6 13 0 6 13 0 6 13 0 6 13 0 6 13 0 6 13 0 6 13 0 6
13 0 6 14 0 6 15 0 7 16 0 7 16 0 7 17 0 8 18 0 8 19 0 9 20 0 9 21 0 9
22 0 10 23 0 10 23 0 11 24 0 11 25 0 11 26 0 12 27 0 12 28 0 13 29 0
13 30 0 13 30 0 14 31 0 14 32 0 15 33 0 15 34 0 15 35 0 16 36 0 16 36
0 17 37 0 17 38 0 17 39 0 18 40 0 18 41 0 19 42 0 19 43 0 19 43 0 20
44 0 20 45 0 21 46 0 21 47 0 21 48 0 22 50 0 23 52 0 24 53 0 24 52 0
24 52 0 24 52 0 24 53 0 24 54 0 24 55 0 25 55 0 25 56 0 25 56 0 26 57
0 26 57 0 26 58 0 26 58 0 26 58 0 26 58 0 26 57 0 26 53 0 24 12 0 2 13
0 3 14 0 3 15 0 3 16 0 3 16 0 3 17 0 4 18 0 4 18 0 4 19 0 4 19 0 4 19
0 4 20 0 4 20 0 4 20 0 4 19 0 4 19 0 4 19 0 4 54 0 9 54 0 9 55 0 9 55
0 9 55 0 9 55 0 9 55 0 9 56 0 9 56 0 9 56 0 9 56 0 9 56 0 9 57 0 9 57
0 9 57 0 9 57 0 10 58 0 10 58 0 10 58 0 10 58 0 10 58 0 10 59 0 10 59
0 10 59 0 10 59 0 10 59 0 10 60 0 10 60 0 10 60 0 10 60 0 10 60 0 10
60 0 10 61 0 10 61 0 10 61 0 10 61 0 10 61 0 10 62 0 10 62 0 10 62 0
10 62 0 10 62 0 10 62 0 10 63 0 10 63 0 10 63 0 10 63 0 10 63 0 10 63
0 10 63 0 11 64 0 11 64 0 11 64 0 11 64 0 11 64 0 11 64 0 11 64 0 11
64 0 11 64 0 11 65 0 11 65 0 11 65 0 11 65 0 11 65 0 11 65 0 11 65 0
11 65 0 11 65 0 11 65 0 11 65 0 11 65 0 11 65 0 11 65 0 11 65 0 11 65
0 11 65 0 11 65 0 11 65 0 11 65 0 11 65 0 11 65 0 11 65 0 11 65 0 11
65 0 11 65 0 11 65 0 11 65 0 11 65 0 11 65 0 11 65 0 11 65 0 11 65 0
11 65 0 11 65 0 11 65 0 11 65 0 11 64 0 11 64 0 11 64 0 11 64 0 11 64
0 11 64 0 11 64 0 11 64 0 11 64 0 11 63 0 11 63 0 10 63 0 10 63 0 10
63 0 10 63 0 10 63 0 10 62 0 10 62 0 10 62 0 10 62 0 10 62 0 10 62 0
10 61 0 10 61 0 10 1 0 11 1 0 13 1 0 14 1 0 14 1 0 15 1 0 15 1 0 15 1
0 15 1 0 15 1 0 15 1 0 15 1 0 15 1 0 15 1 0 15 1 0 15 1 0 15 1 0 14 1
0 14 1 0 14 1 0 13 1 0 13 1 0 13 1 0 12 1 0 12 1 0 12 1 0 11 1 0 11 1
0 10 1 0 10 1 0 9 1 0 8 1 0 8 1 0 7 1 0 7 1 0 7 54 0 9 54 0 9 53 0 9
53 0 9 53 0 9 53 0 9 53 0 9 52 0 9 52 0 9 52 0 9 52 0 9 52 0 9 51 0 9
51 0 8 51 0 8 51 0 8 51 0 8 50 0 8 50 0 8 50 0 8 50 0 8 50 0 8 49 0 8
49 0 8 49 0 8 49 0 8 49 0 8 48 0 8 48 0 8 48 0 8 48 0 8 48 0 8 47 0 8
47 0 8 47 0 8 47 0 8 47 0 8 47 0 8 46 0 8 46 0 8 46 0 8 46 0 8 46 0 8
45 0 8 45 0 8 45 0 7 45 0 7 45 0 7 45 0 7 44 0 7 44 0 7 44 0 7 44 0 7
44 0 7 44 0 7 43 0 7 43 0 7 43 0 7 43 0 7 43 0 7 43 0 7 42 0 7 42 0 7
42 0 7 42 0 7 42 0 7 42 0 7 42 0 7 41 0 7 41 0 7 41 0 7 41 0 7 41 0 7
41 0 7 40 0 7 40 0 7 40 0 7 40 0 7 40 0 7 40 0 7 40 0 7 40 0 7
31 0 5 31 0 5 32 0 5 32 0 5 32 0 5 32 0 5 32 0 5 32 0 5 32 0 5 32 0 5
32 0 5 32 0 5 32 0 5 32 0 5 33 0 5 33 0 5 33 0 5 33 0 5 33 0 5 33 0 5
33 0 5 33 0 6 33 0 6 33 0 6 33 0 6 34 0 6 34 0 6 34 0 6 34 0 6 9 0 1 9
0 1 9 0 1 9 0 1 9 0 1 9 0 1 9 0 1 9 0 1 9 0 1 9 0 1 9 0 1 9 0 1 9 0 1
9 0 1 9 0 1 9 0 1 9 0 1 9 0 1 9 0 1 9 0 1 9 0 1 9 0 1 9 0 1 9 0 1 9 0
1 9 0 1 9 0 1 9 0 1 9 0 1 13 0 6 13 0 6 13 0 6 13 0 6 13 0 6 13 0 6 13
0 6 13 0 6 13 0 6 13 0 6 13 0 6 13 0 6 13 0 6 13 0 6 13 0 6 13 0 6 13
0 6 13 0 6 13 0 6 13 0 6 13 0 6 13 0 6 13 0 6 13 0 6 13 0 6 13 0 6 13
0 6 13 0 6 14 0 7 15 0 7 16 0 7 17 0 8 18 0 8 19 0 9 20 0 9 20 0 9 21
0 10 22 0 10 23 0 10 24 0 11 25 0 11 26 0 12 27 0 12 27 0 12 28 0 13
29 0 13 30 0 14 31 0 14 32 0 14 33 0 15 33 0 15 34 0 16 35 0 16 36 0
16 37 0 17 38 0 17 39 0 18 39 0 18 40 0 18 41 0 19 42 0 19 43 0 19 44
0 20 45 0 20 45 0 21 46 0 21 47 0 21 48 0 22 49 0 22 50 0 23 51 0 23
51 0 23 52 0 24 52 0 24 53 0 24 54 0 25 55 0 25 55 0 25 56 0 25 56 0
26 57 0 26 57 0 26 57 0 26 57 0 26 57 0 26 57 0 26 55 0 25 10 0 2 11 0
2 12 0 2 13 0 3 14 0 3 14 0 3 15 0 3 15 0 3 16 0 3 16 0 3 17 0 3 17 0
4 17 0 4 54 0 9 54 0 9 54 0 9 55 0 9 55 0 9 55 0 9 55 0 9 56 0 9 56 0
9 56 0 9 56 0 9 56 0 9 57 0 9 57 0 9 57 0 9 57 0 9 57 0 10 58 0 10 58
0 10 58 0 10 58 0 10 59 0 10 59 0 10 59 0 10 59 0 10 59 0 10 60 0 10
60 0 10 60 0 10 60 0 10 60 0 10 61 0 10 61 0 10 61 0 10 61 0 10 62 0
10 62 0 10 62 0 10 62 0 10 62 0 10 62 0 10 63 0 10 63 0 10 63 0 10 63
0 10 63 0 11 64 0 11 64 0 11 64 0 11 64 0 11 64 0 11 64 0 11 65 0 11
65 0 11 65 0 11 65 0 11 65 0 11 65 0 11 65 0 11 65 0 11 66 0 11 66 0
11 66 0 11 66 0 11 66 0 11 66 0 11 66 0 11 66 0 11 66 0 11 66 0 11 67
0 11 67 0 11 67 0 11 67 0 11 67 0 11 67 0 11 67 0 11 67 0 11 67 0 11
67 0 11 67 0 11 67 0 11 67 0 11 67 0 11 67 0 11 67 0 11 67 0 11 67 0
11 67 0 11 67 0 11 67 0 11 67 0 11 67 0 11 67 0 11 67 0 11 67 0 11 66
0 11 66 0 11 66 0 11 66 0 11 66 0 11 66 0 11 66 0 11 66 0 11 66 0 11
66 0 11 65 0 11 65 0 11 65 0 11 65 0 11 65 0 11 65 0 11 65 0 11 65 0
11 64 0 11 64 0 11 64 0 11 64 0 11 64 0 11 64 0 11 63 0 11 63 0 10 63
0 10 63 0 10 63 0 10 1 0 10 1 0 12 1 0 13 1 0 14 1 0 14 1 0 14 1 0 15
1 0 15 1 0 15 1 0 15 1 0 15 1 0 15 1 0 14 1 0 14 1 0 14 1 0 14 1 0 14
1 0 13 1 0 13 1 0 13 1 0 13 1 0 12 1 0 12 1 0 11 1 0 11 1 0 11 1 0 10
1 0 10 1 0 9 1 0 8 1 0 8 1 0 7 1 0 7 1 0 7 1 0 7 1 0 7 55 0 9 55 0 9
54 0 9 54 0 9 54 0 9 54 0 9 54 0 9 53 0 9 53 0 9 53 0 9 53 0 9 52 0 9
52 0 9 52 0 9 52 0 9 52 0 9 51 0 9 51 0 8 51 0 8 51 0 8 51 0 8 50 0 8
50 0 8 50 0 8 50 0 8 50 0 8 49 0 8 49 0 8 49 0 8 49 0 8 49 0 8 48 0 8
48 0 8 48 0 8 48 0 8 48 0 8 47 0 8 47 0 8 47 0 8 47 0 8 47 0 8 46 0 8
46 0 8 46 0 8 46 0 8 46 0 8 46 0 8 45 0 8 45 0 8 45 0 7 45 0 7 45 0 7
45 0 7 44 0 7 44 0 7 44 0 7 44 0 7 44 0 7 44 0 7 43 0 7 43 0 7 43 0 7
43 0 7 43 0 7 43 0 7 42 0 7 42 0 7 42 0 7 42 0 7 42 0 7 42 0 7 41 0 7
41 0 7 41 0 7 41 0 7 41 0 7 41 0 7 41 0 7 40 0 7 40 0 7 40 0 7
32 0 5 32 0 5 32 0 5 32 0 5 32 0 5 32 0 5 32 0 5 32 0 5 32 0 5 32 0 5
33 0 5 33 0 5 33 0 5 33 0 5 33 0 5 33 0 5 33 0 5 33 0 6 33 0 6 33 0 6
33 0 6 34 0 6 34 0 6 34 0 6 34 0 6 34 0 6 34 0 6 34 0 6 34 0 6 34 0 6
9 0 1 9 0 1 9 0 1 9 0 1 9 0 1 9 0 1 9 0 1 9 0 1 9 0 1 9 0 1 9 0 1 9 0
1 9 0 1 9 0 1 9 0 1 9 0 1 9 0 1 9 0 1 9 0 1 9 0 1 9 0 1 9 0 1 9 0 1 9
0 1 9 0 1 9 0 1 9 0 1 13 0 6 13 0 6 13 0 6 13 0 6 13 0 6 13 0 6 13 0 6
13 0 6 13 0 6 13 0 6 13 0 6 13 0 6 13 0 6 13 0 6 13 0 6 13 0 6 13 0 6
13 0 6 13 0 6 13 0 6 13 0 6 13 0 6 13 0 6 13 0 6 13 0 6 13 0 6 13 0 6
13 0 6 13 0 6 14 0 6 15 0 7 16 0 7 17 0 8 17 0 8 18 0 8 19 0 9 20 0 9
21 0 10 22 0 10 23 0 10 23 0 11 24 0 11 25 0 11 26 0 12 27 0 12 28 0
13 29 0 13 29 0 13 30 0 14 31 0 14 32 0 15 33 0 15 34 0 15 35 0 16 35
0 16 36 0 17 37 0 17 38 0 17 39 0 18 40 0 18 41 0 18 41 0 19 42 0 19
43 0 20 44 0 20 45 0 20 46 0 21 46 0 21 47 0 21 48 0 22 49 0 22 50 0
23 50 0 23 51 0 23 52 0 24 53 0 24 53 0 24 54 0 25 55 0 25 55 0 25 56
0 25 56 0 26 56 0 26 57 0 26 57 0 26 57 0 26 56 0 26 55 0 25 8 0 2 9 0
2 52 0 9 53 0 9 53 0 9 53 0 9 53 0 9 54 0 9 54 0 9 54 0 9 54 0 9 54 0
9 55 0 9 55 0 9 55 0 9 55 0 9 56 0 9 56 0 9 56 0 9 56 0 9 56 0 9 57 0
9 57 0 9 57 0 9 57 0 10 58 0 10 58 0 10 58 0 10 58 0 10 58 0 10 59 0
10 59 0 10 59 0 10 59 0 10 60 0 10 60 0 10 60 0 10 60 0 10 61 0 10 61
0 10 61 0 10 61 0 10 61 0 10 62 0 10 62 0 10 62 0 10 62 0 10 62 0 10
63 0 10 63 0 10 63 0 10 63 0 10 64 0 11 64 0 11 64 0 11 64 0 11 64 0
11 64 0 11 65 0 11 65 0 11 65 0 11 65 0 11 65 0 11 66 0 11 66 0 11 66
0 11 66 0 11 66 0 11 66 0 11 66 0 11 67 0 11 67 0 11 67 0 11 67 0 11
67 0 11 67 0 11 67 0 11 67 0 11 68 0 11 68 0 11 68 0 11 68 0 11 68 0
11 68 0 11 68 0 11 68 0 11 68 0 11 68 0 11 68 0 11 68 0 11 68 0 11 68
0 11 68 0 11 68 0 11 69 0 11 69 0 11 69 0 11 69 0 11 69 0 11 68 0 11
68 0 11 68 0 11 68 0 11 68 0 11 68 0 11 68 0 11 68 0 11 68 0 11 68 0
11 68 0 11 68 0 11 68 0 11 68 0 11 68 0 11 68 0 11 67 0 11 67 0 11 67
0 11 67 0 11 67 0 11 67 0 11 67 0 11 67 0 11 66 0 11 66 0 11 66 0 11
66 0 11 66 0 11 66 0 11 66 0 11 65 0 11 65 0 11 65 0 11 65 0 11 65 0
11 64 0 11 64 0 11 64 0 11 1 0 9 1 0 12 1 0 13 1 0 13 1 0 14 1 0 14 1
0 14 1 0 14 1 0 14 1 0 14 1 0 14 1 0 14 1 0 14 1 0 14 1 0 14 1 0 13 1
0 13 1 0 13 1 0 13 1 0 12 1 0 12 1 0 12 1 0 11 1 0 11 1 0 10 1 0 10 1
0 10 1 0 9 1 0 9 1 0 8 1 0 7 1 0 7 1 0 7 1 0 7 1 0 7 56 0 9 56 0 9 56
0 9 56 0 9 55 0 9 55 0 9 55 0 9 55 0 9 54 0 9 54 0 9 54 0 9 54 0 9 54
0 9 53 0 9 53 0 9 53 0 9 53 0 9 52 0 9 52 0 9 52 0 9 52 0 9 52 0 9 51
0 9 51 0 8 51 0 8 51 0 8 51 0 8 50 0 8 50 0 8 50 0 8 50 0 8 50 0 8 49
0 8 49 0 8 49 0 8 49 0 8 49 0 8 48 0 8 48 0 8 48 0 8 48 0 8 48 0 8 47
0 8 47 0 8 47 0 8 47 0 8 47 0 8 46 0 8 46 0 8 46 0 8 46 0 8 46 0 8 46
0 8 45 0 8 45 0 7 45 0 7 45 0 7 45 0 7 44 0 7 44 0 7 44 0 7 44 0 7 44
0 7 44 0 7 43 0 7 43 0 7 43 0 7 43 0 7 43 0 7 43 0 7 43 0 7 42 0 7 42
0 7 42 0 7 42 0 7 42 0 7 42 0 7 41 0 7 41 0 7 41 0 7 41 0 7 41 0 7
32 0 5 32 0 5 32 0 5 32 0 5 32 0 5 32 0 5 33 0 5 33 0 5 33 0 5 33 0 5
33 0 5 33 0 5 33 0 5 33 0 6 33 0 6 33 0 6 33 0 6 34 0 6 34 0 6 34 0 6
34 0 6 34 0 6 34 0 6 34 0 6 34 0 6 34 0 6 34 0 6 35 0 6 35 0 6 35 0 6
35 0 6 9 0 1 9 0 1 9 0 1 9 0 1 9 0 1 9 0 1 9 0 1 9 0 1 9 0 1 9 0 1 9 0
1 9 0 1 9 0 1 9 0 1 9 0 1 9 0 1 9 0 1 9 0 1 9 0 1 9 0 1 9 0 1 9 0 1 9
0 1 9 0 1 9 0 1 9 0 1 13 0 6 13 0 6 13 0 6 13 0 6 13 0 6 13 0 6 13 0 6
13 0 6 13 0 6 13 0 6 13 0 6 13 0 6 13 0 6 13 0 6 13 0 6 13 0 6 13 0 6
13 0 6 13 0 6 13 0 6 13 0 6 13 0 6 13 0 6 13 0 6 13 0 6 13 0 6 13 0 6
13 0 6 13 0 6 14 0 6 14 0 7 15 0 7 16 0 7 17 0 8 18 0 8 19 0 9 20 0 9
20 0 9 21 0 10 22 0 10 23 0 10 24 0 11 25 0 11 26 0 12 26 0 12 27 0 12
28 0 13 29 0 13 30 0 14 31 0 14 32 0 14 32 0 15 33 0 15 34 0 16 35 0
16 36 0 16 37 0 17 37 0 17 38 0 17 39 0 18 40 0 18 41 0 19 42 0 19 43
0 19 43 0 20 44 0 20 45 0 20 46 0 21 47 0 21 47 0 22 48 0 22 49 0 22
50 0 23 50 0 23 51 0 23 52 0 24 53 0 24 53 0 24 54 0 25 54 0 25 55 0
25 55 0 25 56 0 25 56 0 26 56 0 26 56 0 26 56 0 25 54 0 25 53 0 9 53 0
9 53 0 9 53 0 9 54 0 9 54 0 9 54 0 9 54 0 9 55 0 9 55 0 9 55 0 9 55 0
9 55 0 9 56 0 9 56 0 9 56 0 9 56 0 9 57 0 9 57 0 9 57 0 9 57 0 10 58 0
10 58 0 10 58 0 10 58 0 10 59 0 10 59 0 10 59 0 10 59 0 10 59 0 10 60
0 10 60 0 10 60 0 10 60 0 10 61 0 10 61 0 10 61 0 10 61 0 10 62 0 10
62 0 10 62 0 10 62 0 10 62 0 10 63 0 10 63 0 10 63 0 10 63 0 11 64 0
11 64 0 11 64 0 11 64 0 11 64 0 11 65 0 11 65 0 11 65 0 11 65 0 11 66
0 11 66 0 11 66 0 11 66 0 11 66 0 11 66 0 11 67 0 11 67 0 11 67 0 11
67 0 11 67 0 11 68 0 11 68 0 11 68 0 11 68 0 11 68 0 11 68 0 11 68 0
11 69 0 11 69 0 11 69 0 11 69 0 11 69 0 11 69 0 11 69 0 11 69 0 11 69
0 12 69 0 12 70 0 12 70 0 12 70 0 12 70 0 12 70 0 12 70 0 12 70 0 12
70 0 12 70 0 12 70 0 12 70 0 12 70 0 12 70 0 12 70 0 12 70 0 12 70 0
12 70 0 12 70 0 12 70 0 12 70 0 12 70 0 12 70 0 12 70 0 12 70 0 12 70
0 12 70 0 12 70 0 12 69 0 12 69 0 12 69 0 11 69 0 11 69 0 11 69 0 11
69 0 11 69 0 11 69 0 11 68 0 11 68 0 11 68 0 11 68 0 11 68 0 11 68 0
11 68 0 11 67 0 11 67 0 11 67 0 11 67 0 11 67 0 11 67 0 11 66 0 11 66
0 11 66 0 11 66 0 11 66 0 11 65 0 11 1 0 11 1 0 12 1 0 12 1 0 13 1 0
13 1 0 13 1 0 13 1 0 13 1 0 13 1 0 13 1 0 13 1 0 13 1 0 13 1 0 13 1 0
13 1 0 12 1 0 12 1 0 12 1 0 12 1 0 11 1 0 11 1 0 11 1 0 10 1 0 10 1 0
9 1 0 9 1 0 8 1 0 8 1 0 7 1 0 7 1 0 7 1 0 7 1 0 7 1 0 7 57 0 10 57 0 9
57 0 9 57 0 9 56 0 9 56 0 9 56 0 9 56 0 9 56 0 9 55 0 9 55 0 9 55 0 9
55 0 9 54 0 9 54 0 9 54 0 9 54 0 9 53 0 9 53 0 9 53 0 9 53 0 9 53 0 9
52 0 9 52 0 9 52 0 9 52 0 9 51 0 9 51 0 9 51 0 8 51 0 8 51 0 8 50 0 8
50 0 8 50 0 8 50 0 8 50 0 8 49 0 8 49 0 8 49 0 8 49 0 8 49 0 8 48 0 8
48 0 8 48 0 8 48 0 8 48 0 8 47 0 8 47 0 8 47 0 8 47 0 8 47 0 8 47 0 8
46 0 8 46 0 8 46 0 8 46 0 8 46 0 8 45 0 8 45 0 8 45 0 7 45 0 7 45 0 7
45 0 7 44 0 7 44 0 7 44 0 7 44 0 7 44 0 7 44 0 7 43 0 7 43 0 7 43 0 7
43 0 7 43 0 7 43 0 7 42 0 7 42 0 7 42 0 7 42 0 7 42 0 7 42 0 7 42 0 7
32 0 5 32 0 5 33 0 5 33 0 5 33 0 5 33 0 5 33 0 5 33 0 5 33 0 5 33 0 5
33 0 6 33 0 6 33 0 6 34 0 6 34 0 6 34 0 6 34 0 6 34 0 6 34 0 6 34 0 6
34 0 6 34 0 6 34 0 6 34 0 6 35 0 6 35 0 6 35 0 6 35 0 6 35 0 6 35 0 6
35 0 6 35 0 6 35 0 6 9 0 1 9 0 1 9 0 1 9 0 1 9 0 1 9 0 1 9 0 1 9 0 1 9
0 1 9 0 1 9 0 1 9 0 1 9 0 1 9 0 1 9 0 1 9 0 1 9 0 1 9 0 1 9 0 1 9 0 1
9 0 1 9 0 1 9 0 1 9 0 1 13 0 6 13 0 6 13 0 6 13 0 6 13 0 6 13 0 6 13 0
6 13 0 6 13 0 6 13 0 6 13 0 6 13 0 6 13 0 6 13 0 6 13 0 6 13 0 6 13 0
6 13 0 6 13 0 6 13 0 6 13 0 6 13 0 6 13 0 6 13 0 6 13 0 6 13 0 6 13 0
6 13 0 6 13 0 6 13 0 6 14 0 6 15 0 7 16 0 7 17 0 8 17 0 8 18 0 8 19 0
9 20 0 9 21 0 10 22 0 10 23 0 10 23 0 11 24 0 11 25 0 11 26 0 12 27 0
12 28 0 13 29 0 13 29 0 13 30 0 14 31 0 14 32 0 15 33 0 15 34 0 15 34
0 16 35 0 16 36 0 16 37 0 17 38 0 17 39 0 18 39 0 18 40 0 18 41 0 19
42 0 19 43 0 19 44 0 20 44 0 20 45 0 21 46 0 21 47 0 21 48 0 22 48 0
22 49 0 22 50 0 23 51 0 23 51 0 23 52 0 24 53 0 24 53 0 24 54 0 24 54
0 25 55 0 25 55 0 25 55 0 25 56 0 25 56 0 25 55 0 25 54 0 25 53 0 9 54
0 9 54 0 9 54 0 9 54 0 9 55 0 9 55 0 9 55 0 9 55 0 9 56 0 9 56 0 9 56
0 9 56 0 9 56 0 9 57 0 9 57 0 9 57 0 9 57 0 10 58 0 10 58 0 10 58 0 10
58 0 10 59 0 10 59 0 10 59 0 10 59 0 10 60 0 10 60 0 10 60 0 10 60 0
10 61 0 10 61 0 10 61 0 10 61 0 10 62 0 10 62 0 10 62 0 10 62 0 10 63
0 10 63 0 10 63 0 10 63 0 10 64 0 11 64 0 11 64 0 11 64 0 11 64 0 11
65 0 11 65 0 11 65 0 11 65 0 11 66 0 11 66 0 11 66 0 11 66 0 11 66 0
11 67 0 11 67 0 11 67 0 11 67 0 11 68 0 11 68 0 11 68 0 11 68 0 11 68
0 11 68 0 11 69 0 11 69 0 11 69 0 11 69 0 11 69 0 11 69 0 12 70 0 12
70 0 12 70 0 12 70 0 12 70 0 12 70 0 12 70 0 12 71 0 12 71 0 12 71 0
12 71 0 12 71 0 12 71 0 12 71 0 12 71 0 12 71 0 12 71 0 12 71 0 12 71
0 12 71 0 12 71 0 12 72 0 12 72 0 12 72 0 12 72 0 12 72 0 12 72 0 12
72 0 12 72 0 12 72 0 12 72 0 12 71 0 12 71 0 12 71 0 12 71 0 12 71 0
12 71 0 12 71 0 12 71 0 12 71 0 12 71 0 12 71 0 12 71 0 12 71 0 12 70
0 12 70 0 12 70 0 12 70 0 12 70 0 12 70 0 12 70 0 12 70 0 12 69 0 12
69 0 11 69 0 11 69 0 11 69 0 11 69 0 11 68 0 11 68 0 11 68 0 11 68 0
11 68 0 11 67 0 11 67 0 11 67 0 11 67 0 11 1 0 10 1 0 11 1 0 12 1 0 12
1 0 12 1 0 13 1 0 13 1 0 13 1 0 13 1 0 13 1 0 13 1 0 12 1 0 12 1 0 12
1 0 12 1 0 12 1 0 12 1 0 11 1 0 11 1 0 11 1 0 10 1 0 10 1 0 10 1 0 9 1
0 9 1 0 8 1 0 8 1 0 7 1 0 7 1 0 7 1 0 7 1 0 7 1 0 7 1 0 7 59 0 10 58 0
10 58 0 10 58 0 10 58 0 10 57 0 10 57 0 9 57 0 9 57 0 9 56 0 9 56 0 9
56 0 9 56 0 9 55 0 9 55 0 9 55 0 9 55 0 9 55 0 9 54 0 9 54 0 9 54 0 9
54 0 9 53 0 9 53 0 9 53 0 9 53 0 9 52 0 9 52 0 9 52 0 9 52 0 9 52 0 9
51 0 9 51 0 8 51 0 8 51 0 8 51 0 8 50 0 8 50 0 8 50 0 8 50 0 8 49 0 8
49 0 8 49 0 8 49 0 8 49 0 8 48 0 8 48 0 8 48 0 8 48 0 8 48 0 8 48 0 8
47 0 8 47 0 8 47 0 8 47 0 8 47 0 8 46 0 8 46 0 8 46 0 8 46 0 8 46 0 8
45 0 8 45 0 8 45 0 7 45 0 7 45 0 7 45 0 7 44 0 7 44 0 7 44 0 7 44 0 7
44 0 7 44 0 7 43 0 7 43 0 7 43 0 7 43 0 7 43 0 7 43 0 7 42 0 7 42 0 7
42 0 7
33 0 5 33 0 5 33 0 5 33 0 5 33 0 5 33 0 5 33 0 6 33 0 6 33 0 6 33 0 6
34 0 6 34 0 6 34 0 6 34 0 6 34 0 6 34 0 6 34 0 6 34 0 6 34 0 6 34 0 6
35 0 6 35 0 6 35 0 6 35 0 6 35 0 6 35 0 6 35 0 6 35 0 6 35 0 6 35 0 6
36 0 6 36 0 6 36 0 6 36 0 6 36 0 6 36 0 6 9 0 1 9 0 1 9 0 1 9 0 1 9 0
1 9 0 1 9 0 1 9 0 1 9 0 1 9 0 1 9 0 1 9 0 1 9 0 1 9 0 1 9 0 1 9 0 1 9
0 1 9 0 1 9 0 1 9 0 1 9 0 1 13 0 6 13 0 6 13 0 6 13 0 6 13 0 6 13 0 6
13 0 6 13 0 6 13 0 6 13 0 6 13 0 6 13 0 6 13 0 6 13 0 6 13 0 6 13 0 6
13 0 6 13 0 6 13 0 6 13 0 6 13 0 6 13 0 6 13 0 6 13 0 6 13 0 6 13 0 6
13 0 6 13 0 6 13 0 6 13 0 6 14 0 6 14 0 7 15 0 7 16 0 7 17 0 8 18 0 8
19 0 9 20 0 9 20 0 9 21 0 10 22 0 10 23 0 10 24 0 11 25 0 11 26 0 12
26 0 12 27 0 12 28 0 13 29 0 13 30 0 14 31 0 14 31 0 14 32 0 15 33 0
15 34 0 15 35 0 16 36 0 16 36 0 17 37 0 17 38 0 17 39 0 18 40 0 18 41
0 18 41 0 19 42 0 19 43 0 20 44 0 20 45 0 20 45 0 21 46 0 21 47 0 21
48 0 22 48 0 22 49 0 22 50 0 23 51 0 23 51 0 23 52 0 24 53 0 24 53 0
24 54 0 24 54 0 25 54 0 25 55 0 25 55 0 25 55 0 25 55 0 25 54 0 24 54
0 9 54 0 9 55 0 9 55 0 9 55 0 9 55 0 9 56 0 9 56 0 9 56 0 9 56 0 9 57
0 9 57 0 9 57 0 9 57 0 9 58 0 10 58 0 10 58 0 10 58 0 10 59 0 10 59 0
10 59 0 10 59 0 10 60 0 10 60 0 10 60 0 10 60 0 10 61 0 10 61 0 10 61
0 10 61 0 10 62 0 10 62 0 10 62 0 10 62 0 10 63 0 10 63 0 10 63 0 10
63 0 11 64 0 11 64 0 11 64 0 11 64 0 11 65 0 11 65 0 11 65 0 11 65 0
11 66 0 11 66 0 11 66 0 11 66 0 11 66 0 11 67 0 11 67 0 11 67 0 11 67
0 11 68 0 11 68 0 11 68 0 11 68 0 11 68 0 11 69 0 11 69 0 11 69 0 11
69 0 11 69 0 12 70 0 12 70 0 12 70 0 12 70 0 12 70 0 12 71 0 12 71 0
12 71 0 12 71 0 12 71 0 12 71 0 12 71 0 12 72 0 12 72 0 12 72 0 12 72
0 12 72 0 12 72 0 12 72 0 12 72 0 12 72 0 12 73 0 12 73 0 12 73 0 12
73 0 12 73 0 12 73 0 12 73 0 12 73 0 12 73 0 12 73 0 12 73 0 12 73 0
12 73 0 12 73 0 12 73 0 12 73 0 12 73 0 12 73 0 12 73 0 12 73 0 12 73
0 12 73 0 12 73 0 12 73 0 12 73 0 12 72 0 12 72 0 12 72 0 12 72 0 12
72 0 12 72 0 12 72 0 12 72 0 12 72 0 12 71 0 12 71 0 12 71 0 12 71 0
12 71 0 12 71 0 12 71 0 12 70 0 12 70 0 12 70 0 12 70 0 12 70 0 12 69
0 12 69 0 11 69 0 11 69 0 11 69 0 11 68 0 11 68 0 11 1 0 9 1 0 10 1 0
11 1 0 11 1 0 12 1 0 12 1 0 12 1 0 12 1 0 12 1 0 12 1 0 12 1 0 12 1 0
12 1 0 11 1 0 11 1 0 11 1 0 11 1 0 11 1 0 10 1 0 10 1 0 10 1 0 9 1 0 9
1 0 9 1 0 8 1 0 8 1 0 7 1 0 7 1 0 7 1 0 7 1 0 7 1 0 7 1 0 7 1 0 7 60 0
10 59 0 10 59 0 10 59 0 10 59 0 10 58 0 10 58 0 10 58 0 10 58 0 10 57
0 10 57 0 9 57 0 9 57 0 9 56 0 9 56 0 9 56 0 9 56 0 9 56 0 9 55 0 9 55
0 9 55 0 9 55 0 9 54 0 9 54 0 9 54 0 9 54 0 9 53 0 9 53 0 9 53 0 9 53
0 9 53 0 9 52 0 9 52 0 9 52 0 9 52 0 9 51 0 9 51 0 8 51 0 8 51 0 8 51
0 8 50 0 8 50 0 8 50 0 8 50 0 8 50 0 8 49 0 8 49 0 8 49 0 8 49 0 8 49
0 8 48 0 8 48 0 8 48 0 8 48 0 8 48 0 8 47 0 8 47 0 8 47 0 8 47 0 8 47
0 8 46 0 8 46 0 8 46 0 8 46 0 8 46 0 8 46 0 8 45 0 8 45 0 7 45 0 7 45
0 7 45 0 7 44 0 7 44 0 7 44 0 7 44 0 7 44 0 7 44 0 7 43 0 7 43 0 7 43
0 7 43 0 7 43 0 7
33 0 5 33 0 5 33 0 6 33 0 6 33 0 6 33 0 6 34 0 6 34 0 6 34 0 6 34 0 6
34 0 6 34 0 6 34 0 6 34 0 6 34 0 6 34 0 6 34 0 6 35 0 6 9 0 1 9 0 1 9
0 1 9 0 1 9 0 1 9 0 1 9 0 1 9 0 1 9 0 1 9 0 1 9 0 1 9 0 1 9 0 1 9 0 1
9 0 1 9 0 1 9 0 1 9 0 1 9 0 1 9 0 1 9 0 1 9 0 1 9 0 1 9 0 1 9 0 1 9 0
1 9 0 1 9 0 1 9 0 1 9 0 1 9 0 1 9 0 1 9 0 1 9 0 1 9 0 1 9 0 1 9 0 1 9
0 1 9 0 1 13 0 6 13 0 6 13 0 6 13 0 6 13 0 6 13 0 6 13 0 6 13 0 6 13 0
6 13 0 6 13 0 6 13 0 6 13 0 6 13 0 6 13 0 6 13 0 6 13 0 6 13 0 6 13 0
6 13 0 6 13 0 6 13 0 6 13 0 6 13 0 6 13 0 6 13 0 6 13 0 6 13 0 6 13 0
6 13 0 6 13 0 6 14 0 6 15 0 7 16 0 7 17 0 8 17 0 8 18 0 8 19 0 9 20 0
9 21 0 9 22 0 10 23 0 10 23 0 11 24 0 11 25 0 11 26 0 12 27 0 12 28 0
13 28 0 13 29 0 13 30 0 14 31 0 14 32 0 14 33 0 15 33 0 15 34 0 16 35
0 16 36 0 16 37 0 17 37 0 17 38 0 17 39 0 18 40 0 18 41 0 19 42 0 19
42 0 19 43 0 20 44 0 20 45 0 20 45 0 21 46 0 21 47 0 21 48 0 22 48 0
22 49 0 22 50 0 23 51 0 23 51 0 23 52 0 24 52 0 24 53 0 24 53 0 24 54
0 24 54 0 25 54 0 25 54 0 25 54 0 24 53 0 24 55 0 9 55 0 9 55 0 9 56 0
9 56 0 9 56 0 9 56 0 9 57 0 9 57 0 9 57 0 9 57 0 9 58 0 10 58 0 10 58
0 10 58 0 10 59 0 10 59 0 10 59 0 10 59 0 10 60 0 10 60 0 10 60 0 10
60 0 10 61 0 10 61 0 10 61 0 10 61 0 10 62 0 10 62 0 10 62 0 10 62 0
10 63 0 10 63 0 10 63 0 10 63 0 11 64 0 11 64 0 11 64 0 11 64 0 11 65
0 11 65 0 11 65 0 11 66 0 11 66 0 11 66 0 11 66 0 11 67 0 11 67 0 11
67 0 11 67 0 11 68 0 11 68 0 11 68 0 11 68 0 11 68 0 11 69 0 11 69 0
11 69 0 11 69 0 12 70 0 12 70 0 12 70 0 12 70 0 12 70 0 12 71 0 12 71
0 12 71 0 12 71 0 12 71 0 12 72 0 12 72 0 12 72 0 12 72 0 12 72 0 12
72 0 12 73 0 12 73 0 12 73 0 12 73 0 12 73 0 12 73 0 12 73 0 12 74 0
12 74 0 12 74 0 12 74 0 12 74 0 12 74 0 12 74 0 12 74 0 12 74 0 12 74
0 12 74 0 12 74 0 12 74 0 12 74 0 12 74 0 12 74 0 12 74 0 12 74 0 12
74 0 12 74 0 12 74 0 12 74 0 12 74 0 12 74 0 12 74 0 12 74 0 12 74 0
12 74 0 12 74 0 12 74 0 12 74 0 12 74 0 12 74 0 12 74 0 12 73 0 12 73
0 12 73 0 12 73 0 12 73 0 12 73 0 12 73 0 12 72 0 12 72 0 12 72 0 12
72 0 12 72 0 12 72 0 12 71 0 12 71 0 12 71 0 12 71 0 12 71 0 12 70 0
12 70 0 12 70 0 12 70 0 12 70 0 12 1 0 8 1 0 9 1 0 10 1 0 10 1 0 11 1
0 11 1 0 11 1 0 11 1 0 11 1 0 11 1 0 11 1 0 11 1 0 11 1 0 11 1 0 11 1
0 10 1 0 10 1 0 10 1 0 10 1 0 9 1 0 9 1 0 9 1 0 8 1 0 8 1 0 8 1 0 7 1
0 7 1 0 7 1 0 7 1 0 7 1 0 7 1 0 7 1 0 7 1 0 7 61 0 10 61 0 10 60 0 10
60 0 10 60 0 10 60 0 10 59 0 10 59 0 10 59 0 10 59 0 10 58 0 10 58 0
10 58 0 10 58 0 10 57 0 10 57 0 9 57 0 9 57 0 9 56 0 9 56 0 9 56 0 9
56 0 9 55 0 9 55 0 9 55 0 9 55 0 9 54 0 9 54 0 9 54 0 9 54 0 9 53 0 9
53 0 9 53 0 9 53 0 9 53 0 9 52 0 9 52 0 9 52 0 9 52 0 9 51 0 9 51 0 8
51 0 8 51 0 8 51 0 8 50 0 8 50 0 8 50 0 8 50 0 8 50 0 8 49 0 8 49 0 8
49 0 8 49 0 8 49 0 8 48 0 8 48 0 8 48 0 8 48 0 8 48 0 8 47 0 8 47 0 8
47 0 8 47 0 8 47 0 8 46 0 8 46 0 8 46 0 8 46 0 8 46 0 8 46 0 8 45 0 8
45 0 7 45 0 7 45 0 7 45 0 7 44 0 7 44 0 7 44 0 7 44 0 7 44 0 7 44 0 7
43 0 7
33 0 6 9 0 1 9 0 1 9 0 1 9 0 1 9 0 1 9 0 1 9 0 1 9 0 1 9 0 1 9 0 1 9 0
1 9 0 1 9 0 1 9 0 1 9 0 1 9 0 1 9 0 1 9 0 1 9 0 1 9 0 1 9 0 1 9 0 1 9
0 1 9 0 1 9 0 1 9 0 1 9 0 1 9 0 1 9 0 1 9 0 1 9 0 1 9 0 1 9 0 1 9 0 1
9 0 1 9 0 1 9 0 1 9 0 1 9 0 1 9 0 1 9 0 1 9 0 1 9 0 1 9 0 1 9 0 1 9 0
1 9 0 1 9 0 1 9 0 1 9 0 1 9 0 1 9 0 1 9 0 1 9 0 1 9 0 1 9 0 1 13 0 6
13 0 6 13 0 6 13 0 6 13 0 6 13 0 6 13 0 6 13 0 6 13 0 6 13 0 6 13 0 6
13 0 6 13 0 6 13 0 6 13 0 6 13 0 6 13 0 6 13 0 6 13 0 6 13 0 6 13 0 6
13 0 6 13 0 6 13 0 6 13 0 6 13 0 6 13 0 6 13 0 6 13 0 6 13 0 6 13 0 6
14 0 6 14 0 7 15 0 7 16 0 7 17 0 8 18 0 8 19 0 8 20 0 9 20 0 9 21 0 10
22 0 10 23 0 10 24 0 11 25 0 11 25 0 12 26 0 12 27 0 12 28 0 13 29 0
13 29 0 13 30 0 14 31 0 14 32 0 15 33 0 15 34 0 15 34 0 16 35 0 16 36
0 16 37 0 17 38 0 17 38 0 18 39 0 18 40 0 18 41 0 19 42 0 19 42 0 19
43 0 20 44 0 20 45 0 20 46 0 21 46 0 21 47 0 21 48 0 22 48 0 22 49 0
22 50 0 23 50 0 23 51 0 23 52 0 23 52 0 24 53 0 24 53 0 24 53 0 24 53
0 24 53 0 24 53 0 24 52 0 24 55 0 9 56 0 9 56 0 9 56 0 9 56 0 9 57 0 9
57 0 9 57 0 9 57 0 10 58 0 10 58 0 10 58 0 10 58 0 10 59 0 10 59 0 10
59 0 10 60 0 10 60 0 10 60 0 10 60 0 10 61 0 10 61 0 10 61 0 10 61 0
10 62 0 10 62 0 10 62 0 10 62 0 10 63 0 10 63 0 10 63 0 10 64 0 11 64
0 11 64 0 11 64 0 11 65 0 11 65 0 11 65 0 11 65 0 11 66 0 11 66 0 11
66 0 11 66 0 11 67 0 11 67 0 11 67 0 11 67 0 11 68 0 11 68 0 11 68 0
11 69 0 11 69 0 11 69 0 11 69 0 11 69 0 12 70 0 12 70 0 12 70 0 12 70
0 12 71 0 12 71 0 12 71 0 12 71 0 12 72 0 12 72 0 12 72 0 12 72 0 12
72 0 12 73 0 12 73 0 12 73 0 12 73 0 12 73 0 12 73 0 12 74 0 12 74 0
12 74 0 12 74 0 12 74 0 12 74 0 12 75 0 12 75 0 12 75 0 12 75 0 12 75
0 12 75 0 12 75 0 12 75 0 12 75 0 13 75 0 13 76 0 13 76 0 13 76 0 13
76 0 13 76 0 13 76 0 13 76 0 13 76 0 13 76 0 13 76 0 13 76 0 13 76 0
13 76 0 13 76 0 13 76 0 13 76 0 13 76 0 13 76 0 13 76 0 13 75 0 13 75
0 13 75 0 12 75 0 12 75 0 12 75 0 12 75 0 12 75 0 12 75 0 12 75 0 12
74 0 12 74 0 12 74 0 12 74 0 12 74 0 12 74 0 12 74 0 12 73 0 12 73 0
12 73 0 12 73 0 12 73 0 12 72 0 12 72 0 12 72 0 12 72 0 12 72 0 12 71
0 12 71 0 12 71 0 12 71 0 12 1 0 8 1 0 9 1 0 10 1 0 10 1 0 10 1 0 10 1
0 10 1 0 10 1 0 10 1 0 10 1 0 10 1 0 10 1 0 10 1 0 10 1 0 10 1 0 9 1 0
9 1 0 9 1 0 9 1 0 8 1 0 8 1 0 8 1 0 7 1 0 7 1 0 7 1 0 7 1 0 7 1 0 7 1
0 7 1 0 7 1 0 7 1 0 7 62 0 10 62 0 10 62 0 10 61 0 10 61 0 10 61 0 10
61 0 10 60 0 10 60 0 10 60 0 10 60 0 10 59 0 10 59 0 10 59 0 10 59 0
10 58 0 10 58 0 10 58 0 10 58 0 10 57 0 10 57 0 9 57 0 9 57 0 9 56 0 9
56 0 9 56 0 9 56 0 9 55 0 9 55 0 9 55 0 9 55 0 9 54 0 9 54 0 9 54 0 9
54 0 9 53 0 9 53 0 9 53 0 9 53 0 9 53 0 9 52 0 9 52 0 9 52 0 9 52 0 9
51 0 9 51 0 8 51 0 8 51 0 8 51 0 8 50 0 8 50 0 8 50 0 8 50 0 8 49 0 8
49 0 8 49 0 8 49 0 8 49 0 8 48 0 8 48 0 8 48 0 8 48 0 8 48 0 8 48 0 8
47 0 8 47 0 8 47 0 8 47 0 8 47 0 8 46 0 8 46 0 8 46 0 8 46 0 8 46 0 8
46 0 8 45 0 8 45 0 7 45 0 7 45 0 7 45 0 7 44 0 7 44 0 7 44 0 7
9 0 1 9 0 1 9 0 1 9 0 1 9 0 1 9 0 1 9 0 1 9 0 1 9 0 1 9 0 1 9 0 1 9 0
1 9 0 1 9 0 1 9 0 1 9 0 1 9 0 1 9 0 1 9 0 1 9 0 1 9 0 1 9 0 1 9 0 1 9
0 1 9 0 1 9 0 1 9 0 1 9 0 1 9 0 1 9 0 1 9 0 1 9 0 1 9 0 1 9 0 1 9 0 1
9 0 1 9 0 1 9 0 1 9 0 1 9 0 1 9 0 1 9 0 1 9 0 1 9 0 1 9 0 1 9 0 1 9 0
1 9 0 1 9 0 1 9 0 1 9 0 1 9 0 1 9 0 1 9 0 1 9 0 1 9 0 1 9 0 1 13 0 6
13 0 6 13 0 6 13 0 6 13 0 6 13 0 6 13 0 6 13 0 6 13 0 6 13 0 6 13 0 6
13 0 6 13 0 6 13 0 6 13 0 6 13 0 6 13 0 6 13 0 6 13 0 6 13 0 6 13 0 6
13 0 6 13 0 6 13 0 6 13 0 6 13 0 6 13 0 6 13 0 6 13 0 6 13 0 6 13 0 6
13 0 6 14 0 6 15 0 7 16 0 7 17 0 8 17 0 8 18 0 8 19 0 9 20 0 9 21 0 9
22 0 10 22 0 10 23 0 11 24 0 11 25 0 11 26 0 12 26 0 12 27 0 12 28 0
13 29 0 13 30 0 14 31 0 14 31 0 14 32 0 15 33 0 15 34 0 15 35 0 16 35
0 16 36 0 17 37 0 17 38 0 17 39 0 18 39 0 18 40 0 18 41 0 19 42 0 19
43 0 19 43 0 20 44 0 20 45 0 20 46 0 21 46 0 21 47 0 21 48 0 22 48 0
22 49 0 22 50 0 23 50 0 23 51 0 23 51 0 23 52 0 24 52 0 24 53 0 24 53
0 24 53 0 24 52 0 24 51 0 23 56 0 9 56 0 9 57 0 9 57 0 9 57 0 9 57 0
10 58 0 10 58 0 10 58 0 10 58 0 10 59 0 10 59 0 10 59 0 10 59 0 10 60
0 10 60 0 10 60 0 10 60 0 10 61 0 10 61 0 10 61 0 10 62 0 10 62 0 10
62 0 10 62 0 10 63 0 10 63 0 10 63 0 10 63 0 11 64 0 11 64 0 11 64 0
11 65 0 11 65 0 11 65 0 11 65 0 11 66 0 11 66 0 11 66 0 11 67 0 11 67
0 11 67 0 11 67 0 11 68 0 11 68 0 11 68 0 11 68 0 11 69 0 11 69 0 11
69 0 11 69 0 12 70 0 12 70 0 12 70 0 12 70 0 12 71 0 12 71 0 12 71 0
12 71 0 12 72 0 12 72 0 12 72 0 12 72 0 12 73 0 12 73 0 12 73 0 12 73
0 12 73 0 12 74 0 12 74 0 12 74 0 12 74 0 12 74 0 12 75 0 12 75 0 12
75 0 12 75 0 12 75 0 12 75 0 13 76 0 13 76 0 13 76 0 13 76 0 13 76 0
13 76 0 13 76 0 13 76 0 13 77 0 13 77 0 13 77 0 13 77 0 13 77 0 13 77
0 13 77 0 13 77 0 13 77 0 13 77 0 13 77 0 13 77 0 13 77 0 13 77 0 13
77 0 13 77 0 13 77 0 13 77 0 13 77 0 13 77 0 13 77 0 13 77 0 13 77 0
13 77 0 13 77 0 13 77 0 13 76 0 13 76 0 13 76 0 13 76 0 13 76 0 13 76
0 13 76 0 13 76 0 13 76 0 13 75 0 13 75 0 12 75 0 12 75 0 12 75 0 12
75 0 12 74 0 12 74 0 12 74 0 12 74 0 12 74 0 12 73 0 12 73 0 12 73 0
12 73 0 12 72 0 12 72 0 12 72 0 12 1 0 7 1 0 8 1 0 9 1 0 9 1 0 9 1 0 9
1 0 10 1 0 10 1 0 10 0 0 9 0 0 9 0 0 9 0 0 9 0 0 9 0 0 9 0 0 9 0 0 8 0
0 8 0 0 8 0 0 8 0 0 7 0 0 7 0 0 7 0 0 7 0 0 7 0 0 7 0 0 7 0 0 7 0 0 7
0 0 7 0 0 7 0 0 7 9 0 1 63 0 10 63 0 10 63 0 10 62 0 10 62 0 10 62 0
10 61 0 10 61 0 10 61 0 10 61 0 10 60 0 10 60 0 10 60 0 10 60 0 10 59
0 10 59 0 10 59 0 10 59 0 10 58 0 10 58 0 10 58 0 10 57 0 10 57 0 9 57
0 9 57 0 9 56 0 9 56 0 9 56 0 9 56 0 9 55 0 9 55 0 9 55 0 9 55 0 9 55
0 9 54 0 9 54 0 9 54 0 9 54 0 9 53 0 9 53 0 9 53 0 9 53 0 9 52 0 9 52
0 9 52 0 9 52 0 9 52 0 9 51 0 9 51 0 8 51 0 8 51 0 8 50 0 8 50 0 8 50
0 8 50 0 8 50 0 8 49 0 8 49 0 8 49 0 8 49 0 8 49 0 8 48 0 8 48 0 8 48
0 8 48 0 8 48 0 8 47 0 8 47 0 8 47 0 8 47 0 8 47 0 8 47 0 8 46 0 8 46
0 8 46 0 8 46 0 8 46 0 8 45 0 8 45 0 8 45 0 7 45 0 7 45 0 7
9 0 1 9 0 1 9 0 1 9 0 1 9 0 1 9 0 1 9 0 1 9 0 1 9 0 1 9 0 1 9 0 1 9 0
1 9 0 1 9 0 1 9 0 1 9 0 1 9 0 1 9 0 1 9 0 1 9 0 1 9 0 1 9 0 1 9 0 1 9
0 1 9 0 1 9 0 1 9 0 1 9 0 1 9 0 1 9 0 1 9 0 1 9 0 1 9 0 1 9 0 1 9 0 1
9 0 1 9 0 1 9 0 1 9 0 1 9 0 1 9 0 1 9 0 1 9 0 1 9 0 1 9 0 1 9 0 1 9 0
1 9 0 1 9 0 1 9 0 1 9 0 1 9 0 1 9 0 1 9 0 1 9 0 1 9 0 1 9 0 1 13 0 6
13 0 6 13 0 6 13 0 6 13 0 6 13 0 6 13 0 6 13 0 6 13 0 6 13 0 6 13 0 6
13 0 6 13 0 6 13 0 6 13 0 6 13 0 6 13 0 6 13 0 6 13 0 6 13 0 6 13 0 6
13 0 6 13 0 6 13 0 6 13 0 6 13 0 6 13 0 6 13 0 6 13 0 6 13 0 6 13 0 6
13 0 6 14 0 6 14 0 7 15 0 7 16 0 7 17 0 8 18 0 8 19 0 8 19 0 9 20 0 9
21 0 10 22 0 10 23 0 10 23 0 11 24 0 11 25 0 11 26 0 12 27 0 12 28 0
13 28 0 13 29 0 13 30 0 14 31 0 14 32 0 14 32 0 15 33 0 15 34 0 15 35
0 16 36 0 16 36 0 17 37 0 17 38 0 17 39 0 18 40 0 18 40 0 18 41 0 19
42 0 19 43 0 19 43 0 20 44 0 20 45 0 20 46 0 21 46 0 21 47 0 21 48 0
22 48 0 22 49 0 22 50 0 23 50 0 23 51 0 23 51 0 23 51 0 23 52 0 24 52
0 24 52 0 24 52 0 23 51 0 23 57 0 9 57 0 9 57 0 9 57 0 10 58 0 10 58 0
10 58 0 10 58 0 10 59 0 10 59 0 10 59 0 10 60 0 10 60 0 10 60 0 10 60
0 10 61 0 10 61 0 10 61 0 10 61 0 10 62 0 10 62 0 10 62 0 10 63 0 10
63 0 10 63 0 10 63 0 11 64 0 11 64 0 11 64 0 11 64 0 11 65 0 11 65 0
11 65 0 11 66 0 11 66 0 11 66 0 11 66 0 11 67 0 11 67 0 11 67 0 11 68
0 11 68 0 11 68 0 11 68 0 11 69 0 11 69 0 11 69 0 11 70 0 12 70 0 12
70 0 12 70 0 12 71 0 12 71 0 12 71 0 12 71 0 12 72 0 12 72 0 12 72 0
12 72 0 12 73 0 12 73 0 12 73 0 12 73 0 12 74 0 12 74 0 12 74 0 12 74
0 12 74 0 12 75 0 12 75 0 12 75 0 12 75 0 12 75 0 13 76 0 13 76 0 13
76 0 13 76 0 13 76 0 13 77 0 13 77 0 13 77 0 13 77 0 13 77 0 13 77 0
13 77 0 13 77 0 13 78 0 13 78 0 13 78 0 13 78 0 13 78 0 13 78 0 13 78
0 13 78 0 13 78 0 13 78 0 13 78 0 13 78 0 13 78 0 13 78 0 13 78 0 13
78 0 13 78 0 13 78 0 13 78 0 13 78 0 13 78 0 13 78 0 13 78 0 13 78 0
13 78 0 13 78 0 13 78 0 13 78 0 13 78 0 13 78 0 13 77 0 13 77 0 13 77
0 13 77 0 13 77 0 13 77 0 13 77 0 13 76 0 13 76 0 13 76 0 13 76 0 13
76 0 13 76 0 13 75 0 13 75 0 12 75 0 12 75 0 12 75 0 12 74 0 12 74 0
12 74 0 12 74 0 12 74 0 12 73 0 12 73 0 12 1 0 7 1 0 8 1 0 8 1 0 8 0 0
8 0 0 9 0 0 9 0 0 9 0 0 9 0 0 9 0 0 9 0 0 8 0 0 8 0 0 8 0 0 8 0 0 8 0
0 7 0 0 7 0 0 7 0 0 7 0 0 7 0 0 7 0 0 7 0 0 7 0 0 7 0 0 7 0 0 7 0 0 7
0 0 7 0 0 7 9 0 1 9 0 1 9 0 1 9 0 1 9 0 1 9 0 1 9 0 1 63 0 10 62 0 10
62 0 10 62 0 10 62 0 10 61 0 10 61 0 10 61 0 10 61 0 10 60 0 10 60 0
10 60 0 10 59 0 10 59 0 10 59 0 10 59 0 10 58 0 10 58 0 10 58 0 10 58
0 10 57 0 10 57 0 9 57 0 9 57 0 9 56 0 9 56 0 9 56 0 9 56 0 9 55 0 9
55 0 9 55 0 9 55 0 9 54 0 9 54 0 9 54 0 9 54 0 9 53 0 9 53 0 9 53 0 9
53 0 9 53 0 9 52 0 9 52 0 9 52 0 9 52 0 9 51 0 9 51 0 9 51 0 8 51 0 8
51 0 8 50 0 8 50 0 8 50 0 8 50 0 8 50 0 8 49 0 8 49 0 8 49 0 8 49 0 8
49 0 8 48 0 8 48 0 8 48 0 8 48 0 8 48 0 8 47 0 8 47 0 8 47 0 8 47 0 8
47 0 8 46 0 8 46 0 8 46 0 8 46 0 8 46 0 8 46 0 8 45 0 8
9 0 1 9 0 1 9 0 1 9 0 1 9 0 1 9 0 1 9 0 1 9 0 1 9 0 1 9 0 1 9 0 1 9 0
1 9 0 1 9 0 1 9 0 1 9 0 1 9 0 1 9 0 1 9 0 1 9 0 1 9 0 1 9 0 1 9 0 1 9
0 1 9 0 1 9 0 1 9 0 1 9 0 1 9 0 1 9 0 1 9 0 1 9 0 1 9 0 1 9 0 1 9 0 1
9 0 1 9 0 1 9 0 1 9 0 1 9 0 1 9 0 1 9 0 1 9 0 1 9 0 1 9 0 1 9 0 1 9 0
1 9 0 1 9 0 1 9 0 1 9 0 1 9 0 1 9 0 1 9 0 1 9 0 1 9 0 1 13 0 6 13 0 6
13 0 6 13 0 6 13 0 6 13 0 6 13 0 6 13 0 6 13 0 6 13 0 6 13 0 6 13 0 6
13 0 6 13 0 6 13 0 6 13 0 6 13 0 6 13 0 6 13 0 6 13 0 6 13 0 6 13 0 6
13 0 6 13 0 6 13 0 6 13 0 6 13 0 6 13 0 6 13 0 6 13 0 6 13 0 6 13 0 6
13 0 6 13 0 6 14 0 6 15 0 7 16 0 7 16 0 7 17 0 8 18 0 8 19 0 9 20 0 9
21 0 9 21 0 10 22 0 10 23 0 10 24 0 11 25 0 11 25 0 12 26 0 12 27 0 12
28 0 13 29 0 13 29 0 13 30 0 14 31 0 14 32 0 14 33 0 15 33 0 15 34 0
16 35 0 16 36 0 16 37 0 17 37 0 17 38 0 17 39 0 18 40 0 18 41 0 18 41
0 19 42 0 19 43 0 19 44 0 20 44 0 20 45 0 20 46 0 21 46 0 21 47 0 21
48 0 22 48 0 22 49 0 22 49 0 22 50 0 23 50 0 23 51 0 23 51 0 23 51 0
23 51 0 23 51 0 23 50 0 23 57 0 9 58 0 10 58 0 10 58 0 10 58 0 10 59 0
10 59 0 10 59 0 10 59 0 10 60 0 10 60 0 10 60 0 10 60 0 10 61 0 10 61
0 10 61 0 10 62 0 10 62 0 10 62 0 10 62 0 10 63 0 10 63 0 10 63 0 10
63 0 11 64 0 11 64 0 11 64 0 11 65 0 11 65 0 11 65 0 11 65 0 11 66 0
11 66 0 11 66 0 11 67 0 11 67 0 11 67 0 11 67 0 11 68 0 11 68 0 11 68
0 11 69 0 11 69 0 11 69 0 11 69 0 12 70 0 12 70 0 12 70 0 12 71 0 12
71 0 12 71 0 12 71 0 12 72 0 12 72 0 12 72 0 12 72 0 12 73 0 12 73 0
12 73 0 12 74 0 12 74 0 12 74 0 12 74 0 12 74 0 12 75 0 12 75 0 12 75
0 12 75 0 13 76 0 13 76 0 13 76 0 13 76 0 13 76 0 13 77 0 13 77 0 13
77 0 13 77 0 13 77 0 13 78 0 13 78 0 13 78 0 13 78 0 13 78 0 13 78 0
13 78 0 13 79 0 13 79 0 13 79 0 13 79 0 13 79 0 13 79 0 13 79 0 13 79
0 13 79 0 13 79 0 13 79 0 13 79 0 13 79 0 13 80 0 13 80 0 13 80 0 13
80 0 13 80 0 13 80 0 13 80 0 13 79 0 13 79 0 13 79 0 13 79 0 13 79 0
13 79 0 13 79 0 13 79 0 13 79 0 13 79 0 13 79 0 13 79 0 13 79 0 13 78
0 13 78 0 13 78 0 13 78 0 13 78 0 13 78 0 13 78 0 13 77 0 13 77 0 13
77 0 13 77 0 13 77 0 13 76 0 13 76 0 13 76 0 13 76 0 13 76 0 13 75 0
13 75 0 12 75 0 12 75 0 12 74 0 12 74 0 12 1 0 7 0 0 7 0 0 7 0 0 7 0 0
8 0 0 8 0 0 8 0 0 8 0 0 8 0 0 8 0 0 8 0 0 8 0 0 7 0 0 7 0 0 7 0 0 7 0
0 7 0 0 7 0 0 7 0 0 7 0 0 7 0 0 7 0 0 7 0 0 7 0 0 7 0 0 7 0 0 7 0 0 7
0 0 7 0 0 7 9 0 1 9 0 1 9 0 1 9 0 1 9 0 1 9 0 1 9 0 1 9 0 1 9 0 1 9 0
1 9 0 1 63 0 10 62 0 10 62 0 10 62 0 10 61 0 10 61 0 10 61 0 10 61 0
10 60 0 10 60 0 10 60 0 10 60 0 10 59 0 10 59 0 10 59 0 10 59 0 10 58
0 10 58 0 10 58 0 10 57 0 10 57 0 9 57 0 9 57 0 9 56 0 9 56 0 9 56 0 9
56 0 9 55 0 9 55 0 9 55 0 9 55 0 9 55 0 9 54 0 9 54 0 9 54 0 9 54 0 9
53 0 9 53 0 9 53 0 9 53 0 9 52 0 9 52 0 9 52 0 9 52 0 9 52 0 9 51 0 9
51 0 8 51 0 8 51 0 8 50 0 8 50 0 8 50 0 8 50 0 8 50 0 8 49 0 8 49 0 8
49 0 8 49 0 8 49 0 8 48 0 8 48 0 8 48 0 8 48 0 8 48 0 8 48 0 8 47 0 8
47 0 8 47 0 8 47 0 8 47 0 8 46 0 8 46 0 8 46 0 8
9 0 1 9 0 1 9 0 1 9 0 1 9 0 1 9 0 1 9 0 1 9 0 1 9 0 1 9 0 1 9 0 1 9 0
1 9 0 1 9 0 1 9 0 1 9 0 1 9 0 1 9 0 1 9 0 1 9 0 1 9 0 1 9 0 1 9 0 1 9
0 1 9 0 1 9 0 1 9 0 1 9 0 1 9 0 1 9 0 1 9 0 1 9 0 1 9 0 1 9 0 1 9 0 1
9 0 1 9 0 1 9 0 1 9 0 1 9 0 1 9 0 1 9 0 1 9 0 1 9 0 1 9 0 1 9 0 1 9 0
1 9 0 1 9 0 1 9 0 1 9 0 1 9 0 1 9 0 1 9 0 1 9 0 1 9 0 1 13 0 6 13 0 6
13 0 6 13 0 6 13 0 6 13 0 6 13 0 6 13 0 6 13 0 6 13 0 6 13 0 6 13 0 6
13 0 6 13 0 6 13 0 6 13 0 6 13 0 6 13 0 6 13 0 6 13 0 6 13 0 6 13 0 6
13 0 6 13 0 6 13 0 6 13 0 6 13 0 6 13 0 6 13 0 6 13 0 6 13 0 6 13 0 6
13 0 6 13 0 6 13 0 6 14 0 6 15 0 7 16 0 7 17 0 8 18 0 8 18 0 8 19 0 9
20 0 9 21 0 9 22 0 10 22 0 10 23 0 11 24 0 11 25 0 11 26 0 12 26 0 12
27 0 12 28 0 13 29 0 13 30 0 14 30 0 14 31 0 14 32 0 15 33 0 15 34 0
15 34 0 16 35 0 16 36 0 16 37 0 17 38 0 17 38 0 17 39 0 18 40 0 18 41
0 18 41 0 19 42 0 19 43 0 19 44 0 20 44 0 20 45 0 20 46 0 21 46 0 21
47 0 21 47 0 22 48 0 22 49 0 22 49 0 22 49 0 23 50 0 23 50 0 23 50 0
23 50 0 23 50 0 23 49 0 22 58 0 10 58 0 10 58 0 10 59 0 10 59 0 10 59
0 10 59 0 10 60 0 10 60 0 10 60 0 10 60 0 10 61 0 10 61 0 10 61 0 10
62 0 10 62 0 10 62 0 10 62 0 10 63 0 10 63 0 10 63 0 10 64 0 11 64 0
11 64 0 11 64 0 11 65 0 11 65 0 11 65 0 11 66 0 11 66 0 11 66 0 11 66
0 11 67 0 11 67 0 11 67 0 11 68 0 11 68 0 11 68 0 11 68 0 11 69 0 11
69 0 11 69 0 11 70 0 12 70 0 12 70 0 12 70 0 12 71 0 12 71 0 12 71 0
12 72 0 12 72 0 12 72 0 12 72 0 12 73 0 12 73 0 12 73 0 12 74 0 12 74
0 12 74 0 12 74 0 12 75 0 12 75 0 12 75 0 12 75 0 12 76 0 13 76 0 13
76 0 13 76 0 13 77 0 13 77 0 13 77 0 13 77 0 13 77 0 13 78 0 13 78 0
13 78 0 13 78 0 13 78 0 13 78 0 13 79 0 13 79 0 13 79 0 13 79 0 13 79
0 13 79 0 13 80 0 13 80 0 13 80 0 13 80 1 13 80 1 13 80 1 13 80 1 13
80 1 13 80 1 13 80 1 13 80 1 13 80 1 13 81 1 13 81 1 13 81 1 13 81 1
13 81 1 13 81 1 13 81 1 13 81 1 13 81 1 13 81 1 13 81 1 13 80 1 13 80
1 13 80 1 13 80 1 13 80 1 13 80 1 13 80 1 13 80 1 13 80 0 13 80 0 13
80 0 13 79 0 13 79 0 13 79 0 13 79 0 13 79 0 13 79 0 13 79 0 13 78 0
13 78 0 13 78 0 13 78 0 13 78 0 13 77 0 13 77 0 13 77 0 13 77 0 13 77
0 13 76 0 13 76 0 13 76 0 13 76 0 13 75 0 12 9 0 1 0 0 7 0 0 7 0 0 7 0
0 7 0 0 7 0 0 7 0 0 7 0 0 7 0 0 7 0 0 7 0 0 7 0 0 7 0 0 7 0 0 7 0 0 7
0 0 7 0 0 7 0 0 7 0 0 7 0 0 7 0 0 7 0 0 7 0 0 7 0 0 7 0 0 7 0 0 7 0 0
7 0 0 7 9 0 1 9 0 1 9 0 1 9 0 1 9 0 1 9 0 1 9 0 1 9 0 1 9 0 1 9 0 1 9
0 1 9 0 1 9 0 1 9 0 1 63 0 10 63 0 10 62 0 10 62 0 10 62 0 10 62 0 10
61 0 10 61 0 10 61 0 10 60 0 10 60 0 10 60 0 10 60 0 10 59 0 10 59 0
10 59 0 10 59 0 10 58 0 10 58 0 10 58 0 10 58 0 10 57 0 10 57 0 9 57 0
9 57 0 9 56 0 9 56 0 9 56 0 9 56 0 9 55 0 9 55 0 9 55 0 9 55 0 9 54 0
9 54 0 9 54 0 9 54 0 9 53 0 9 53 0 9 53 0 9 53 0 9 53 0 9 52 0 9 52 0
9 52 0 9 52 0 9 51 0 9 51 0 8 51 0 8 51 0 8 51 0 8 50 0 8 50 0 8 50 0
8 50 0 8 50 0 8 49 0 8 49 0 8 49 0 8 49 0 8 49 0 8 48 0 8 48 0 8 48 0
8 48 0 8 48 0 8 47 0 8 47 0 8 47 0 8 47 0 8 47 0 8
9 0 1 9 0 1 9 0 1 9 0 1 9 0 1 9 0 1 9 0 1 9 0 1 9 0 1 9 0 1 9 0 1 9 0
1 9 0 1 9 0 1 9 0 1 9 0 1 9 0 1 9 0 1 9 0 1 9 0 1 9 0 1 9 0 1 9 0 1 9
0 1 9 0 1 9 0 1 9 0 1 9 0 1 9 0 1 9 0 1 9 0 1 9 0 1 9 0 1 9 0 1 9 0 1
9 0 1 9 0 1 9 0 1 9 0 1 9 0 1 9 0 1 9 0 1 9 0 1 9 0 1 9 0 1 9 0 1 9 0
1 9 0 1 9 0 1 9 0 1 9 0 1 9 0 1 9 0 1 9 0 1 9 0 1 9 0 1 9 0 1 13 0 6
13 0 6 13 0 6 13 0 6 13 0 6 13 0 6 13 0 6 13 0 6 13 0 6 13 0 6 13 0 6
13 0 6 13 0 6 13 0 6 13 0 6 13 0 6 13 0 6 13 0 6 13 0 6 13 0 6 13 0 6
13 0 6 13 0 6 13 0 6 13 0 6 13 0 6 13 0 6 13 0 6 13 0 6 13 0 6 13 0 6
13 0 6 13 0 6 13 0 6 14 0 6 15 0 7 15 0 7 16 0 7 17 0 8 18 0 8 19 0 8
19 0 9 20 0 9 21 0 10 22 0 10 23 0 10 24 0 11 24 0 11 25 0 11 26 0 12
27 0 12 27 0 13 28 0 13 29 0 13 30 0 14 31 0 14 31 0 14 32 0 15 33 0
15 34 0 15 35 0 16 35 0 16 36 0 16 37 0 17 38 0 17 38 0 17 39 0 18 40
0 18 41 0 18 41 0 19 42 0 19 43 0 19 43 0 20 44 0 20 45 0 20 45 0 21
46 0 21 47 0 21 47 0 21 48 0 22 48 0 22 49 0 22 49 0 22 49 0 22 49 0
22 49 0 22 49 0 22 48 0 22 58 0 10 59 0 10 59 0 10 59 0 10 59 0 10 60
0 10 60 0 10 60 0 10 60 0 10 61 0 10 61 0 10 61 0 10 62 0 10 62 0 10
62 0 10 62 0 10 63 0 10 63 0 10 63 0 10 64 0 11 64 0 11 64 0 11 64 0
11 65 0 11 65 0 11 65 0 11 66 0 11 66 0 11 66 0 11 66 0 11 67 0 11 67
0 11 67 0 11 68 0 11 68 0 11 68 0 11 68 0 11 69 0 11 69 0 11 69 0 12
70 0 12 70 0 12 70 0 12 71 0 12 71 0 12 71 0 12 71 0 12 72 0 12 72 0
12 72 0 12 73 0 12 73 0 12 73 0 12 73 0 12 74 0 12 74 0 12 74 0 12 75
0 12 75 0 12 75 0 12 75 0 12 76 0 13 76 0 13 76 0 13 76 0 13 77 0 13
77 0 13 77 0 13 77 0 13 78 0 13 78 0 13 78 0 13 78 0 13 78 0 13 79 0
13 79 0 13 79 0 13 79 0 13 79 0 13 80 0 13 80 0 13 80 0 13 80 1 13 80
1 13 80 1 13 80 1 13 81 1 13 81 1 13 81 1 13 81 1 13 81 1 13 81 1 13
81 1 13 81 1 13 81 1 13 81 1 14 81 1 14 82 1 14 82 1 14 82 1 14 82 1
14 82 1 14 82 1 14 82 1 14 82 1 14 82 1 14 82 1 14 82 1 14 81 1 14 81
1 14 81 1 13 81 1 13 81 1 13 81 1 13 81 1 13 81 1 13 81 1 13 81 1 13
81 1 13 80 1 13 80 1 13 80 1 13 80 1 13 80 1 13 80 0 13 80 0 13 79 0
13 79 0 13 79 0 13 79 0 13 79 0 13 78 0 13 78 0 13 78 0 13 78 0 13 78
0 13 77 0 13 77 0 13 77 0 13 77 0 13 76 0 13 9 0 1 9 0 1 0 0 7 0 0 7 0
0 7 0 0 7 1 0 7 1 0 7 1 0 7 1 0 7 1 0 7 1 0 7 1 0 7 1 0 7 1 0 7 1 0 7
0 0 7 0 0 7 0 0 7 0 0 7 0 0 7 0 0 7 0 0 7 0 0 7 0 0 7 0 0 7 0 0 7 0 0
7 9 0 1 9 0 1 9 0 1 9 0 1 9 0 1 9 0 1 9 0 1 9 0 1 9 0 1 9 0 1 9 0 1 9
0 1 9 0 1 9 0 1 9 0 1 9 0 1 9 0 1 63 0 11 63 0 10 63 0 10 62 0 10 62 0
10 62 0 10 62 0 10 61 0 10 61 0 10 61 0 10 61 0 10 60 0 10 60 0 10 60
0 10 59 0 10 59 0 10 59 0 10 59 0 10 58 0 10 58 0 10 58 0 10 58 0 10
57 0 10 57 0 9 57 0 9 57 0 9 56 0 9 56 0 9 56 0 9 56 0 9 55 0 9 55 0 9
55 0 9 55 0 9 54 0 9 54 0 9 54 0 9 54 0 9 53 0 9 53 0 9 53 0 9 53 0 9
53 0 9 52 0 9 52 0 9 52 0 9 52 0 9 51 0 9 51 0 9 51 0 8 51 0 8 51 0 8
50 0 8 50 0 8 50 0 8 50 0 8 50 0 8 49 0 8 49 0 8 49 0 8 49 0 8 49 0 8
48 0 8 48 0 8 48 0 8 48 0 8 48 0 8 47 0 8 47 0 8
9 0 1 9 0 1 9 0 1 9 0 1 9 0 1 9 0 1 9 0 1 9 0 1 9 0 1 9 0 1 9 0 1 9 0
1 9 0 1 9 0 1 9 0 1 9 0 1 9 0 1 9 0 1 9 0 1 9 0 1 9 0 1 9 0 1 9 0 1 9
0 1 9 0 1 9 0 1 9 0 1 9 0 1 9 0 1 9 0 1 9 0 1 9 0 1 9 0 1 9 0 1 9 0 1
9 0 1 9 0 1 9 0 1 9 0 1 9 0 1 9 0 1 9 0 1 9 0 1 9 0 1 9 0 1 9 0 1 9 0
1 9 0 1 9 0 1 9 0 1 9 0 1 9 0 1 9 0 1 9 0 1 9 0 1 9 0 1 9 0 1 13 0 6
13 0 6 13 0 6 13 0 6 13 0 6 13 0 6 13 0 6 13 0 6 13 0 6 13 0 6 13 0 6
13 0 6 13 0 6 13 0 6 13 0 6 13 0 6 13 0 6 13 0 6 13 0 6 13 0 6 13 0 6
13 0 6 13 0 6 13 0 6 13 0 6 13 0 6 13 0 6 13 0 6 13 0 6 13 0 6 13 0 6
13 0 6 13 0 6 13 0 6 13 0 6 14 0 6 15 0 7 16 0 7 17 0 8 17 0 8 18 0 8
19 0 9 20 0 9 21 0 9 21 0 10 22 0 10 23 0 10 24 0 11 25 0 11 25 0 12
26 0 12 27 0 12 28 0 13 28 0 13 29 0 13 30 0 14 31 0 14 32 0 14 32 0
15 33 0 15 34 0 15 35 0 16 35 0 16 36 0 16 37 0 17 38 0 17 38 0 18 39
0 18 40 0 18 41 0 18 41 0 19 42 0 19 43 0 19 43 0 20 44 0 20 45 0 20
45 0 21 46 0 21 46 0 21 47 0 21 47 0 22 48 0 22 48 0 22 48 0 22 48 0
22 48 0 22 48 0 22 47 0 21 59 0 10 59 0 10 59 0 10 60 0 10 60 0 10 60
0 10 60 0 10 61 0 10 61 0 10 61 0 10 61 0 10 62 0 10 62 0 10 62 0 10
63 0 10 63 0 10 63 0 10 63 0 11 64 0 11 64 0 11 64 0 11 65 0 11 65 0
11 65 0 11 65 0 11 66 0 11 66 0 11 66 0 11 67 0 11 67 0 11 67 0 11 68
0 11 68 0 11 68 0 11 68 0 11 69 0 11 69 0 11 69 0 12 70 0 12 70 0 12
70 0 12 71 0 12 71 0 12 71 0 12 71 0 12 72 0 12 72 0 12 72 0 12 73 0
12 73 0 12 73 0 12 73 0 12 74 0 12 74 0 12 74 0 12 75 0 12 75 0 12 75
0 12 75 0 13 76 0 13 76 0 13 76 0 13 77 0 13 77 0 13 77 0 13 77 0 13
78 0 13 78 0 13 78 0 13 78 0 13 78 0 13 79 0 13 79 0 13 79 0 13 79 0
13 80 0 13 80 0 13 80 1 13 80 1 13 80 1 13 80 1 13 81 1 13 81 1 13 81
1 13 81 1 13 81 1 13 81 1 13 82 1 14 82 1 14 82 1 14 82 1 14 82 1 14
82 1 14 82 1 14 82 1 14 82 1 14 82 1 14 82 1 14 82 1 14 82 1 14 82 1
14 83 1 14 83 1 14 83 1 14 83 1 14 82 1 14 82 1 14 82 1 14 82 1 14 82
1 14 82 1 14 82 1 14 82 1 14 82 1 14 82 1 14 82 1 14 82 1 14 82 1 14
82 1 14 81 1 14 81 1 13 81 1 13 81 1 13 81 1 13 81 1 13 81 1 13 80 1
13 80 1 13 80 1 13 80 0 13 80 0 13 79 0 13 79 0 13 79 0 13 79 0 13 79
0 13 78 0 13 78 0 13 78 0 13 78 0 13 77 0 13 9 0 1 9 0 1 9 0 1 0 0 7 1
0 7 1 0 7 1 0 7 1 0 7 1 0 7 1 0 7 1 0 7 1 0 7 1 0 7 1 0 7 1 0 7 1 0 7
1 0 7 1 0 7 1 0 7 1 0 7 1 0 7 0 0 7 0 0 7 0 0 7 0 0 7 0 0 7 0 0 7 9 0
1 9 0 1 9 0 1 9 0 1 9 0 1 9 0 1 9 0 1 9 0 1 9 0 1 9 0 1 9 0 1 9 0 1 9
0 1 9 0 1 9 0 1 9 0 1 9 0 1 9 0 1 64 0 11 64 0 11 64 0 11 63 0 11 63 0
10 63 0 10 62 0 10 62 0 10 62 0 10 62 0 10 61 0 10 61 0 10 61 0 10 61
0 10 60 0 10 60 0 10 60 0 10 59 0 10 59 0 10 59 0 10 59 0 10 58 0 10
58 0 10 58 0 10 58 0 10 57 0 10 57 0 9 57 0 9 57 0 9 56 0 9 56 0 9 56
0 9 56 0 9 55 0 9 55 0 9 55 0 9 55 0 9 54 0 9 54 0 9 54 0 9 54 0 9 53
0 9 53 0 9 53 0 9 53 0 9 53 0 9 52 0 9 52 0 9 52 0 9 52 0 9 52 0 9 51
0 9 51 0 8 51 0 8 51 0 8 50 0 8 50 0 8 50 0 8 50 0 8 50 0 8 49 0 8 49
0 8 49 0 8 49 0 8 49 0 8 48 0 8 48 0 8 48 0 8 48 0 8
9 0 1 9 0 1 9 0 1 9 0 1 9 0 1 9 0 1 9 0 1 9 0 1 9 0 1 9 0 1 9 0 1 9 0
1 9 0 1 9 0 1 9 0 1 9 0 1 9 0 1 9 0 1 9 0 1 9 0 1 9 0 1 9 0 1 9 0 1 9
0 1 9 0 1 9 0 1 9 0 1 9 0 1 9 0 1 9 0 1 9 0 1 9 0 1 9 0 1 9 0 1 9 0 1
9 0 1 9 0 1 9 0 1 9 0 1 9 0 1 9 0 1 9 0 1 9 0 1 9 0 1 9 0 1 9 0 1 9 0
1 9 0 1 9 0 1 9 0 1 9 0 1 9 0 1 9 0 1 9 0 1 9 0 1 9 0 1 9 0 1 13 0 6
13 0 6 13 0 6 13 0 6 13 0 6 13 0 6 13 0 6 13 0 6 13 0 6 13 0 6 13 0 6
13 0 6 13 0 6 13 0 6 13 0 6 13 0 6 13 0 6 13 0 6 13 0 6 13 0 6 13 0 6
13 0 6 13 0 6 13 0 6 13 0 6 13 0 6 13 0 6 13 0 6 13 0 6 13 0 6 13 0 6
13 0 6 13 0 6 13 0 6 13 0 6 14 0 6 14 0 7 15 0 7 16 0 7 17 0 8 18 0 8
18 0 8 19 0 9 20 0 9 21 0 9 22 0 10 22 0 10 23 0 11 24 0 11 25 0 11 26
0 12 26 0 12 27 0 12 28 0 13 29 0 13 29 0 13 30 0 14 31 0 14 32 0 14
33 0 15 33 0 15 34 0 15 35 0 16 36 0 16 36 0 17 37 0 17 38 0 17 38 0
18 39 0 18 40 0 18 41 0 18 41 0 19 42 0 19 43 0 19 43 0 20 44 0 20 44
0 20 45 0 20 46 0 21 46 0 21 47 0 21 47 0 21 47 0 21 47 0 22 47 0 22
47 0 22 47 0 21 46 0 21 59 0 10 59 0 10 60 0 10 60 0 10 60 0 10 61 0
10 61 0 10 61 0 10 61 0 10 62 0 10 62 0 10 62 0 10 62 0 10 63 0 10 63
0 10 63 0 11 64 0 11 64 0 11 64 0 11 64 0 11 65 0 11 65 0 11 65 0 11
66 0 11 66 0 11 66 0 11 67 0 11 67 0 11 67 0 11 67 0 11 68 0 11 68 0
11 68 0 11 69 0 11 69 0 11 69 0 11 70 0 12 70 0 12 70 0 12 70 0 12 71
0 12 71 0 12 71 0 12 72 0 12 72 0 12 72 0 12 73 0 12 73 0 12 73 0 12
73 0 12 74 0 12 74 0 12 74 0 12 75 0 12 75 0 12 75 0 12 75 0 13 76 0
13 76 0 13 76 0 13 77 0 13 77 0 13 77 0 13 77 0 13 78 0 13 78 0 13 78
0 13 78 0 13 79 0 13 79 0 13 79 0 13 79 0 13 80 0 13 80 0 13 80 1 13
80 1 13 80 1 13 81 1 13 81 1 13 81 1 13 81 1 13 81 1 13 81 1 14 82 1
14 82 1 14 82 1 14 82 1 14 82 1 14 82 1 14 82 1 14 83 1 14 83 1 14 83
1 14 83 1 14 83 1 14 83 1 14 83 1 14 83 1 14 83 1 14 83 1 14 83 1 14
83 1 14 83 1 14 83 1 14 83 1 14 83 1 14 83 1 14 83 1 14 83 1 14 83 1
14 83 1 14 83 1 14 83 1 14 83 1 14 83 1 14 83 1 14 83 1 14 83 1 14 82
1 14 82 1 14 82 1 14 82 1 14 82 1 14 82 1 14 82 1 14 81 1 14 81 1 13
81 1 13 81 1 13 81 1 13 81 1 13 80 1 13 80 1 13 80 1 13 80 0 13 80 0
13 79 0 13 79 0 13 79 0 13 79 0 13 78 0 13 78 0 13 78 0 13 9 0 1 9 0 1
1 0 7 1 0 7 1 0 7 1 0 7 1 0 7 1 0 7 1 0 7 1 0 7 1 0 7 1 0 7 1 0 7 1 0
7 1 0 7 1 0 7 1 0 7 1 0 7 1 0 7 1 0 7 1 0 7 0 0 7 0 0 7 0 0 7 9 0 1 9
0 1 9 0 1 9 0 1 9 0 1 9 0 1 9 0 1 9 0 1 9 0 1 9 0 1 9 0 1 9 0 1 9 0 1
9 0 1 9 0 1 9 0 1 9 0 1 9 0 1 9 0 1 9 0 1 65 0 11 64 0 11 64 0 11 64 0
11 64 0 11 63 0 10 63 0 10 63 0 10 62 0 10 62 0 10 62 0 10 62 0 10 61
0 10 61 0 10 61 0 10 60 0 10 60 0 10 60 0 10 60 0 10 59 0 10 59 0 10
59 0 10 59 0 10 58 0 10 58 0 10 58 0 10 58 0 10 57 0 10 57 0 9 57 0 9
57 0 9 56 0 9 56 0 9 56 0 9 56 0 9 55 0 9 55 0 9 55 0 9 55 0 9 54 0 9
54 0 9 54 0 9 54 0 9 53 0 9 53 0 9 53 0 9 53 0 9 53 0 9 52 0 9 52 0 9
52 0 9 52 0 9 52 0 9 51 0 9 51 0 8 51 0 8 51 0 8 50 0 8 50 0 8 50 0 8
50 0 8 50 0 8 49 0 8 49 0 8 49 0 8 49 0 8 49 0 8 49 0 8
9 0 1 9 0 1 9 0 1 9 0 1 9 0 1 9 0 1 9 0 1 9 0 1 9 0 1 9 0 1 9 0 1 9 0
1 9 0 1 9 0 1 9 0 1 9 0 1 9 0 1 9 0 1 9 0 1 9 0 1 9 0 1 9 0 1 9 0 1 9
0 1 9 0 1 9 0 1 9 0 1 9 0 1 9 0 1 9 0 1 9 0 1 9 0 1 9 0 1 9 0 1 9 0 1
9 0 1 9 0 1 9 0 1 9 0 1 9 0 1 9 0 1 9 0 1 9 0 1 9 0 1 9 0 1 9 0 1 9 0
1 9 0 1 9 0 1 9 0 1 9 0 1 9 0 1 9 0 1 9 0 1 9 0 1 9 0 1 9 0 1 13 0 6
13 0 6 13 0 6 13 0 6 13 0 6 13 0 6 13 0 6 13 0 6 13 0 6 13 0 6 13 0 6
13 0 6 13 0 6 13 0 6 13 0 6 13 0 6 13 0 6 13 0 6 13 0 6 13 0 6 13 0 6
13 0 6 13 0 6 13 0 6 13 0 6 13 0 6 13 0 6 13 0 6 13 0 6 13 0 6 13 0 6
13 0 6 13 0 6 13 0 6 13 0 6 13 0 6 14 0 6 15 0 7 15 0 7 16 0 7 17 0 8
18 0 8 19 0 8 19 0 9 20 0 9 21 0 10 22 0 10 23 0 10 23 0 11 24 0 11 25
0 11 26 0 12 26 0 12 27 0 12 28 0 13 29 0 13 30 0 13 30 0 14 31 0 14
32 0 14 33 0 15 33 0 15 34 0 16 35 0 16 36 0 16 36 0 17 37 0 17 38 0
17 38 0 18 39 0 18 40 0 18 41 0 18 41 0 19 42 0 19 42 0 19 43 0 20 44
0 20 44 0 20 45 0 20 45 0 21 46 0 21 46 0 21 46 0 21 46 0 21 46 0 21
46 0 21 46 0 21 44 0 20 60 0 10 60 0 10 60 0 10 60 0 10 61 0 10 61 0
10 61 0 10 61 0 10 62 0 10 62 0 10 62 0 10 63 0 10 63 0 10 63 0 10 63
0 11 64 0 11 64 0 11 64 0 11 65 0 11 65 0 11 65 0 11 65 0 11 66 0 11
66 0 11 66 0 11 67 0 11 67 0 11 67 0 11 68 0 11 68 0 11 68 0 11 68 0
11 69 0 11 69 0 11 69 0 12 70 0 12 70 0 12 70 0 12 71 0 12 71 0 12 71
0 12 72 0 12 72 0 12 72 0 12 72 0 12 73 0 12 73 0 12 73 0 12 74 0 12
74 0 12 74 0 12 75 0 12 75 0 12 75 0 12 75 0 13 76 0 13 76 0 13 76 0
13 77 0 13 77 0 13 77 0 13 77 0 13 78 0 13 78 0 13 78 0 13 78 0 13 79
0 13 79 0 13 79 0 13 79 0 13 80 0 13 80 1 13 80 1 13 80 1 13 81 1 13
81 1 13 81 1 13 81 1 13 81 1 13 82 1 14 82 1 14 82 1 14 82 1 14 82 1
14 82 1 14 83 1 14 83 1 14 83 1 14 83 1 14 83 1 14 83 1 14 83 1 14 83
1 14 84 1 14 84 1 14 84 1 14 84 1 14 84 1 14 84 1 14 84 1 14 84 1 14
84 1 14 84 1 14 84 1 14 84 1 14 84 1 14 84 1 14 84 1 14 84 1 14 84 1
14 84 1 14 84 1 14 84 1 14 84 1 14 84 1 14 84 1 14 83 1 14 83 1 14 83
1 14 83 1 14 83 1 14 83 1 14 83 1 14 83 1 14 82 1 14 82 1 14 82 1 14
82 1 14 82 1 14 82 1 14 81 1 13 81 1 13 81 1 13 81 1 13 81 1 13 80 1
13 80 1 13 80 1 13 80 0 13 79 0 13 79 0 13 79 0 13 79 0 13 78 0 13 9 0
1 9 0 1 9 0 1 1 0 7 1 0 7 1 0 7 1 0 7 1 0 7 1 0 7 1 0 7 1 0 7 1 0 7 1
0 7 1 0 7 1 0 7 1 0 7 1 0 7 1 0 7 1 0 7 1 0 7 0 0 7 0 0 7 9 0 1 9 0 1
9 0 1 9 0 1 9 0 1 9 0 1 9 0 1 9 0 1 9 0 1 9 0 1 9 0 1 9 0 1 9 0 1 9 0
1 9 0 1 9 0 1 9 0 1 9 0 1 9 0 1 9 0 1 66 0 11 66 0 11 65 0 11 65 0 11
65 0 11 64 0 11 64 0 11 64 0 11 63 0 11 63 0 10 63 0 10 63 0 10 62 0
10 62 0 10 62 0 10 61 0 10 61 0 10 61 0 10 61 0 10 60 0 10 60 0 10 60
0 10 60 0 10 59 0 10 59 0 10 59 0 10 59 0 10 58 0 10 58 0 10 58 0 10
58 0 10 57 0 9 57 0 9 57 0 9 57 0 9 56 0 9 56 0 9 56 0 9 56 0 9 55 0 9
55 0 9 55 0 9 55 0 9 54 0 9 54 0 9 54 0 9 54 0 9 53 0 9 53 0 9 53 0 9
53 0 9 53 0 9 52 0 9 52 0 9 52 0 9 52 0 9 51 0 9 51 0 9 51 0 8 51 0 8
51 0 8 50 0 8 50 0 8 50 0 8 50 0 8 50 0 8 49 0 8 49 0 8 49 0 8
9 0 1 9 0 1 9 0 1 9 0 1 9 0 1 9 0 1 9 0 1 9 0 1 9 0 1 9 0 1 9 0 1 9 0
1 9 0 1 9 0 1 9 0 1 9 0 1 9 0 1 9 0 1 9 0 1 9 0 1 9 0 1 9 0 1 9 0 1 9
0 1 9 0 1 9 0 1 9 0 1 9 0 1 9 0 1 9 0 1 9 0 1 9 0 1 9 0 1 9 0 1 9 0 1
9 0 1 9 0 1 9 0 1 9 0 1 9 0 1 9 0 1 9 0 1 9 0 1 9 0 1 9 0 1 9 0 1 9 0
1 9 0 1 9 0 1 9 0 1 9 0 1 9 0 1 9 0 1 9 0 1 9 0 1 9 0 1 9 0 1 13 0 6
13 0 6 13 0 6 13 0 6 13 0 6 13 0 6 13 0 6 13 0 6 13 0 6 13 0 6 13 0 6
13 0 6 13 0 6 13 0 6 13 0 6 13 0 6 13 0 6 13 0 6 13 0 6 13 0 6 13 0 6
13 0 6 13 0 6 13 0 6 13 0 6 13 0 6 13 0 6 13 0 6 13 0 6 13 0 6 13 0 6
13 0 6 13 0 6 13 0 6 13 0 6 13 0 6 13 0 6 14 0 6 15 0 7 16 0 7 17 0 8
17 0 8 18 0 8 19 0 9 20 0 9 20 0 9 21 0 10 22 0 10 23 0 10 24 0 11 24
0 11 25 0 11 26 0 12 27 0 12 27 0 12 28 0 13 29 0 13 30 0 14 30 0 14
31 0 14 32 0 15 33 0 15 33 0 15 34 0 16 35 0 16 36 0 16 36 0 17 37 0
17 38 0 17 38 0 17 39 0 18 40 0 18 40 0 18 41 0 19 42 0 19 42 0 19 43
0 19 43 0 20 44 0 20 44 0 20 45 0 20 45 0 21 45 0 21 45 0 21 45 0 21
45 0 21 45 0 20 43 0 19 60 0 10 60 0 10 60 0 10 61 0 10 61 0 10 61 0
10 62 0 10 62 0 10 62 0 10 62 0 10 63 0 10 63 0 10 63 0 10 64 0 11 64
0 11 64 0 11 64 0 11 65 0 11 65 0 11 65 0 11 66 0 11 66 0 11 66 0 11
66 0 11 67 0 11 67 0 11 67 0 11 68 0 11 68 0 11 68 0 11 69 0 11 69 0
11 69 0 11 69 0 12 70 0 12 70 0 12 70 0 12 71 0 12 71 0 12 71 0 12 72
0 12 72 0 12 72 0 12 73 0 12 73 0 12 73 0 12 73 0 12 74 0 12 74 0 12
74 0 12 75 0 12 75 0 12 75 0 12 76 0 13 76 0 13 76 0 13 76 0 13 77 0
13 77 0 13 77 0 13 78 0 13 78 0 13 78 0 13 78 0 13 79 0 13 79 0 13 79
0 13 79 0 13 80 0 13 80 0 13 80 1 13 80 1 13 81 1 13 81 1 13 81 1 13
81 1 13 81 1 14 82 1 14 82 1 14 82 1 14 82 1 14 82 1 14 83 1 14 83 1
14 83 1 14 83 1 14 83 1 14 83 1 14 84 1 14 84 1 14 84 1 14 84 1 14 84
1 14 84 1 14 84 1 14 84 1 14 84 1 14 84 1 14 84 1 14 85 1 14 85 1 14
85 1 14 85 1 14 85 1 14 85 1 14 85 1 14 85 1 14 85 1 14 85 1 14 85 1
14 85 1 14 84 1 14 84 1 14 84 1 14 84 1 14 84 1 14 84 1 14 84 1 14 84
1 14 84 1 14 84 1 14 84 1 14 83 1 14 83 1 14 83 1 14 83 1 14 83 1 14
83 1 14 82 1 14 82 1 14 82 1 14 82 1 14 82 1 14 82 1 14 81 1 13 81 1
13 81 1 13 81 1 13 80 1 13 80 1 13 80 1 13 80 0 13 79 0 13 79 0 13 79
0 13 79 0 13 78 0 13 9 0 1 9 0 1 9 0 1 1 0 7 1 0 7 1 0 7 1 0 7 1 0 7 1
0 7 1 0 7 1 0 7 1 0 7 1 0 7 1 0 7 1 0 7 1 0 7 1 0 7 9 0 1 9 0 1 9 0 1
9 0 1 9 0 1 9 0 1 9 0 1 9 0 1 9 0 1 9 0 1 9 0 1 9 0 1 9 0 1 9 0 1 9 0
1 9 0 1 9 0 1 9 0 1 9 0 1 9 0 1 9 0 1 67 0 11 67 0 11 66 0 11 66 0 11
66 0 11 65 0 11 65 0 11 65 0 11 64 0 11 64 0 11 64 0 11 64 0 11 63 0
11 63 0 10 63 0 10 62 0 10 62 0 10 62 0 10 62 0 10 61 0 10 61 0 10 61
0 10 61 0 10 60 0 10 60 0 10 60 0 10 59 0 10 59 0 10 59 0 10 59 0 10
58 0 10 58 0 10 58 0 10 58 0 10 57 0 10 57 0 9 57 0 9 57 0 9 56 0 9 56
0 9 56 0 9 56 0 9 55 0 9 55 0 9 55 0 9 55 0 9 55 0 9 54 0 9 54 0 9 54
0 9 54 0 9 53 0 9 53 0 9 53 0 9 53 0 9 53 0 9 52 0 9 52 0 9 52 0 9 52
0 9 51 0 9 51 0 9 51 0 8 51 0 8 51 0 8 50 0 8 50 0 8 50 0 8 50 0 8 50
0 8
9 0 1 9 0 1 9 0 1 9 0 1 9 0 1 9 0 1 9 0 1 9 0 1 9 0 1 9 0 1 9 0 1 9 0
1 9 0 1 9 0 1 9 0 1 9 0 1 9 0 1 9 0 1 9 0 1 9 0 1 9 0 1 9 0 1 9 0 1 9
0 1 9 0 1 9 0 1 9 0 1 9 0 1 9 0 1 9 0 1 9 0 1 9 0 1 9 0 1 9 0 1 9 0 1
9 0 1 9 0 1 9 0 1 9 0 1 9 0 1 9 0 1 9 0 1 9 0 1 9 0 1 9 0 1 9 0 1 9 0
1 9 0 1 9 0 1 9 0 1 9 0 1 9 0 1 9 0 1 9 0 1 9 0 1 9 0 1 9 0 1 13 0 6
13 0 6 13 0 6 13 0 6 13 0 6 13 0 6 13 0 6 13 0 6 13 0 6 13 0 6 13 0 6
13 0 6 13 0 6 13 0 6 13 0 6 13 0 6 13 0 6 13 0 6 13 0 6 13 0 6 13 0 6
13 0 6 13 0 6 13 0 6 13 0 6 13 0 6 13 0 6 13 0 6 13 0 6 13 0 6 13 0 6
13 0 6 13 0 6 13 0 6 13 0 6 13 0 6 13 0 6 14 0 6 14 0 7 15 0 7 16 0 7
17 0 8 18 0 8 18 0 8 19 0 9 20 0 9 21 0 9 21 0 10 22 0 10 23 0 10 24 0
11 24 0 11 25 0 11 26 0 12 27 0 12 28 0 13 28 0 13 29 0 13 30 0 14 31
0 14 31 0 14 32 0 15 33 0 15 33 0 15 34 0 16 35 0 16 36 0 16 36 0 17
37 0 17 38 0 17 38 0 17 39 0 18 40 0 18 40 0 18 41 0 19 41 0 19 42 0
19 43 0 19 43 0 20 43 0 20 44 0 20 44 0 20 44 0 20 44 0 20 44 0 20 44
0 20 43 0 20 41 0 19 60 0 10 61 0 10 61 0 10 61 0 10 61 0 10 62 0 10
62 0 10 62 0 10 62 0 10 63 0 10 63 0 10 63 0 11 64 0 11 64 0 11 64 0
11 64 0 11 65 0 11 65 0 11 65 0 11 66 0 11 66 0 11 66 0 11 67 0 11 67
0 11 67 0 11 67 0 11 68 0 11 68 0 11 68 0 11 69 0 11 69 0 11 69 0 11
70 0 12 70 0 12 70 0 12 70 0 12 71 0 12 71 0 12 71 0 12 72 0 12 72 0
12 72 0 12 73 0 12 73 0 12 73 0 12 74 0 12 74 0 12 74 0 12 74 0 12 75
0 12 75 0 12 75 0 12 76 0 13 76 0 13 76 0 13 76 0 13 77 0 13 77 0 13
77 0 13 78 0 13 78 0 13 78 0 13 78 0 13 79 0 13 79 0 13 79 0 13 80 0
13 80 0 13 80 1 13 80 1 13 81 1 13 81 1 13 81 1 13 81 1 13 81 1 14 82
1 14 82 1 14 82 1 14 82 1 14 82 1 14 83 1 14 83 1 14 83 1 14 83 1 14
83 1 14 84 1 14 84 1 14 84 1 14 84 1 14 84 1 14 84 1 14 84 1 14 84 1
14 85 1 14 85 1 14 85 1 14 85 1 14 85 1 14 85 1 14 85 1 14 85 1 14 85
1 14 85 1 14 85 1 14 85 1 14 85 1 14 85 1 14 85 1 14 85 1 14 85 1 14
85 1 14 85 1 14 85 1 14 85 1 14 85 1 14 85 1 14 85 1 14 85 1 14 85 1
14 84 1 14 84 1 14 84 1 14 84 1 14 84 1 14 84 1 14 84 1 14 83 1 14 83
1 14 83 1 14 83 1 14 83 1 14 83 1 14 82 1 14 82 1 14 82 1 14 82 1 14
82 1 14 81 1 13 81 1 13 81 1 13 81 1 13 80 1 13 80 1 13 80 1 13 80 0
13 79 0 13 79 0 13 79 0 13 79 0 13 78 0 13 78 0 13 9 0 1 9 0 1 9 0 1 9
0 1 9 0 1 9 0 1 9 0 1 9 0 1 9 0 1 9 0 1 9 0 1 9 0 1 9 0 1 9 0 1 9 0 1
9 0 1 9 0 1 9 0 1 9 0 1 9 0 1 9 0 1 9 0 1 9 0 1 9 0 1 9 0 1 9 0 1 9 0
1 9 0 1 9 0 1 9 0 1 9 0 1 68 0 11 68 0 11 68 0 11 68 0 11 67 0 11 67 0
11 67 0 11 66 0 11 66 0 11 66 0 11 65 0 11 65 0 11 65 0 11 65 0 11 64
0 11 64 0 11 64 0 11 63 0 11 63 0 10 63 0 10 63 0 10 62 0 10 62 0 10
62 0 10 62 0 10 61 0 10 61 0 10 61 0 10 60 0 10 60 0 10 60 0 10 60 0
10 59 0 10 59 0 10 59 0 10 59 0 10 58 0 10 58 0 10 58 0 10 58 0 10 57
0 10 57 0 9 57 0 9 57 0 9 56 0 9 56 0 9 56 0 9 56 0 9 55 0 9 55 0 9 55
0 9 55 0 9 54 0 9 54 0 9 54 0 9 54 0 9 54 0 9 53 0 9 53 0 9 53 0 9 53
0 9 52 0 9 52 0 9 52 0 9 52 0 9 52 0 9 51 0 9 51 0 8 51 0 8 51 0 8 51
0 8 50 0 8 50 0 8
9 0 1 9 0 1 9 0 1 9 0 1 9 0 1 9 0 1 9 0 1 9 0 1 9 0 1 9 0 1 9 0 1 9 0
1 9 0 1 9 0 1 9 0 1 9 0 1 9 0 1 9 0 1 9 0 1 9 0 1 9 0 1 9 0 1 9 0 1 9
0 1 9 0 1 9 0 1 9 0 1 9 0 1 9 0 1 9 0 1 9 0 1 9 0 1 9 0 1 9 0 1 9 0 1
9 0 1 9 0 1 9 0 1 9 0 1 9 0 1 9 0 1 9 0 1 9 0 1 9 0 1 9 0 1 9 0 1 9 0
1 9 0 1 9 0 1 9 0 1 9 0 1 9 0 1 9 0 1 9 0 1 9 0 1 9 0 1 9 0 1 13 0 6
13 0 6 13 0 6 13 0 6 13 0 6 13 0 6 13 0 6 13 0 6 13 0 6 13 0 6 13 0 6
13 0 6 13 0 6 13 0 6 13 0 6 13 0 6 13 0 6 13 0 6 13 0 6 13 0 6 13 0 6
13 0 6 13 0 6 13 0 6 13 0 6 13 0 6 13 0 6 13 0 6 13 0 6 13 0 6 13 0 6
13 0 6 13 0 6 13 0 6 13 0 6 13 0 6 13 0 6 13 0 6 14 0 6 15 0 7 15 0 7
16 0 7 17 0 8 18 0 8 19 0 8 19 0 9 20 0 9 21 0 9 22 0 10 22 0 10 23 0
11 24 0 11 25 0 11 25 0 12 26 0 12 27 0 12 28 0 13 28 0 13 29 0 13 30
0 14 31 0 14 31 0 14 32 0 15 33 0 15 33 0 15 34 0 16 35 0 16 36 0 16
36 0 16 37 0 17 38 0 17 38 0 17 39 0 18 39 0 18 40 0 18 41 0 18 41 0
19 42 0 19 42 0 19 43 0 19 43 0 20 43 0 20 43 0 20 43 0 20 43 0 20 43
0 20 42 0 19 60 0 10 61 0 10 61 0 10 61 0 10 61 0 10 62 0 10 62 0 10
62 0 10 62 0 10 63 0 10 63 0 10 63 0 11 64 0 11 64 0 11 64 0 11 64 0
11 65 0 11 65 0 11 65 0 11 66 0 11 66 0 11 66 0 11 67 0 11 67 0 11 67
0 11 67 0 11 68 0 11 68 0 11 68 0 11 69 0 11 69 0 11 69 0 11 70 0 12
70 0 12 70 0 12 70 0 12 71 0 12 71 0 12 71 0 12 72 0 12 72 0 12 72 0
12 73 0 12 73 0 12 73 0 12 73 0 12 74 0 12 74 0 12 74 0 12 75 0 12 75
0 12 75 0 12 76 0 13 76 0 13 76 0 13 76 0 13 77 0 13 77 0 13 77 0 13
78 0 13 78 0 13 78 0 13 78 0 13 79 0 13 79 0 13 79 0 13 80 0 13 80 0
13 80 1 13 80 1 13 81 1 13 81 1 13 81 1 13 81 1 13 82 1 14 82 1 14 82
1 14 82 1 14 82 1 14 83 1 14 83 1 14 83 1 14 83 1 14 83 1 14 84 1 14
84 1 14 84 1 14 84 1 14 84 1 14 84 1 14 84 1 14 85 1 14 85 1 14 85 1
14 85 1 14 85 1 14 85 1 14 85 1 14 85 1 14 85 1 14 85 1 14 85 1 14 85
1 14 86 1 14 86 1 14 86 1 14 86 1 14 86 1 14 86 1 14 86 1 14 86 1 14
86 1 14 85 1 14 85 1 14 85 1 14 85 1 14 85 1 14 85 1 14 85 1 14 85 1
14 85 1 14 85 1 14 85 1 14 85 1 14 84 1 14 84 1 14 84 1 14 84 1 14 84
1 14 84 1 14 83 1 14 83 1 14 83 1 14 83 1 14 83 1 14 83 1 14 82 1 14
82 1 14 82 1 14 82 1 14 81 1 14 81 1 13 81 1 13 81 1 13 80 1 13 80 1
13 80 1 13 80 0 13 79 0 13 79 0 13 79 0 13 79 0 13 78 0 13 78 0 13 78
0 13 78 0 13 77 0 13 77 0 13 77 0 13 9 0 1 9 0 1 9 0 1 9 0 1 9 0 1 9 0
1 9 0 1 9 0 1 9 0 1 9 0 1 9 0 1 9 0 1 9 0 1 9 0 1 9 0 1 9 0 1 9 0 1 9
0 1 9 0 1 71 0 12 70 0 12 70 0 12 70 0 12 69 0 12 69 0 11 69 0 11 69 0
11 68 0 11 68 0 11 68 0 11 67 0 11 67 0 11 67 0 11 66 0 11 66 0 11 66
0 11 66 0 11 65 0 11 65 0 11 65 0 11 64 0 11 64 0 11 64 0 11 64 0 11
63 0 10 63 0 10 63 0 10 62 0 10 62 0 10 62 0 10 62 0 10 61 0 10 61 0
10 61 0 10 61 0 10 60 0 10 60 0 10 60 0 10 59 0 10 59 0 10 59 0 10 59
0 10 58 0 10 58 0 10 58 0 10 58 0 10 57 0 10 57 0 9 57 0 9 57 0 9 56 0
9 56 0 9 56 0 9 56 0 9 56 0 9 55 0 9 55 0 9 55 0 9 55 0 9 54 0 9 54 0
9 54 0 9 54 0 9 53 0 9 53 0 9 53 0 9 53 0 9 53 0 9 52 0 9 52 0 9 52 0
9 52 0 9 52 0 9 51 0 9 51 0 8 51 0 8 51 0 8
9 0 1 9 0 1 9 0 1 9 0 1 9 0 1 9 0 1 9 0 1 9 0 1 9 0 1 9 0 1 9 0 1 9 0
1 9 0 1 9 0 1 9 0 1 9 0 1 9 0 1 9 0 1 9 0 1 9 0 1 9 0 1 9 0 1 9 0 1 9
0 1 9 0 1 9 0 1 9 0 1 9 0 1 9 0 1 9 0 1 9 0 1 9 0 1 9 0 1 9 0 1 9 0 1
9 0 1 9 0 1 9 0 1 9 0 1 9 0 1 9 0 1 9 0 1 9 0 1 9 0 1 9 0 1 9 0 1 9 0
1 9 0 1 9 0 1 9 0 1 9 0 1 9 0 1 9 0 1 9 0 1 9 0 1 9 0 1 9 0 1 13 0 6
13 0 6 13 0 6 13 0 6 13 0 6 13 0 6 13 0 6 13 0 6 13 0 6 13 0 6 13 0 6
13 0 6 13 0 6 13 0 6 13 0 6 13 0 6 13 0 6 13 0 6 13 0 6 13 0 6 13 0 6
13 0 6 13 0 6 13 0 6 13 0 6 13 0 6 13 0 6 13 0 6 13 0 6 13 0 6 13 0 6
13 0 6 13 0 6 13 0 6 13 0 6 13 0 6 13 0 6 13 0 6 13 0 6 14 0 6 15 0 7
16 0 7 16 0 7 17 0 8 18 0 8 19 0 8 19 0 9 20 0 9 21 0 10 22 0 10 22 0
10 23 0 11 24 0 11 25 0 11 25 0 12 26 0 12 27 0 12 28 0 13 28 0 13 29
0 13 30 0 14 31 0 14 31 0 14 32 0 15 33 0 15 33 0 15 34 0 16 35 0 16
35 0 16 36 0 16 37 0 17 37 0 17 38 0 17 39 0 18 39 0 18 40 0 18 40 0
18 41 0 19 41 0 19 42 0 19 42 0 19 42 0 19 42 0 19 42 0 19 42 0 19 42
0 19 41 0 18 61 0 10 61 0 10 61 0 10 61 0 10 62 0 10 62 0 10 62 0 10
62 0 10 63 0 10 63 0 10 63 0 11 64 0 11 64 0 11 64 0 11 64 0 11 65 0
11 65 0 11 65 0 11 66 0 11 66 0 11 66 0 11 66 0 11 67 0 11 67 0 11 67
0 11 68 0 11 68 0 11 68 0 11 69 0 11 69 0 11 69 0 11 69 0 12 70 0 12
70 0 12 70 0 12 71 0 12 71 0 12 71 0 12 72 0 12 72 0 12 72 0 12 73 0
12 73 0 12 73 0 12 73 0 12 74 0 12 74 0 12 74 0 12 75 0 12 75 0 12 75
0 12 76 0 13 76 0 13 76 0 13 76 0 13 77 0 13 77 0 13 77 0 13 78 0 13
78 0 13 78 0 13 78 0 13 79 0 13 79 0 13 79 0 13 80 0 13 80 0 13 80 1
13 80 1 13 81 1 13 81 1 13 81 1 13 81 1 13 82 1 14 82 1 14 82 1 14 82
1 14 82 1 14 83 1 14 83 1 14 83 1 14 83 1 14 83 1 14 84 1 14 84 1 14
84 1 14 84 1 14 84 1 14 84 1 14 85 1 14 85 1 14 85 1 14 85 1 14 85 1
14 85 1 14 85 1 14 85 1 14 85 1 14 86 1 14 86 1 14 86 1 14 86 1 14 86
1 14 86 1 14 86 1 14 86 1 14 86 1 14 86 1 14 86 1 14 86 1 14 86 1 14
86 1 14 86 1 14 86 1 14 86 1 14 86 1 14 86 1 14 86 1 14 85 1 14 85 1
14 85 1 14 85 1 14 85 1 14 85 1 14 85 1 14 85 1 14 85 1 14 84 1 14 84
1 14 84 1 14 84 1 14 84 1 14 84 1 14 83 1 14 83 1 14 83 1 14 83 1 14
83 1 14 82 1 14 82 1 14 82 1 14 82 1 14 81 1 14 81 1 13 81 1 13 81 1
13 81 1 13 80 1 13 80 1 13 80 0 13 79 0 13 79 0 13 79 0 13 79 0 13 78
0 13 78 0 13 78 0 13 78 0 13 77 0 13 77 0 13 77 0 13 76 0 13 76 0 13
76 0 13 76 0 13 75 0 12 75 0 12 75 0 12 74 0 12 74 0 12 74 0 12 73 0
12 73 0 12 73 0 12 73 0 12 72 0 12 72 0 12 72 0 12 71 0 12 71 0 12 71
0 12 70 0 12 70 0 12 70 0 12 69 0 12 69 0 11 69 0 11 69 0 11 68 0 11
68 0 11 68 0 11 67 0 11 67 0 11 67 0 11 66 0 11 66 0 11 66 0 11 66 0
11 65 0 11 65 0 11 65 0 11 64 0 11 64 0 11 64 0 11 64 0 11 63 0 11 63
0 10 63 0 10 62 0 10 62 0 10 62 0 10 62 0 10 61 0 10 61 0 10 61 0 10
61 0 10 60 0 10 60 0 10 60 0 10 60 0 10 59 0 10 59 0 10 59 0 10 59 0
10 58 0 10 58 0 10 58 0 10 58 0 10 57 0 9 57 0 9 57 0 9 57 0 9 56 0 9
56 0 9 56 0 9 56 0 9 55 0 9 55 0 9 55 0 9 55 0 9 54 0 9 54 0 9 54 0 9
54 0 9 54 0 9 53 0 9 53 0 9 53 0 9 53 0 9 53 0 9 52 0 9 52 0 9 52 0 9
52 0 9 51 0 9 51 0 9
9 0 1 9 0 1 9 0 1 9 0 1 9 0 1 9 0 1 9 0 1 9 0 1 9 0 1 9 0 1 9 0 1 9 0
1 9 0 1 9 0 1 9 0 1 9 0 1 9 0 1 9 0 1 9 0 1 9 0 1 9 0 1 9 0 1 9 0 1 9
0 1 9 0 1 9 0 1 9 0 1 9 0 1 9 0 1 9 0 1 9 0 1 9 0 1 9 0 1 9 0 1 9 0 1
9 0 1 9 0 1 9 0 1 9 0 1 9 0 1 9 0 1 9 0 1 9 0 1 9 0 1 9 0 1 9 0 1 9 0
1 9 0 1 9 0 1 9 0 1 9 0 1 9 0 1 9 0 1 9 0 1 9 0 1 9 0 1 9 0 1 9 0 1 13
0 6 13 0 6 13 0 6 13 0 6 13 0 6 13 0 6 13 0 6 13 0 6 13 0 6 13 0 6 13
0 6 13 0 6 13 0 6 13 0 6 13 0 6 13 0 6 13 0 6 13 0 6 13 0 6 13 0 6 13
0 6 13 0 6 13 0 6 13 0 6 13 0 6 13 0 6 13 0 6 13 0 6 13 0 6 13 0 6 13
0 6 13 0 6 13 0 6 13 0 6 13 0 6 13 0 6 13 0 6 13 0 6 13 0 6 14 0 6 15
0 7 16 0 7 17 0 8 17 0 8 18 0 8 19 0 9 20 0 9 20 0 9 21 0 10 22 0 10
23 0 10 23 0 11 24 0 11 25 0 11 26 0 12 26 0 12 27 0 12 28 0 13 28 0
13 29 0 13 30 0 14 31 0 14 31 0 14 32 0 15 33 0 15 33 0 15 34 0 15 35
0 16 35 0 16 36 0 16 37 0 17 37 0 17 38 0 17 38 0 17 39 0 18 39 0 18
40 0 18 40 0 18 41 0 18 41 0 19 41 0 19 41 0 19 41 0 19 41 0 19 40 0
18 61 0 10 61 0 10 61 0 10 61 0 10 62 0 10 62 0 10 62 0 10 62 0 10 63
0 10 63 0 10 63 0 10 64 0 11 64 0 11 64 0 11 64 0 11 65 0 11 65 0 11
65 0 11 66 0 11 66 0 11 66 0 11 66 0 11 67 0 11 67 0 11 67 0 11 68 0
11 68 0 11 68 0 11 68 0 11 69 0 11 69 0 11 69 0 12 70 0 12 70 0 12 70
0 12 71 0 12 71 0 12 71 0 12 71 0 12 72 0 12 72 0 12 72 0 12 73 0 12
73 0 12 73 0 12 74 0 12 74 0 12 74 0 12 75 0 12 75 0 12 75 0 12 75 0
13 76 0 13 76 0 13 76 0 13 77 0 13 77 0 13 77 0 13 77 0 13 78 0 13 78
0 13 78 0 13 79 0 13 79 0 13 79 0 13 79 0 13 80 0 13 80 1 13 80 1 13
80 1 13 81 1 13 81 1 13 81 1 13 81 1 14 82 1 14 82 1 14 82 1 14 82 1
14 83 1 14 83 1 14 83 1 14 83 1 14 83 1 14 84 1 14 84 1 14 84 1 14 84
1 14 84 1 14 84 1 14 85 1 14 85 1 14 85 1 14 85 1 14 85 1 14 85 1 14
85 1 14 85 1 14 86 1 14 86 1 14 86 1 14 86 1 14 86 1 14 86 1 14 86 1
14 86 1 14 86 1 14 86 1 14 86 1 14 86 1 14 86 1 14 86 1 14 86 1 14 86
1 14 86 1 14 86 1 14 86 1 14 86 1 14 86 1 14 86 1 14 86 1 14 86 1 14
86 1 14 86 1 14 85 1 14 85 1 14 85 1 14 85 1 14 85 1 14 85 1 14 85 1
14 84 1 14 84 1 14 84 1 14 84 1 14 84 1 14 84 1 14 83 1 14 83 1 14 83
1 14 83 1 14 83 1 14 82 1 14 82 1 14 82 1 14 82 1 14 81 1 14 81 1 13
81 1 13 81 1 13 80 1 13 80 1 13 80 1 13 80 0 13 79 0 13 79 0 13 79 0
13 79 0 13 78 0 13 78 0 13 78 0 13 77 0 13 77 0 13 77 0 13 77 0 13 76
0 13 76 0 13 76 0 13 75 0 13 75 0 12 75 0 12 75 0 12 74 0 12 74 0 12
74 0 12 73 0 12 73 0 12 73 0 12 72 0 12 72 0 12 72 0 12 72 0 12 71 0
12 71 0 12 71 0 12 70 0 12 70 0 12 70 0 12 69 0 12 69 0 11 69 0 11 69
0 11 68 0 11 68 0 11 68 0 11 67 0 11 67 0 11 67 0 11 66 0 11 66 0 11
66 0 11 66 0 11 65 0 11 65 0 11 65 0 11 64 0 11 64 0 11 64 0 11 64 0
11 63 0 11 63 0 10 63 0 10 62 0 10 62 0 10 62 0 10 62 0 10 61 0 10 61
0 10 61 0 10 61 0 10 60 0 10 60 0 10 60 0 10 60 0 10 59 0 10 59 0 10
59 0 10 59 0 10 58 0 10 58 0 10 58 0 10 58 0 10 57 0 10 57 0 9 57 0 9
57 0 9 56 0 9 56 0 9 56 0 9 56 0 9 55 0 9 55 0 9 55 0 9 55 0 9 55 0 9
54 0 9 54 0 9 54 0 9 54 0 9 53 0 9 53 0 9 53 0 9 53 0 9 53 0 9 52 0 9
52 0 9 52 0 9 52 0 9
9 0 1 9 0 1 9 0 1 9 0 1 9 0 1 9 0 1 9 0 1 9 0 1 9 0 1 9 0 1 9 0 1 9 0
1 9 0 1 9 0 1 9 0 1 9 0 1 9 0 1 9 0 1 9 0 1 9 0 1 9 0 1 9 0 1 9 0 1 9
0 1 9 0 1 9 0 1 9 0 1 9 0 1 9 0 1 9 0 1 9 0 1 9 0 1 9 0 1 9 0 1 9 0 1
9 0 1 9 0 1 9 0 1 9 0 1 9 0 1 9 0 1 9 0 1 9 0 1 9 0 1 9 0 1 9 0 1 9 0
1 9 0 1 9 0 1 9 0 1 9 0 1 9 0 1 9 0 1 9 0 1 9 0 1 9 0 1 9 0 1 9 0 1 13
0 6 13 0 6 13 0 6 13 0 6 13 0 6 13 0 6 13 0 6 13 0 6 13 0 6 13 0 6 13
0 6 13 0 6 13 0 6 13 0 6 13 0 6 13 0 6 13 0 6 13 0 6 13 0 6 13 0 6 13
0 6 13 0 6 13 0 6 13 0 6 13 0 6 13 0 6 13 0 6 13 0 6 13 0 6 13 0 6 13
0 6 13 0 6 13 0 6 13 0 6 13 0 6 13 0 6 13 0 6 13 0 6 13 0 6 14 0 6 14
0 7 15 0 7 16 0 7 17 0 8 17 0 8 18 0 8 19 0 9 20 0 9 20 0 9 21 0 10 22
0 10 23 0 10 23 0 11 24 0 11 25 0 11 26 0 12 26 0 12 27 0 12 28 0 13
28 0 13 29 0 13 30 0 14 31 0 14 31 0 14 32 0 15 33 0 15 33 0 15 34 0
15 35 0 16 35 0 16 36 0 16 36 0 17 37 0 17 37 0 17 38 0 17 38 0 18 39
0 18 39 0 18 40 0 18 40 0 18 40 0 18 40 0 18 40 0 18 40 0 18 61 0 10
61 0 10 61 0 10 61 0 10 62 0 10 62 0 10 62 0 10 62 0 10 63 0 10 63 0
10 63 0 10 63 0 11 64 0 11 64 0 11 64 0 11 65 0 11 65 0 11 65 0 11 65
0 11 66 0 11 66 0 11 66 0 11 67 0 11 67 0 11 67 0 11 67 0 11 68 0 11
68 0 11 68 0 11 69 0 11 69 0 11 69 0 11 70 0 12 70 0 12 70 0 12 70 0
12 71 0 12 71 0 12 71 0 12 72 0 12 72 0 12 72 0 12 73 0 12 73 0 12 73
0 12 73 0 12 74 0 12 74 0 12 74 0 12 75 0 12 75 0 12 75 0 12 76 0 13
76 0 13 76 0 13 76 0 13 77 0 13 77 0 13 77 0 13 78 0 13 78 0 13 78 0
13 78 0 13 79 0 13 79 0 13 79 0 13 79 0 13 80 0 13 80 1 13 80 1 13 81
1 13 81 1 13 81 1 13 81 1 13 82 1 14 82 1 14 82 1 14 82 1 14 82 1 14
83 1 14 83 1 14 83 1 14 83 1 14 83 1 14 84 1 14 84 1 14 84 1 14 84 1
14 84 1 14 85 1 14 85 1 14 85 1 14 85 1 14 85 1 14 85 1 14 85 1 14 85
1 14 86 1 14 86 1 14 86 1 14 86 1 14 86 1 14 86 1 14 86 1 14 86 1 14
86 1 14 86 1 14 86 1 14 86 1 14 86 1 14 86 1 14 86 1 14 86 1 14 86 1
14 86 1 14 86 1 14 86 1 14 86 1 14 86 1 14 86 1 14 86 1 14 86 1 14 86
1 14 86 1 14 86 1 14 86 1 14 85 1 14 85 1 14 85 1 14 85 1 14 85 1 14
85 1 14 85 1 14 84 1 14 84 1 14 84 1 14 84 1 14 84 1 14 84 1 14 83 1
14 83 1 14 83 1 14 83 1 14 83 1 14 82 1 14 82 1 14 82 1 14 82 1 14 81
1 13 81 1 13 81 1 13 81 1 13 80 1 13 80 1 13 80 0 13 80 0 13 79 0 13
79 0 13 79 0 13 79 0 13 78 0 13 78 0 13 78 0 13 77 0 13 77 0 13 77 0
13 77 0 13 76 0 13 76 0 13 76 0 13 75 0 12 75 0 12 75 0 12 74 0 12 74
0 12 74 0 12 74 0 12 73 0 12 73 0 12 73 0 12 72 0 12 72 0 12 72 0 12
71 0 12 71 0 12 71 0 12 71 0 12 70 0 12 70 0 12 70 0 12 69 0 12 69 0
11 69 0 11 68 0 11 68 0 11 68 0 11 68 0 11 67 0 11 67 0 11 67 0 11 66
0 11 66 0 11 66 0 11 66 0 11 65 0 11 65 0 11 65 0 11 64 0 11 64 0 11
64 0 11 64 0 11 63 0 11 63 0 10 63 0 10 62 0 10 62 0 10 62 0 10 62 0
10 61 0 10 61 0 10 61 0 10 61 0 10 60 0 10 60 0 10 60 0 10 60 0 10 59
0 10 59 0 10 59 0 10 59 0 10 58 0 10 58 0 10 58 0 10 58 0 10 57 0 10
57 0 9 57 0 9 57 0 9 56 0 9 56 0 9 56 0 9 56 0 9 56 0 9 55 0 9 55 0 9
55 0 9 55 0 9 54 0 9 54 0 9 54 0 9 54 0 9 54 0 9 53 0 9 53 0 9 53 0 9
53 0 9 52 0 9 52 0 9
9 0 1 9 0 1 9 0 1 9 0 1 9 0 1 9 0 1 9 0 1 9 0 1 9 0 1 9 0 1 9 0 1 9 0
1 9 0 1 9 0 1 9 0 1 9 0 1 9 0 1 9 0 1 9 0 1 9 0 1 9 0 1 9 0 1 9 0 1 9
0 1 9 0 1 9 0 1 9 0 1 9 0 1 9 0 1 9 0 1 9 0 1 9 0 1 9 0 1 9 0 1 9 0 1
9 0 1 9 0 1 9 0 1 9 0 1 9 0 1 9 0 1 9 0 1 9 0 1 9 0 1 9 0 1 9 0 1 9 0
1 9 0 1 9 0 1 9 0 1 9 0 1 9 0 1 9 0 1 9 0 1 9 0 1 9 0 1 9 0 1 9 0 1 13
0 6 13 0 6 13 0 6 13 0 6 13 0 6 13 0 6 13 0 6 13 0 6 13 0 6 13 0 6 13
0 6 13 0 6 13 0 6 13 0 6 13 0 6 13 0 6 13 0 6 13 0 6 13 0 6 13 0 6 13
0 6 13 0 6 13 0 6 13 0 6 13 0 6 13 0 6 13 0 6 13 0 6 13 0 6 13 0 6 13
0 6 13 0 6 13 0 6 13 0 6 13 0 6 13 0 6 13 0 6 13 0 6 13 0 6 13 0 6 14
0 6 15 0 7 15 0 7 16 0 7 17 0 8 18 0 8 18 0 8 19 0 9 20 0 9 21 0 9 21
0 10 22 0 10 23 0 10 23 0 11 24 0 11 25 0 11 26 0 12 26 0 12 27 0 12
28 0 13 28 0 13 29 0 13 30 0 14 30 0 14 31 0 14 32 0 14 32 0 15 33 0
15 34 0 15 34 0 16 35 0 16 35 0 16 36 0 16 37 0 17 37 0 17 38 0 17 38
0 17 38 0 17 39 0 18 39 0 18 39 0 18 39 0 18 39 0 18 60 0 10 61 0 10
61 0 10 61 0 10 62 0 10 62 0 10 62 0 10 62 0 10 63 0 10 63 0 10 63 0
10 63 0 11 64 0 11 64 0 11 64 0 11 64 0 11 65 0 11 65 0 11 65 0 11 66
0 11 66 0 11 66 0 11 66 0 11 67 0 11 67 0 11 67 0 11 68 0 11 68 0 11
68 0 11 68 0 11 69 0 11 69 0 11 69 0 12 70 0 12 70 0 12 70 0 12 71 0
12 71 0 12 71 0 12 71 0 12 72 0 12 72 0 12 72 0 12 73 0 12 73 0 12 73
0 12 74 0 12 74 0 12 74 0 12 74 0 12 75 0 12 75 0 12 75 0 12 76 0 13
76 0 13 76 0 13 76 0 13 77 0 13 77 0 13 77 0 13 78 0 13 78 0 13 78 0
13 78 0 13 79 0 13 79 0 13 79 0 13 80 0 13 80 0 13 80 1 13 80 1 13 81
1 13 81 1 13 81 1 13 81 1 13 82 1 14 82 1 14 82 1 14 82 1 14 82 1 14
83 1 14 83 1 14 83 1 14 83 1 14 83 1 14 84 1 14 84 1 14 84 1 14 84 1
14 84 1 14 85 1 14 85 1 14 85 1 14 85 1 14 85 1 14 85 1 14 85 1 14 85
1 14 86 1 14 86 1 14 86 1 14 86 1 14 86 1 14 86 1 14 86 1 14 86 1 14
86 1 14 86 1 14 86 1 14 86 1 14 86 1 14 86 1 14 86 1 14 86 1 14 86 1
14 86 1 14 86 1 14 86 1 14 86 1 14 86 1 14 86 1 14 86 1 14 86 1 14 86
1 14 86 1 14 86 1 14 86 1 14 86 1 14 85 1 14 85 1 14 85 1 14 85 1 14
85 1 14 85 1 14 85 1 14 84 1 14 84 1 14 84 1 14 84 1 14 84 1 14 84 1
14 83 1 14 83 1 14 83 1 14 83 1 14 83 1 14 82 1 14 82 1 14 82 1 14 82
1 14 81 1 14 81 1 13 81 1 13 81 1 13 80 1 13 80 1 13 80 1 13 80 0 13
79 0 13 79 0 13 79 0 13 79 0 13 78 0 13 78 0 13 78 0 13 77 0 13 77 0
13 77 0 13 77 0 13 76 0 13 76 0 13 76 0 13 75 0 13 75 0 12 75 0 12 75
0 12 74 0 12 74 0 12 74 0 12 73 0 12 73 0 12 73 0 12 73 0 12 72 0 12
72 0 12 72 0 12 71 0 12 71 0 12 71 0 12 70 0 12 70 0 12 70 0 12 70 0
12 69 0 11 69 0 11 69 0 11 68 0 11 68 0 11 68 0 11 67 0 11 67 0 11 67
0 11 67 0 11 66 0 11 66 0 11 66 0 11 65 0 11 65 0 11 65 0 11 65 0 11
64 0 11 64 0 11 64 0 11 64 0 11 63 0 10 63 0 10 63 0 10 62 0 10 62 0
10 62 0 10 62 0 10 61 0 10 61 0 10 61 0 10 61 0 10 60 0 10 60 0 10 60
0 10 60 0 10 59 0 10 59 0 10 59 0 10 59 0 10 58 0 10 58 0 10 58 0 10
58 0 10 57 0 10 57 0 9 57 0 9 57 0 9 56 0 9 56 0 9 56 0 9 56 0 9 56 0
9 55 0 9 55 0 9 55 0 9 55 0 9 54 0 9 54 0 9 54 0 9 54 0 9 54 0 9 53 0
9 53 0 9 53 0 9 53 0 9
9 0 1 9 0 1 9 0 1 9 0 1 9 0 1 9 0 1 9 0 1 9 0 1 9 0 1 9 0 1 9 0 1 9 0
1 9 0 1 9 0 1 9 0 1 9 0 1 9 0 1 9 0 1 9 0 1 9 0 1 9 0 1 9 0 1 9 0 1 9
0 1 9 0 1 9 0 1 9 0 1 9 0 1 9 0 1 9 0 1 9 0 1 9 0 1 9 0 1 9 0 1 9 0 1
9 0 1 9 0 1 9 0 1 9 0 1 9 0 1 9 0 1 9 0 1 9 0 1 9 0 1 9 0 1 9 0 1 9 0
1 9 0 1 9 0 1 9 0 1 9 0 1 9 0 1 9 0 1 9 0 1 9 0 1 9 0 1 9 0 1 9 0 1 9
0 1 13 0 6 13 0 6 13 0 6 13 0 6 13 0 6 13 0 6 13 0 6 13 0 6 13 0 6 13
0 6 13 0 6 13 0 6 13 0 6 13 0 6 13 0 6 13 0 6 13 0 6 13 0 6 13 0 6 13
0 6 13 0 6 13 0 6 13 0 6 13 0 6 13 0 6 13 0 6 13 0 6 13 0 6 13 0 6 13
0 6 13 0 6 13 0 6 13 0 6 13 0 6 13 0 6 13 0 6 13 0 6 13 0 6 13 0 6 13
0 6 14 0 6 15 0 7 15 0 7 16 0 7 17 0 8 18 0 8 18 0 8 19 0 9 20 0 9 21
0 9 21 0 10 22 0 10 23 0 10 23 0 11 24 0 11 25 0 11 26 0 12 26 0 12 27
0 12 28 0 13 28 0 13 29 0 13 30 0 14 30 0 14 31 0 14 32 0 14 32 0 15
33 0 15 33 0 15 34 0 15 35 0 16 35 0 16 36 0 16 36 0 16 37 0 17 37 0
17 37 0 17 38 0 17 38 0 17 38 0 17 38 0 17 60 0 10 61 0 10 61 0 10 61
0 10 61 0 10 62 0 10 62 0 10 62 0 10 62 0 10 63 0 10 63 0 10 63 0 10
64 0 11 64 0 11 64 0 11 64 0 11 65 0 11 65 0 11 65 0 11 65 0 11 66 0
11 66 0 11 66 0 11 67 0 11 67 0 11 67 0 11 67 0 11 68 0 11 68 0 11 68
0 11 69 0 11 69 0 11 69 0 11 69 0 12 70 0 12 70 0 12 70 0 12 71 0 12
71 0 12 71 0 12 71 0 12 72 0 12 72 0 12 72 0 12 73 0 12 73 0 12 73 0
12 74 0 12 74 0 12 74 0 12 74 0 12 75 0 12 75 0 12 75 0 12 76 0 13 76
0 13 76 0 13 76 0 13 77 0 13 77 0 13 77 0 13 78 0 13 78 0 13 78 0 13
78 0 13 79 0 13 79 0 13 79 0 13 79 0 13 80 0 13 80 1 13 80 1 13 80 1
13 81 1 13 81 1 13 81 1 13 81 1 14 82 1 14 82 1 14 82 1 14 82 1 14 83
1 14 83 1 14 83 1 14 83 1 14 83 1 14 84 1 14 84 1 14 84 1 14 84 1 14
84 1 14 84 1 14 85 1 14 85 1 14 85 1 14 85 1 14 85 1 14 85 1 14 85 1
14 86 1 14 86 1 14 86 1 14 86 1 14 86 1 14 86 1 14 86 1 14 86 1 14 86
1 14 86 1 14 86 1 14 86 1 14 86 1 14 86 1 14 86 1 14 86 1 14 86 1 14
86 1 14 86 1 14 86 1 14 86 1 14 86 1 14 86 1 14 86 1 14 86 1 14 86 1
14 86 1 14 86 1 14 86 1 14 86 1 14 86 1 14 85 1 14 85 1 14 85 1 14 85
1 14 85 1 14 85 1 14 85 1 14 84 1 14 84 1 14 84 1 14 84 1 14 84 1 14
84 1 14 83 1 14 83 1 14 83 1 14 83 1 14 83 1 14 82 1 14 82 1 14 82 1
14 82 1 14 81 1 14 81 1 13 81 1 13 81 1 13 80 1 13 80 1 13 80 1 13 80
0 13 79 0 13 79 0 13 79 0 13 79 0 13 78 0 13 78 0 13 78 0 13 78 0 13
77 0 13 77 0 13 77 0 13 76 0 13 76 0 13 76 0 13 76 0 13 75 0 12 75 0
12 75 0 12 74 0 12 74 0 12 74 0 12 74 0 12 73 0 12 73 0 12 73 0 12 72
0 12 72 0 12 72 0 12 71 0 12 71 0 12 71 0 12 71 0 12 70 0 12 70 0 12
70 0 12 69 0 12 69 0 11 69 0 11 69 0 11 68 0 11 68 0 11 68 0 11 67 0
11 67 0 11 67 0 11 67 0 11 66 0 11 66 0 11 66 0 11 65 0 11 65 0 11 65
0 11 65 0 11 64 0 11 64 0 11 64 0 11 63 0 11 63 0 10 63 0 10 63 0 10
62 0 10 62 0 10 62 0 10 62 0 10 61 0 10 61 0 10 61 0 10 61 0 10 60 0
10 60 0 10 60 0 10 60 0 10 59 0 10 59 0 10 59 0 10 59 0 10 58 0 10 58
0 10 58 0 10 58 0 10 57 0 10 57 0 9 57 0 9 57 0 9 56 0 9 56 0 9 56 0 9
56 0 9 56 0 9 55 0 9 55 0 9 55 0 9 55 0 9 54 0 9 54 0 9 54 0 9 54 0 9
54 0 9 53 0 9 53 0 9
9 0 1 9 0 1 9 0 1 9 0 1 9 0 1 9 0 1 9 0 1 9 0 1 9 0 1 9 0 1 9 0 1 9 0
1 9 0 1 9 0 1 9 0 1 9 0 1 9 0 1 9 0 1 9 0 1 9 0 1 9 0 1 9 0 1 9 0 1 9
0 1 9 0 1 9 0 1 9 0 1 9 0 1 9 0 1 9 0 1 9 0 1 9 0 1 9 0 1 9 0 1 9 0 1
9 0 1 9 0 1 9 0 1 9 0 1 9 0 1 9 0 1 9 0 1 9 0 1 9 0 1 9 0 1 9 0 1 9 0
1 9 0 1 9 0 1 9 0 1 9 0 1 9 0 1 9 0 1 9 0 1 9 0 1 9 0 1 9 0 1 9 0 1 9
0 1 13 0 6 13 0 6 13 0 6 13 0 6 13 0 6 13 0 6 13 0 6 13 0 6 13 0 6 13
0 6 13 0 6 13 0 6 13 0 6 13 0 6 13 0 6 13 0 6 13 0 6 13 0 6 13 0 6 13
0 6 13 0 6 13 0 6 13 0 6 13 0 6 13 0 6 13 0 6 13 0 6 13 0 6 13 0 6 13
0 6 13 0 6 13 0 6 13 0 6 13 0 6 13 0 6 13 0 6 13 0 6 13 0 6 13 0 6 13
0 6 13 0 6 14 0 6 15 0 7 16 0 7 16 0 7 17 0 8 18 0 8 18 0 8 19 0 9 20
0 9 21 0 9 21 0 10 22 0 10 23 0 10 23 0 11 24 0 11 25 0 11 26 0 12 26
0 12 27 0 12 28 0 13 28 0 13 29 0 13 30 0 13 30 0 14 31 0 14 31 0 14
32 0 15 33 0 15 33 0 15 34 0 15 34 0 16 35 0 16 35 0 16 36 0 16 36 0
16 36 0 17 37 0 17 37 0 17 60 0 10 60 0 10 61 0 10 61 0 10 61 0 10 61
0 10 62 0 10 62 0 10 62 0 10 62 0 10 63 0 10 63 0 10 63 0 10 63 0 11
64 0 11 64 0 11 64 0 11 64 0 11 65 0 11 65 0 11 65 0 11 66 0 11 66 0
11 66 0 11 66 0 11 67 0 11 67 0 11 67 0 11 67 0 11 68 0 11 68 0 11 68
0 11 69 0 11 69 0 11 69 0 11 69 0 12 70 0 12 70 0 12 70 0 12 71 0 12
71 0 12 71 0 12 72 0 12 72 0 12 72 0 12 72 0 12 73 0 12 73 0 12 73 0
12 74 0 12 74 0 12 74 0 12 74 0 12 75 0 12 75 0 12 75 0 12 76 0 13 76
0 13 76 0 13 76 0 13 77 0 13 77 0 13 77 0 13 78 0 13 78 0 13 78 0 13
78 0 13 79 0 13 79 0 13 79 0 13 79 0 13 80 0 13 80 1 13 80 1 13 80 1
13 81 1 13 81 1 13 81 1 13 81 1 13 82 1 14 82 1 14 82 1 14 82 1 14 82
1 14 83 1 14 83 1 14 83 1 14 83 1 14 83 1 14 84 1 14 84 1 14 84 1 14
84 1 14 84 1 14 84 1 14 85 1 14 85 1 14 85 1 14 85 1 14 85 1 14 85 1
14 85 1 14 86 1 14 86 1 14 86 1 14 86 1 14 86 1 14 86 1 14 86 1 14 86
1 14 86 1 14 86 1 14 86 1 14 86 1 14 86 1 14 86 1 14 86 1 14 86 1 14
86 1 14 86 1 14 86 1 14 86 1 14 86 1 14 86 1 14 86 1 14 86 1 14 86 1
14 86 1 14 86 1 14 86 1 14 86 1 14 86 1 14 85 1 14 85 1 14 85 1 14 85
1 14 85 1 14 85 1 14 85 1 14 84 1 14 84 1 14 84 1 14 84 1 14 84 1 14
84 1 14 83 1 14 83 1 14 83 1 14 83 1 14 83 1 14 82 1 14 82 1 14 82 1
14 82 1 14 82 1 14 81 1 13 81 1 13 81 1 13 81 1 13 80 1 13 80 1 13 80
1 13 80 0 13 79 0 13 79 0 13 79 0 13 79 0 13 78 0 13 78 0 13 78 0 13
78 0 13 77 0 13 77 0 13 77 0 13 76 0 13 76 0 13 76 0 13 76 0 13 75 0
12 75 0 12 75 0 12 74 0 12 74 0 12 74 0 12 74 0 12 73 0 12 73 0 12 73
0 12 72 0 12 72 0 12 72 0 12 72 0 12 71 0 12 71 0 12 71 0 12 70 0 12
70 0 12 70 0 12 70 0 12 69 0 11 69 0 11 69 0 11 68 0 11 68 0 11 68 0
11 68 0 11 67 0 11 67 0 11 67 0 11 66 0 11 66 0 11 66 0 11 66 0 11 65
0 11 65 0 11 65 0 11 64 0 11 64 0 11 64 0 11 64 0 11 63 0 11 63 0 10
63 0 10 63 0 10 62 0 10 62 0 10 62 0 10 62 0 10 61 0 10 61 0 10 61 0
10 61 0 10 60 0 10 60 0 10 60 0 10 60 0 10 59 0 10 59 0 10 59 0 10 59
0 10 58 0 10 58 0 10 58 0 10 58 0 10 57 0 10 57 0 9 57 0 9 57 0 9 56 0
9 56 0 9 56 0 9 56 0 9 56 0 9 55 0 9 55 0 9 55 0 9 55 0 9 55 0 9 54 0
9 54 0 9 54 0 9 54 0 9
9 0 1 9 0 1 9 0 1 9 0 1 9 0 1 9 0 1 9 0 1 9 0 1 9 0 1 9 0 1 9 0 1 9 0
1 9 0 1 9 0 1 9 0 1 9 0 1 9 0 1 9 0 1 9 0 1 9 0 1 9 0 1 9 0 1 9 0 1 9
0 1 9 0 1 9 0 1 9 0 1 9 0 1 9 0 1 9 0 1 9 0 1 9 0 1 9 0 1 9 0 1 9 0 1
9 0 1 9 0 1 9 0 1 9 0 1 9 0 1 9 0 1 9 0 1 9 0 1 9 0 1 9 0 1 9 0 1 9 0
1 9 0 1 9 0 1 9 0 1 9 0 1 9 0 1 9 0 1 9 0 1 9 0 1 9 0 1 9 0 1 9 0 1 9
0 1 13 0 6 13 0 6 13 0 6 13 0 6 13 0 6 13 0 6 13 0 6 13 0 6 13 0 6 13
0 6 13 0 6 13 0 6 13 0 6 13 0 6 13 0 6 13 0 6 13 0 6 13 0 6 13 0 6 13
0 6 13 0 6 13 0 6 13 0 6 13 0 6 13 0 6 13 0 6 13 0 6 13 0 6 13 0 6 13
0 6 13 0 6 13 0 6 13 0 6 13 0 6 13 0 6 13 0 6 13 0 6 13 0 6 13 0 6 13
0 6 13 0 6 13 0 6 14 0 6 15 0 7 16 0 7 16 0 7 17 0 8 18 0 8 19 0 8 19
0 9 20 0 9 21 0 9 21 0 10 22 0 10 23 0 10 23 0 11 24 0 11 25 0 11 25 0
12 26 0 12 27 0 12 27 0 12 28 0 13 29 0 13 29 0 13 30 0 14 31 0 14 31
0 14 32 0 14 32 0 15 33 0 15 33 0 15 34 0 15 34 0 16 35 0 16 35 0 16
35 0 16 60 0 10 60 0 10 60 0 10 60 0 10 61 0 10 61 0 10 61 0 10 61 0
10 62 0 10 62 0 10 62 0 10 62 0 10 63 0 10 63 0 10 63 0 10 63 0 11 64
0 11 64 0 11 64 0 11 65 0 11 65 0 11 65 0 11 65 0 11 66 0 11 66 0 11
66 0 11 66 0 11 67 0 11 67 0 11 67 0 11 68 0 11 68 0 11 68 0 11 68 0
11 69 0 11 69 0 11 69 0 11 69 0 12 70 0 12 70 0 12 70 0 12 71 0 12 71
0 12 71 0 12 71 0 12 72 0 12 72 0 12 72 0 12 73 0 12 73 0 12 73 0 12
73 0 12 74 0 12 74 0 12 74 0 12 75 0 12 75 0 12 75 0 12 75 0 13 76 0
13 76 0 13 76 0 13 77 0 13 77 0 13 77 0 13 77 0 13 78 0 13 78 0 13 78
0 13 78 0 13 79 0 13 79 0 13 79 0 13 79 0 13 80 0 13 80 1 13 80 1 13
80 1 13 81 1 13 81 1 13 81 1 13 81 1 14 82 1 14 82 1 14 82 1 14 82 1
14 82 1 14 83 1 14 83 1 14 83 1 14 83 1 14 83 1 14 84 1 14 84 1 14 84
1 14 84 1 14 84 1 14 84 1 14 85 1 14 85 1 14 85 1 14 85 1 14 85 1 14
85 1 14 85 1 14 85 1 14 86 1 14 86 1 14 86 1 14 86 1 14 86 1 14 86 1
14 86 1 14 86 1 14 86 1 14 86 1 14 86 1 14 86 1 14 86 1 14 86 1 14 86
1 14 86 1 14 86 1 14 86 1 14 86 1 14 86 1 14 86 1 14 86 1 14 86 1 14
86 1 14 86 1 14 86 1 14 86 1 14 85 1 14 85 1 14 85 1 14 85 1 14 85 1
14 85 1 14 85 1 14 85 1 14 84 1 14 84 1 14 84 1 14 84 1 14 84 1 14 84
1 14 84 1 14 83 1 14 83 1 14 83 1 14 83 1 14 83 1 14 82 1 14 82 1 14
82 1 14 82 1 14 81 1 14 81 1 13 81 1 13 81 1 13 81 1 13 80 1 13 80 1
13 80 0 13 80 0 13 79 0 13 79 0 13 79 0 13 79 0 13 78 0 13 78 0 13 78
0 13 77 0 13 77 0 13 77 0 13 77 0 13 76 0 13 76 0 13 76 0 13 76 0 13
75 0 12 75 0 12 75 0 12 74 0 12 74 0 12 74 0 12 74 0 12 73 0 12 73 0
12 73 0 12 72 0 12 72 0 12 72 0 12 72 0 12 71 0 12 71 0 12 71 0 12 70
0 12 70 0 12 70 0 12 70 0 12 69 0 11 69 0 11 69 0 11 68 0 11 68 0 11
68 0 11 68 0 11 67 0 11 67 0 11 67 0 11 67 0 11 66 0 11 66 0 11 66 0
11 65 0 11 65 0 11 65 0 11 65 0 11 64 0 11 64 0 11 64 0 11 64 0 11 63
0 10 63 0 10 63 0 10 62 0 10 62 0 10 62 0 10 62 0 10 61 0 10 61 0 10
61 0 10 61 0 10 60 0 10 60 0 10 60 0 10 60 0 10 59 0 10 59 0 10 59 0
10 59 0 10 59 0 10 58 0 10 58 0 10 58 0 10 58 0 10 57 0 10 57 0 9 57 0
9 57 0 9 56 0 9 56 0 9 56 0 9 56 0 9 56 0 9 55 0 9 55 0 9 55 0 9 55 0
9 55 0 9 54 0 9 54 0 9
9 0 1 9 0 1 9 0 1 9 0 1 9 0 1 9 0 1 9 0 1 9 0 1 9 0 1 9 0 1 9 0 1 9 0
1 9 0 1 9 0 1 9 0 1 9 0 1 9 0 1 9 0 1 9 0 1 9 0 1 9 0 1 9 0 1 9 0 1 9
0 1 9 0 1 9 0 1 9 0 1 9 0 1 9 0 1 9 0 1 9 0 1 9 0 1 9 0 1 9 0 1 9 0 1
9 0 1 9 0 1 9 0 1 9 0 1 9 0 1 9 0 1 9 0 1 9 0 1 9 0 1 9 0 1 9 0 1 9 0
1 9 0 1 9 0 1 9 0 1 9 0 1 9 0 1 9 0 1 9 0 1 9 0 1 9 0 1 9 0 1 9 0 1 9
0 1 9 0 1 13 0 6 13 0 6 13 0 6 13 0 6 13 0 6 13 0 6 13 0 6 13 0 6 13 0
6 13 0 6 13 0 6 13 0 6 13 0 6 13 0 6 13 0 6 13 0 6 13 0 6 13 0 6 13 0
6 13 0 6 13 0 6 13 0 6 13 0 6 13 0 6 13 0 6 13 0 6 13 0 6 13 0 6 13 0
6 13 0 6 13 0 6 13 0 6 13 0 6 13 0 6 13 0 6 13 0 6 13 0 6 13 0 6 13 0
6 13 0 6 13 0 6 13 0 6 14 0 6 15 0 7 16 0 7 16 0 7 17 0 8 18 0 8 19 0
8 19 0 9 20 0 9 21 0 9 21 0 10 22 0 10 23 0 10 23 0 11 24 0 11 25 0 11
25 0 12 26 0 12 27 0 12 27 0 12 28 0 13 29 0 13 29 0 13 30 0 14 30 0
14 31 0 14 31 0 14 32 0 15 32 0 15 33 0 15 33 0 15 34 0 15 59 0 10 60
0 10 60 0 10 60 0 10 60 0 10 60 0 10 61 0 10 61 0 10 61 0 10 61 0 10
62 0 10 62 0 10 62 0 10 62 0 10 63 0 10 63 0 10 63 0 10 64 0 11 64 0
11 64 0 11 64 0 11 65 0 11 65 0 11 65 0 11 65 0 11 66 0 11 66 0 11 66
0 11 66 0 11 67 0 11 67 0 11 67 0 11 68 0 11 68 0 11 68 0 11 68 0 11
69 0 11 69 0 11 69 0 11 69 0 12 70 0 12 70 0 12 70 0 12 71 0 12 71 0
12 71 0 12 71 0 12 72 0 12 72 0 12 72 0 12 73 0 12 73 0 12 73 0 12 73
0 12 74 0 12 74 0 12 74 0 12 75 0 12 75 0 12 75 0 12 75 0 12 76 0 13
76 0 13 76 0 13 76 0 13 77 0 13 77 0 13 77 0 13 78 0 13 78 0 13 78 0
13 78 0 13 79 0 13 79 0 13 79 0 13 79 0 13 80 0 13 80 0 13 80 1 13 80
1 13 81 1 13 81 1 13 81 1 13 81 1 13 81 1 14 82 1 14 82 1 14 82 1 14
82 1 14 82 1 14 83 1 14 83 1 14 83 1 14 83 1 14 83 1 14 84 1 14 84 1
14 84 1 14 84 1 14 84 1 14 84 1 14 84 1 14 85 1 14 85 1 14 85 1 14 85
1 14 85 1 14 85 1 14 85 1 14 85 1 14 85 1 14 86 1 14 86 1 14 86 1 14
86 1 14 86 1 14 86 1 14 86 1 14 86 1 14 86 1 14 86 1 14 86 1 14 86 1
14 86 1 14 86 1 14 86 1 14 86 1 14 86 1 14 86 1 14 86 1 14 86 1 14 86
1 14 86 1 14 85 1 14 85 1 14 85 1 14 85 1 14 85 1 14 85 1 14 85 1 14
85 1 14 85 1 14 85 1 14 84 1 14 84 1 14 84 1 14 84 1 14 84 1 14 84 1
14 83 1 14 83 1 14 83 1 14 83 1 14 83 1 14 83 1 14 82 1 14 82 1 14 82
1 14 82 1 14 82 1 14 81 1 13 81 1 13 81 1 13 81 1 13 80 1 13 80 1 13
80 1 13 80 0 13 79 0 13 79 0 13 79 0 13 79 0 13 78 0 13 78 0 13 78 0
13 78 0 13 77 0 13 77 0 13 77 0 13 77 0 13 76 0 13 76 0 13 76 0 13 76
0 13 75 0 12 75 0 12 75 0 12 74 0 12 74 0 12 74 0 12 74 0 12 73 0 12
73 0 12 73 0 12 72 0 12 72 0 12 72 0 12 72 0 12 71 0 12 71 0 12 71 0
12 70 0 12 70 0 12 70 0 12 70 0 12 69 0 12 69 0 11 69 0 11 69 0 11 68
0 11 68 0 11 68 0 11 67 0 11 67 0 11 67 0 11 67 0 11 66 0 11 66 0 11
66 0 11 66 0 11 65 0 11 65 0 11 65 0 11 64 0 11 64 0 11 64 0 11 64 0
11 63 0 11 63 0 10 63 0 10 63 0 10 62 0 10 62 0 10 62 0 10 62 0 10 61
0 10 61 0 10 61 0 10 61 0 10 60 0 10 60 0 10 60 0 10 60 0 10 59 0 10
59 0 10 59 0 10 59 0 10 58 0 10 58 0 10 58 0 10 58 0 10 58 0 10 57 0
10 57 0 9 57 0 9 57 0 9 56 0 9 56 0 9 56 0 9 56 0 9 56 0 9 55 0 9 55 0
9 55 0 9 55 0 9 55 0 9
9 0 1 9 0 1 9 0 1 9 0 1 9 0 1 9 0 1 9 0 1 9 0 1 9 0 1 9 0 1 9 0 1 9 0
1 9 0 1 9 0 1 9 0 1 9 0 1 9 0 1 9 0 1 9 0 1 9 0 1 9 0 1 9 0 1 9 0 1 9
0 1 9 0 1 9 0 1 9 0 1 9 0 1 9 0 1 9 0 1 9 0 1 9 0 1 9 0 1 9 0 1 9 0 1
9 0 1 9 0 1 9 0 1 9 0 1 9 0 1 9 0 1 9 0 1 9 0 1 9 0 1 9 0 1 9 0 1 9 0
1 9 0 1 9 0 1 9 0 1 9 0 1 9 0 1 9 0 1 9 0 1 9 0 1 9 0 1 9 0 1 9 0 1 9
0 1 9 0 1 13 0 6 13 0 6 13 0 6 13 0 6 13 0 6 13 0 6 13 0 6 13 0 6 13 0
6 13 0 6 13 0 6 13 0 6 13 0 6 13 0 6 13 0 6 13 0 6 13 0 6 13 0 6 13 0
6 13 0 6 13 0 6 13 0 6 13 0 6 13 0 6 13 0 6 13 0 6 13 0 6 13 0 6 13 0
6 13 0 6 13 0 6 13 0 6 13 0 6 13 0 6 13 0 6 13 0 6 13 0 6 13 0 6 13 0
6 13 0 6 13 0 6 13 0 6 14 0 6 14 0 6 15 0 7 16 0 7 16 0 7 17 0 8 18 0
8 19 0 8 19 0 9 20 0 9 21 0 9 21 0 10 22 0 10 23 0 10 23 0 11 24 0 11
25 0 11 25 0 11 26 0 12 26 0 12 27 0 12 28 0 13 28 0 13 29 0 13 29 0
13 30 0 14 30 0 14 31 0 14 31 0 14 59 0 10 59 0 10 59 0 10 59 0 10 60
0 10 60 0 10 60 0 10 60 0 10 61 0 10 61 0 10 61 0 10 61 0 10 62 0 10
62 0 10 62 0 10 62 0 10 63 0 10 63 0 10 63 0 10 63 0 10 64 0 11 64 0
11 64 0 11 64 0 11 65 0 11 65 0 11 65 0 11 65 0 11 66 0 11 66 0 11 66
0 11 66 0 11 67 0 11 67 0 11 67 0 11 68 0 11 68 0 11 68 0 11 68 0 11
69 0 11 69 0 11 69 0 11 69 0 12 70 0 12 70 0 12 70 0 12 71 0 12 71 0
12 71 0 12 71 0 12 72 0 12 72 0 12 72 0 12 72 0 12 73 0 12 73 0 12 73
0 12 74 0 12 74 0 12 74 0 12 74 0 12 75 0 12 75 0 12 75 0 12 75 0 13
76 0 13 76 0 13 76 0 13 77 0 13 77 0 13 77 0 13 77 0 13 78 0 13 78 0
13 78 0 13 78 0 13 79 0 13 79 0 13 79 0 13 79 0 13 80 0 13 80 0 13 80
1 13 80 1 13 80 1 13 81 1 13 81 1 13 81 1 13 81 1 13 82 1 14 82 1 14
82 1 14 82 1 14 82 1 14 83 1 14 83 1 14 83 1 14 83 1 14 83 1 14 83 1
14 84 1 14 84 1 14 84 1 14 84 1 14 84 1 14 84 1 14 84 1 14 85 1 14 85
1 14 85 1 14 85 1 14 85 1 14 85 1 14 85 1 14 85 1 14 85 1 14 85 1 14
85 1 14 85 1 14 86 1 14 86 1 14 86 1 14 86 1 14 86 1 14 86 1 14 86 1
14 86 1 14 86 1 14 86 1 14 86 1 14 86 1 14 86 1 14 86 1 14 85 1 14 85
1 14 85 1 14 85 1 14 85 1 14 85 1 14 85 1 14 85 1 14 85 1 14 85 1 14
85 1 14 85 1 14 84 1 14 84 1 14 84 1 14 84 1 14 84 1 14 84 1 14 84 1
14 83 1 14 83 1 14 83 1 14 83 1 14 83 1 14 83 1 14 82 1 14 82 1 14 82
1 14 82 1 14 82 1 14 81 1 13 81 1 13 81 1 13 81 1 13 80 1 13 80 1 13
80 1 13 80 0 13 80 0 13 79 0 13 79 0 13 79 0 13 79 0 13 78 0 13 78 0
13 78 0 13 78 0 13 77 0 13 77 0 13 77 0 13 76 0 13 76 0 13 76 0 13 76
0 13 75 0 13 75 0 12 75 0 12 75 0 12 74 0 12 74 0 12 74 0 12 73 0 12
73 0 12 73 0 12 73 0 12 72 0 12 72 0 12 72 0 12 72 0 12 71 0 12 71 0
12 71 0 12 70 0 12 70 0 12 70 0 12 70 0 12 69 0 12 69 0 11 69 0 11 69
0 11 68 0 11 68 0 11 68 0 11 67 0 11 67 0 11 67 0 11 67 0 11 66 0 11
66 0 11 66 0 11 66 0 11 65 0 11 65 0 11 65 0 11 65 0 11 64 0 11 64 0
11 64 0 11 63 0 11 63 0 10 63 0 10 63 0 10 62 0 10 62 0 10 62 0 10 62
0 10 61 0 10 61 0 10 61 0 10 61 0 10 61 0 10 60 0 10 60 0 10 60 0 10
60 0 10 59 0 10 59 0 10 59 0 10 59 0 10 58 0 10 58 0 10 58 0 10 58 0
10 57 0 10 57 0 9 57 0 9 57 0 9 57 0 9 56 0 9 56 0 9 56 0 9 56 0 9 56
0 9 55 0 9 55 0 9 55 0 9
9 0 1 9 0 1 9 0 1 9 0 1 9 0 1 9 0 1 9 0 1 9 0 1 9 0 1 9 0 1 9 0 1 9 0
1 9 0 1 9 0 1 9 0 1 9 0 1 9 0 1 9 0 1 9 0 1 9 0 1 9 0 1 9 0 1 9 0 1 9
0 1 9 0 1 9 0 1 9 0 1 9 0 1 9 0 1 9 0 1 9 0 1 9 0 1 9 0 1 9 0 1 9 0 1
9 0 1 9 0 1 9 0 1 9 0 1 9 0 1 9 0 1 9 0 1 9 0 1 9 0 1 9 0 1 9 0 1 9 0
1 9 0 1 9 0 1 9 0 1 9 0 1 9 0 1 9 0 1 9 0 1 9 0 1 9 0 1 9 0 1 9 0 1 9
0 1 9 0 1 9 0 1 13 0 6 13 0 6 13 0 6 13 0 6 13 0 6 13 0 6 13 0 6 13 0
6 13 0 6 13 0 6 13 0 6 13 0 6 13 0 6 13 0 6 13 0 6 13 0 6 13 0 6 13 0
6 13 0 6 13 0 6 13 0 6 13 0 6 13 0 6 13 0 6 13 0 6 13 0 6 13 0 6 13 0
6 13 0 6 13 0 6 13 0 6 13 0 6 13 0 6 13 0 6 13 0 6 13 0 6 13 0 6 13 0
6 13 0 6 13 0 6 13 0 6 13 0 6 14 0 6 14 0 6 15 0 7 16 0 7 16 0 7 17 0
8 18 0 8 18 0 8 19 0 9 20 0 9 20 0 9 21 0 10 22 0 10 22 0 10 23 0 11
24 0 11 24 0 11 25 0 11 26 0 12 26 0 12 27 0 12 27 0 12 28 0 13 28 0
13 29 0 13 58 0 10 58 0 10 59 0 10 59 0 10 59 0 10 59 0 10 59 0 10 60
0 10 60 0 10 60 0 10 60 0 10 61 0 10 61 0 10 61 0 10 61 0 10 62 0 10
62 0 10 62 0 10 62 0 10 63 0 10 63 0 10 63 0 10 63 0 11 64 0 11 64 0
11 64 0 11 64 0 11 65 0 11 65 0 11 65 0 11 65 0 11 66 0 11 66 0 11 66
0 11 66 0 11 67 0 11 67 0 11 67 0 11 67 0 11 68 0 11 68 0 11 68 0 11
69 0 11 69 0 11 69 0 11 69 0 12 70 0 12 70 0 12 70 0 12 70 0 12 71 0
12 71 0 12 71 0 12 72 0 12 72 0 12 72 0 12 72 0 12 73 0 12 73 0 12 73
0 12 73 0 12 74 0 12 74 0 12 74 0 12 74 0 12 75 0 12 75 0 12 75 0 12
76 0 13 76 0 13 76 0 13 76 0 13 77 0 13 77 0 13 77 0 13 77 0 13 78 0
13 78 0 13 78 0 13 78 0 13 79 0 13 79 0 13 79 0 13 79 0 13 80 0 13 80
0 13 80 1 13 80 1 13 80 1 13 81 1 13 81 1 13 81 1 13 81 1 13 81 1 14
82 1 14 82 1 14 82 1 14 82 1 14 82 1 14 83 1 14 83 1 14 83 1 14 83 1
14 83 1 14 83 1 14 84 1 14 84 1 14 84 1 14 84 1 14 84 1 14 84 1 14 84
1 14 84 1 14 85 1 14 85 1 14 85 1 14 85 1 14 85 1 14 85 1 14 85 1 14
85 1 14 85 1 14 85 1 14 85 1 14 85 1 14 85 1 14 85 1 14 85 1 14 85 1
14 85 1 14 85 1 14 85 1 14 85 1 14 85 1 14 85 1 14 85 1 14 85 1 14 85
1 14 85 1 14 85 1 14 85 1 14 85 1 14 85 1 14 85 1 14 85 1 14 85 1 14
84 1 14 84 1 14 84 1 14 84 1 14 84 1 14 84 1 14 84 1 14 84 1 14 83 1
14 83 1 14 83 1 14 83 1 14 83 1 14 83 1 14 82 1 14 82 1 14 82 1 14 82
1 14 82 1 14 81 1 14 81 1 13 81 1 13 81 1 13 81 1 13 80 1 13 80 1 13
80 1 13 80 0 13 80 0 13 79 0 13 79 0 13 79 0 13 79 0 13 78 0 13 78 0
13 78 0 13 78 0 13 77 0 13 77 0 13 77 0 13 77 0 13 76 0 13 76 0 13 76
0 13 76 0 13 75 0 12 75 0 12 75 0 12 74 0 12 74 0 12 74 0 12 74 0 12
73 0 12 73 0 12 73 0 12 73 0 12 72 0 12 72 0 12 72 0 12 72 0 12 71 0
12 71 0 12 71 0 12 70 0 12 70 0 12 70 0 12 70 0 12 69 0 12 69 0 11 69
0 11 69 0 11 68 0 11 68 0 11 68 0 11 67 0 11 67 0 11 67 0 11 67 0 11
66 0 11 66 0 11 66 0 11 66 0 11 65 0 11 65 0 11 65 0 11 65 0 11 64 0
11 64 0 11 64 0 11 64 0 11 63 0 11 63 0 10 63 0 10 63 0 10 62 0 10 62
0 10 62 0 10 62 0 10 61 0 10 61 0 10 61 0 10 61 0 10 60 0 10 60 0 10
60 0 10 60 0 10 59 0 10 59 0 10 59 0 10 59 0 10 59 0 10 58 0 10 58 0
10 58 0 10 58 0 10 57 0 10 57 0 9 57 0 9 57 0 9 57 0 9 56 0 9 56 0 9
56 0 9 56 0 9 55 0 9 55 0 9
9 0 1 9 0 1 9 0 1 9 0 1 9 0 1 9 0 1 9 0 1 9 0 1 9 0 1 9 0 1 9 0 1 9 0
1 9 0 1 9 0 1 9 0 1 9 0 1 9 0 1 9 0 1 9 0 1 9 0 1 9 0 1 9 0 1 9 0 1 9
0 1 9 0 1 9 0 1 9 0 1 9 0 1 9 0 1 9 0 1 9 0 1 9 0 1 9 0 1 9 0 1 9 0 1
9 0 1 9 0 1 9 0 1 9 0 1 9 0 1 9 0 1 9 0 1 9 0 1 9 0 1 9 0 1 9 0 1 9 0
1 9 0 1 9 0 1 9 0 1 9 0 1 9 0 1 9 0 1 9 0 1 9 0 1 9 0 1 9 0 1 9 0 1 9
0 1 9 0 1 9 0 1 9 0 1 13 0 6 13 0 6 13 0 6 13 0 6 13 0 6 13 0 6 13 0 6
13 0 6 13 0 6 13 0 6 13 0 6 13 0 6 13 0 6 13 0 6 13 0 6 13 0 6 13 0 6
13 0 6 13 0 6 13 0 6 13 0 6 13 0 6 13 0 6 13 0 6 13 0 6 13 0 6 13 0 6
13 0 6 13 0 6 13 0 6 13 0 6 13 0 6 13 0 6 13 0 6 13 0 6 13 0 6 13 0 6
13 0 6 13 0 6 13 0 6 13 0 6 13 0 6 14 0 6 14 0 6 15 0 7 16 0 7 16 0 7
17 0 8 18 0 8 18 0 8 19 0 9 20 0 9 20 0 9 21 0 10 22 0 10 22 0 10 23 0
10 24 0 11 24 0 11 25 0 11 25 0 12 26 0 12 26 0 12 57 0 10 58 0 10 58
0 10 58 0 10 58 0 10 59 0 10 59 0 10 59 0 10 59 0 10 60 0 10 60 0 10
60 0 10 60 0 10 60 0 10 61 0 10 61 0 10 61 0 10 61 0 10 62 0 10 62 0
10 62 0 10 62 0 10 63 0 10 63 0 10 63 0 10 63 0 11 64 0 11 64 0 11 64
0 11 64 0 11 65 0 11 65 0 11 65 0 11 65 0 11 66 0 11 66 0 11 66 0 11
66 0 11 67 0 11 67 0 11 67 0 11 67 0 11 68 0 11 68 0 11 68 0 11 68 0
11 69 0 11 69 0 11 69 0 11 70 0 12 70 0 12 70 0 12 70 0 12 71 0 12 71
0 12 71 0 12 71 0 12 72 0 12 72 0 12 72 0 12 72 0 12 73 0 12 73 0 12
73 0 12 73 0 12 74 0 12 74 0 12 74 0 12 75 0 12 75 0 12 75 0 12 75 0
12 76 0 13 76 0 13 76 0 13 76 0 13 77 0 13 77 0 13 77 0 13 77 0 13 78
0 13 78 0 13 78 0 13 78 0 13 79 0 13 79 0 13 79 0 13 79 0 13 79 0 13
80 0 13 80 0 13 80 1 13 80 1 13 80 1 13 81 1 13 81 1 13 81 1 13 81 1
13 81 1 14 82 1 14 82 1 14 82 1 14 82 1 14 82 1 14 83 1 14 83 1 14 83
1 14 83 1 14 83 1 14 83 1 14 83 1 14 84 1 14 84 1 14 84 1 14 84 1 14
84 1 14 84 1 14 84 1 14 84 1 14 84 1 14 84 1 14 85 1 14 85 1 14 85 1
14 85 1 14 85 1 14 85 1 14 85 1 14 85 1 14 85 1 14 85 1 14 85 1 14 85
1 14 85 1 14 85 1 14 85 1 14 85 1 14 85 1 14 85 1 14 85 1 14 85 1 14
85 1 14 85 1 14 85 1 14 85 1 14 84 1 14 84 1 14 84 1 14 84 1 14 84 1
14 84 1 14 84 1 14 84 1 14 84 1 14 84 1 14 83 1 14 83 1 14 83 1 14 83
1 14 83 1 14 83 1 14 83 1 14 82 1 14 82 1 14 82 1 14 82 1 14 82 1 14
82 1 14 81 1 13 81 1 13 81 1 13 81 1 13 81 1 13 80 1 13 80 1 13 80 1
13 80 0 13 79 0 13 79 0 13 79 0 13 79 0 13 79 0 13 78 0 13 78 0 13 78
0 13 78 0 13 77 0 13 77 0 13 77 0 13 77 0 13 76 0 13 76 0 13 76 0 13
76 0 13 75 0 12 75 0 12 75 0 12 75 0 12 74 0 12 74 0 12 74 0 12 74 0
12 73 0 12 73 0 12 73 0 12 72 0 12 72 0 12 72 0 12 72 0 12 71 0 12 71
0 12 71 0 12 71 0 12 70 0 12 70 0 12 70 0 12 70 0 12 69 0 11 69 0 11
69 0 11 68 0 11 68 0 11 68 0 11 68 0 11 67 0 11 67 0 11 67 0 11 67 0
11 66 0 11 66 0 11 66 0 11 66 0 11 65 0 11 65 0 11 65 0 11 65 0 11 64
0 11 64 0 11 64 0 11 64 0 11 63 0 11 63 0 10 63 0 10 63 0 10 62 0 10
62 0 10 62 0 10 62 0 10 61 0 10 61 0 10 61 0 10 61 0 10 60 0 10 60 0
10 60 0 10 60 0 10 60 0 10 59 0 10 59 0 10 59 0 10 59 0 10 58 0 10 58
0 10 58 0 10 58 0 10 58 0 10 57 0 10 57 0 9 57 0 9 57 0 9 56 0 9 56 0
9 56 0 9 56 0 9 56 0 9
9 0 1 9 0 1 9 0 1 9 0 1 9 0 1 9 0 1 9 0 1 9 0 1 9 0 1 9 0 1 9 0 1 9 0
1 9 0 1 9 0 1 9 0 1 9 0 1 9 0 1 9 0 1 9 0 1 9 0 1 9 0 1 9 0 1 9 0 1 9
0 1 9 0 1 9 0 1 9 0 1 9 0 1 9 0 1 9 0 1 9 0 1 9 0 1 9 0 1 9 0 1 9 0 1
9 0 1 9 0 1 9 0 1 9 0 1 9 0 1 9 0 1 9 0 1 9 0 1 9 0 1 9 0 1 9 0 1 9 0
1 9 0 1 9 0 1 9 0 1 9 0 1 9 0 1 9 0 1 9 0 1 9 0 1 9 0 1 9 0 1 9 0 1 9
0 1 9 0 1 9 0 1 9 0 1 9 0 1 9 0 1 13 0 6 13 0 6 13 0 6 13 0 6 13 0 6
13 0 6 13 0 6 13 0 6 13 0 6 13 0 6 13 0 6 13 0 6 13 0 6 13 0 6 13 0 6
13 0 6 13 0 6 13 0 6 13 0 6 13 0 6 13 0 6 13 0 6 13 0 6 13 0 6 13 0 6
13 0 6 13 0 6 13 0 6 13 0 6 13 0 6 13 0 6 13 0 6 13 0 6 13 0 6 13 0 6
13 0 6 13 0 6 13 0 6 13 0 6 13 0 6 13 0 6 14 0 6 14 0 6 15 0 7 16 0 7
16 0 7 17 0 8 18 0 8 18 0 8 19 0 9 20 0 9 20 0 9 21 0 9 21 0 10 22 0
10 23 0 10 23 0 11 57 0 9 57 0 9 57 0 9 57 0 10 58 0 10 58 0 10 58 0
10 58 0 10 58 0 10 59 0 10 59 0 10 59 0 10 59 0 10 60 0 10 60 0 10 60
0 10 60 0 10 60 0 10 61 0 10 61 0 10 61 0 10 61 0 10 62 0 10 62 0 10
62 0 10 62 0 10 63 0 10 63 0 10 63 0 10 63 0 10 64 0 11 64 0 11 64 0
11 64 0 11 65 0 11 65 0 11 65 0 11 65 0 11 66 0 11 66 0 11 66 0 11 66
0 11 67 0 11 67 0 11 67 0 11 67 0 11 68 0 11 68 0 11 68 0 11 68 0 11
69 0 11 69 0 11 69 0 11 69 0 12 70 0 12 70 0 12 70 0 12 70 0 12 71 0
12 71 0 12 71 0 12 71 0 12 72 0 12 72 0 12 72 0 12 72 0 12 73 0 12 73
0 12 73 0 12 74 0 12 74 0 12 74 0 12 74 0 12 75 0 12 75 0 12 75 0 12
75 0 12 76 0 13 76 0 13 76 0 13 76 0 13 77 0 13 77 0 13 77 0 13 77 0
13 77 0 13 78 0 13 78 0 13 78 0 13 78 0 13 79 0 13 79 0 13 79 0 13 79
0 13 79 0 13 80 0 13 80 1 13 80 1 13 80 1 13 81 1 13 81 1 13 81 1 13
81 1 13 81 1 13 81 1 14 82 1 14 82 1 14 82 1 14 82 1 14 82 1 14 82 1
14 83 1 14 83 1 14 83 1 14 83 1 14 83 1 14 83 1 14 83 1 14 83 1 14 84
1 14 84 1 14 84 1 14 84 1 14 84 1 14 84 1 14 84 1 14 84 1 14 84 1 14
84 1 14 84 1 14 84 1 14 84 1 14 84 1 14 85 1 14 85 1 14 85 1 14 85 1
14 85 1 14 85 1 14 85 1 14 85 1 14 85 1 14 84 1 14 84 1 14 84 1 14 84
1 14 84 1 14 84 1 14 84 1 14 84 1 14 84 1 14 84 1 14 84 1 14 84 1 14
84 1 14 84 1 14 84 1 14 83 1 14 83 1 14 83 1 14 83 1 14 83 1 14 83 1
14 83 1 14 82 1 14 82 1 14 82 1 14 82 1 14 82 1 14 82 1 14 82 1 14 81
1 13 81 1 13 81 1 13 81 1 13 81 1 13 80 1 13 80 1 13 80 1 13 80 0 13
80 0 13 79 0 13 79 0 13 79 0 13 79 0 13 78 0 13 78 0 13 78 0 13 78 0
13 78 0 13 77 0 13 77 0 13 77 0 13 77 0 13 76 0 13 76 0 13 76 0 13 76
0 13 75 0 13 75 0 12 75 0 12 75 0 12 74 0 12 74 0 12 74 0 12 74 0 12
73 0 12 73 0 12 73 0 12 73 0 12 72 0 12 72 0 12 72 0 12 72 0 12 71 0
12 71 0 12 71 0 12 71 0 12 70 0 12 70 0 12 70 0 12 69 0 12 69 0 11 69
0 11 69 0 11 68 0 11 68 0 11 68 0 11 68 0 11 67 0 11 67 0 11 67 0 11
67 0 11 66 0 11 66 0 11 66 0 11 66 0 11 65 0 11 65 0 11 65 0 11 65 0
11 64 0 11 64 0 11 64 0 11 64 0 11 63 0 11 63 0 10 63 0 10 63 0 10 62
0 10 62 0 10 62 0 10 62 0 10 61 0 10 61 0 10 61 0 10 61 0 10 61 0 10
60 0 10 60 0 10 60 0 10 60 0 10 59 0 10 59 0 10 59 0 10 59 0 10 59 0
10 58 0 10 58 0 10 58 0 10 58 0 10 57 0 10 57 0 9 57 0 9 57 0 9 57 0 9
56 0 9 56 0 9 56 0 9
9 0 1 9 0 1 9 0 1 9 0 1 9 0 1 9 0 1 9 0 1 9 0 1 9 0 1 9 0 1 9 0 1 9 0
1 9 0 1 9 0 1 9 0 1 9 0 1 9 0 1 9 0 1 9 0 1 9 0 1 9 0 1 9 0 1 9 0 1 9
0 1 9 0 1 9 0 1 9 0 1 9 0 1 9 0 1 9 0 1 9 0 1 9 0 1 9 0 1 9 0 1 9 0 1
9 0 1 9 0 1 9 0 1 9 0 1 9 0 1 9 0 1 9 0 1 9 0 1 9 0 1 9 0 1 9 0 1 9 0
1 9 0 1 9 0 1 9 0 1 9 0 1 9 0 1 9 0 1 9 0 1 9 0 1 9 0 1 9 0 1 9 0 1 9
0 1 9 0 1 9 0 1 9 0 1 9 0 1 9 0 1 9 0 1 9 0 1 13 0 6 13 0 6 13 0 6 13
0 6 13 0 6 13 0 6 13 0 6 13 0 6 13 0 6 13 0 6 13 0 6 13 0 6 13 0 6 13
0 6 13 0 6 13 0 6 13 0 6 13 0 6 13 0 6 13 0 6 13 0 6 13 0 6 13 0 6 13
0 6 13 0 6 13 0 6 13 0 6 13 0 6 13 0 6 13 0 6 13 0 6 13 0 6 13 0 6 13
0 6 13 0 6 13 0 6 13 0 6 13 0 6 13 0 6 13 0 6 13 0 6 14 0 6 15 0 7 16
0 7 16 0 7 17 0 8 17 0 8 18 0 8 19 0 9 19 0 9 56 0 9 56 0 9 56 0 9 56
0 9 57 0 9 57 0 9 57 0 9 57 0 9 57 0 10 58 0 10 58 0 10 58 0 10 58 0
10 58 0 10 59 0 10 59 0 10 59 0 10 59 0 10 60 0 10 60 0 10 60 0 10 60
0 10 60 0 10 61 0 10 61 0 10 61 0 10 61 0 10 62 0 10 62 0 10 62 0 10
62 0 10 63 0 10 63 0 10 63 0 10 63 0 10 63 0 11 64 0 11 64 0 11 64 0
11 64 0 11 65 0 11 65 0 11 65 0 11 65 0 11 66 0 11 66 0 11 66 0 11 66
0 11 67 0 11 67 0 11 67 0 11 67 0 11 68 0 11 68 0 11 68 0 11 68 0 11
69 0 11 69 0 11 69 0 11 69 0 12 70 0 12 70 0 12 70 0 12 70 0 12 71 0
12 71 0 12 71 0 12 72 0 12 72 0 12 72 0 12 72 0 12 73 0 12 73 0 12 73
0 12 73 0 12 74 0 12 74 0 12 74 0 12 74 0 12 75 0 12 75 0 12 75 0 12
75 0 12 75 0 13 76 0 13 76 0 13 76 0 13 76 0 13 77 0 13 77 0 13 77 0
13 77 0 13 78 0 13 78 0 13 78 0 13 78 0 13 78 0 13 79 0 13 79 0 13 79
0 13 79 0 13 80 0 13 80 0 13 80 1 13 80 1 13 80 1 13 80 1 13 81 1 13
81 1 13 81 1 13 81 1 13 81 1 13 82 1 14 82 1 14 82 1 14 82 1 14 82 1
14 82 1 14 82 1 14 83 1 14 83 1 14 83 1 14 83 1 14 83 1 14 83 1 14 83
1 14 83 1 14 83 1 14 83 1 14 84 1 14 84 1 14 84 1 14 84 1 14 84 1 14
84 1 14 84 1 14 84 1 14 84 1 14 84 1 14 84 1 14 84 1 14 84 1 14 84 1
14 84 1 14 84 1 14 84 1 14 84 1 14 84 1 14 84 1 14 84 1 14 84 1 14 84
1 14 84 1 14 84 1 14 84 1 14 84 1 14 84 1 14 84 1 14 83 1 14 83 1 14
83 1 14 83 1 14 83 1 14 83 1 14 83 1 14 83 1 14 83 1 14 82 1 14 82 1
14 82 1 14 82 1 14 82 1 14 82 1 14 82 1 14 81 1 14 81 1 13 81 1 13 81
1 13 81 1 13 81 1 13 80 1 13 80 1 13 80 1 13 80 0 13 80 0 13 79 0 13
79 0 13 79 0 13 79 0 13 79 0 13 78 0 13 78 0 13 78 0 13 78 0 13 78 0
13 77 0 13 77 0 13 77 0 13 77 0 13 76 0 13 76 0 13 76 0 13 76 0 13 75
0 13 75 0 12 75 0 12 75 0 12 74 0 12 74 0 12 74 0 12 74 0 12 73 0 12
73 0 12 73 0 12 73 0 12 72 0 12 72 0 12 72 0 12 72 0 12 71 0 12 71 0
12 71 0 12 71 0 12 70 0 12 70 0 12 70 0 12 70 0 12 69 0 12 69 0 11 69
0 11 69 0 11 68 0 11 68 0 11 68 0 11 68 0 11 67 0 11 67 0 11 67 0 11
67 0 11 66 0 11 66 0 11 66 0 11 66 0 11 65 0 11 65 0 11 65 0 11 65 0
11 64 0 11 64 0 11 64 0 11 64 0 11 63 0 11 63 0 10 63 0 10 63 0 10 62
0 10 62 0 10 62 0 10 62 0 10 62 0 10 61 0 10 61 0 10 61 0 10 61 0 10
60 0 10 60 0 10 60 0 10 60 0 10 59 0 10 59 0 10 59 0 10 59 0 10 59 0
10 58 0 10 58 0 10 58 0 10 58 0 10 58 0 10 57 0 10 57 0 9 57 0 9 57 0
9 56 0 9 56 0 9
9 0 1 9 0 1 9 0 1 9 0 1 9 0 1 9 0 1 9 0 1 9 0 1 9 0 1 9 0 1 9 0 1 9 0
1 9 0 1 9 0 1 9 0 1 9 0 1 9 0 1 9 0 1 9 0 1 9 0 1 9 0 1 9 0 1 9 0 1 9
0 1 9 0 1 9 0 1 9 0 1 9 0 1 9 0 1 9 0 1 9 0 1 9 0 1 9 0 1 9 0 1 9 0 1
9 0 1 9 0 1 9 0 1 9 0 1 9 0 1 9 0 1 9 0 1 9 0 1 9 0 1 9 0 1 9 0 1 9 0
1 9 0 1 9 0 1 9 0 1 9 0 1 9 0 1 9 0 1 9 0 1 9 0 1 9 0 1 9 0 1 9 0 1 9
0 1 9 0 1 9 0 1 9 0 1 9 0 1 9 0 1 9 0 1 9 0 1 9 0 1 9 0 1 9 0 1 9 0 1
13 0 6 13 0 6 13 0 6 13 0 6 13 0 6 13 0 6 13 0 6 13 0 6 13 0 6 13 0 6
13 0 6 13 0 6 13 0 6 13 0 6 13 0 6 13 0 6 13 0 6 13 0 6 13 0 6 13 0 6
13 0 6 13 0 6 13 0 6 13 0 6 13 0 6 13 0 6 13 0 6 13 0 6 13 0 6 13 0 6
13 0 6 13 0 6 13 0 6 13 0 6 13 0 6 13 0 6 13 0 6 13 0 6 14 0 6 15 0 7
15 0 7 55 0 9 55 0 9 55 0 9 55 0 9 56 0 9 56 0 9 56 0 9 56 0 9 56 0 9
57 0 9 57 0 9 57 0 9 57 0 9 57 0 10 58 0 10 58 0 10 58 0 10 58 0 10 58
0 10 59 0 10 59 0 10 59 0 10 59 0 10 60 0 10 60 0 10 60 0 10 60 0 10
60 0 10 61 0 10 61 0 10 61 0 10 61 0 10 62 0 10 62 0 10 62 0 10 62 0
10 62 0 10 63 0 10 63 0 10 63 0 10 63 0 11 64 0 11 64 0 11 64 0 11 64
0 11 65 0 11 65 0 11 65 0 11 65 0 11 66 0 11 66 0 11 66 0 11 66 0 11
67 0 11 67 0 11 67 0 11 67 0 11 68 0 11 68 0 11 68 0 11 68 0 11 69 0
11 69 0 11 69 0 11 69 0 11 70 0 12 70 0 12 70 0 12 70 0 12 71 0 12 71
0 12 71 0 12 71 0 12 72 0 12 72 0 12 72 0 12 72 0 12 73 0 12 73 0 12
73 0 12 73 0 12 73 0 12 74 0 12 74 0 12 74 0 12 74 0 12 75 0 12 75 0
12 75 0 12 75 0 13 76 0 13 76 0 13 76 0 13 76 0 13 77 0 13 77 0 13 77
0 13 77 0 13 77 0 13 78 0 13 78 0 13 78 0 13 78 0 13 78 0 13 79 0 13
79 0 13 79 0 13 79 0 13 79 0 13 80 0 13 80 0 13 80 1 13 80 1 13 80 1
13 81 1 13 81 1 13 81 1 13 81 1 13 81 1 13 81 1 13 82 1 14 82 1 14 82
1 14 82 1 14 82 1 14 82 1 14 82 1 14 82 1 14 83 1 14 83 1 14 83 1 14
83 1 14 83 1 14 83 1 14 83 1 14 83 1 14 83 1 14 83 1 14 83 1 14 83 1
14 83 1 14 84 1 14 84 1 14 84 1 14 84 1 14 84 1 14 84 1 14 84 1 14 84
1 14 84 1 14 84 1 14 84 1 14 84 1 14 84 1 14 84 1 14 84 1 14 84 1 14
83 1 14 83 1 14 83 1 14 83 1 14 83 1 14 83 1 14 83 1 14 83 1 14 83 1
14 83 1 14 83 1 14 83 1 14 83 1 14 82 1 14 82 1 14 82 1 14 82 1 14 82
1 14 82 1 14 82 1 14 81 1 14 81 1 13 81 1 13 81 1 13 81 1 13 81 1 13
81 1 13 80 1 13 80 1 13 80 1 13 80 0 13 80 0 13 79 0 13 79 0 13 79 0
13 79 0 13 79 0 13 78 0 13 78 0 13 78 0 13 78 0 13 78 0 13 77 0 13 77
0 13 77 0 13 77 0 13 77 0 13 76 0 13 76 0 13 76 0 13 76 0 13 75 0 13
75 0 12 75 0 12 75 0 12 74 0 12 74 0 12 74 0 12 74 0 12 73 0 12 73 0
12 73 0 12 73 0 12 72 0 12 72 0 12 72 0 12 72 0 12 71 0 12 71 0 12 71
0 12 71 0 12 70 0 12 70 0 12 70 0 12 70 0 12 69 0 12 69 0 11 69 0 11
69 0 11 69 0 11 68 0 11 68 0 11 68 0 11 68 0 11 67 0 11 67 0 11 67 0
11 67 0 11 66 0 11 66 0 11 66 0 11 66 0 11 65 0 11 65 0 11 65 0 11 65
0 11 64 0 11 64 0 11 64 0 11 64 0 11 63 0 11 63 0 10 63 0 10 63 0 10
62 0 10 62 0 10 62 0 10 62 0 10 62 0 10 61 0 10 61 0 10 61 0 10 61 0
10 60 0 10 60 0 10 60 0 10 60 0 10 60 0 10 59 0 10 59 0 10 59 0 10 59
0 10 58 0 10 58 0 10 58 0 10 58 0 10 58 0 10 57 0 10 57 0 9 57 0 9 57
0 9 57 0 9
9 0 1 9 0 1 9 0 1 9 0 1 9 0 1 9 0 1 9 0 1 9 0 1 9 0 1 9 0 1 9 0 1 9 0
1 9 0 1 9 0 1 9 0 1 9 0 1 9 0 1 9 0 1 9 0 1 9 0 1 9 0 1 9 0 1 9 0 1 9
0 1 9 0 1 9 0 1 9 0 1 9 0 1 9 0 1 9 0 1 9 0 1 9 0 1 9 0 1 9 0 1 9 0 1
9 0 1 9 0 1 9 0 1 9 0 1 9 0 1 9 0 1 9 0 1 9 0 1 9 0 1 9 0 1 9 0 1 9 0
1 9 0 1 9 0 1 9 0 1 9 0 1 9 0 1 9 0 1 9 0 1 9 0 1 9 0 1 9 0 1 9 0 1 9
0 1 9 0 1 9 0 1 9 0 1 9 0 1 9 0 1 9 0 1 9 0 1 9 0 1 9 0 1 9 0 1 9 0 1
9 0 1 9 0 1 9 0 1 9 0 1 9 0 1 13 0 6 13 0 6 13 0 6 13 0 6 13 0 6 13 0
6 13 0 6 13 0 6 13 0 6 13 0 6 13 0 6 13 0 6 13 0 6 13 0 6 13 0 6 13 0
6 13 0 6 13 0 6 13 0 6 13 0 6 13 0 6 13 0 6 13 0 6 13 0 6 13 0 6 13 0
6 13 0 6 13 0 6 53 0 9 54 0 9 54 0 9 54 0 9 54 0 9 54 0 9 54 0 9 55 0
9 55 0 9 55 0 9 55 0 9 55 0 9 56 0 9 56 0 9 56 0 9 56 0 9 56 0 9 57 0
9 57 0 9 57 0 9 57 0 9 57 0 10 58 0 10 58 0 10 58 0 10 58 0 10 58 0 10
59 0 10 59 0 10 59 0 10 59 0 10 60 0 10 60 0 10 60 0 10 60 0 10 60 0
10 61 0 10 61 0 10 61 0 10 61 0 10 62 0 10 62 0 10 62 0 10 62 0 10 62
0 10 63 0 10 63 0 10 63 0 10 63 0 11 64 0 11 64 0 11 64 0 11 64 0 11
65 0 11 65 0 11 65 0 11 65 0 11 65 0 11 66 0 11 66 0 11 66 0 11 66 0
11 67 0 11 67 0 11 67 0 11 67 0 11 68 0 11 68 0 11 68 0 11 68 0 11 69
0 11 69 0 11 69 0 11 69 0 11 70 0 12 70 0 12 70 0 12 70 0 12 71 0 12
71 0 12 71 0 12 71 0 12 72 0 12 72 0 12 72 0 12 72 0 12 72 0 12 73 0
12 73 0 12 73 0 12 73 0 12 74 0 12 74 0 12 74 0 12 74 0 12 75 0 12 75
0 12 75 0 12 75 0 12 76 0 13 76 0 13 76 0 13 76 0 13 76 0 13 77 0 13
77 0 13 77 0 13 77 0 13 77 0 13 78 0 13 78 0 13 78 0 13 78 0 13 78 0
13 79 0 13 79 0 13 79 0 13 79 0 13 79 0 13 80 0 13 80 0 13 80 1 13 80
1 13 80 1 13 80 1 13 81 1 13 81 1 13 81 1 13 81 1 13 81 1 13 81 1 13
81 1 14 82 1 14 82 1 14 82 1 14 82 1 14 82 1 14 82 1 14 82 1 14 82 1
14 82 1 14 82 1 14 83 1 14 83 1 14 83 1 14 83 1 14 83 1 14 83 1 14 83
1 14 83 1 14 83 1 14 83 1 14 83 1 14 83 1 14 83 1 14 83 1 14 83 1 14
83 1 14 83 1 14 83 1 14 83 1 14 83 1 14 83 1 14 83 1 14 83 1 14 83 1
14 83 1 14 83 1 14 83 1 14 83 1 14 83 1 14 83 1 14 83 1 14 82 1 14 82
1 14 82 1 14 82 1 14 82 1 14 82 1 14 82 1 14 82 1 14 82 1 14 82 1 14
81 1 14 81 1 13 81 1 13 81 1 13 81 1 13 81 1 13 81 1 13 80 1 13 80 1
13 80 1 13 80 1 13 80 0 13 80 0 13 79 0 13 79 0 13 79 0 13 79 0 13 79
0 13 78 0 13 78 0 13 78 0 13 78 0 13 78 0 13 77 0 13 77 0 13 77 0 13
77 0 13 77 0 13 76 0 13 76 0 13 76 0 13 76 0 13 76 0 13 75 0 12 75 0
12 75 0 12 75 0 12 74 0 12 74 0 12 74 0 12 74 0 12 73 0 12 73 0 12 73
0 12 73 0 12 72 0 12 72 0 12 72 0 12 72 0 12 72 0 12 71 0 12 71 0 12
71 0 12 71 0 12 70 0 12 70 0 12 70 0 12 70 0 12 69 0 12 69 0 11 69 0
11 69 0 11 68 0 11 68 0 11 68 0 11 68 0 11 67 0 11 67 0 11 67 0 11 67
0 11 66 0 11 66 0 11 66 0 11 66 0 11 65 0 11 65 0 11 65 0 11 65 0 11
65 0 11 64 0 11 64 0 11 64 0 11 64 0 11 63 0 11 63 0 10 63 0 10 63 0
10 62 0 10 62 0 10 62 0 10 62 0 10 62 0 10 61 0 10 61 0 10 61 0 10 61
0 10 60 0 10 60 0 10 60 0 10 60 0 10 60 0 10 59 0 10 59 0 10 59 0 10
59 0 10 59 0 10 58 0 10 58 0 10 58 0 10 58 0 10 57 0 10 57 0 9 57 0 9
57 0 9
9 0 1 9 0 1 9 0 1 9 0 1 9 0 1 9 0 1 9 0 1 9 0 1 9 0 1 9 0 1 9 0 1 9 0
1 9 0 1 9 0 1 9 0 1 9 0 1 9 0 1 9 0 1 9 0 1 9 0 1 9 0 1 9 0 1 9 0 1 9
0 1 9 0 1 9 0 1 9 0 1 9 0 1 9 0 1 9 0 1 9 0 1 9 0 1 9 0 1 9 0 1 9 0 1
9 0 1 9 0 1 9 0 1 9 0 1 9 0 1 9 0 1 9 0 1 9 0 1 9 0 1 9 0 1 9 0 1 9 0
1 9 0 1 9 0 1 9 0 1 9 0 1 9 0 1 9 0 1 9 0 1 9 0 1 9 0 1 9 0 1 9 0 1 9
0 1 9 0 1 9 0 1 9 0 1 9 0 1 9 0 1 9 0 1 9 0 1 9 0 1 9 0 1 9 0 1 9 0 1
9 0 1 9 0 1 9 0 1 9 0 1 9 0 1 9 0 1 9 0 1 9 0 1 9 0 1 9 0 1 9 0 1 9 0
1 9 0 1 9 0 1 9 0 1 9 0 1 9 0 1 9 0 1 9 0 1 9 0 1 9 0 1 9 0 1 9 0 1 9
0 1 52 0 9 52 0 9 52 0 9 52 0 9 53 0 9 53 0 9 53 0 9 53 0 9 53 0 9 53
0 9 54 0 9 54 0 9 54 0 9 54 0 9 54 0 9 55 0 9 55 0 9 55 0 9 55 0 9 55
0 9 55 0 9 56 0 9 56 0 9 56 0 9 56 0 9 56 0 9 57 0 9 57 0 9 57 0 9 57
0 9 57 0 10 58 0 10 58 0 10 58 0 10 58 0 10 58 0 10 59 0 10 59 0 10 59
0 10 59 0 10 60 0 10 60 0 10 60 0 10 60 0 10 60 0 10 61 0 10 61 0 10
61 0 10 61 0 10 61 0 10 62 0 10 62 0 10 62 0 10 62 0 10 63 0 10 63 0
10 63 0 10 63 0 10 63 0 11 64 0 11 64 0 11 64 0 11 64 0 11 65 0 11 65
0 11 65 0 11 65 0 11 66 0 11 66 0 11 66 0 11 66 0 11 66 0 11 67 0 11
67 0 11 67 0 11 67 0 11 68 0 11 68 0 11 68 0 11 68 0 11 69 0 11 69 0
11 69 0 11 69 0 12 70 0 12 70 0 12 70 0 12 70 0 12 71 0 12 71 0 12 71
0 12 71 0 12 71 0 12 72 0 12 72 0 12 72 0 12 72 0 12 73 0 12 73 0 12
73 0 12 73 0 12 74 0 12 74 0 12 74 0 12 74 0 12 74 0 12 75 0 12 75 0
12 75 0 12 75 0 12 76 0 13 76 0 13 76 0 13 76 0 13 76 0 13 77 0 13 77
0 13 77 0 13 77 0 13 77 0 13 78 0 13 78 0 13 78 0 13 78 0 13 78 0 13
79 0 13 79 0 13 79 0 13 79 0 13 79 0 13 79 0 13 80 0 13 80 0 13 80 1
13 80 1 13 80 1 13 80 1 13 80 1 13 81 1 13 81 1 13 81 1 13 81 1 13 81
1 13 81 1 13 81 1 13 81 1 14 82 1 14 82 1 14 82 1 14 82 1 14 82 1 14
82 1 14 82 1 14 82 1 14 82 1 14 82 1 14 82 1 14 82 1 14 82 1 14 82 1
14 83 1 14 83 1 14 83 1 14 83 1 14 83 1 14 83 1 14 83 1 14 83 1 14 83
1 14 83 1 14 83 1 14 83 1 14 83 1 14 83 1 14 83 1 14 82 1 14 82 1 14
82 1 14 82 1 14 82 1 14 82 1 14 82 1 14 82 1 14 82 1 14 82 1 14 82 1
14 82 1 14 82 1 14 82 1 14 81 1 14 81 1 13 81 1 13 81 1 13 81 1 13 81
1 13 81 1 13 81 1 13 80 1 13 80 1 13 80 1 13 80 1 13 80 0 13 80 0 13
79 0 13 79 0 13 79 0 13 79 0 13 79 0 13 79 0 13 78 0 13 78 0 13 78 0
13 78 0 13 78 0 13 77 0 13 77 0 13 77 0 13 77 0 13 77 0 13 76 0 13 76
0 13 76 0 13 76 0 13 76 0 13 75 0 13 75 0 12 75 0 12 75 0 12 75 0 12
74 0 12 74 0 12 74 0 12 74 0 12 73 0 12 73 0 12 73 0 12 73 0 12 72 0
12 72 0 12 72 0 12 72 0 12 72 0 12 71 0 12 71 0 12 71 0 12 71 0 12 70
0 12 70 0 12 70 0 12 70 0 12 69 0 12 69 0 11 69 0 11 69 0 11 68 0 11
68 0 11 68 0 11 68 0 11 68 0 11 67 0 11 67 0 11 67 0 11 67 0 11 66 0
11 66 0 11 66 0 11 66 0 11 65 0 11 65 0 11 65 0 11 65 0 11 64 0 11 64
0 11 64 0 11 64 0 11 64 0 11 63 0 11 63 0 10 63 0 10 63 0 10 62 0 10
62 0 10 62 0 10 62 0 10 62 0 10 61 0 10 61 0 10 61 0 10 61 0 10 60 0
10 60 0 10 60 0 10 60 0 10 60 0 10 59 0 10 59 0 10 59 0 10 59 0 10 59
0 10 58 0 10 58 0 10 58 0 10 58 0 10 58 0 10 57 0 10 57 0 9
9 0 1 9 0 1 9 0 1 9 0 1 9 0 1 9 0 1 9 0 1 9 0 1 9 0 1 9 0 1 9 0 1 9 0
1 9 0 1 9 0 1 9 0 1 9 0 1 9 0 1 9 0 1 9 0 1 9 0 1 9 0 1 9 0 1 9 0 1 9
0 1 9 0 1 9 0 1 9 0 1 9 0 1 9 0 1 9 0 1 9 0 1 9 0 1 9 0 1 9 0 1 9 0 1
9 0 1 9 0 1 9 0 1 9 0 1 9 0 1 9 0 1 9 0 1 9 0 1 9 0 1 9 0 1 9 0 1 9 0
1 9 0 1 9 0 1 9 0 1 9 0 1 9 0 1 9 0 1 9 0 1 9 0 1 9 0 1 9 0 1 9 0 1 9
0 1 9 0 1 9 0 1 9 0 1 9 0 1 9 0 1 9 0 1 9 0 1 9 0 1 9 0 1 9 0 1 9 0 1
9 0 1 9 0 1 9 0 1 9 0 1 9 0 1 9 0 1 9 0 1 9 0 1 9 0 1 9 0 1 9 0 1 9 0
1 9 0 1 50 0 8 50 0 8 50 0 8 51 0 8 51 0 8 51 0 8 51 0 8 51 0 9 51 0 9
52 0 9 52 0 9 52 0 9 52 0 9 52 0 9 52 0 9 53 0 9 53 0 9 53 0 9 53 0 9
53 0 9 53 0 9 54 0 9 54 0 9 54 0 9 54 0 9 54 0 9 55 0 9 55 0 9 55 0 9
55 0 9 55 0 9 56 0 9 56 0 9 56 0 9 56 0 9 56 0 9 56 0 9 57 0 9 57 0 9
57 0 9 57 0 9 57 0 10 58 0 10 58 0 10 58 0 10 58 0 10 58 0 10 59 0 10
59 0 10 59 0 10 59 0 10 59 0 10 60 0 10 60 0 10 60 0 10 60 0 10 61 0
10 61 0 10 61 0 10 61 0 10 61 0 10 62 0 10 62 0 10 62 0 10 62 0 10 62
0 10 63 0 10 63 0 10 63 0 10 63 0 11 64 0 11 64 0 11 64 0 11 64 0 11
64 0 11 65 0 11 65 0 11 65 0 11 65 0 11 66 0 11 66 0 11 66 0 11 66 0
11 67 0 11 67 0 11 67 0 11 67 0 11 67 0 11 68 0 11 68 0 11 68 0 11 68
0 11 69 0 11 69 0 11 69 0 11 69 0 11 70 0 12 70 0 12 70 0 12 70 0 12
70 0 12 71 0 12 71 0 12 71 0 12 71 0 12 72 0 12 72 0 12 72 0 12 72 0
12 73 0 12 73 0 12 73 0 12 73 0 12 73 0 12 74 0 12 74 0 12 74 0 12 74
0 12 75 0 12 75 0 12 75 0 12 75 0 12 75 0 12 76 0 13 76 0 13 76 0 13
76 0 13 76 0 13 77 0 13 77 0 13 77 0 13 77 0 13 77 0 13 78 0 13 78 0
13 78 0 13 78 0 13 78 0 13 78 0 13 79 0 13 79 0 13 79 0 13 79 0 13 79
0 13 79 0 13 80 0 13 80 0 13 80 0 13 80 1 13 80 1 13 80 1 13 80 1 13
80 1 13 81 1 13 81 1 13 81 1 13 81 1 13 81 1 13 81 1 13 81 1 13 81 1
13 81 1 13 81 1 14 82 1 14 82 1 14 82 1 14 82 1 14 82 1 14 82 1 14 82
1 14 82 1 14 82 1 14 82 1 14 82 1 14 82 1 14 82 1 14 82 1 14 82 1 14
82 1 14 82 1 14 82 1 14 82 1 14 82 1 14 82 1 14 82 1 14 82 1 14 82 1
14 82 1 14 82 1 14 82 1 14 82 1 14 82 1 14 82 1 14 82 1 14 82 1 14 81
1 14 81 1 13 81 1 13 81 1 13 81 1 13 81 1 13 81 1 13 81 1 13 81 1 13
81 1 13 80 1 13 80 1 13 80 1 13 80 1 13 80 1 13 80 0 13 80 0 13 79 0
13 79 0 13 79 0 13 79 0 13 79 0 13 79 0 13 79 0 13 78 0 13 78 0 13 78
0 13 78 0 13 78 0 13 77 0 13 77 0 13 77 0 13 77 0 13 77 0 13 76 0 13
76 0 13 76 0 13 76 0 13 76 0 13 75 0 13 75 0 12 75 0 12 75 0 12 75 0
12 74 0 12 74 0 12 74 0 12 74 0 12 74 0 12 73 0 12 73 0 12 73 0 12 73
0 12 72 0 12 72 0 12 72 0 12 72 0 12 72 0 12 71 0 12 71 0 12 71 0 12
71 0 12 70 0 12 70 0 12 70 0 12 70 0 12 69 0 12 69 0 11 69 0 11 69 0
11 69 0 11 68 0 11 68 0 11 68 0 11 68 0 11 67 0 11 67 0 11 67 0 11 67
0 11 66 0 11 66 0 11 66 0 11 66 0 11 66 0 11 65 0 11 65 0 11 65 0 11
65 0 11 64 0 11 64 0 11 64 0 11 64 0 11 63 0 11 63 0 10 63 0 10 63 0
10 63 0 10 62 0 10 62 0 10 62 0 10 62 0 10 62 0 10 61 0 10 61 0 10 61
0 10 61 0 10 60 0 10 60 0 10 60 0 10 60 0 10 60 0 10 59 0 10 59 0 10
59 0 10 59 0 10 59 0 10 58 0 10 58 0 10 58 0 10 58 0 10 58 0 10 57 0
10
9 0 1 9 0 1 9 0 1 9 0 1 9 0 1 9 0 1 9 0 1 9 0 1 9 0 1 9 0 1 9 0 1 9 0
1 9 0 1 9 0 1 9 0 1 9 0 1 9 0 1 9 0 1 9 0 1 9 0 1 9 0 1 9 0 1 9 0 1 9
0 1 9 0 1 9 0 1 9 0 1 9 0 1 9 0 1 9 0 1 9 0 1 9 0 1 9 0 1 9 0 1 9 0 1
9 0 1 9 0 1 9 0 1 9 0 1 9 0 1 9 0 1 9 0 1 9 0 1 9 0 1 9 0 1 9 0 1 9 0
1 9 0 1 9 0 1 9 0 1 9 0 1 9 0 1 9 0 1 9 0 1 9 0 1 9 0 1 9 0 1 9 0 1 9
0 1 9 0 1 9 0 1 9 0 1 9 0 1 9 0 1 9 0 1 9 0 1 9 0 1 9 0 1 9 0 1 9 0 1
48 0 8 48 0 8 49 0 8 49 0 8 49 0 8 49 0 8 49 0 8 49 0 8 49 0 8 50 0 8
50 0 8 50 0 8 50 0 8 50 0 8 50 0 8 51 0 8 51 0 8 51 0 8 51 0 8 51 0 8
51 0 9 51 0 9 52 0 9 52 0 9 52 0 9 52 0 9 52 0 9 53 0 9 53 0 9 53 0 9
53 0 9 53 0 9 53 0 9 54 0 9 54 0 9 54 0 9 54 0 9 54 0 9 54 0 9 55 0 9
55 0 9 55 0 9 55 0 9 55 0 9 56 0 9 56 0 9 56 0 9 56 0 9 56 0 9 56 0 9
57 0 9 57 0 9 57 0 9 57 0 9 57 0 10 58 0 10 58 0 10 58 0 10 58 0 10 58
0 10 59 0 10 59 0 10 59 0 10 59 0 10 59 0 10 60 0 10 60 0 10 60 0 10
60 0 10 60 0 10 61 0 10 61 0 10 61 0 10 61 0 10 62 0 10 62 0 10 62 0
10 62 0 10 62 0 10 63 0 10 63 0 10 63 0 10 63 0 10 63 0 11 64 0 11 64
0 11 64 0 11 64 0 11 65 0 11 65 0 11 65 0 11 65 0 11 65 0 11 66 0 11
66 0 11 66 0 11 66 0 11 67 0 11 67 0 11 67 0 11 67 0 11 67 0 11 68 0
11 68 0 11 68 0 11 68 0 11 69 0 11 69 0 11 69 0 11 69 0 11 70 0 12 70
0 12 70 0 12 70 0 12 70 0 12 71 0 12 71 0 12 71 0 12 71 0 12 72 0 12
72 0 12 72 0 12 72 0 12 72 0 12 73 0 12 73 0 12 73 0 12 73 0 12 73 0
12 74 0 12 74 0 12 74 0 12 74 0 12 75 0 12 75 0 12 75 0 12 75 0 12 75
0 12 76 0 13 76 0 13 76 0 13 76 0 13 76 0 13 76 0 13 77 0 13 77 0 13
77 0 13 77 0 13 77 0 13 78 0 13 78 0 13 78 0 13 78 0 13 78 0 13 78 0
13 79 0 13 79 0 13 79 0 13 79 0 13 79 0 13 79 0 13 79 0 13 80 0 13 80
0 13 80 0 13 80 1 13 80 1 13 80 1 13 80 1 13 80 1 13 80 1 13 81 1 13
81 1 13 81 1 13 81 1 13 81 1 13 81 1 13 81 1 13 81 1 13 81 1 13 81 1
13 81 1 13 81 1 13 81 1 13 81 1 14 81 1 14 81 1 14 82 1 14 82 1 14 82
1 14 82 1 14 82 1 14 82 1 14 82 1 14 82 1 14 82 1 14 82 1 14 82 1 14
81 1 14 81 1 14 81 1 14 81 1 13 81 1 13 81 1 13 81 1 13 81 1 13 81 1
13 81 1 13 81 1 13 81 1 13 81 1 13 81 1 13 81 1 13 81 1 13 80 1 13 80
1 13 80 1 13 80 1 13 80 1 13 80 1 13 80 0 13 80 0 13 80 0 13 79 0 13
79 0 13 79 0 13 79 0 13 79 0 13 79 0 13 79 0 13 78 0 13 78 0 13 78 0
13 78 0 13 78 0 13 78 0 13 77 0 13 77 0 13 77 0 13 77 0 13 77 0 13 76
0 13 76 0 13 76 0 13 76 0 13 76 0 13 75 0 13 75 0 12 75 0 12 75 0 12
75 0 12 74 0 12 74 0 12 74 0 12 74 0 12 74 0 12 73 0 12 73 0 12 73 0
12 73 0 12 73 0 12 72 0 12 72 0 12 72 0 12 72 0 12 71 0 12 71 0 12 71
0 12 71 0 12 71 0 12 70 0 12 70 0 12 70 0 12 70 0 12 69 0 12 69 0 11
69 0 11 69 0 11 69 0 11 68 0 11 68 0 11 68 0 11 68 0 11 67 0 11 67 0
11 67 0 11 67 0 11 67 0 11 66 0 11 66 0 11 66 0 11 66 0 11 65 0 11 65
0 11 65 0 11 65 0 11 65 0 11 64 0 11 64 0 11 64 0 11 64 0 11 63 0 11
63 0 10 63 0 10 63 0 10 63 0 10 62 0 10 62 0 10 62 0 10 62 0 10 61 0
10 61 0 10 61 0 10 61 0 10 61 0 10 60 0 10 60 0 10 60 0 10 60 0 10 60
0 10 59 0 10 59 0 10 59 0 10 59 0 10 59 0 10 58 0 10 58 0 10 58 0 10
58 0 10 58 0 10
9 0 1 9 0 1 9 0 1 9 0 1 9 0 1 9 0 1 9 0 1 9 0 1 9 0 1 9 0 1 9 0 1 9 0
1 9 0 1 9 0 1 9 0 1 9 0 1 9 0 1 9 0 1 9 0 1 9 0 1 9 0 1 9 0 1 9 0 1 9
0 1 9 0 1 9 0 1 9 0 1 9 0 1 9 0 1 9 0 1 9 0 1 9 0 1 9 0 1 9 0 1 9 0 1
9 0 1 9 0 1 9 0 1 9 0 1 9 0 1 9 0 1 9 0 1 9 0 1 9 0 1 9 0 1 9 0 1 9 0
1 9 0 1 9 0 1 9 0 1 9 0 1 46 0 8 46 0 8 46 0 8 46 0 8 46 0 8 46 0 8 47
0 8 47 0 8 47 0 8 47 0 8 47 0 8 47 0 8 47 0 8 47 0 8 48 0 8 48 0 8 48
0 8 48 0 8 48 0 8 48 0 8 48 0 8 49 0 8 49 0 8 49 0 8 49 0 8 49 0 8 49
0 8 50 0 8 50 0 8 50 0 8 50 0 8 50 0 8 50 0 8 50 0 8 51 0 8 51 0 8 51
0 8 51 0 8 51 0 8 51 0 9 52 0 9 52 0 9 52 0 9 52 0 9 52 0 9 52 0 9 53
0 9 53 0 9 53 0 9 53 0 9 53 0 9 53 0 9 54 0 9 54 0 9 54 0 9 54 0 9 54
0 9 54 0 9 55 0 9 55 0 9 55 0 9 55 0 9 55 0 9 56 0 9 56 0 9 56 0 9 56
0 9 56 0 9 56 0 9 57 0 9 57 0 9 57 0 9 57 0 9 57 0 10 58 0 10 58 0 10
58 0 10 58 0 10 58 0 10 59 0 10 59 0 10 59 0 10 59 0 10 59 0 10 60 0
10 60 0 10 60 0 10 60 0 10 60 0 10 61 0 10 61 0 10 61 0 10 61 0 10 61
0 10 62 0 10 62 0 10 62 0 10 62 0 10 62 0 10 63 0 10 63 0 10 63 0 10
63 0 11 64 0 11 64 0 11 64 0 11 64 0 11 64 0 11 65 0 11 65 0 11 65 0
11 65 0 11 65 0 11 66 0 11 66 0 11 66 0 11 66 0 11 67 0 11 67 0 11 67
0 11 67 0 11 67 0 11 68 0 11 68 0 11 68 0 11 68 0 11 69 0 11 69 0 11
69 0 11 69 0 11 69 0 12 70 0 12 70 0 12 70 0 12 70 0 12 71 0 12 71 0
12 71 0 12 71 0 12 71 0 12 72 0 12 72 0 12 72 0 12 72 0 12 72 0 12 73
0 12 73 0 12 73 0 12 73 0 12 73 0 12 74 0 12 74 0 12 74 0 12 74 0 12
75 0 12 75 0 12 75 0 12 75 0 12 75 0 12 75 0 13 76 0 13 76 0 13 76 0
13 76 0 13 76 0 13 77 0 13 77 0 13 77 0 13 77 0 13 77 0 13 77 0 13 78
0 13 78 0 13 78 0 13 78 0 13 78 0 13 78 0 13 78 0 13 79 0 13 79 0 13
79 0 13 79 0 13 79 0 13 79 0 13 79 0 13 79 0 13 80 0 13 80 0 13 80 0
13 80 1 13 80 1 13 80 1 13 80 1 13 80 1 13 80 1 13 80 1 13 80 1 13 81
1 13 81 1 13 81 1 13 81 1 13 81 1 13 81 1 13 81 1 13 81 1 13 81 1 13
81 1 13 81 1 13 81 1 13 81 1 13 81 1 13 81 1 13 81 1 13 81 1 13 81 1
13 81 1 13 81 1 13 81 1 13 81 1 13 81 1 13 81 1 13 81 1 13 81 1 13 81
1 13 81 1 13 81 1 13 81 1 13 80 1 13 80 1 13 80 1 13 80 1 13 80 1 13
80 1 13 80 1 13 80 1 13 80 0 13 80 0 13 80 0 13 79 0 13 79 0 13 79 0
13 79 0 13 79 0 13 79 0 13 79 0 13 79 0 13 78 0 13 78 0 13 78 0 13 78
0 13 78 0 13 78 0 13 78 0 13 77 0 13 77 0 13 77 0 13 77 0 13 77 0 13
77 0 13 76 0 13 76 0 13 76 0 13 76 0 13 76 0 13 75 0 13 75 0 12 75 0
12 75 0 12 75 0 12 74 0 12 74 0 12 74 0 12 74 0 12 74 0 12 73 0 12 73
0 12 73 0 12 73 0 12 73 0 12 72 0 12 72 0 12 72 0 12 72 0 12 72 0 12
71 0 12 71 0 12 71 0 12 71 0 12 71 0 12 70 0 12 70 0 12 70 0 12 70 0
12 69 0 12 69 0 11 69 0 11 69 0 11 69 0 11 68 0 11 68 0 11 68 0 11 68
0 11 67 0 11 67 0 11 67 0 11 67 0 11 67 0 11 66 0 11 66 0 11 66 0 11
66 0 11 65 0 11 65 0 11 65 0 11 65 0 11 65 0 11 64 0 11 64 0 11 64 0
11 64 0 11 64 0 11 63 0 11 63 0 10 63 0 10 63 0 10 62 0 10 62 0 10 62
0 10 62 0 10 62 0 10 61 0 10 61 0 10 61 0 10 61 0 10 61 0 10 60 0 10
60 0 10 60 0 10 60 0 10 60 0 10 59 0 10 59 0 10 59 0 10 59 0 10 59 0
10 58 0 10 58 0 10 58 0 10 58 0 10
40 0 7 40 0 7 40 0 7 40 0 7 41 0 7 41 0 7 41 0 7 41 0 7 41 0 7 41 0 7
41 0 7 41 0 7 41 0 7 41 0 7 42 0 7 42 0 7 42 0 7 42 0 7 42 0 7 42 0 7
42 0 7 42 0 7 42 0 7 43 0 7 43 0 7 43 0 7 43 0 7 43 0 7 43 0 7 43 0 7
43 0 7 43 0 7 44 0 7 44 0 7 44 0 7 44 0 7 44 0 7 44 0 7 44 0 7 44 0 7
44 0 7 45 0 7 45 0 7 45 0 7 45 0 7 45 0 7 45 0 8 45 0 8 45 0 8 46 0 8
46 0 8 46 0 8 46 0 8 46 0 8 46 0 8 46 0 8 47 0 8 47 0 8 47 0 8 47 0 8
47 0 8 47 0 8 47 0 8 47 0 8 48 0 8 48 0 8 48 0 8 48 0 8 48 0 8 48 0 8
48 0 8 49 0 8 49 0 8 49 0 8 49 0 8 49 0 8 49 0 8 49 0 8 50 0 8 50 0 8
50 0 8 50 0 8 50 0 8 50 0 8 51 0 8 51 0 8 51 0 8 51 0 8 51 0 8 51 0 9
51 0 9 52 0 9 52 0 9 52 0 9 52 0 9 52 0 9 52 0 9 53 0 9 53 0 9 53 0 9
53 0 9 53 0 9 53 0 9 54 0 9 54 0 9 54 0 9 54 0 9 54 0 9 54 0 9 55 0 9
55 0 9 55 0 9 55 0 9 55 0 9 56 0 9 56 0 9 56 0 9 56 0 9 56 0 9 56 0 9
57 0 9 57 0 9 57 0 9 57 0 9 57 0 10 58 0 10 58 0 10 58 0 10 58 0 10 58
0 10 59 0 10 59 0 10 59 0 10 59 0 10 59 0 10 59 0 10 60 0 10 60 0 10
60 0 10 60 0 10 60 0 10 61 0 10 61 0 10 61 0 10 61 0 10 62 0 10 62 0
10 62 0 10 62 0 10 62 0 10 63 0 10 63 0 10 63 0 10 63 0 10 63 0 11 64
0 11 64 0 11 64 0 11 64 0 11 64 0 11 65 0 11 65 0 11 65 0 11 65 0 11
65 0 11 66 0 11 66 0 11 66 0 11 66 0 11 67 0 11 67 0 11 67 0 11 67 0
11 67 0 11 68 0 11 68 0 11 68 0 11 68 0 11 69 0 11 69 0 11 69 0 11 69
0 11 69 0 12 70 0 12 70 0 12 70 0 12 70 0 12 70 0 12 71 0 12 71 0 12
71 0 12 71 0 12 71 0 12 72 0 12 72 0 12 72 0 12 72 0 12 72 0 12 73 0
12 73 0 12 73 0 12 73 0 12 73 0 12 74 0 12 74 0 12 74 0 12 74 0 12 74
0 12 75 0 12 75 0 12 75 0 12 75 0 12 75 0 12 76 0 13 76 0 13 76 0 13
76 0 13 76 0 13 76 0 13 77 0 13 77 0 13 77 0 13 77 0 13 77 0 13 77 0
13 77 0 13 78 0 13 78 0 13 78 0 13 78 0 13 78 0 13 78 0 13 78 0 13 79
0 13 79 0 13 79 0 13 79 0 13 79 0 13 79 0 13 79 0 13 79 0 13 79 0 13
79 0 13 80 0 13 80 0 13 80 0 13 80 0 13 80 0 13 80 1 13 80 1 13 80 1
13 80 1 13 80 1 13 80 1 13 80 1 13 80 1 13 80 1 13 80 1 13 80 1 13 80
1 13 80 1 13 80 1 13 80 1 13 80 1 13 80 1 13 80 1 13 80 1 13 80 1 13
80 1 13 80 1 13 80 1 13 80 1 13 80 1 13 80 1 13 80 1 13 80 1 13 80 1
13 80 1 13 80 1 13 80 1 13 80 0 13 80 0 13 80 0 13 80 0 13 80 0 13 79
0 13 79 0 13 79 0 13 79 0 13 79 0 13 79 0 13 79 0 13 79 0 13 79 0 13
78 0 13 78 0 13 78 0 13 78 0 13 78 0 13 78 0 13 78 0 13 78 0 13 77 0
13 77 0 13 77 0 13 77 0 13 77 0 13 77 0 13 76 0 13 76 0 13 76 0 13 76
0 13 76 0 13 76 0 13 75 0 13 75 0 12 75 0 12 75 0 12 75 0 12 74 0 12
74 0 12 74 0 12 74 0 12 74 0 12 74 0 12 73 0 12 73 0 12 73 0 12 73 0
12 73 0 12 72 0 12 72 0 12 72 0 12 72 0 12 72 0 12 71 0 12 71 0 12 71
0 12 71 0 12 70 0 12 70 0 12 70 0 12 70 0 12 70 0 12 69 0 12 69 0 11
69 0 11 69 0 11 69 0 11 68 0 11 68 0 11 68 0 11 68 0 11 67 0 11 67 0
11 67 0 11 67 0 11 67 0 11 66 0 11 66 0 11 66 0 11 66 0 11 66 0 11 65
0 11 65 0 11 65 0 11 65 0 11 64 0 11 64 0 11 64 0 11 64 0 11 64 0 11
63 0 11 63 0 10 63 0 10 63 0 10 63 0 10 62 0 10 62 0 10 62 0 10 62 0
10 62 0 10 61 0 10 61 0 10 61 0 10 61 0 10 61 0 10 60 0 10 60 0 10 60
0 10 60 0 10 60 0 10 59 0 10 59 0 10 59 0 10 59 0 10 59 0 10 58 0 10
58 0 10 58 0 10
40 0 7 40 0 7 40 0 7 41 0 7 41 0 7 41 0 7 41 0 7 41 0 7 41 0 7 41 0 7
41 0 7 41 0 7 41 0 7 42 0 7 42 0 7 42 0 7 42 0 7 42 0 7 42 0 7 42 0 7
42 0 7 42 0 7 43 0 7 43 0 7 43 0 7 43 0 7 43 0 7 43 0 7 43 0 7 43 0 7
43 0 7 44 0 7 44 0 7 44 0 7 44 0 7 44 0 7 44 0 7 44 0 7 44 0 7 44 0 7
45 0 7 45 0 7 45 0 7 45 0 7 45 0 7 45 0 7 45 0 8 45 0 8 46 0 8 46 0 8
46 0 8 46 0 8 46 0 8 46 0 8 46 0 8 46 0 8 47 0 8 47 0 8 47 0 8 47 0 8
47 0 8 47 0 8 47 0 8 48 0 8 48 0 8 48 0 8 48 0 8 48 0 8 48 0 8 48 0 8
49 0 8 49 0 8 49 0 8 49 0 8 49 0 8 49 0 8 49 0 8 50 0 8 50 0 8 50 0 8
50 0 8 50 0 8 50 0 8 50 0 8 51 0 8 51 0 8 51 0 8 51 0 8 51 0 8 51 0 9
51 0 9 52 0 9 52 0 9 52 0 9 52 0 9 52 0 9 52 0 9 53 0 9 53 0 9 53 0 9
53 0 9 53 0 9 53 0 9 54 0 9 54 0 9 54 0 9 54 0 9 54 0 9 54 0 9 55 0 9
55 0 9 55 0 9 55 0 9 55 0 9 56 0 9 56 0 9 56 0 9 56 0 9 56 0 9 56 0 9
57 0 9 57 0 9 57 0 9 57 0 9 57 0 10 58 0 10 58 0 10 58 0 10 58 0 10 58
0 10 58 0 10 59 0 10 59 0 10 59 0 10 59 0 10 59 0 10 60 0 10 60 0 10
60 0 10 60 0 10 60 0 10 61 0 10 61 0 10 61 0 10 61 0 10 61 0 10 62 0
10 62 0 10 62 0 10 62 0 10 62 0 10 63 0 10 63 0 10 63 0 10 63 0 10 63
0 11 64 0 11 64 0 11 64 0 11 64 0 11 64 0 11 65 0 11 65 0 11 65 0 11
65 0 11 65 0 11 66 0 11 66 0 11 66 0 11 66 0 11 67 0 11 67 0 11 67 0
11 67 0 11 67 0 11 68 0 11 68 0 11 68 0 11 68 0 11 68 0 11 69 0 11 69
0 11 69 0 11 69 0 11 69 0 12 70 0 12 70 0 12 70 0 12 70 0 12 70 0 12
71 0 12 71 0 12 71 0 12 71 0 12 71 0 12 72 0 12 72 0 12 72 0 12 72 0
12 72 0 12 73 0 12 73 0 12 73 0 12 73 0 12 73 0 12 74 0 12 74 0 12 74
0 12 74 0 12 74 0 12 75 0 12 75 0 12 75 0 12 75 0 12 75 0 12 75 0 13
76 0 13 76 0 13 76 0 13 76 0 13 76 0 13 76 0 13 76 0 13 77 0 13 77 0
13 77 0 13 77 0 13 77 0 13 77 0 13 77 0 13 78 0 13 78 0 13 78 0 13 78
0 13 78 0 13 78 0 13 78 0 13 78 0 13 79 0 13 79 0 13 79 0 13 79 0 13
79 0 13 79 0 13 79 0 13 79 0 13 79 0 13 79 0 13 79 0 13 79 0 13 79 0
13 80 0 13 80 0 13 80 0 13 80 0 13 80 0 13 80 0 13 80 0 13 80 0 13 80
0 13 80 0 13 80 0 13 80 0 13 80 0 13 80 0 13 80 0 13 80 0 13 80 0 13
80 0 13 80 0 13 80 0 13 80 0 13 80 0 13 80 0 13 80 0 13 80 0 13 80 0
13 79 0 13 79 0 13 79 0 13 79 0 13 79 0 13 79 0 13 79 0 13 79 0 13 79
0 13 79 0 13 79 0 13 79 0 13 79 0 13 78 0 13 78 0 13 78 0 13 78 0 13
78 0 13 78 0 13 78 0 13 78 0 13 78 0 13 77 0 13 77 0 13 77 0 13 77 0
13 77 0 13 77 0 13 77 0 13 76 0 13 76 0 13 76 0 13 76 0 13 76 0 13 76
0 13 75 0 13 75 0 12 75 0 12 75 0 12 75 0 12 75 0 12 74 0 12 74 0 12
74 0 12 74 0 12 74 0 12 74 0 12 73 0 12 73 0 12 73 0 12 73 0 12 73 0
12 72 0 12 72 0 12 72 0 12 72 0 12 72 0 12 71 0 12 71 0 12 71 0 12 71
0 12 71 0 12 70 0 12 70 0 12 70 0 12 70 0 12 70 0 12 69 0 12 69 0 11
69 0 11 69 0 11 69 0 11 68 0 11 68 0 11 68 0 11 68 0 11 67 0 11 67 0
11 67 0 11 67 0 11 67 0 11 66 0 11 66 0 11 66 0 11 66 0 11 66 0 11 65
0 11 65 0 11 65 0 11 65 0 11 65 0 11 64 0 11 64 0 11 64 0 11 64 0 11
64 0 11 63 0 10 63 0 10 63 0 10 63 0 10 62 0 10 62 0 10 62 0 10 62 0
10 62 0 10 61 0 10 61 0 10 61 0 10 61 0 10 61 0 10 60 0 10 60 0 10 60
0 10 60 0 10 60 0 10 59 0 10 59 0 10 59 0 10 59 0 10 59 0 10 59 0 10
58 0 10 58 0 10
40 0 7 41 0 7 41 0 7 41 0 7 41 0 7 41 0 7 41 0 7 41 0 7 41 0 7 41 0 7
41 0 7 42 0 7 42 0 7 42 0 7 42 0 7 42 0 7 42 0 7 42 0 7 42 0 7 42 0 7
42 0 7 43 0 7 43 0 7 43 0 7 43 0 7 43 0 7 43 0 7 43 0 7 43 0 7 43 0 7
44 0 7 44 0 7 44 0 7 44 0 7 44 0 7 44 0 7 44 0 7 44 0 7 44 0 7 45 0 7
45 0 7 45 0 7 45 0 7 45 0 7 45 0 7 45 0 8 45 0 8 46 0 8 46 0 8 46 0 8
46 0 8 46 0 8 46 0 8 46 0 8 46 0 8 47 0 8 47 0 8 47 0 8 47 0 8 47 0 8
47 0 8 47 0 8 47 0 8 48 0 8 48 0 8 48 0 8 48 0 8 48 0 8 48 0 8 48 0 8
49 0 8 49 0 8 49 0 8 49 0 8 49 0 8 49 0 8 49 0 8 50 0 8 50 0 8 50 0 8
50 0 8 50 0 8 50 0 8 50 0 8 51 0 8 51 0 8 51 0 8 51 0 8 51 0 8 51 0 9
52 0 9 52 0 9 52 0 9 52 0 9 52 0 9 52 0 9 52 0 9 53 0 9 53 0 9 53 0 9
53 0 9 53 0 9 53 0 9 54 0 9 54 0 9 54 0 9 54 0 9 54 0 9 54 0 9 55 0 9
55 0 9 55 0 9 55 0 9 55 0 9 55 0 9 56 0 9 56 0 9 56 0 9 56 0 9 56 0 9
57 0 9 57 0 9 57 0 9 57 0 9 57 0 9 57 0 10 58 0 10 58 0 10 58 0 10 58
0 10 58 0 10 59 0 10 59 0 10 59 0 10 59 0 10 59 0 10 60 0 10 60 0 10
60 0 10 60 0 10 60 0 10 60 0 10 61 0 10 61 0 10 61 0 10 61 0 10 61 0
10 62 0 10 62 0 10 62 0 10 62 0 10 62 0 10 63 0 10 63 0 10 63 0 10 63
0 10 63 0 11 64 0 11 64 0 11 64 0 11 64 0 11 64 0 11 65 0 11 65 0 11
65 0 11 65 0 11 65 0 11 66 0 11 66 0 11 66 0 11 66 0 11 66 0 11 67 0
11 67 0 11 67 0 11 67 0 11 68 0 11 68 0 11 68 0 11 68 0 11 68 0 11 69
0 11 69 0 11 69 0 11 69 0 11 69 0 11 70 0 12 70 0 12 70 0 12 70 0 12
70 0 12 71 0 12 71 0 12 71 0 12 71 0 12 71 0 12 71 0 12 72 0 12 72 0
12 72 0 12 72 0 12 72 0 12 73 0 12 73 0 12 73 0 12 73 0 12 73 0 12 74
0 12 74 0 12 74 0 12 74 0 12 74 0 12 74 0 12 75 0 12 75 0 12 75 0 12
75 0 12 75 0 12 75 0 12 76 0 13 76 0 13 76 0 13 76 0 13 76 0 13 76 0
13 76 0 13 77 0 13 77 0 13 77 0 13 77 0 13 77 0 13 77 0 13 77 0 13 77
0 13 78 0 13 78 0 13 78 0 13 78 0 13 78 0 13 78 0 13 78 0 13 78 0 13
78 0 13 78 0 13 78 0 13 79 0 13 79 0 13 79 0 13 79 0 13 79 0 13 79 0
13 79 0 13 79 0 13 79 0 13 79 0 13 79 0 13 79 0 13 79 0 13 79 0 13 79
0 13 79 0 13 79 0 13 79 0 13 79 0 13 79 0 13 79 0 13 79 0 13 79 0 13
79 0 13 79 0 13 79 0 13 79 0 13 79 0 13 79 0 13 79 0 13 79 0 13 79 0
13 79 0 13 79 0 13 79 0 13 79 0 13 79 0 13 79 0 13 79 0 13 79 0 13 78
0 13 78 0 13 78 0 13 78 0 13 78 0 13 78 0 13 78 0 13 78 0 13 78 0 13
78 0 13 77 0 13 77 0 13 77 0 13 77 0 13 77 0 13 77 0 13 77 0 13 77 0
13 76 0 13 76 0 13 76 0 13 76 0 13 76 0 13 76 0 13 76 0 13 75 0 13 75
0 12 75 0 12 75 0 12 75 0 12 75 0 12 74 0 12 74 0 12 74 0 12 74 0 12
74 0 12 74 0 12 73 0 12 73 0 12 73 0 12 73 0 12 73 0 12 73 0 12 72 0
12 72 0 12 72 0 12 72 0 12 72 0 12 71 0 12 71 0 12 71 0 12 71 0 12 71
0 12 70 0 12 70 0 12 70 0 12 70 0 12 70 0 12 69 0 12 69 0 11 69 0 11
69 0 11 69 0 11 68 0 11 68 0 11 68 0 11 68 0 11 68 0 11 67 0 11 67 0
11 67 0 11 67 0 11 67 0 11 66 0 11 66 0 11 66 0 11 66 0 11 66 0 11 65
0 11 65 0 11 65 0 11 65 0 11 65 0 11 64 0 11 64 0 11 64 0 11 64 0 11
64 0 11 63 0 11 63 0 10 63 0 10 63 0 10 63 0 10 62 0 10 62 0 10 62 0
10 62 0 10 62 0 10 61 0 10 61 0 10 61 0 10 61 0 10 61 0 10 60 0 10 60
0 10 60 0 10 60 0 10 60 0 10 59 0 10 59 0 10 59 0 10 59 0 10 59 0 10
58 0 10 58 0 10
41 0 7 41 0 7 41 0 7 41 0 7 41 0 7 41 0 7 41 0 7 41 0 7 41 0 7 41 0 7
42 0 7 42 0 7 42 0 7 42 0 7 42 0 7 42 0 7 42 0 7 42 0 7 42 0 7 42 0 7
43 0 7 43 0 7 43 0 7 43 0 7 43 0 7 43 0 7 43 0 7 43 0 7 43 0 7 44 0 7
44 0 7 44 0 7 44 0 7 44 0 7 44 0 7 44 0 7 44 0 7 44 0 7 45 0 7 45 0 7
45 0 7 45 0 7 45 0 7 45 0 7 45 0 8 45 0 8 46 0 8 46 0 8 46 0 8 46 0 8
46 0 8 46 0 8 46 0 8 46 0 8 47 0 8 47 0 8 47 0 8 47 0 8 47 0 8 47 0 8
47 0 8 47 0 8 48 0 8 48 0 8 48 0 8 48 0 8 48 0 8 48 0 8 48 0 8 48 0 8
49 0 8 49 0 8 49 0 8 49 0 8 49 0 8 49 0 8 49 0 8 50 0 8 50 0 8 50 0 8
50 0 8 50 0 8 50 0 8 50 0 8 51 0 8 51 0 8 51 0 8 51 0 8 51 0 8 51 0 9
52 0 9 52 0 9 52 0 9 52 0 9 52 0 9 52 0 9 52 0 9 53 0 9 53 0 9 53 0 9
53 0 9 53 0 9 53 0 9 54 0 9 54 0 9 54 0 9 54 0 9 54 0 9 54 0 9 55 0 9
55 0 9 55 0 9 55 0 9 55 0 9 55 0 9 56 0 9 56 0 9 56 0 9 56 0 9 56 0 9
56 0 9 57 0 9 57 0 9 57 0 9 57 0 9 57 0 10 58 0 10 58 0 10 58 0 10 58
0 10 58 0 10 58 0 10 59 0 10 59 0 10 59 0 10 59 0 10 59 0 10 60 0 10
60 0 10 60 0 10 60 0 10 60 0 10 61 0 10 61 0 10 61 0 10 61 0 10 61 0
10 61 0 10 62 0 10 62 0 10 62 0 10 62 0 10 62 0 10 63 0 10 63 0 10 63
0 10 63 0 10 63 0 11 64 0 11 64 0 11 64 0 11 64 0 11 64 0 11 65 0 11
65 0 11 65 0 11 65 0 11 65 0 11 66 0 11 66 0 11 66 0 11 66 0 11 66 0
11 67 0 11 67 0 11 67 0 11 67 0 11 67 0 11 68 0 11 68 0 11 68 0 11 68
0 11 68 0 11 69 0 11 69 0 11 69 0 11 69 0 11 69 0 12 70 0 12 70 0 12
70 0 12 70 0 12 70 0 12 71 0 12 71 0 12 71 0 12 71 0 12 71 0 12 71 0
12 72 0 12 72 0 12 72 0 12 72 0 12 72 0 12 73 0 12 73 0 12 73 0 12 73
0 12 73 0 12 73 0 12 74 0 12 74 0 12 74 0 12 74 0 12 74 0 12 74 0 12
75 0 12 75 0 12 75 0 12 75 0 12 75 0 12 75 0 12 75 0 13 76 0 13 76 0
13 76 0 13 76 0 13 76 0 13 76 0 13 76 0 13 76 0 13 77 0 13 77 0 13 77
0 13 77 0 13 77 0 13 77 0 13 77 0 13 77 0 13 77 0 13 78 0 13 78 0 13
78 0 13 78 0 13 78 0 13 78 0 13 78 0 13 78 0 13 78 0 13 78 0 13 78 0
13 78 0 13 78 0 13 78 0 13 78 0 13 79 0 13 79 0 13 79 0 13 79 0 13 79
0 13 79 0 13 79 0 13 79 0 13 79 0 13 79 0 13 79 0 13 79 0 13 79 0 13
79 0 13 79 0 13 79 0 13 79 0 13 79 0 13 79 0 13 79 0 13 78 0 13 78 0
13 78 0 13 78 0 13 78 0 13 78 0 13 78 0 13 78 0 13 78 0 13 78 0 13 78
0 13 78 0 13 78 0 13 78 0 13 78 0 13 78 0 13 77 0 13 77 0 13 77 0 13
77 0 13 77 0 13 77 0 13 77 0 13 77 0 13 77 0 13 76 0 13 76 0 13 76 0
13 76 0 13 76 0 13 76 0 13 76 0 13 76 0 13 75 0 13 75 0 12 75 0 12 75
0 12 75 0 12 75 0 12 75 0 12 74 0 12 74 0 12 74 0 12 74 0 12 74 0 12
74 0 12 73 0 12 73 0 12 73 0 12 73 0 12 73 0 12 73 0 12 72 0 12 72 0
12 72 0 12 72 0 12 72 0 12 71 0 12 71 0 12 71 0 12 71 0 12 71 0 12 70
0 12 70 0 12 70 0 12 70 0 12 70 0 12 70 0 12 69 0 12 69 0 11 69 0 11
69 0 11 69 0 11 68 0 11 68 0 11 68 0 11 68 0 11 68 0 11 67 0 11 67 0
11 67 0 11 67 0 11 67 0 11 66 0 11 66 0 11 66 0 11 66 0 11 66 0 11 65
0 11 65 0 11 65 0 11 65 0 11 65 0 11 64 0 11 64 0 11 64 0 11 64 0 11
64 0 11 63 0 11 63 0 10 63 0 10 63 0 10 63 0 10 62 0 10 62 0 10 62 0
10 62 0 10 62 0 10 61 0 10 61 0 10 61 0 10 61 0 10 61 0 10 61 0 10 60
0 10 60 0 10 60 0 10 60 0 10 60 0 10 59 0 10 59 0 10 59 0 10 59 0 10
59 0 10 58 0 10
41 0 7 41 0 7 41 0 7 41 0 7 41 0 7 41 0 7 41 0 7 41 0 7 41 0 7 42 0 7
42 0 7 42 0 7 42 0 7 42 0 7 42 0 7 42 0 7 42 0 7 42 0 7 42 0 7 43 0 7
43 0 7 43 0 7 43 0 7 43 0 7 43 0 7 43 0 7 43 0 7 43 0 7 44 0 7 44 0 7
44 0 7 44 0 7 44 0 7 44 0 7 44 0 7 44 0 7 44 0 7 45 0 7 45 0 7 45 0 7
45 0 7 45 0 7 45 0 7 45 0 8 45 0 8 45 0 8 46 0 8 46 0 8 46 0 8 46 0 8
46 0 8 46 0 8 46 0 8 46 0 8 47 0 8 47 0 8 47 0 8 47 0 8 47 0 8 47 0 8
47 0 8 47 0 8 48 0 8 48 0 8 48 0 8 48 0 8 48 0 8 48 0 8 48 0 8 49 0 8
49 0 8 49 0 8 49 0 8 49 0 8 49 0 8 49 0 8 50 0 8 50 0 8 50 0 8 50 0 8
50 0 8 50 0 8 50 0 8 51 0 8 51 0 8 51 0 8 51 0 8 51 0 8 51 0 9 51 0 9
52 0 9 52 0 9 52 0 9 52 0 9 52 0 9 52 0 9 52 0 9 53 0 9 53 0 9 53 0 9
53 0 9 53 0 9 53 0 9 54 0 9 54 0 9 54 0 9 54 0 9 54 0 9 54 0 9 55 0 9
55 0 9 55 0 9 55 0 9 55 0 9 55 0 9 56 0 9 56 0 9 56 0 9 56 0 9 56 0 9
56 0 9 57 0 9 57 0 9 57 0 9 57 0 9 57 0 10 57 0 10 58 0 10 58 0 10 58
0 10 58 0 10 58 0 10 59 0 10 59 0 10 59 0 10 59 0 10 59 0 10 59 0 10
60 0 10 60 0 10 60 0 10 60 0 10 60 0 10 61 0 10 61 0 10 61 0 10 61 0
10 61 0 10 62 0 10 62 0 10 62 0 10 62 0 10 62 0 10 62 0 10 63 0 10 63
0 10 63 0 10 63 0 10 63 0 11 64 0 11 64 0 11 64 0 11 64 0 11 64 0 11
65 0 11 65 0 11 65 0 11 65 0 11 65 0 11 66 0 11 66 0 11 66 0 11 66 0
11 66 0 11 67 0 11 67 0 11 67 0 11 67 0 11 67 0 11 67 0 11 68 0 11 68
0 11 68 0 11 68 0 11 68 0 11 69 0 11 69 0 11 69 0 11 69 0 11 69 0 12
70 0 12 70 0 12 70 0 12 70 0 12 70 0 12 70 0 12 71 0 12 71 0 12 71 0
12 71 0 12 71 0 12 72 0 12 72 0 12 72 0 12 72 0 12 72 0 12 72 0 12 73
0 12 73 0 12 73 0 12 73 0 12 73 0 12 73 0 12 74 0 12 74 0 12 74 0 12
74 0 12 74 0 12 74 0 12 74 0 12 75 0 12 75 0 12 75 0 12 75 0 12 75 0
12 75 0 12 75 0 13 76 0 13 76 0 13 76 0 13 76 0 13 76 0 13 76 0 13 76
0 13 76 0 13 76 0 13 77 0 13 77 0 13 77 0 13 77 0 13 77 0 13 77 0 13
77 0 13 77 0 13 77 0 13 77 0 13 77 0 13 77 0 13 78 0 13 78 0 13 78 0
13 78 0 13 78 0 13 78 0 13 78 0 13 78 0 13 78 0 13 78 0 13 78 0 13 78
0 13 78 0 13 78 0 13 78 0 13 78 0 13 78 0 13 78 0 13 78 0 13 78 0 13
78 0 13 78 0 13 78 0 13 78 0 13 78 0 13 78 0 13 78 0 13 78 0 13 78 0
13 78 0 13 78 0 13 78 0 13 78 0 13 78 0 13 78 0 13 78 0 13 77 0 13 77
0 13 77 0 13 77 0 13 77 0 13 77 0 13 77 0 13 77 0 13 77 0 13 77 0 13
77 0 13 77 0 13 76 0 13 76 0 13 76 0 13 76 0 13 76 0 13 76 0 13 76 0
13 76 0 13 76 0 13 75 0 13 75 0 12 75 0 12 75 0 12 75 0 12 75 0 12 75
0 12 74 0 12 74 0 12 74 0 12 74 0 12 74 0 12 74 0 12 74 0 12 73 0 12
73 0 12 73 0 12 73 0 12 73 0 12 73 0 12 72 0 12 72 0 12 72 0 12 72 0
12 72 0 12 72 0 12 71 0 12 71 0 12 71 0 12 71 0 12 71 0 12 71 0 12 70
0 12 70 0 12 70 0 12 70 0 12 70 0 12 69 0 12 69 0 11 69 0 11 69 0 11
69 0 11 68 0 11 68 0 11 68 0 11 68 0 11 68 0 11 68 0 11 67 0 11 67 0
11 67 0 11 67 0 11 67 0 11 66 0 11 66 0 11 66 0 11 66 0 11 66 0 11 65
0 11 65 0 11 65 0 11 65 0 11 65 0 11 64 0 11 64 0 11 64 0 11 64 0 11
64 0 11 63 0 11 63 0 10 63 0 10 63 0 10 63 0 10 62 0 10 62 0 10 62 0
10 62 0 10 62 0 10 62 0 10 61 0 10 61 0 10 61 0 10 61 0 10 61 0 10 60
0 10 60 0 10 60 0 10 60 0 10 60 0 10 59 0 10 59 0 10 59 0 10 59 0 10
59 0 10 59 0 10
41 0 7 41 0 7 41 0 7 41 0 7 41 0 7 41 0 7 41 0 7 41 0 7 42 0 7 42 0 7
42 0 7 42 0 7 42 0 7 42 0 7 42 0 7 42 0 7 42 0 7 42 0 7 43 0 7 43 0 7
43 0 7 43 0 7 43 0 7 43 0 7 43 0 7 43 0 7 43 0 7 44 0 7 44 0 7 44 0 7
44 0 7 44 0 7 44 0 7 44 0 7 44 0 7 44 0 7 45 0 7 45 0 7 45 0 7 45 0 7
45 0 7 45 0 7 45 0 7 45 0 8 45 0 8 46 0 8 46 0 8 46 0 8 46 0 8 46 0 8
46 0 8 46 0 8 46 0 8 47 0 8 47 0 8 47 0 8 47 0 8 47 0 8 47 0 8 47 0 8
47 0 8 48 0 8 48 0 8 48 0 8 48 0 8 48 0 8 48 0 8 48 0 8 48 0 8 49 0 8
49 0 8 49 0 8 49 0 8 49 0 8 49 0 8 49 0 8 50 0 8 50 0 8 50 0 8 50 0 8
50 0 8 50 0 8 50 0 8 51 0 8 51 0 8 51 0 8 51 0 8 51 0 8 51 0 9 51 0 9
52 0 9 52 0 9 52 0 9 52 0 9 52 0 9 52 0 9 52 0 9 53 0 9 53 0 9 53 0 9
53 0 9 53 0 9 53 0 9 54 0 9 54 0 9 54 0 9 54 0 9 54 0 9 54 0 9 55 0 9
55 0 9 55 0 9 55 0 9 55 0 9 55 0 9 56 0 9 56 0 9 56 0 9 56 0 9 56 0 9
56 0 9 57 0 9 57 0 9 57 0 9 57 0 9 57 0 9 57 0 10 58 0 10 58 0 10 58 0
10 58 0 10 58 0 10 58 0 10 59 0 10 59 0 10 59 0 10 59 0 10 59 0 10 60
0 10 60 0 10 60 0 10 60 0 10 60 0 10 60 0 10 61 0 10 61 0 10 61 0 10
61 0 10 61 0 10 62 0 10 62 0 10 62 0 10 62 0 10 62 0 10 62 0 10 63 0
10 63 0 10 63 0 10 63 0 10 63 0 11 64 0 11 64 0 11 64 0 11 64 0 11 64
0 11 65 0 11 65 0 11 65 0 11 65 0 11 65 0 11 65 0 11 66 0 11 66 0 11
66 0 11 66 0 11 66 0 11 67 0 11 67 0 11 67 0 11 67 0 11 67 0 11 68 0
11 68 0 11 68 0 11 68 0 11 68 0 11 68 0 11 69 0 11 69 0 11 69 0 11 69
0 11 69 0 12 70 0 12 70 0 12 70 0 12 70 0 12 70 0 12 70 0 12 71 0 12
71 0 12 71 0 12 71 0 12 71 0 12 71 0 12 72 0 12 72 0 12 72 0 12 72 0
12 72 0 12 72 0 12 73 0 12 73 0 12 73 0 12 73 0 12 73 0 12 73 0 12 74
0 12 74 0 12 74 0 12 74 0 12 74 0 12 74 0 12 74 0 12 74 0 12 75 0 12
75 0 12 75 0 12 75 0 12 75 0 12 75 0 12 75 0 12 75 0 13 76 0 13 76 0
13 76 0 13 76 0 13 76 0 13 76 0 13 76 0 13 76 0 13 76 0 13 76 0 13 77
0 13 77 0 13 77 0 13 77 0 13 77 0 13 77 0 13 77 0 13 77 0 13 77 0 13
77 0 13 77 0 13 77 0 13 77 0 13 77 0 13 77 0 13 77 0 13 77 0 13 77 0
13 77 0 13 77 0 13 77 0 13 78 0 13 78 0 13 78 0 13 78 0 13 78 0 13 78
0 13 78 0 13 77 0 13 77 0 13 77 0 13 77 0 13 77 0 13 77 0 13 77 0 13
77 0 13 77 0 13 77 0 13 77 0 13 77 0 13 77 0 13 77 0 13 77 0 13 77 0
13 77 0 13 77 0 13 77 0 13 77 0 13 77 0 13 76 0 13 76 0 13 76 0 13 76
0 13 76 0 13 76 0 13 76 0 13 76 0 13 76 0 13 76 0 13 75 0 13 75 0 13
75 0 12 75 0 12 75 0 12 75 0 12 75 0 12 75 0 12 75 0 12 74 0 12 74 0
12 74 0 12 74 0 12 74 0 12 74 0 12 74 0 12 73 0 12 73 0 12 73 0 12 73
0 12 73 0 12 73 0 12 72 0 12 72 0 12 72 0 12 72 0 12 72 0 12 72 0 12
72 0 12 71 0 12 71 0 12 71 0 12 71 0 12 71 0 12 70 0 12 70 0 12 70 0
12 70 0 12 70 0 12 70 0 12 69 0 12 69 0 11 69 0 11 69 0 11 69 0 11 69
0 11 68 0 11 68 0 11 68 0 11 68 0 11 68 0 11 67 0 11 67 0 11 67 0 11
67 0 11 67 0 11 66 0 11 66 0 11 66 0 11 66 0 11 66 0 11 66 0 11 65 0
11 65 0 11 65 0 11 65 0 11 65 0 11 64 0 11 64 0 11 64 0 11 64 0 11 64
0 11 63 0 11 63 0 10 63 0 10 63 0 10 63 0 10 63 0 10 62 0 10 62 0 10
62 0 10 62 0 10 62 0 10 61 0 10 61 0 10 61 0 10 61 0 10 61 0 10 60 0
10 60 0 10 60 0 10 60 0 10 60 0 10 60 0 10 59 0 10 59 0 10 59 0 10 59
0 10 59 0 10
41 0 7 41 0 7 41 0 7 41 0 7 41 0 7 41 0 7 41 0 7 42 0 7 42 0 7 42 0 7
42 0 7 42 0 7 42 0 7 42 0 7 42 0 7 42 0 7 42 0 7 43 0 7 43 0 7 43 0 7
43 0 7 43 0 7 43 0 7 43 0 7 43 0 7 43 0 7 44 0 7 44 0 7 44 0 7 44 0 7
44 0 7 44 0 7 44 0 7 44 0 7 44 0 7 44 0 7 45 0 7 45 0 7 45 0 7 45 0 7
45 0 7 45 0 7 45 0 8 45 0 8 46 0 8 46 0 8 46 0 8 46 0 8 46 0 8 46 0 8
46 0 8 46 0 8 46 0 8 47 0 8 47 0 8 47 0 8 47 0 8 47 0 8 47 0 8 47 0 8
47 0 8 48 0 8 48 0 8 48 0 8 48 0 8 48 0 8 48 0 8 48 0 8 49 0 8 49 0 8
49 0 8 49 0 8 49 0 8 49 0 8 49 0 8 49 0 8 50 0 8 50 0 8 50 0 8 50 0 8
50 0 8 50 0 8 50 0 8 51 0 8 51 0 8 51 0 8 51 0 8 51 0 8 51 0 9 51 0 9
52 0 9 52 0 9 52 0 9 52 0 9 52 0 9 52 0 9 52 0 9 53 0 9 53 0 9 53 0 9
53 0 9 53 0 9 53 0 9 54 0 9 54 0 9 54 0 9 54 0 9 54 0 9 54 0 9 54 0 9
55 0 9 55 0 9 55 0 9 55 0 9 55 0 9 55 0 9 56 0 9 56 0 9 56 0 9 56 0 9
56 0 9 56 0 9 57 0 9 57 0 9 57 0 9 57 0 9 57 0 10 57 0 10 58 0 10 58 0
10 58 0 10 58 0 10 58 0 10 59 0 10 59 0 10 59 0 10 59 0 10 59 0 10 59
0 10 60 0 10 60 0 10 60 0 10 60 0 10 60 0 10 60 0 10 61 0 10 61 0 10
61 0 10 61 0 10 61 0 10 62 0 10 62 0 10 62 0 10 62 0 10 62 0 10 62 0
10 63 0 10 63 0 10 63 0 10 63 0 10 63 0 11 64 0 11 64 0 11 64 0 11 64
0 11 64 0 11 64 0 11 65 0 11 65 0 11 65 0 11 65 0 11 65 0 11 66 0 11
66 0 11 66 0 11 66 0 11 66 0 11 66 0 11 67 0 11 67 0 11 67 0 11 67 0
11 67 0 11 68 0 11 68 0 11 68 0 11 68 0 11 68 0 11 68 0 11 69 0 11 69
0 11 69 0 11 69 0 11 69 0 11 70 0 12 70 0 12 70 0 12 70 0 12 70 0 12
70 0 12 71 0 12 71 0 12 71 0 12 71 0 12 71 0 12 71 0 12 71 0 12 72 0
12 72 0 12 72 0 12 72 0 12 72 0 12 72 0 12 73 0 12 73 0 12 73 0 12 73
0 12 73 0 12 73 0 12 73 0 12 74 0 12 74 0 12 74 0 12 74 0 12 74 0 12
74 0 12 74 0 12 74 0 12 75 0 12 75 0 12 75 0 12 75 0 12 75 0 12 75 0
12 75 0 12 75 0 12 75 0 13 76 0 13 76 0 13 76 0 13 76 0 13 76 0 13 76
0 13 76 0 13 76 0 13 76 0 13 76 0 13 76 0 13 76 0 13 76 0 13 76 0 13
77 0 13 77 0 13 77 0 13 77 0 13 77 0 13 77 0 13 77 0 13 77 0 13 77 0
13 77 0 13 77 0 13 77 0 13 77 0 13 77 0 13 77 0 13 77 0 13 77 0 13 77
0 13 77 0 13 77 0 13 77 0 13 77 0 13 77 0 13 77 0 13 77 0 13 77 0 13
77 0 13 77 0 13 77 0 13 77 0 13 77 0 13 77 0 13 77 0 13 76 0 13 76 0
13 76 0 13 76 0 13 76 0 13 76 0 13 76 0 13 76 0 13 76 0 13 76 0 13 76
0 13 76 0 13 76 0 13 75 0 13 75 0 13 75 0 12 75 0 12 75 0 12 75 0 12
75 0 12 75 0 12 75 0 12 75 0 12 74 0 12 74 0 12 74 0 12 74 0 12 74 0
12 74 0 12 74 0 12 73 0 12 73 0 12 73 0 12 73 0 12 73 0 12 73 0 12 73
0 12 73 0 12 72 0 12 72 0 12 72 0 12 72 0 12 72 0 12 72 0 12 71 0 12
71 0 12 71 0 12 71 0 12 71 0 12 71 0 12 70 0 12 70 0 12 70 0 12 70 0
12 70 0 12 70 0 12 69 0 12 69 0 11 69 0 11 69 0 11 69 0 11 69 0 11 68
0 11 68 0 11 68 0 11 68 0 11 68 0 11 67 0 11 67 0 11 67 0 11 67 0 11
67 0 11 67 0 11 66 0 11 66 0 11 66 0 11 66 0 11 66 0 11 65 0 11 65 0
11 65 0 11 65 0 11 65 0 11 65 0 11 64 0 11 64 0 11 64 0 11 64 0 11 64
0 11 63 0 11 63 0 10 63 0 10 63 0 10 63 0 10 63 0 10 62 0 10 62 0 10
62 0 10 62 0 10 62 0 10 61 0 10 61 0 10 61 0 10 61 0 10 61 0 10 61 0
10 60 0 10 60 0 10 60 0 10 60 0 10 60 0 10 59 0 10 59 0 10 59 0 10 59
0 10 59 0 10
41 0 7 41 0 7 41 0 7 41 0 7 41 0 7 41 0 7 42 0 7 42 0 7 42 0 7 42 0 7
42 0 7 42 0 7 42 0 7 42 0 7 42 0 7 42 0 7 43 0 7 43 0 7 43 0 7 43 0 7
43 0 7 43 0 7 43 0 7 43 0 7 43 0 7 43 0 7 44 0 7 44 0 7 44 0 7 44 0 7
44 0 7 44 0 7 44 0 7 44 0 7 44 0 7 45 0 7 45 0 7 45 0 7 45 0 7 45 0 7
45 0 7 45 0 8 45 0 8 45 0 8 46 0 8 46 0 8 46 0 8 46 0 8 46 0 8 46 0 8
46 0 8 46 0 8 47 0 8 47 0 8 47 0 8 47 0 8 47 0 8 47 0 8 47 0 8 47 0 8
48 0 8 48 0 8 48 0 8 48 0 8 48 0 8 48 0 8 48 0 8 48 0 8 49 0 8 49 0 8
49 0 8 49 0 8 49 0 8 49 0 8 49 0 8 49 0 8 50 0 8 50 0 8 50 0 8 50 0 8
50 0 8 50 0 8 50 0 8 51 0 8 51 0 8 51 0 8 51 0 8 51 0 8 51 0 9 51 0 9
52 0 9 52 0 9 52 0 9 52 0 9 52 0 9 52 0 9 52 0 9 53 0 9 53 0 9 53 0 9
53 0 9 53 0 9 53 0 9 54 0 9 54 0 9 54 0 9 54 0 9 54 0 9 54 0 9 54 0 9
55 0 9 55 0 9 55 0 9 55 0 9 55 0 9 55 0 9 56 0 9 56 0 9 56 0 9 56 0 9
56 0 9 56 0 9 57 0 9 57 0 9 57 0 9 57 0 9 57 0 9 57 0 10 58 0 10 58 0
10 58 0 10 58 0 10 58 0 10 58 0 10 59 0 10 59 0 10 59 0 10 59 0 10 59
0 10 59 0 10 60 0 10 60 0 10 60 0 10 60 0 10 60 0 10 60 0 10 61 0 10
61 0 10 61 0 10 61 0 10 61 0 10 62 0 10 62 0 10 62 0 10 62 0 10 62 0
10 62 0 10 63 0 10 63 0 10 63 0 10 63 0 10 63 0 10 63 0 11 64 0 11 64
0 11 64 0 11 64 0 11 64 0 11 65 0 11 65 0 11 65 0 11 65 0 11 65 0 11
65 0 11 66 0 11 66 0 11 66 0 11 66 0 11 66 0 11 67 0 11 67 0 11 67 0
11 67 0 11 67 0 11 67 0 11 68 0 11 68 0 11 68 0 11 68 0 11 68 0 11 68
0 11 69 0 11 69 0 11 69 0 11 69 0 11 69 0 11 69 0 12 70 0 12 70 0 12
70 0 12 70 0 12 70 0 12 70 0 12 71 0 12 71 0 12 71 0 12 71 0 12 71 0
12 71 0 12 71 0 12 72 0 12 72 0 12 72 0 12 72 0 12 72 0 12 72 0 12 72
0 12 73 0 12 73 0 12 73 0 12 73 0 12 73 0 12 73 0 12 73 0 12 74 0 12
74 0 12 74 0 12 74 0 12 74 0 12 74 0 12 74 0 12 74 0 12 74 0 12 75 0
12 75 0 12 75 0 12 75 0 12 75 0 12 75 0 12 75 0 12 75 0 12 75 0 12 75
0 12 75 0 13 76 0 13 76 0 13 76 0 13 76 0 13 76 0 13 76 0 13 76 0 13
76 0 13 76 0 13 76 0 13 76 0 13 76 0 13 76 0 13 76 0 13 76 0 13 76 0
13 76 0 13 76 0 13 76 0 13 76 0 13 76 0 13 76 0 13 76 0 13 76 0 13 76
0 13 76 0 13 76 0 13 76 0 13 76 0 13 76 0 13 76 0 13 76 0 13 76 0 13
76 0 13 76 0 13 76 0 13 76 0 13 76 0 13 76 0 13 76 0 13 76 0 13 76 0
13 76 0 13 76 0 13 76 0 13 76 0 13 76 0 13 75 0 13 75 0 13 75 0 12 75
0 12 75 0 12 75 0 12 75 0 12 75 0 12 75 0 12 75 0 12 75 0 12 75 0 12
74 0 12 74 0 12 74 0 12 74 0 12 74 0 12 74 0 12 74 0 12 74 0 12 74 0
12 73 0 12 73 0 12 73 0 12 73 0 12 73 0 12 73 0 12 73 0 12 72 0 12 72
0 12 72 0 12 72 0 12 72 0 12 72 0 12 72 0 12 71 0 12 71 0 12 71 0 12
71 0 12 71 0 12 71 0 12 71 0 12 70 0 12 70 0 12 70 0 12 70 0 12 70 0
12 70 0 12 69 0 12 69 0 11 69 0 11 69 0 11 69 0 11 69 0 11 68 0 11 68
0 11 68 0 11 68 0 11 68 0 11 68 0 11 67 0 11 67 0 11 67 0 11 67 0 11
67 0 11 66 0 11 66 0 11 66 0 11 66 0 11 66 0 11 66 0 11 65 0 11 65 0
11 65 0 11 65 0 11 65 0 11 65 0 11 64 0 11 64 0 11 64 0 11 64 0 11 64
0 11 63 0 11 63 0 10 63 0 10 63 0 10 63 0 10 63 0 10 62 0 10 62 0 10
62 0 10 62 0 10 62 0 10 61 0 10 61 0 10 61 0 10 61 0 10 61 0 10 61 0
10 60 0 10 60 0 10 60 0 10 60 0 10 60 0 10 60 0 10 59 0 10 59 0 10 59
0 10 59 0 10
41 0 7 41 0 7 41 0 7 41 0 7 41 0 7 42 0 7 42 0 7 42 0 7 42 0 7 42 0 7
42 0 7 42 0 7 42 0 7 42 0 7 42 0 7 43 0 7 43 0 7 43 0 7 43 0 7 43 0 7
43 0 7 43 0 7 43 0 7 43 0 7 43 0 7 44 0 7 44 0 7 44 0 7 44 0 7 44 0 7
44 0 7 44 0 7 44 0 7 44 0 7 45 0 7 45 0 7 45 0 7 45 0 7 45 0 7 45 0 7
45 0 7 45 0 8 45 0 8 46 0 8 46 0 8 46 0 8 46 0 8 46 0 8 46 0 8 46 0 8
46 0 8 46 0 8 47 0 8 47 0 8 47 0 8 47 0 8 47 0 8 47 0 8 47 0 8 47 0 8
48 0 8 48 0 8 48 0 8 48 0 8 48 0 8 48 0 8 48 0 8 48 0 8 49 0 8 49 0 8
49 0 8 49 0 8 49 0 8 49 0 8 49 0 8 50 0 8 50 0 8 50 0 8 50 0 8 50 0 8
50 0 8 50 0 8 50 0 8 51 0 8 51 0 8 51 0 8 51 0 8 51 0 8 51 0 9 51 0 9
52 0 9 52 0 9 52 0 9 52 0 9 52 0 9 52 0 9 52 0 9 53 0 9 53 0 9 53 0 9
53 0 9 53 0 9 53 0 9 53 0 9 54 0 9 54 0 9 54 0 9 54 0 9 54 0 9 54 0 9
55 0 9 55 0 9 55 0 9 55 0 9 55 0 9 55 0 9 55 0 9 56 0 9 56 0 9 56 0 9
56 0 9 56 0 9 56 0 9 57 0 9 57 0 9 57 0 9 57 0 9 57 0 9 57 0 10 58 0
10 58 0 10 58 0 10 58 0 10 58 0 10 58 0 10 59 0 10 59 0 10 59 0 10 59
0 10 59 0 10 59 0 10 60 0 10 60 0 10 60 0 10 60 0 10 60 0 10 60 0 10
61 0 10 61 0 10 61 0 10 61 0 10 61 0 10 61 0 10 62 0 10 62 0 10 62 0
10 62 0 10 62 0 10 63 0 10 63 0 10 63 0 10 63 0 10 63 0 10 63 0 11 64
0 11 64 0 11 64 0 11 64 0 11 64 0 11 64 0 11 65 0 11 65 0 11 65 0 11
65 0 11 65 0 11 66 0 11 66 0 11 66 0 11 66 0 11 66 0 11 66 0 11 67 0
11 67 0 11 67 0 11 67 0 11 67 0 11 67 0 11 68 0 11 68 0 11 68 0 11 68
0 11 68 0 11 68 0 11 69 0 11 69 0 11 69 0 11 69 0 11 69 0 11 69 0 12
70 0 12 70 0 12 70 0 12 70 0 12 70 0 12 70 0 12 70 0 12 71 0 12 71 0
12 71 0 12 71 0 12 71 0 12 71 0 12 71 0 12 72 0 12 72 0 12 72 0 12 72
0 12 72 0 12 72 0 12 72 0 12 73 0 12 73 0 12 73 0 12 73 0 12 73 0 12
73 0 12 73 0 12 73 0 12 73 0 12 74 0 12 74 0 12 74 0 12 74 0 12 74 0
12 74 0 12 74 0 12 74 0 12 74 0 12 74 0 12 75 0 12 75 0 12 75 0 12 75
0 12 75 0 12 75 0 12 75 0 12 75 0 12 75 0 12 75 0 12 75 0 12 75 0 12
75 0 12 75 0 13 75 0 13 75 0 13 76 0 13 76 0 13 76 0 13 76 0 13 76 0
13 76 0 13 76 0 13 76 0 13 76 0 13 76 0 13 76 0 13 76 0 13 76 0 13 76
0 13 76 0 13 76 0 13 76 0 13 76 0 13 76 0 13 76 0 13 76 0 13 76 0 13
76 0 13 76 0 13 76 0 13 76 0 13 76 0 13 75 0 13 75 0 13 75 0 13 75 0
12 75 0 12 75 0 12 75 0 12 75 0 12 75 0 12 75 0 12 75 0 12 75 0 12 75
0 12 75 0 12 75 0 12 75 0 12 74 0 12 74 0 12 74 0 12 74 0 12 74 0 12
74 0 12 74 0 12 74 0 12 74 0 12 74 0 12 73 0 12 73 0 12 73 0 12 73 0
12 73 0 12 73 0 12 73 0 12 73 0 12 73 0 12 72 0 12 72 0 12 72 0 12 72
0 12 72 0 12 72 0 12 72 0 12 71 0 12 71 0 12 71 0 12 71 0 12 71 0 12
71 0 12 71 0 12 70 0 12 70 0 12 70 0 12 70 0 12 70 0 12 70 0 12 70 0
12 69 0 12 69 0 11 69 0 11 69 0 11 69 0 11 69 0 11 68 0 11 68 0 11 68
0 11 68 0 11 68 0 11 68 0 11 67 0 11 67 0 11 67 0 11 67 0 11 67 0 11
67 0 11 66 0 11 66 0 11 66 0 11 66 0 11 66 0 11 66 0 11 65 0 11 65 0
11 65 0 11 65 0 11 65 0 11 64 0 11 64 0 11 64 0 11 64 0 11 64 0 11 64
0 11 63 0 11 63 0 10 63 0 10 63 0 10 63 0 10 63 0 10 62 0 10 62 0 10
62 0 10 62 0 10 62 0 10 61 0 10 61 0 10 61 0 10 61 0 10 61 0 10 61 0
10 60 0 10 60 0 10 60 0 10 60 0 10 60 0 10 60 0 10 59 0 10 59 0 10 59
0 10 59 0 10
41 0 7 41 0 7 41 0 7 41 0 7 42 0 7 42 0 7 42 0 7 42 0 7 42 0 7 42 0 7
42 0 7 42 0 7 42 0 7 42 0 7 43 0 7 43 0 7 43 0 7 43 0 7 43 0 7 43 0 7
43 0 7 43 0 7 43 0 7 43 0 7 44 0 7 44 0 7 44 0 7 44 0 7 44 0 7 44 0 7
44 0 7 44 0 7 44 0 7 45 0 7 45 0 7 45 0 7 45 0 7 45 0 7 45 0 7 45 0 7
45 0 8 45 0 8 45 0 8 46 0 8 46 0 8 46 0 8 46 0 8 46 0 8 46 0 8 46 0 8
46 0 8 47 0 8 47 0 8 47 0 8 47 0 8 47 0 8 47 0 8 47 0 8 47 0 8 47 0 8
48 0 8 48 0 8 48 0 8 48 0 8 48 0 8 48 0 8 48 0 8 48 0 8 49 0 8 49 0 8
49 0 8 49 0 8 49 0 8 49 0 8 49 0 8 50 0 8 50 0 8 50 0 8 50 0 8 50 0 8
50 0 8 50 0 8 50 0 8 51 0 8 51 0 8 51 0 8 51 0 8 51 0 8 51 0 9 51 0 9
52 0 9 52 0 9 52 0 9 52 0 9 52 0 9 52 0 9 52 0 9 53 0 9 53 0 9 53 0 9
53 0 9 53 0 9 53 0 9 53 0 9 54 0 9 54 0 9 54 0 9 54 0 9 54 0 9 54 0 9
54 0 9 55 0 9 55 0 9 55 0 9 55 0 9 55 0 9 55 0 9 56 0 9 56 0 9 56 0 9
56 0 9 56 0 9 56 0 9 57 0 9 57 0 9 57 0 9 57 0 9 57 0 9 57 0 10 57 0
10 58 0 10 58 0 10 58 0 10 58 0 10 58 0 10 58 0 10 59 0 10 59 0 10 59
0 10 59 0 10 59 0 10 59 0 10 60 0 10 60 0 10 60 0 10 60 0 10 60 0 10
60 0 10 61 0 10 61 0 10 61 0 10 61 0 10 61 0 10 61 0 10 62 0 10 62 0
10 62 0 10 62 0 10 62 0 10 62 0 10 63 0 10 63 0 10 63 0 10 63 0 10 63
0 11 64 0 11 64 0 11 64 0 11 64 0 11 64 0 11 64 0 11 65 0 11 65 0 11
65 0 11 65 0 11 65 0 11 65 0 11 66 0 11 66 0 11 66 0 11 66 0 11 66 0
11 66 0 11 67 0 11 67 0 11 67 0 11 67 0 11 67 0 11 67 0 11 68 0 11 68
0 11 68 0 11 68 0 11 68 0 11 68 0 11 68 0 11 69 0 11 69 0 11 69 0 11
69 0 11 69 0 11 69 0 12 70 0 12 70 0 12 70 0 12 70 0 12 70 0 12 70 0
12 70 0 12 71 0 12 71 0 12 71 0 12 71 0 12 71 0 12 71 0 12 71 0 12 72
0 12 72 0 12 72 0 12 72 0 12 72 0 12 72 0 12 72 0 12 72 0 12 72 0 12
73 0 12 73 0 12 73 0 12 73 0 12 73 0 12 73 0 12 73 0 12 73 0 12 73 0
12 74 0 12 74 0 12 74 0 12 74 0 12 74 0 12 74 0 12 74 0 12 74 0 12 74
0 12 74 0 12 74 0 12 74 0 12 74 0 12 75 0 12 75 0 12 75 0 12 75 0 12
75 0 12 75 0 12 75 0 12 75 0 12 75 0 12 75 0 12 75 0 12 75 0 12 75 0
12 75 0 12 75 0 12 75 0 12 75 0 12 75 0 12 75 0 12 75 0 12 75 0 12 75
0 12 75 0 12 75 0 12 75 0 12 75 0 12 75 0 12 75 0 12 75 0 12 75 0 12
75 0 12 75 0 12 75 0 12 75 0 12 75 0 12 75 0 12 75 0 12 75 0 12 75 0
12 75 0 12 75 0 12 75 0 12 75 0 12 75 0 12 75 0 12 74 0 12 74 0 12 74
0 12 74 0 12 74 0 12 74 0 12 74 0 12 74 0 12 74 0 12 74 0 12 74 0 12
74 0 12 73 0 12 73 0 12 73 0 12 73 0 12 73 0 12 73 0 12 73 0 12 73 0
12 73 0 12 73 0 12 72 0 12 72 0 12 72 0 12 72 0 12 72 0 12 72 0 12 72
0 12 72 0 12 71 0 12 71 0 12 71 0 12 71 0 12 71 0 12 71 0 12 71 0 12
70 0 12 70 0 12 70 0 12 70 0 12 70 0 12 70 0 12 70 0 12 69 0 12 69 0
11 69 0 11 69 0 11 69 0 11 69 0 11 69 0 11 68 0 11 68 0 11 68 0 11 68
0 11 68 0 11 68 0 11 67 0 11 67 0 11 67 0 11 67 0 11 67 0 11 67 0 11
66 0 11 66 0 11 66 0 11 66 0 11 66 0 11 66 0 11 65 0 11 65 0 11 65 0
11 65 0 11 65 0 11 65 0 11 64 0 11 64 0 11 64 0 11 64 0 11 64 0 11 64
0 11 63 0 11 63 0 10 63 0 10 63 0 10 63 0 10 63 0 10 62 0 10 62 0 10
62 0 10 62 0 10 62 0 10 62 0 10 61 0 10 61 0 10 61 0 10 61 0 10 61 0
10 60 0 10 60 0 10 60 0 10 60 0 10 60 0 10 60 0 10 59 0 10 59 0 10 59
0 10 59 0 10
41 0 7 41 0 7 41 0 7 42 0 7 42 0 7 42 0 7 42 0 7 42 0 7 42 0 7 42 0 7
42 0 7 42 0 7 42 0 7 43 0 7 43 0 7 43 0 7 43 0 7 43 0 7 43 0 7 43 0 7
43 0 7 43 0 7 43 0 7 44 0 7 44 0 7 44 0 7 44 0 7 44 0 7 44 0 7 44 0 7
44 0 7 44 0 7 44 0 7 45 0 7 45 0 7 45 0 7 45 0 7 45 0 7 45 0 7 45 0 8
45 0 8 45 0 8 46 0 8 46 0 8 46 0 8 46 0 8 46 0 8 46 0 8 46 0 8 46 0 8
46 0 8 47 0 8 47 0 8 47 0 8 47 0 8 47 0 8 47 0 8 47 0 8 47 0 8 48 0 8
48 0 8 48 0 8 48 0 8 48 0 8 48 0 8 48 0 8 48 0 8 49 0 8 49 0 8 49 0 8
49 0 8 49 0 8 49 0 8 49 0 8 49 0 8 50 0 8 50 0 8 50 0 8 50 0 8 50 0 8
50 0 8 50 0 8 50 0 8 51 0 8 51 0 8 51 0 8 51 0 8 51 0 8 51 0 9 51 0 9
52 0 9 52 0 9 52 0 9 52 0 9 52 0 9 52 0 9 52 0 9 53 0 9 53 0 9 53 0 9
53 0 9 53 0 9 53 0 9 53 0 9 54 0 9 54 0 9 54 0 9 54 0 9 54 0 9 54 0 9
54 0 9 55 0 9 55 0 9 55 0 9 55 0 9 55 0 9 55 0 9 55 0 9 56 0 9 56 0 9
56 0 9 56 0 9 56 0 9 56 0 9 57 0 9 57 0 9 57 0 9 57 0 9 57 0 9 57 0 10
58 0 10 58 0 10 58 0 10 58 0 10 58 0 10 58 0 10 58 0 10 59 0 10 59 0
10 59 0 10 59 0 10 59 0 10 59 0 10 60 0 10 60 0 10 60 0 10 60 0 10 60
0 10 60 0 10 61 0 10 61 0 10 61 0 10 61 0 10 61 0 10 61 0 10 62 0 10
62 0 10 62 0 10 62 0 10 62 0 10 62 0 10 63 0 10 63 0 10 63 0 10 63 0
10 63 0 10 63 0 11 64 0 11 64 0 11 64 0 11 64 0 11 64 0 11 64 0 11 65
0 11 65 0 11 65 0 11 65 0 11 65 0 11 65 0 11 66 0 11 66 0 11 66 0 11
66 0 11 66 0 11 66 0 11 67 0 11 67 0 11 67 0 11 67 0 11 67 0 11 67 0
11 67 0 11 68 0 11 68 0 11 68 0 11 68 0 11 68 0 11 68 0 11 69 0 11 69
0 11 69 0 11 69 0 11 69 0 11 69 0 11 69 0 12 70 0 12 70 0 12 70 0 12
70 0 12 70 0 12 70 0 12 70 0 12 70 0 12 71 0 12 71 0 12 71 0 12 71 0
12 71 0 12 71 0 12 71 0 12 72 0 12 72 0 12 72 0 12 72 0 12 72 0 12 72
0 12 72 0 12 72 0 12 72 0 12 73 0 12 73 0 12 73 0 12 73 0 12 73 0 12
73 0 12 73 0 12 73 0 12 73 0 12 73 0 12 73 0 12 73 0 12 74 0 12 74 0
12 74 0 12 74 0 12 74 0 12 74 0 12 74 0 12 74 0 12 74 0 12 74 0 12 74
0 12 74 0 12 74 0 12 74 0 12 74 0 12 74 0 12 74 0 12 74 0 12 75 0 12
75 0 12 75 0 12 75 0 12 75 0 12 75 0 12 75 0 12 75 0 12 75 0 12 75 0
12 75 0 12 75 0 12 75 0 12 75 0 12 75 0 12 75 0 12 75 0 12 75 0 12 75
0 12 75 0 12 75 0 12 75 0 12 74 0 12 74 0 12 74 0 12 74 0 12 74 0 12
74 0 12 74 0 12 74 0 12 74 0 12 74 0 12 74 0 12 74 0 12 74 0 12 74 0
12 74 0 12 74 0 12 74 0 12 74 0 12 73 0 12 73 0 12 73 0 12 73 0 12 73
0 12 73 0 12 73 0 12 73 0 12 73 0 12 73 0 12 73 0 12 72 0 12 72 0 12
72 0 12 72 0 12 72 0 12 72 0 12 72 0 12 72 0 12 72 0 12 71 0 12 71 0
12 71 0 12 71 0 12 71 0 12 71 0 12 71 0 12 71 0 12 70 0 12 70 0 12 70
0 12 70 0 12 70 0 12 70 0 12 70 0 12 69 0 12 69 0 11 69 0 11 69 0 11
69 0 11 69 0 11 69 0 11 68 0 11 68 0 11 68 0 11 68 0 11 68 0 11 68 0
11 68 0 11 67 0 11 67 0 11 67 0 11 67 0 11 67 0 11 67 0 11 66 0 11 66
0 11 66 0 11 66 0 11 66 0 11 66 0 11 65 0 11 65 0 11 65 0 11 65 0 11
65 0 11 65 0 11 64 0 11 64 0 11 64 0 11 64 0 11 64 0 11 64 0 11 63 0
11 63 0 11 63 0 10 63 0 10 63 0 10 63 0 10 62 0 10 62 0 10 62 0 10 62
0 10 62 0 10 62 0 10 61 0 10 61 0 10 61 0 10 61 0 10 61 0 10 61 0 10
60 0 10 60 0 10 60 0 10 60 0 10 60 0 10 60 0 10 60 0 10 59 0 10 59 0
10 59 0 10
41 0 7 41 0 7 42 0 7 42 0 7 42 0 7 42 0 7 42 0 7 42 0 7 42 0 7 42 0 7
42 0 7 42 0 7 43 0 7 43 0 7 43 0 7 43 0 7 43 0 7 43 0 7 43 0 7 43 0 7
43 0 7 43 0 7 44 0 7 44 0 7 44 0 7 44 0 7 44 0 7 44 0 7 44 0 7 44 0 7
44 0 7 44 0 7 45 0 7 45 0 7 45 0 7 45 0 7 45 0 7 45 0 7 45 0 7 45 0 8
45 0 8 46 0 8 46 0 8 46 0 8 46 0 8 46 0 8 46 0 8 46 0 8 46 0 8 46 0 8
47 0 8 47 0 8 47 0 8 47 0 8 47 0 8 47 0 8 47 0 8 47 0 8 47 0 8 48 0 8
48 0 8 48 0 8 48 0 8 48 0 8 48 0 8 48 0 8 48 0 8 49 0 8 49 0 8 49 0 8
49 0 8 49 0 8 49 0 8 49 0 8 49 0 8 50 0 8 50 0 8 50 0 8 50 0 8 50 0 8
50 0 8 50 0 8 50 0 8 51 0 8 51 0 8 51 0 8 51 0 8 51 0 8 51 0 9 51 0 9
52 0 9 52 0 9 52 0 9 52 0 9 52 0 9 52 0 9 52 0 9 52 0 9 53 0 9 53 0 9
53 0 9 53 0 9 53 0 9 53 0 9 53 0 9 54 0 9 54 0 9 54 0 9 54 0 9 54 0 9
54 0 9 55 0 9 55 0 9 55 0 9 55 0 9 55 0 9 55 0 9 55 0 9 56 0 9 56 0 9
56 0 9 56 0 9 56 0 9 56 0 9 56 0 9 57 0 9 57 0 9 57 0 9 57 0 9 57 0 9
57 0 10 58 0 10 58 0 10 58 0 10 58 0 10 58 0 10 58 0 10 58 0 10 59 0
10 59 0 10 59 0 10 59 0 10 59 0 10 59 0 10 60 0 10 60 0 10 60 0 10 60
0 10 60 0 10 60 0 10 61 0 10 61 0 10 61 0 10 61 0 10 61 0 10 61 0 10
62 0 10 62 0 10 62 0 10 62 0 10 62 0 10 62 0 10 62 0 10 63 0 10 63 0
10 63 0 10 63 0 10 63 0 10 63 0 11 64 0 11 64 0 11 64 0 11 64 0 11 64
0 11 64 0 11 65 0 11 65 0 11 65 0 11 65 0 11 65 0 11 65 0 11 66 0 11
66 0 11 66 0 11 66 0 11 66 0 11 66 0 11 66 0 11 67 0 11 67 0 11 67 0
11 67 0 11 67 0 11 67 0 11 68 0 11 68 0 11 68 0 11 68 0 11 68 0 11 68
0 11 68 0 11 69 0 11 69 0 11 69 0 11 69 0 11 69 0 11 69 0 11 69 0 12
70 0 12 70 0 12 70 0 12 70 0 12 70 0 12 70 0 12 70 0 12 70 0 12 71 0
12 71 0 12 71 0 12 71 0 12 71 0 12 71 0 12 71 0 12 71 0 12 71 0 12 72
0 12 72 0 12 72 0 12 72 0 12 72 0 12 72 0 12 72 0 12 72 0 12 72 0 12
72 0 12 73 0 12 73 0 12 73 0 12 73 0 12 73 0 12 73 0 12 73 0 12 73 0
12 73 0 12 73 0 12 73 0 12 73 0 12 73 0 12 73 0 12 74 0 12 74 0 12 74
0 12 74 0 12 74 0 12 74 0 12 74 0 12 74 0 12 74 0 12 74 0 12 74 0 12
74 0 12 74 0 12 74 0 12 74 0 12 74 0 12 74 0 12 74 0 12 74 0 12 74 0
12 74 0 12 74 0 12 74 0 12 74 0 12 74 0 12 74 0 12 74 0 12 74 0 12 74
0 12 74 0 12 74 0 12 74 0 12 74 0 12 74 0 12 74 0 12 74 0 12 74 0 12
74 0 12 74 0 12 74 0 12 74 0 12 74 0 12 74 0 12 73 0 12 73 0 12 73 0
12 73 0 12 73 0 12 73 0 12 73 0 12 73 0 12 73 0 12 73 0 12 73 0 12 73
0 12 73 0 12 73 0 12 72 0 12 72 0 12 72 0 12 72 0 12 72 0 12 72 0 12
72 0 12 72 0 12 72 0 12 72 0 12 71 0 12 71 0 12 71 0 12 71 0 12 71 0
12 71 0 12 71 0 12 71 0 12 70 0 12 70 0 12 70 0 12 70 0 12 70 0 12 70
0 12 70 0 12 70 0 12 69 0 12 69 0 11 69 0 11 69 0 11 69 0 11 69 0 11
69 0 11 68 0 11 68 0 11 68 0 11 68 0 11 68 0 11 68 0 11 68 0 11 67 0
11 67 0 11 67 0 11 67 0 11 67 0 11 67 0 11 67 0 11 66 0 11 66 0 11 66
0 11 66 0 11 66 0 11 66 0 11 65 0 11 65 0 11 65 0 11 65 0 11 65 0 11
65 0 11 65 0 11 64 0 11 64 0 11 64 0 11 64 0 11 64 0 11 64 0 11 63 0
11 63 0 10 63 0 10 63 0 10 63 0 10 63 0 10 62 0 10 62 0 10 62 0 10 62
0 10 62 0 10 62 0 10 61 0 10 61 0 10 61 0 10 61 0 10 61 0 10 61 0 10
60 0 10 60 0 10 60 0 10 60 0 10 60 0 10 60 0 10 60 0 10 59 0 10 59 0
10 59 0 10
41 0 7 42 0 7 42 0 7 42 0 7 42 0 7 42 0 7 42 0 7 42 0 7 42 0 7 42 0 7
42 0 7 43 0 7 43 0 7 43 0 7 43 0 7 43 0 7 43 0 7 43 0 7 43 0 7 43 0 7
43 0 7 43 0 7 44 0 7 44 0 7 44 0 7 44 0 7 44 0 7 44 0 7 44 0 7 44 0 7
44 0 7 44 0 7 45 0 7 45 0 7 45 0 7 45 0 7 45 0 7 45 0 7 45 0 8 45 0 8
45 0 8 46 0 8 46 0 8 46 0 8 46 0 8 46 0 8 46 0 8 46 0 8 46 0 8 46 0 8
47 0 8 47 0 8 47 0 8 47 0 8 47 0 8 47 0 8 47 0 8 47 0 8 47 0 8 48 0 8
48 0 8 48 0 8 48 0 8 48 0 8 48 0 8 48 0 8 48 0 8 49 0 8 49 0 8 49 0 8
49 0 8 49 0 8 49 0 8 49 0 8 49 0 8 50 0 8 50 0 8 50 0 8 50 0 8 50 0 8
50 0 8 50 0 8 50 0 8 51 0 8 51 0 8 51 0 8 51 0 8 51 0 8 51 0 8 51 0 9
52 0 9 52 0 9 52 0 9 52 0 9 52 0 9 52 0 9 52 0 9 52 0 9 53 0 9 53 0 9
53 0 9 53 0 9 53 0 9 53 0 9 53 0 9 54 0 9 54 0 9 54 0 9 54 0 9 54 0 9
54 0 9 54 0 9 55 0 9 55 0 9 55 0 9 55 0 9 55 0 9 55 0 9 55 0 9 56 0 9
56 0 9 56 0 9 56 0 9 56 0 9 56 0 9 56 0 9 57 0 9 57 0 9 57 0 9 57 0 9
57 0 9 57 0 10 58 0 10 58 0 10 58 0 10 58 0 10 58 0 10 58 0 10 58 0 10
59 0 10 59 0 10 59 0 10 59 0 10 59 0 10 59 0 10 60 0 10 60 0 10 60 0
10 60 0 10 60 0 10 60 0 10 61 0 10 61 0 10 61 0 10 61 0 10 61 0 10 61
0 10 61 0 10 62 0 10 62 0 10 62 0 10 62 0 10 62 0 10 62 0 10 63 0 10
63 0 10 63 0 10 63 0 10 63 0 10 63 0 11 63 0 11 64 0 11 64 0 11 64 0
11 64 0 11 64 0 11 64 0 11 65 0 11 65 0 11 65 0 11 65 0 11 65 0 11 65
0 11 65 0 11 66 0 11 66 0 11 66 0 11 66 0 11 66 0 11 66 0 11 67 0 11
67 0 11 67 0 11 67 0 11 67 0 11 67 0 11 67 0 11 68 0 11 68 0 11 68 0
11 68 0 11 68 0 11 68 0 11 68 0 11 69 0 11 69 0 11 69 0 11 69 0 11 69
0 11 69 0 11 69 0 11 69 0 12 70 0 12 70 0 12 70 0 12 70 0 12 70 0 12
70 0 12 70 0 12 70 0 12 71 0 12 71 0 12 71 0 12 71 0 12 71 0 12 71 0
12 71 0 12 71 0 12 71 0 12 71 0 12 72 0 12 72 0 12 72 0 12 72 0 12 72
0 12 72 0 12 72 0 12 72 0 12 72 0 12 72 0 12 72 0 12 72 0 12 73 0 12
73 0 12 73 0 12 73 0 12 73 0 12 73 0 12 73 0 12 73 0 12 73 0 12 73 0
12 73 0 12 73 0 12 73 0 12 73 0 12 73 0 12 73 0 12 73 0 12 73 0 12 73
0 12 73 0 12 73 0 12 73 0 12 74 0 12 74 0 12 74 0 12 74 0 12 74 0 12
74 0 12 74 0 12 74 0 12 74 0 12 74 0 12 74 0 12 74 0 12 74 0 12 74 0
12 73 0 12 73 0 12 73 0 12 73 0 12 73 0 12 73 0 12 73 0 12 73 0 12 73
0 12 73 0 12 73 0 12 73 0 12 73 0 12 73 0 12 73 0 12 73 0 12 73 0 12
73 0 12 73 0 12 73 0 12 73 0 12 73 0 12 72 0 12 72 0 12 72 0 12 72 0
12 72 0 12 72 0 12 72 0 12 72 0 12 72 0 12 72 0 12 72 0 12 72 0 12 71
0 12 71 0 12 71 0 12 71 0 12 71 0 12 71 0 12 71 0 12 71 0 12 71 0 12
71 0 12 70 0 12 70 0 12 70 0 12 70 0 12 70 0 12 70 0 12 70 0 12 70 0
12 69 0 12 69 0 11 69 0 11 69 0 11 69 0 11 69 0 11 69 0 11 69 0 11 68
0 11 68 0 11 68 0 11 68 0 11 68 0 11 68 0 11 68 0 11 67 0 11 67 0 11
67 0 11 67 0 11 67 0 11 67 0 11 67 0 11 66 0 11 66 0 11 66 0 11 66 0
11 66 0 11 66 0 11 65 0 11 65 0 11 65 0 11 65 0 11 65 0 11 65 0 11 65
0 11 64 0 11 64 0 11 64 0 11 64 0 11 64 0 11 64 0 11 63 0 11 63 0 11
63 0 10 63 0 10 63 0 10 63 0 10 63 0 10 62 0 10 62 0 10 62 0 10 62 0
10 62 0 10 62 0 10 61 0 10 61 0 10 61 0 10 61 0 10 61 0 10 61 0 10 60
0 10 60 0 10 60 0 10 60 0 10 60 0 10 60 0 10 60 0 10 59 0 10 59 0 10
59 0 10
42 0 7 42 0 7 42 0 7 42 0 7 42 0 7 42 0 7 42 0 7 42 0 7 42 0 7 42 0 7
42 0 7 43 0 7 43 0 7 43 0 7 43 0 7 43 0 7 43 0 7 43 0 7 43 0 7 43 0 7
43 0 7 44 0 7 44 0 7 44 0 7 44 0 7 44 0 7 44 0 7 44 0 7 44 0 7 44 0 7
44 0 7 45 0 7 45 0 7 45 0 7 45 0 7 45 0 7 45 0 7 45 0 7 45 0 8 45 0 8
45 0 8 46 0 8 46 0 8 46 0 8 46 0 8 46 0 8 46 0 8 46 0 8 46 0 8 46 0 8
47 0 8 47 0 8 47 0 8 47 0 8 47 0 8 47 0 8 47 0 8 47 0 8 48 0 8 48 0 8
48 0 8 48 0 8 48 0 8 48 0 8 48 0 8 48 0 8 48 0 8 49 0 8 49 0 8 49 0 8
49 0 8 49 0 8 49 0 8 49 0 8 49 0 8 50 0 8 50 0 8 50 0 8 50 0 8 50 0 8
50 0 8 50 0 8 50 0 8 51 0 8 51 0 8 51 0 8 51 0 8 51 0 8 51 0 8 51 0 9
51 0 9 52 0 9 52 0 9 52 0 9 52 0 9 52 0 9 52 0 9 52 0 9 53 0 9 53 0 9
53 0 9 53 0 9 53 0 9 53 0 9 53 0 9 54 0 9 54 0 9 54 0 9 54 0 9 54 0 9
54 0 9 54 0 9 54 0 9 55 0 9 55 0 9 55 0 9 55 0 9 55 0 9 55 0 9 55 0 9
56 0 9 56 0 9 56 0 9 56 0 9 56 0 9 56 0 9 57 0 9 57 0 9 57 0 9 57 0 9
57 0 9 57 0 9 57 0 10 58 0 10 58 0 10 58 0 10 58 0 10 58 0 10 58 0 10
58 0 10 59 0 10 59 0 10 59 0 10 59 0 10 59 0 10 59 0 10 60 0 10 60 0
10 60 0 10 60 0 10 60 0 10 60 0 10 60 0 10 61 0 10 61 0 10 61 0 10 61
0 10 61 0 10 61 0 10 62 0 10 62 0 10 62 0 10 62 0 10 62 0 10 62 0 10
62 0 10 63 0 10 63 0 10 63 0 10 63 0 10 63 0 10 63 0 11 64 0 11 64 0
11 64 0 11 64 0 11 64 0 11 64 0 11 64 0 11 65 0 11 65 0 11 65 0 11 65
0 11 65 0 11 65 0 11 65 0 11 66 0 11 66 0 11 66 0 11 66 0 11 66 0 11
66 0 11 66 0 11 67 0 11 67 0 11 67 0 11 67 0 11 67 0 11 67 0 11 67 0
11 68 0 11 68 0 11 68 0 11 68 0 11 68 0 11 68 0 11 68 0 11 68 0 11 69
0 11 69 0 11 69 0 11 69 0 11 69 0 11 69 0 11 69 0 12 69 0 12 70 0 12
70 0 12 70 0 12 70 0 12 70 0 12 70 0 12 70 0 12 70 0 12 70 0 12 71 0
12 71 0 12 71 0 12 71 0 12 71 0 12 71 0 12 71 0 12 71 0 12 71 0 12 71
0 12 71 0 12 72 0 12 72 0 12 72 0 12 72 0 12 72 0 12 72 0 12 72 0 12
72 0 12 72 0 12 72 0 12 72 0 12 72 0 12 72 0 12 72 0 12 72 0 12 73 0
12 73 0 12 73 0 12 73 0 12 73 0 12 73 0 12 73 0 12 73 0 12 73 0 12 73
0 12 73 0 12 73 0 12 73 0 12 73 0 12 73 0 12 73 0 12 73 0 12 73 0 12
73 0 12 73 0 12 73 0 12 73 0 12 73 0 12 73 0 12 73 0 12 73 0 12 73 0
12 73 0 12 73 0 12 73 0 12 73 0 12 73 0 12 73 0 12 73 0 12 73 0 12 73
0 12 73 0 12 73 0 12 73 0 12 73 0 12 73 0 12 72 0 12 72 0 12 72 0 12
72 0 12 72 0 12 72 0 12 72 0 12 72 0 12 72 0 12 72 0 12 72 0 12 72 0
12 72 0 12 72 0 12 72 0 12 71 0 12 71 0 12 71 0 12 71 0 12 71 0 12 71
0 12 71 0 12 71 0 12 71 0 12 71 0 12 71 0 12 70 0 12 70 0 12 70 0 12
70 0 12 70 0 12 70 0 12 70 0 12 70 0 12 70 0 12 69 0 12 69 0 12 69 0
11 69 0 11 69 0 11 69 0 11 69 0 11 69 0 11 69 0 11 68 0 11 68 0 11 68
0 11 68 0 11 68 0 11 68 0 11 68 0 11 67 0 11 67 0 11 67 0 11 67 0 11
67 0 11 67 0 11 67 0 11 66 0 11 66 0 11 66 0 11 66 0 11 66 0 11 66 0
11 66 0 11 65 0 11 65 0 11 65 0 11 65 0 11 65 0 11 65 0 11 65 0 11 64
0 11 64 0 11 64 0 11 64 0 11 64 0 11 64 0 11 64 0 11 63 0 11 63 0 10
63 0 10 63 0 10 63 0 10 63 0 10 62 0 10 62 0 10 62 0 10 62 0 10 62 0
10 62 0 10 62 0 10 61 0 10 61 0 10 61 0 10 61 0 10 61 0 10 61 0 10 60
0 10 60 0 10 60 0 10 60 0 10 60 0 10 60 0 10 60 0 10 59 0 10 59 0 10
59 0 10
42 0 7 42 0 7 42 0 7 42 0 7 42 0 7 42 0 7 42 0 7 42 0 7 42 0 7 42 0 7
43 0 7 43 0 7 43 0 7 43 0 7 43 0 7 43 0 7 43 0 7 43 0 7 43 0 7 43 0 7
44 0 7 44 0 7 44 0 7 44 0 7 44 0 7 44 0 7 44 0 7 44 0 7 44 0 7 44 0 7
45 0 7 45 0 7 45 0 7 45 0 7 45 0 7 45 0 7 45 0 7 45 0 8 45 0 8 45 0 8
46 0 8 46 0 8 46 0 8 46 0 8 46 0 8 46 0 8 46 0 8 46 0 8 46 0 8 47 0 8
47 0 8 47 0 8 47 0 8 47 0 8 47 0 8 47 0 8 47 0 8 47 0 8 48 0 8 48 0 8
48 0 8 48 0 8 48 0 8 48 0 8 48 0 8 48 0 8 48 0 8 49 0 8 49 0 8 49 0 8
49 0 8 49 0 8 49 0 8 49 0 8 49 0 8 50 0 8 50 0 8 50 0 8 50 0 8 50 0 8
50 0 8 50 0 8 50 0 8 51 0 8 51 0 8 51 0 8 51 0 8 51 0 8 51 0 8 51 0 9
51 0 9 52 0 9 52 0 9 52 0 9 52 0 9 52 0 9 52 0 9 52 0 9 52 0 9 53 0 9
53 0 9 53 0 9 53 0 9 53 0 9 53 0 9 53 0 9 54 0 9 54 0 9 54 0 9 54 0 9
54 0 9 54 0 9 54 0 9 55 0 9 55 0 9 55 0 9 55 0 9 55 0 9 55 0 9 55 0 9
56 0 9 56 0 9 56 0 9 56 0 9 56 0 9 56 0 9 56 0 9 57 0 9 57 0 9 57 0 9
57 0 9 57 0 9 57 0 9 57 0 10 58 0 10 58 0 10 58 0 10 58 0 10 58 0 10
58 0 10 58 0 10 59 0 10 59 0 10 59 0 10 59 0 10 59 0 10 59 0 10 59 0
10 60 0 10 60 0 10 60 0 10 60 0 10 60 0 10 60 0 10 61 0 10 61 0 10 61
0 10 61 0 10 61 0 10 61 0 10 61 0 10 62 0 10 62 0 10 62 0 10 62 0 10
62 0 10 62 0 10 62 0 10 63 0 10 63 0 10 63 0 10 63 0 10 63 0 10 63 0
11 64 0 11 64 0 11 64 0 11 64 0 11 64 0 11 64 0 11 64 0 11 65 0 11 65
0 11 65 0 11 65 0 11 65 0 11 65 0 11 65 0 11 66 0 11 66 0 11 66 0 11
66 0 11 66 0 11 66 0 11 66 0 11 66 0 11 67 0 11 67 0 11 67 0 11 67 0
11 67 0 11 67 0 11 67 0 11 68 0 11 68 0 11 68 0 11 68 0 11 68 0 11 68
0 11 68 0 11 68 0 11 69 0 11 69 0 11 69 0 11 69 0 11 69 0 11 69 0 11
69 0 11 69 0 12 69 0 12 70 0 12 70 0 12 70 0 12 70 0 12 70 0 12 70 0
12 70 0 12 70 0 12 70 0 12 70 0 12 71 0 12 71 0 12 71 0 12 71 0 12 71
0 12 71 0 12 71 0 12 71 0 12 71 0 12 71 0 12 71 0 12 71 0 12 71 0 12
72 0 12 72 0 12 72 0 12 72 0 12 72 0 12 72 0 12 72 0 12 72 0 12 72 0
12 72 0 12 72 0 12 72 0 12 72 0 12 72 0 12 72 0 12 72 0 12 72 0 12 72
0 12 72 0 12 72 0 12 72 0 12 72 0 12 72 0 12 72 0 12 72 0 12 72 0 12
72 0 12 73 0 12 73 0 12 73 0 12 73 0 12 72 0 12 72 0 12 72 0 12 72 0
12 72 0 12 72 0 12 72 0 12 72 0 12 72 0 12 72 0 12 72 0 12 72 0 12 72
0 12 72 0 12 72 0 12 72 0 12 72 0 12 72 0 12 72 0 12 72 0 12 72 0 12
72 0 12 72 0 12 72 0 12 72 0 12 72 0 12 72 0 12 72 0 12 71 0 12 71 0
12 71 0 12 71 0 12 71 0 12 71 0 12 71 0 12 71 0 12 71 0 12 71 0 12 71
0 12 71 0 12 70 0 12 70 0 12 70 0 12 70 0 12 70 0 12 70 0 12 70 0 12
70 0 12 70 0 12 70 0 12 69 0 12 69 0 12 69 0 11 69 0 11 69 0 11 69 0
11 69 0 11 69 0 11 69 0 11 68 0 11 68 0 11 68 0 11 68 0 11 68 0 11 68
0 11 68 0 11 68 0 11 67 0 11 67 0 11 67 0 11 67 0 11 67 0 11 67 0 11
67 0 11 67 0 11 66 0 11 66 0 11 66 0 11 66 0 11 66 0 11 66 0 11 66 0
11 65 0 11 65 0 11 65 0 11 65 0 11 65 0 11 65 0 11 65 0 11 64 0 11 64
0 11 64 0 11 64 0 11 64 0 11 64 0 11 64 0 11 63 0 11 63 0 10 63 0 10
63 0 10 63 0 10 63 0 10 63 0 10 62 0 10 62 0 10 62 0 10 62 0 10 62 0
10 62 0 10 61 0 10 61 0 10 61 0 10 61 0 10 61 0 10 61 0 10 61 0 10 60
0 10 60 0 10 60 0 10 60 0 10 60 0 10 60 0 10 60 0 10 59 0 10 59 0 10
59 0 10
42 0 7 42 0 7 42 0 7 42 0 7 42 0 7 42 0 7 42 0 7 42 0 7 42 0 7 43 0 7
43 0 7 43 0 7 43 0 7 43 0 7 43 0 7 43 0 7 43 0 7 43 0 7 43 0 7 43 0 7
44 0 7 44 0 7 44 0 7 44 0 7 44 0 7 44 0 7 44 0 7 44 0 7 44 0 7 44 0 7
45 0 7 45 0 7 45 0 7 45 0 7 45 0 7 45 0 7 45 0 7 45 0 8 45 0 8 45 0 8
46 0 8 46 0 8 46 0 8 46 0 8 46 0 8 46 0 8 46 0 8 46 0 8 46 0 8 47 0 8
47 0 8 47 0 8 47 0 8 47 0 8 47 0 8 47 0 8 47 0 8 47 0 8 48 0 8 48 0 8
48 0 8 48 0 8 48 0 8 48 0 8 48 0 8 48 0 8 48 0 8 49 0 8 49 0 8 49 0 8
49 0 8 49 0 8 49 0 8 49 0 8 49 0 8 50 0 8 50 0 8 50 0 8 50 0 8 50 0 8
50 0 8 50 0 8 50 0 8 51 0 8 51 0 8 51 0 8 51 0 8 51 0 8 51 0 8 51 0 9
51 0 9 52 0 9 52 0 9 52 0 9 52 0 9 52 0 9 52 0 9 52 0 9 52 0 9 53 0 9
53 0 9 53 0 9 53 0 9 53 0 9 53 0 9 53 0 9 53 0 9 54 0 9 54 0 9 54 0 9
54 0 9 54 0 9 54 0 9 54 0 9 55 0 9 55 0 9 55 0 9 55 0 9 55 0 9 55 0 9
55 0 9 56 0 9 56 0 9 56 0 9 56 0 9 56 0 9 56 0 9 56 0 9 57 0 9 57 0 9
57 0 9 57 0 9 57 0 9 57 0 9 57 0 10 58 0 10 58 0 10 58 0 10 58 0 10 58
0 10 58 0 10 58 0 10 59 0 10 59 0 10 59 0 10 59 0 10 59 0 10 59 0 10
59 0 10 60 0 10 60 0 10 60 0 10 60 0 10 60 0 10 60 0 10 60 0 10 61 0
10 61 0 10 61 0 10 61 0 10 61 0 10 61 0 10 61 0 10 62 0 10 62 0 10 62
0 10 62 0 10 62 0 10 62 0 10 62 0 10 63 0 10 63 0 10 63 0 10 63 0 10
63 0 10 63 0 11 63 0 11 64 0 11 64 0 11 64 0 11 64 0 11 64 0 11 64 0
11 64 0 11 65 0 11 65 0 11 65 0 11 65 0 11 65 0 11 65 0 11 65 0 11 66
0 11 66 0 11 66 0 11 66 0 11 66 0 11 66 0 11 66 0 11 67 0 11 67 0 11
67 0 11 67 0 11 67 0 11 67 0 11 67 0 11 67 0 11 68 0 11 68 0 11 68 0
11 68 0 11 68 0 11 68 0 11 68 0 11 68 0 11 68 0 11 69 0 11 69 0 11 69
0 11 69 0 11 69 0 11 69 0 11 69 0 11 69 0 11 69 0 12 69 0 12 70 0 12
70 0 12 70 0 12 70 0 12 70 0 12 70 0 12 70 0 12 70 0 12 70 0 12 70 0
12 70 0 12 71 0 12 71 0 12 71 0 12 71 0 12 71 0 12 71 0 12 71 0 12 71
0 12 71 0 12 71 0 12 71 0 12 71 0 12 71 0 12 71 0 12 71 0 12 71 0 12
72 0 12 72 0 12 72 0 12 72 0 12 72 0 12 72 0 12 72 0 12 72 0 12 72 0
12 72 0 12 72 0 12 72 0 12 72 0 12 72 0 12 72 0 12 72 0 12 72 0 12 72
0 12 72 0 12 72 0 12 72 0 12 72 0 12 72 0 12 72 0 12 72 0 12 72 0 12
72 0 12 72 0 12 72 0 12 72 0 12 72 0 12 72 0 12 72 0 12 72 0 12 72 0
12 72 0 12 72 0 12 72 0 12 72 0 12 72 0 12 72 0 12 72 0 12 71 0 12 71
0 12 71 0 12 71 0 12 71 0 12 71 0 12 71 0 12 71 0 12 71 0 12 71 0 12
71 0 12 71 0 12 71 0 12 71 0 12 71 0 12 71 0 12 70 0 12 70 0 12 70 0
12 70 0 12 70 0 12 70 0 12 70 0 12 70 0 12 70 0 12 70 0 12 70 0 12 69
0 12 69 0 12 69 0 11 69 0 11 69 0 11 69 0 11 69 0 11 69 0 11 69 0 11
69 0 11 68 0 11 68 0 11 68 0 11 68 0 11 68 0 11 68 0 11 68 0 11 68 0
11 67 0 11 67 0 11 67 0 11 67 0 11 67 0 11 67 0 11 67 0 11 67 0 11 66
0 11 66 0 11 66 0 11 66 0 11 66 0 11 66 0 11 66 0 11 66 0 11 65 0 11
65 0 11 65 0 11 65 0 11 65 0 11 65 0 11 65 0 11 64 0 11 64 0 11 64 0
11 64 0 11 64 0 11 64 0 11 64 0 11 63 0 11 63 0 10 63 0 10 63 0 10 63
0 10 63 0 10 63 0 10 62 0 10 62 0 10 62 0 10 62 0 10 62 0 10 62 0 10
62 0 10 61 0 10 61 0 10 61 0 10 61 0 10 61 0 10 61 0 10 61 0 10 60 0
10 60 0 10 60 0 10 60 0 10 60 0 10 60 0 10 60 0 10 59 0 10 59 0 10 59
0 10
42 0 7 42 0 7 42 0 7 42 0 7 42 0 7 42 0 7 42 0 7 42 0 7 43 0 7 43 0 7
43 0 7 43 0 7 43 0 7 43 0 7 43 0 7 43 0 7 43 0 7 43 0 7 43 0 7 44 0 7
44 0 7 44 0 7 44 0 7 44 0 7 44 0 7 44 0 7 44 0 7 44 0 7 44 0 7 44 0 7
45 0 7 45 0 7 45 0 7 45 0 7 45 0 7 45 0 7 45 0 7 45 0 8 45 0 8 46 0 8
46 0 8 46 0 8 46 0 8 46 0 8 46 0 8 46 0 8 46 0 8 46 0 8 46 0 8 47 0 8
47 0 8 47 0 8 47 0 8 47 0 8 47 0 8 47 0 8 47 0 8 47 0 8 48 0 8 48 0 8
48 0 8 48 0 8 48 0 8 48 0 8 48 0 8 48 0 8 48 0 8 49 0 8 49 0 8 49 0 8
49 0 8 49 0 8 49 0 8 49 0 8 49 0 8 50 0 8 50 0 8 50 0 8 50 0 8 50 0 8
50 0 8 50 0 8 50 0 8 50 0 8 51 0 8 51 0 8 51 0 8 51 0 8 51 0 8 51 0 8
51 0 9 51 0 9 52 0 9 52 0 9 52 0 9 52 0 9 52 0 9 52 0 9 52 0 9 52 0 9
53 0 9 53 0 9 53 0 9 53 0 9 53 0 9 53 0 9 53 0 9 54 0 9 54 0 9 54 0 9
54 0 9 54 0 9 54 0 9 54 0 9 54 0 9 55 0 9 55 0 9 55 0 9 55 0 9 55 0 9
55 0 9 55 0 9 56 0 9 56 0 9 56 0 9 56 0 9 56 0 9 56 0 9 56 0 9 57 0 9
57 0 9 57 0 9 57 0 9 57 0 9 57 0 9 57 0 10 58 0 10 58 0 10 58 0 10 58
0 10 58 0 10 58 0 10 58 0 10 59 0 10 59 0 10 59 0 10 59 0 10 59 0 10
59 0 10 59 0 10 60 0 10 60 0 10 60 0 10 60 0 10 60 0 10 60 0 10 60 0
10 61 0 10 61 0 10 61 0 10 61 0 10 61 0 10 61 0 10 61 0 10 62 0 10 62
0 10 62 0 10 62 0 10 62 0 10 62 0 10 62 0 10 62 0 10 63 0 10 63 0 10
63 0 10 63 0 10 63 0 10 63 0 11 63 0 11 64 0 11 64 0 11 64 0 11 64 0
11 64 0 11 64 0 11 64 0 11 65 0 11 65 0 11 65 0 11 65 0 11 65 0 11 65
0 11 65 0 11 65 0 11 66 0 11 66 0 11 66 0 11 66 0 11 66 0 11 66 0 11
66 0 11 66 0 11 67 0 11 67 0 11 67 0 11 67 0 11 67 0 11 67 0 11 67 0
11 67 0 11 68 0 11 68 0 11 68 0 11 68 0 11 68 0 11 68 0 11 68 0 11 68
0 11 68 0 11 69 0 11 69 0 11 69 0 11 69 0 11 69 0 11 69 0 11 69 0 11
69 0 11 69 0 11 69 0 12 69 0 12 70 0 12 70 0 12 70 0 12 70 0 12 70 0
12 70 0 12 70 0 12 70 0 12 70 0 12 70 0 12 70 0 12 70 0 12 70 0 12 71
0 12 71 0 12 71 0 12 71 0 12 71 0 12 71 0 12 71 0 12 71 0 12 71 0 12
71 0 12 71 0 12 71 0 12 71 0 12 71 0 12 71 0 12 71 0 12 71 0 12 71 0
12 71 0 12 71 0 12 71 0 12 71 0 12 71 0 12 71 0 12 71 0 12 71 0 12 71
0 12 71 0 12 71 0 12 71 0 12 71 0 12 71 0 12 71 0 12 71 0 12 71 0 12
71 0 12 71 0 12 71 0 12 71 0 12 71 0 12 71 0 12 71 0 12 71 0 12 71 0
12 71 0 12 71 0 12 71 0 12 71 0 12 71 0 12 71 0 12 71 0 12 71 0 12 71
0 12 71 0 12 71 0 12 71 0 12 71 0 12 71 0 12 71 0 12 71 0 12 71 0 12
70 0 12 70 0 12 70 0 12 70 0 12 70 0 12 70 0 12 70 0 12 70 0 12 70 0
12 70 0 12 70 0 12 70 0 12 70 0 12 69 0 12 69 0 12 69 0 11 69 0 11 69
0 11 69 0 11 69 0 11 69 0 11 69 0 11 69 0 11 68 0 11 68 0 11 68 0 11
68 0 11 68 0 11 68 0 11 68 0 11 68 0 11 68 0 11 68 0 11 67 0 11 67 0
11 67 0 11 67 0 11 67 0 11 67 0 11 67 0 11 67 0 11 66 0 11 66 0 11 66
0 11 66 0 11 66 0 11 66 0 11 66 0 11 66 0 11 65 0 11 65 0 11 65 0 11
65 0 11 65 0 11 65 0 11 65 0 11 65 0 11 64 0 11 64 0 11 64 0 11 64 0
11 64 0 11 64 0 11 64 0 11 63 0 11 63 0 10 63 0 10 63 0 10 63 0 10 63
0 10 63 0 10 62 0 10 62 0 10 62 0 10 62 0 10 62 0 10 62 0 10 62 0 10
61 0 10 61 0 10 61 0 10 61 0 10 61 0 10 61 0 10 61 0 10 60 0 10 60 0
10 60 0 10 60 0 10 60 0 10 60 0 10 60 0 10 59 0 10 59 0 10 59 0 10 59
0 10
42 0 7 42 0 7 42 0 7 42 0 7 42 0 7 42 0 7 42 0 7 42 0 7 43 0 7 43 0 7
43 0 7 43 0 7 43 0 7 43 0 7 43 0 7 43 0 7 43 0 7 43 0 7 43 0 7 44 0 7
44 0 7 44 0 7 44 0 7 44 0 7 44 0 7 44 0 7 44 0 7 44 0 7 44 0 7 45 0 7
45 0 7 45 0 7 45 0 7 45 0 7 45 0 7 45 0 7 45 0 8 45 0 8 45 0 8 46 0 8
46 0 8 46 0 8 46 0 8 46 0 8 46 0 8 46 0 8 46 0 8 46 0 8 46 0 8 47 0 8
47 0 8 47 0 8 47 0 8 47 0 8 47 0 8 47 0 8 47 0 8 47 0 8 48 0 8 48 0 8
48 0 8 48 0 8 48 0 8 48 0 8 48 0 8 48 0 8 48 0 8 49 0 8 49 0 8 49 0 8
49 0 8 49 0 8 49 0 8 49 0 8 49 0 8 49 0 8 50 0 8 50 0 8 50 0 8 50 0 8
50 0 8 50 0 8 50 0 8 50 0 8 51 0 8 51 0 8 51 0 8 51 0 8 51 0 8 51 0 8
51 0 9 51 0 9 52 0 9 52 0 9 52 0 9 52 0 9 52 0 9 52 0 9 52 0 9 52 0 9
53 0 9 53 0 9 53 0 9 53 0 9 53 0 9 53 0 9 53 0 9 53 0 9 54 0 9 54 0 9
54 0 9 54 0 9 54 0 9 54 0 9 54 0 9 55 0 9 55 0 9 55 0 9 55 0 9 55 0 9
55 0 9 55 0 9 55 0 9 56 0 9 56 0 9 56 0 9 56 0 9 56 0 9 56 0 9 56 0 9
57 0 9 57 0 9 57 0 9 57 0 9 57 0 9 57 0 9 57 0 10 57 0 10 58 0 10 58 0
10 58 0 10 58 0 10 58 0 10 58 0 10 58 0 10 59 0 10 59 0 10 59 0 10 59
0 10 59 0 10 59 0 10 59 0 10 60 0 10 60 0 10 60 0 10 60 0 10 60 0 10
60 0 10 60 0 10 61 0 10 61 0 10 61 0 10 61 0 10 61 0 10 61 0 10 61 0
10 62 0 10 62 0 10 62 0 10 62 0 10 62 0 10 62 0 10 62 0 10 62 0 10 63
0 10 63 0 10 63 0 10 63 0 10 63 0 10 63 0 10 63 0 11 64 0 11 64 0 11
64 0 11 64 0 11 64 0 11 64 0 11 64 0 11 64 0 11 65 0 11 65 0 11 65 0
11 65 0 11 65 0 11 65 0 11 65 0 11 65 0 11 66 0 11 66 0 11 66 0 11 66
0 11 66 0 11 66 0 11 66 0 11 66 0 11 67 0 11 67 0 11 67 0 11 67 0 11
67 0 11 67 0 11 67 0 11 67 0 11 67 0 11 68 0 11 68 0 11 68 0 11 68 0
11 68 0 11 68 0 11 68 0 11 68 0 11 68 0 11 68 0 11 69 0 11 69 0 11 69
0 11 69 0 11 69 0 11 69 0 11 69 0 11 69 0 11 69 0 11 69 0 11 69 0 12
69 0 12 70 0 12 70 0 12 70 0 12 70 0 12 70 0 12 70 0 12 70 0 12 70 0
12 70 0 12 70 0 12 70 0 12 70 0 12 70 0 12 70 0 12 70 0 12 70 0 12 70
0 12 71 0 12 71 0 12 71 0 12 71 0 12 71 0 12 71 0 12 71 0 12 71 0 12
71 0 12 71 0 12 71 0 12 71 0 12 71 0 12 71 0 12 71 0 12 71 0 12 71 0
12 71 0 12 71 0 12 71 0 12 71 0 12 71 0 12 71 0 12 71 0 12 71 0 12 71
0 12 71 0 12 71 0 12 71 0 12 71 0 12 71 0 12 71 0 12 71 0 12 71 0 12
71 0 12 71 0 12 71 0 12 71 0 12 71 0 12 71 0 12 71 0 12 71 0 12 70 0
12 70 0 12 70 0 12 70 0 12 70 0 12 70 0 12 70 0 12 70 0 12 70 0 12 70
0 12 70 0 12 70 0 12 70 0 12 70 0 12 70 0 12 70 0 12 70 0 12 69 0 12
69 0 12 69 0 11 69 0 11 69 0 11 69 0 11 69 0 11 69 0 11 69 0 11 69 0
11 69 0 11 69 0 11 68 0 11 68 0 11 68 0 11 68 0 11 68 0 11 68 0 11 68
0 11 68 0 11 68 0 11 68 0 11 67 0 11 67 0 11 67 0 11 67 0 11 67 0 11
67 0 11 67 0 11 67 0 11 67 0 11 66 0 11 66 0 11 66 0 11 66 0 11 66 0
11 66 0 11 66 0 11 66 0 11 65 0 11 65 0 11 65 0 11 65 0 11 65 0 11 65
0 11 65 0 11 65 0 11 64 0 11 64 0 11 64 0 11 64 0 11 64 0 11 64 0 11
64 0 11 64 0 11 63 0 11 63 0 10 63 0 10 63 0 10 63 0 10 63 0 10 63 0
10 62 0 10 62 0 10 62 0 10 62 0 10 62 0 10 62 0 10 62 0 10 62 0 10 61
0 10 61 0 10 61 0 10 61 0 10 61 0 10 61 0 10 61 0 10 60 0 10 60 0 10
60 0 10 60 0 10 60 0 10 60 0 10 60 0 10 59 0 10 59 0 10 59 0 10 59 0
10
42 0 7 42 0 7 42 0 7 42 0 7 42 0 7 42 0 7 42 0 7 43 0 7 43 0 7 43 0 7
43 0 7 43 0 7 43 0 7 43 0 7 43 0 7 43 0 7 43 0 7 43 0 7 44 0 7 44 0 7
44 0 7 44 0 7 44 0 7 44 0 7 44 0 7 44 0 7 44 0 7 44 0 7 44 0 7 45 0 7
45 0 7 45 0 7 45 0 7 45 0 7 45 0 7 45 0 7 45 0 8 45 0 8 45 0 8 46 0 8
46 0 8 46 0 8 46 0 8 46 0 8 46 0 8 46 0 8 46 0 8 46 0 8 47 0 8 47 0 8
47 0 8 47 0 8 47 0 8 47 0 8 47 0 8 47 0 8 47 0 8 47 0 8 48 0 8 48 0 8
48 0 8 48 0 8 48 0 8 48 0 8 48 0 8 48 0 8 48 0 8 49 0 8 49 0 8 49 0 8
49 0 8 49 0 8 49 0 8 49 0 8 49 0 8 49 0 8 50 0 8 50 0 8 50 0 8 50 0 8
50 0 8 50 0 8 50 0 8 50 0 8 51 0 8 51 0 8 51 0 8 51 0 8 51 0 8 51 0 8
51 0 9 51 0 9 51 0 9 52 0 9 52 0 9 52 0 9 52 0 9 52 0 9 52 0 9 52 0 9
52 0 9 53 0 9 53 0 9 53 0 9 53 0 9 53 0 9 53 0 9 53 0 9 54 0 9 54 0 9
54 0 9 54 0 9 54 0 9 54 0 9 54 0 9 54 0 9 55 0 9 55 0 9 55 0 9 55 0 9
55 0 9 55 0 9 55 0 9 55 0 9 56 0 9 56 0 9 56 0 9 56 0 9 56 0 9 56 0 9
56 0 9 57 0 9 57 0 9 57 0 9 57 0 9 57 0 9 57 0 9 57 0 10 57 0 10 58 0
10 58 0 10 58 0 10 58 0 10 58 0 10 58 0 10 58 0 10 59 0 10 59 0 10 59
0 10 59 0 10 59 0 10 59 0 10 59 0 10 59 0 10 60 0 10 60 0 10 60 0 10
60 0 10 60 0 10 60 0 10 60 0 10 61 0 10 61 0 10 61 0 10 61 0 10 61 0
10 61 0 10 61 0 10 62 0 10 62 0 10 62 0 10 62 0 10 62 0 10 62 0 10 62
0 10 62 0 10 63 0 10 63 0 10 63 0 10 63 0 10 63 0 10 63 0 10 63 0 11
63 0 11 64 0 11 64 0 11 64 0 11 64 0 11 64 0 11 64 0 11 64 0 11 65 0
11 65 0 11 65 0 11 65 0 11 65 0 11 65 0 11 65 0 11 65 0 11 65 0 11 66
0 11 66 0 11 66 0 11 66 0 11 66 0 11 66 0 11 66 0 11 66 0 11 66 0 11
67 0 11 67 0 11 67 0 11 67 0 11 67 0 11 67 0 11 67 0 11 67 0 11 67 0
11 68 0 11 68 0 11 68 0 11 68 0 11 68 0 11 68 0 11 68 0 11 68 0 11 68
0 11 68 0 11 68 0 11 69 0 11 69 0 11 69 0 11 69 0 11 69 0 11 69 0 11
69 0 11 69 0 11 69 0 11 69 0 11 69 0 11 69 0 11 69 0 12 69 0 12 70 0
12 70 0 12 70 0 12 70 0 12 70 0 12 70 0 12 70 0 12 70 0 12 70 0 12 70
0 12 70 0 12 70 0 12 70 0 12 70 0 12 70 0 12 70 0 12 70 0 12 70 0 12
70 0 12 70 0 12 70 0 12 70 0 12 70 0 12 70 0 12 70 0 12 70 0 12 70 0
12 70 0 12 70 0 12 70 0 12 70 0 12 70 0 12 70 0 12 70 0 12 70 0 12 70
0 12 70 0 12 70 0 12 70 0 12 70 0 12 70 0 12 70 0 12 70 0 12 70 0 12
70 0 12 70 0 12 70 0 12 70 0 12 70 0 12 70 0 12 70 0 12 70 0 12 70 0
12 70 0 12 70 0 12 70 0 12 70 0 12 70 0 12 70 0 12 70 0 12 70 0 12 70
0 12 70 0 12 69 0 12 69 0 12 69 0 12 69 0 11 69 0 11 69 0 11 69 0 11
69 0 11 69 0 11 69 0 11 69 0 11 69 0 11 69 0 11 69 0 11 68 0 11 68 0
11 68 0 11 68 0 11 68 0 11 68 0 11 68 0 11 68 0 11 68 0 11 68 0 11 68
0 11 67 0 11 67 0 11 67 0 11 67 0 11 67 0 11 67 0 11 67 0 11 67 0 11
67 0 11 67 0 11 66 0 11 66 0 11 66 0 11 66 0 11 66 0 11 66 0 11 66 0
11 66 0 11 65 0 11 65 0 11 65 0 11 65 0 11 65 0 11 65 0 11 65 0 11 65
0 11 65 0 11 64 0 11 64 0 11 64 0 11 64 0 11 64 0 11 64 0 11 64 0 11
64 0 11 63 0 11 63 0 10 63 0 10 63 0 10 63 0 10 63 0 10 63 0 10 62 0
10 62 0 10 62 0 10 62 0 10 62 0 10 62 0 10 62 0 10 62 0 10 61 0 10 61
0 10 61 0 10 61 0 10 61 0 10 61 0 10 61 0 10 60 0 10 60 0 10 60 0 10
60 0 10 60 0 10 60 0 10 60 0 10 60 0 10 59 0 10 59 0 10 59 0 10 59 0
10
42 0 7 42 0 7 42 0 7 42 0 7 42 0 7 42 0 7 43 0 7 43 0 7 43 0 7 43 0 7
43 0 7 43 0 7 43 0 7 43 0 7 43 0 7 43 0 7 43 0 7 43 0 7 44 0 7 44 0 7
44 0 7 44 0 7 44 0 7 44 0 7 44 0 7 44 0 7 44 0 7 44 0 7 45 0 7 45 0 7
45 0 7 45 0 7 45 0 7 45 0 7 45 0 7 45 0 7 45 0 8 45 0 8 46 0 8 46 0 8
46 0 8 46 0 8 46 0 8 46 0 8 46 0 8 46 0 8 46 0 8 46 0 8 47 0 8 47 0 8
47 0 8 47 0 8 47 0 8 47 0 8 47 0 8 47 0 8 47 0 8 47 0 8 48 0 8 48 0 8
48 0 8 48 0 8 48 0 8 48 0 8 48 0 8 48 0 8 48 0 8 49 0 8 49 0 8 49 0 8
49 0 8 49 0 8 49 0 8 49 0 8 49 0 8 49 0 8 50 0 8 50 0 8 50 0 8 50 0 8
50 0 8 50 0 8 50 0 8 50 0 8 50 0 8 51 0 8 51 0 8 51 0 8 51 0 8 51 0 8
51 0 8 51 0 9 51 0 9 52 0 9 52 0 9 52 0 9 52 0 9 52 0 9 52 0 9 52 0 9
52 0 9 53 0 9 53 0 9 53 0 9 53 0 9 53 0 9 53 0 9 53 0 9 53 0 9 54 0 9
54 0 9 54 0 9 54 0 9 54 0 9 54 0 9 54 0 9 54 0 9 55 0 9 55 0 9 55 0 9
55 0 9 55 0 9 55 0 9 55 0 9 55 0 9 56 0 9 56 0 9 56 0 9 56 0 9 56 0 9
56 0 9 56 0 9 56 0 9 57 0 9 57 0 9 57 0 9 57 0 9 57 0 9 57 0 10 57 0
10 58 0 10 58 0 10 58 0 10 58 0 10 58 0 10 58 0 10 58 0 10 58 0 10 59
0 10 59 0 10 59 0 10 59 0 10 59 0 10 59 0 10 59 0 10 60 0 10 60 0 10
60 0 10 60 0 10 60 0 10 60 0 10 60 0 10 60 0 10 61 0 10 61 0 10 61 0
10 61 0 10 61 0 10 61 0 10 61 0 10 62 0 10 62 0 10 62 0 10 62 0 10 62
0 10 62 0 10 62 0 10 62 0 10 63 0 10 63 0 10 63 0 10 63 0 10 63 0 10
63 0 10 63 0 10 63 0 11 64 0 11 64 0 11 64 0 11 64 0 11 64 0 11 64 0
11 64 0 11 64 0 11 65 0 11 65 0 11 65 0 11 65 0 11 65 0 11 65 0 11 65
0 11 65 0 11 65 0 11 66 0 11 66 0 11 66 0 11 66 0 11 66 0 11 66 0 11
66 0 11 66 0 11 66 0 11 67 0 11 67 0 11 67 0 11 67 0 11 67 0 11 67 0
11 67 0 11 67 0 11 67 0 11 67 0 11 67 0 11 68 0 11 68 0 11 68 0 11 68
0 11 68 0 11 68 0 11 68 0 11 68 0 11 68 0 11 68 0 11 68 0 11 68 0 11
69 0 11 69 0 11 69 0 11 69 0 11 69 0 11 69 0 11 69 0 11 69 0 11 69 0
11 69 0 11 69 0 11 69 0 11 69 0 11 69 0 11 69 0 12 69 0 12 69 0 12 69
0 12 70 0 12 70 0 12 70 0 12 70 0 12 70 0 12 70 0 12 70 0 12 70 0 12
70 0 12 70 0 12 70 0 12 70 0 12 70 0 12 70 0 12 70 0 12 70 0 12 70 0
12 70 0 12 70 0 12 70 0 12 70 0 12 70 0 12 70 0 12 70 0 12 70 0 12 70
0 12 70 0 12 70 0 12 70 0 12 70 0 12 70 0 12 70 0 12 70 0 12 70 0 12
70 0 12 70 0 12 70 0 12 70 0 12 70 0 12 70 0 12 70 0 12 70 0 12 70 0
12 70 0 12 70 0 12 69 0 12 69 0 12 69 0 12 69 0 11 69 0 11 69 0 11 69
0 11 69 0 11 69 0 11 69 0 11 69 0 11 69 0 11 69 0 11 69 0 11 69 0 11
69 0 11 69 0 11 68 0 11 68 0 11 68 0 11 68 0 11 68 0 11 68 0 11 68 0
11 68 0 11 68 0 11 68 0 11 68 0 11 68 0 11 68 0 11 67 0 11 67 0 11 67
0 11 67 0 11 67 0 11 67 0 11 67 0 11 67 0 11 67 0 11 67 0 11 66 0 11
66 0 11 66 0 11 66 0 11 66 0 11 66 0 11 66 0 11 66 0 11 66 0 11 65 0
11 65 0 11 65 0 11 65 0 11 65 0 11 65 0 11 65 0 11 65 0 11 65 0 11 64
0 11 64 0 11 64 0 11 64 0 11 64 0 11 64 0 11 64 0 11 64 0 11 63 0 11
63 0 11 63 0 10 63 0 10 63 0 10 63 0 10 63 0 10 63 0 10 62 0 10 62 0
10 62 0 10 62 0 10 62 0 10 62 0 10 62 0 10 62 0 10 61 0 10 61 0 10 61
0 10 61 0 10 61 0 10 61 0 10 61 0 10 61 0 10 60 0 10 60 0 10 60 0 10
60 0 10 60 0 10 60 0 10 60 0 10 59 0 10 59 0 10 59 0 10 59 0 10 59 0
10
42 0 7 42 0 7 42 0 7 42 0 7 42 0 7 42 0 7 43 0 7 43 0 7 43 0 7 43 0 7
43 0 7 43 0 7 43 0 7 43 0 7 43 0 7 43 0 7 43 0 7 44 0 7 44 0 7 44 0 7
44 0 7 44 0 7 44 0 7 44 0 7 44 0 7 44 0 7 44 0 7 44 0 7 45 0 7 45 0 7
45 0 7 45 0 7 45 0 7 45 0 7 45 0 7 45 0 8 45 0 8 45 0 8 46 0 8 46 0 8
46 0 8 46 0 8 46 0 8 46 0 8 46 0 8 46 0 8 46 0 8 46 0 8 47 0 8 47 0 8
47 0 8 47 0 8 47 0 8 47 0 8 47 0 8 47 0 8 47 0 8 47 0 8 48 0 8 48 0 8
48 0 8 48 0 8 48 0 8 48 0 8 48 0 8 48 0 8 48 0 8 49 0 8 49 0 8 49 0 8
49 0 8 49 0 8 49 0 8 49 0 8 49 0 8 49 0 8 50 0 8 50 0 8 50 0 8 50 0 8
50 0 8 50 0 8 50 0 8 50 0 8 50 0 8 51 0 8 51 0 8 51 0 8 51 0 8 51 0 8
51 0 8 51 0 9 51 0 9 52 0 9 52 0 9 52 0 9 52 0 9 52 0 9 52 0 9 52 0 9
52 0 9 52 0 9 53 0 9 53 0 9 53 0 9 53 0 9 53 0 9 53 0 9 53 0 9 53 0 9
54 0 9 54 0 9 54 0 9 54 0 9 54 0 9 54 0 9 54 0 9 54 0 9 55 0 9 55 0 9
55 0 9 55 0 9 55 0 9 55 0 9 55 0 9 55 0 9 56 0 9 56 0 9 56 0 9 56 0 9
56 0 9 56 0 9 56 0 9 56 0 9 57 0 9 57 0 9 57 0 9 57 0 9 57 0 9 57 0 9
57 0 10 58 0 10 58 0 10 58 0 10 58 0 10 58 0 10 58 0 10 58 0 10 58 0
10 59 0 10 59 0 10 59 0 10 59 0 10 59 0 10 59 0 10 59 0 10 59 0 10 60
0 10 60 0 10 60 0 10 60 0 10 60 0 10 60 0 10 60 0 10 60 0 10 61 0 10
61 0 10 61 0 10 61 0 10 61 0 10 61 0 10 61 0 10 61 0 10 62 0 10 62 0
10 62 0 10 62 0 10 62 0 10 62 0 10 62 0 10 62 0 10 63 0 10 63 0 10 63
0 10 63 0 10 63 0 10 63 0 10 63 0 11 63 0 11 64 0 11 64 0 11 64 0 11
64 0 11 64 0 11 64 0 11 64 0 11 64 0 11 64 0 11 65 0 11 65 0 11 65 0
11 65 0 11 65 0 11 65 0 11 65 0 11 65 0 11 65 0 11 66 0 11 66 0 11 66
0 11 66 0 11 66 0 11 66 0 11 66 0 11 66 0 11 66 0 11 66 0 11 67 0 11
67 0 11 67 0 11 67 0 11 67 0 11 67 0 11 67 0 11 67 0 11 67 0 11 67 0
11 67 0 11 68 0 11 68 0 11 68 0 11 68 0 11 68 0 11 68 0 11 68 0 11 68
0 11 68 0 11 68 0 11 68 0 11 68 0 11 68 0 11 68 0 11 69 0 11 69 0 11
69 0 11 69 0 11 69 0 11 69 0 11 69 0 11 69 0 11 69 0 11 69 0 11 69 0
11 69 0 11 69 0 11 69 0 11 69 0 11 69 0 11 69 0 11 69 0 11 69 0 11 69
0 11 69 0 12 69 0 12 69 0 12 69 0 12 69 0 12 69 0 12 69 0 12 69 0 12
69 0 12 69 0 12 70 0 12 70 0 12 70 0 12 70 0 12 70 0 12 70 0 12 70 0
12 70 0 12 69 0 12 69 0 12 69 0 12 69 0 12 69 0 12 69 0 12 69 0 12 69
0 12 69 0 12 69 0 12 69 0 11 69 0 11 69 0 11 69 0 11 69 0 11 69 0 11
69 0 11 69 0 11 69 0 11 69 0 11 69 0 11 69 0 11 69 0 11 69 0 11 69 0
11 69 0 11 69 0 11 69 0 11 69 0 11 68 0 11 68 0 11 68 0 11 68 0 11 68
0 11 68 0 11 68 0 11 68 0 11 68 0 11 68 0 11 68 0 11 68 0 11 68 0 11
68 0 11 68 0 11 67 0 11 67 0 11 67 0 11 67 0 11 67 0 11 67 0 11 67 0
11 67 0 11 67 0 11 67 0 11 67 0 11 66 0 11 66 0 11 66 0 11 66 0 11 66
0 11 66 0 11 66 0 11 66 0 11 66 0 11 66 0 11 65 0 11 65 0 11 65 0 11
65 0 11 65 0 11 65 0 11 65 0 11 65 0 11 65 0 11 64 0 11 64 0 11 64 0
11 64 0 11 64 0 11 64 0 11 64 0 11 64 0 11 64 0 11 63 0 11 63 0 10 63
0 10 63 0 10 63 0 10 63 0 10 63 0 10 63 0 10 62 0 10 62 0 10 62 0 10
62 0 10 62 0 10 62 0 10 62 0 10 62 0 10 61 0 10 61 0 10 61 0 10 61 0
10 61 0 10 61 0 10 61 0 10 61 0 10 60 0 10 60 0 10 60 0 10 60 0 10 60
0 10 60 0 10 60 0 10 60 0 10 59 0 10 59 0 10 59 0 10 59 0 10 59 0 10
42 0 7 42 0 7 42 0 7 42 0 7 42 0 7 43 0 7 43 0 7 43 0 7 43 0 7 43 0 7
43 0 7 43 0 7 43 0 7 43 0 7 43 0 7 43 0 7 43 0 7 44 0 7 44 0 7 44 0 7
44 0 7 44 0 7 44 0 7 44 0 7 44 0 7 44 0 7 44 0 7 45 0 7 45 0 7 45 0 7
45 0 7 45 0 7 45 0 7 45 0 7 45 0 7 45 0 8 45 0 8 45 0 8 46 0 8 46 0 8
46 0 8 46 0 8 46 0 8 46 0 8 46 0 8 46 0 8 46 0 8 46 0 8 47 0 8 47 0 8
47 0 8 47 0 8 47 0 8 47 0 8 47 0 8 47 0 8 47 0 8 47 0 8 48 0 8 48 0 8
48 0 8 48 0 8 48 0 8 48 0 8 48 0 8 48 0 8 48 0 8 49 0 8 49 0 8 49 0 8
49 0 8 49 0 8 49 0 8 49 0 8 49 0 8 49 0 8 50 0 8 50 0 8 50 0 8 50 0 8
50 0 8 50 0 8 50 0 8 50 0 8 50 0 8 51 0 8 51 0 8 51 0 8 51 0 8 51 0 8
51 0 8 51 0 8 51 0 9 51 0 9 52 0 9 52 0 9 52 0 9 52 0 9 52 0 9 52 0 9
52 0 9 52 0 9 52 0 9 53 0 9 53 0 9 53 0 9 53 0 9 53 0 9 53 0 9 53 0 9
53 0 9 54 0 9 54 0 9 54 0 9 54 0 9 54 0 9 54 0 9 54 0 9 54 0 9 55 0 9
55 0 9 55 0 9 55 0 9 55 0 9 55 0 9 55 0 9 55 0 9 56 0 9 56 0 9 56 0 9
56 0 9 56 0 9 56 0 9 56 0 9 56 0 9 57 0 9 57 0 9 57 0 9 57 0 9 57 0 9
57 0 9 57 0 10 57 0 10 58 0 10 58 0 10 58 0 10 58 0 10 58 0 10 58 0 10
58 0 10 58 0 10 59 0 10 59 0 10 59 0 10 59 0 10 59 0 10 59 0 10 59 0
10 59 0 10 60 0 10 60 0 10 60 0 10 60 0 10 60 0 10 60 0 10 60 0 10 60
0 10 61 0 10 61 0 10 61 0 10 61 0 10 61 0 10 61 0 10 61 0 10 61 0 10
62 0 10 62 0 10 62 0 10 62 0 10 62 0 10 62 0 10 62 0 10 62 0 10 63 0
10 63 0 10 63 0 10 63 0 10 63 0 10 63 0 10 63 0 10 63 0 11 63 0 11 64
0 11 64 0 11 64 0 11 64 0 11 64 0 11 64 0 11 64 0 11 64 0 11 64 0 11
65 0 11 65 0 11 65 0 11 65 0 11 65 0 11 65 0 11 65 0 11 65 0 11 65 0
11 65 0 11 66 0 11 66 0 11 66 0 11 66 0 11 66 0 11 66 0 11 66 0 11 66
0 11 66 0 11 66 0 11 67 0 11 67 0 11 67 0 11 67 0 11 67 0 11 67 0 11
67 0 11 67 0 11 67 0 11 67 0 11 67 0 11 67 0 11 67 0 11 68 0 11 68 0
11 68 0 11 68 0 11 68 0 11 68 0 11 68 0 11 68 0 11 68 0 11 68 0 11 68
0 11 68 0 11 68 0 11 68 0 11 68 0 11 68 0 11 68 0 11 68 0 11 69 0 11
69 0 11 69 0 11 69 0 11 69 0 11 69 0 11 69 0 11 69 0 11 69 0 11 69 0
11 69 0 11 69 0 11 69 0 11 69 0 11 69 0 11 69 0 11 69 0 11 69 0 11 69
0 11 69 0 11 69 0 11 69 0 11 69 0 11 69 0 11 69 0 11 69 0 11 69 0 11
69 0 11 69 0 11 69 0 11 69 0 11 69 0 11 69 0 11 69 0 11 69 0 11 69 0
11 69 0 11 69 0 11 69 0 11 69 0 11 69 0 11 69 0 11 69 0 11 69 0 11 69
0 11 69 0 11 69 0 11 69 0 11 69 0 11 68 0 11 68 0 11 68 0 11 68 0 11
68 0 11 68 0 11 68 0 11 68 0 11 68 0 11 68 0 11 68 0 11 68 0 11 68 0
11 68 0 11 68 0 11 68 0 11 68 0 11 68 0 11 67 0 11 67 0 11 67 0 11 67
0 11 67 0 11 67 0 11 67 0 11 67 0 11 67 0 11 67 0 11 67 0 11 67 0 11
67 0 11 66 0 11 66 0 11 66 0 11 66 0 11 66 0 11 66 0 11 66 0 11 66 0
11 66 0 11 66 0 11 65 0 11 65 0 11 65 0 11 65 0 11 65 0 11 65 0 11 65
0 11 65 0 11 65 0 11 65 0 11 64 0 11 64 0 11 64 0 11 64 0 11 64 0 11
64 0 11 64 0 11 64 0 11 64 0 11 63 0 11 63 0 11 63 0 10 63 0 10 63 0
10 63 0 10 63 0 10 63 0 10 63 0 10 62 0 10 62 0 10 62 0 10 62 0 10 62
0 10 62 0 10 62 0 10 62 0 10 61 0 10 61 0 10 61 0 10 61 0 10 61 0 10
61 0 10 61 0 10 61 0 10 60 0 10 60 0 10 60 0 10 60 0 10 60 0 10 60 0
10 60 0 10 60 0 10 59 0 10 59 0 10 59 0 10 59 0 10 59 0 10 59 0 10
42 0 7 42 0 7 42 0 7 42 0 7 43 0 7 43 0 7 43 0 7 43 0 7 43 0 7 43 0 7
43 0 7 43 0 7 43 0 7 43 0 7 43 0 7 43 0 7 44 0 7 44 0 7 44 0 7 44 0 7
44 0 7 44 0 7 44 0 7 44 0 7 44 0 7 44 0 7 44 0 7 45 0 7 45 0 7 45 0 7
45 0 7 45 0 7 45 0 7 45 0 7 45 0 7 45 0 8 45 0 8 45 0 8 46 0 8 46 0 8
46 0 8 46 0 8 46 0 8 46 0 8 46 0 8 46 0 8 46 0 8 46 0 8 47 0 8 47 0 8
47 0 8 47 0 8 47 0 8 47 0 8 47 0 8 47 0 8 47 0 8 47 0 8 48 0 8 48 0 8
48 0 8 48 0 8 48 0 8 48 0 8 48 0 8 48 0 8 48 0 8 49 0 8 49 0 8 49 0 8
49 0 8 49 0 8 49 0 8 49 0 8 49 0 8 49 0 8 49 0 8 50 0 8 50 0 8 50 0 8
50 0 8 50 0 8 50 0 8 50 0 8 50 0 8 50 0 8 51 0 8 51 0 8 51 0 8 51 0 8
51 0 8 51 0 8 51 0 9 51 0 9 51 0 9 52 0 9 52 0 9 52 0 9 52 0 9 52 0 9
52 0 9 52 0 9 52 0 9 53 0 9 53 0 9 53 0 9 53 0 9 53 0 9 53 0 9 53 0 9
53 0 9 53 0 9 54 0 9 54 0 9 54 0 9 54 0 9 54 0 9 54 0 9 54 0 9 54 0 9
55 0 9 55 0 9 55 0 9 55 0 9 55 0 9 55 0 9 55 0 9 55 0 9 56 0 9 56 0 9
56 0 9 56 0 9 56 0 9 56 0 9 56 0 9 56 0 9 57 0 9 57 0 9 57 0 9 57 0 9
57 0 9 57 0 9 57 0 9 57 0 10 58 0 10 58 0 10 58 0 10 58 0 10 58 0 10
58 0 10 58 0 10 58 0 10 58 0 10 59 0 10 59 0 10 59 0 10 59 0 10 59 0
10 59 0 10 59 0 10 59 0 10 60 0 10 60 0 10 60 0 10 60 0 10 60 0 10 60
0 10 60 0 10 60 0 10 61 0 10 61 0 10 61 0 10 61 0 10 61 0 10 61 0 10
61 0 10 61 0 10 62 0 10 62 0 10 62 0 10 62 0 10 62 0 10 62 0 10 62 0
10 62 0 10 62 0 10 63 0 10 63 0 10 63 0 10 63 0 10 63 0 10 63 0 10 63
0 10 63 0 11 63 0 11 64 0 11 64 0 11 64 0 11 64 0 11 64 0 11 64 0 11
64 0 11 64 0 11 64 0 11 65 0 11 65 0 11 65 0 11 65 0 11 65 0 11 65 0
11 65 0 11 65 0 11 65 0 11 65 0 11 65 0 11 66 0 11 66 0 11 66 0 11 66
0 11 66 0 11 66 0 11 66 0 11 66 0 11 66 0 11 66 0 11 66 0 11 67 0 11
67 0 11 67 0 11 67 0 11 67 0 11 67 0 11 67 0 11 67 0 11 67 0 11 67 0
11 67 0 11 67 0 11 67 0 11 67 0 11 67 0 11 68 0 11 68 0 11 68 0 11 68
0 11 68 0 11 68 0 11 68 0 11 68 0 11 68 0 11 68 0 11 68 0 11 68 0 11
68 0 11 68 0 11 68 0 11 68 0 11 68 0 11 68 0 11 68 0 11 68 0 11 68 0
11 68 0 11 68 0 11 68 0 11 68 0 11 68 0 11 69 0 11 69 0 11 69 0 11 69
0 11 69 0 11 69 0 11 69 0 11 69 0 11 69 0 11 69 0 11 69 0 11 69 0 11
69 0 11 69 0 11 69 0 11 69 0 11 69 0 11 69 0 11 69 0 11 69 0 11 68 0
11 68 0 11 68 0 11 68 0 11 68 0 11 68 0 11 68 0 11 68 0 11 68 0 11 68
0 11 68 0 11 68 0 11 68 0 11 68 0 11 68 0 11 68 0 11 68 0 11 68 0 11
68 0 11 68 0 11 68 0 11 68 0 11 68 0 11 68 0 11 68 0 11 68 0 11 67 0
11 67 0 11 67 0 11 67 0 11 67 0 11 67 0 11 67 0 11 67 0 11 67 0 11 67
0 11 67 0 11 67 0 11 67 0 11 67 0 11 67 0 11 66 0 11 66 0 11 66 0 11
66 0 11 66 0 11 66 0 11 66 0 11 66 0 11 66 0 11 66 0 11 66 0 11 65 0
11 65 0 11 65 0 11 65 0 11 65 0 11 65 0 11 65 0 11 65 0 11 65 0 11 65
0 11 65 0 11 64 0 11 64 0 11 64 0 11 64 0 11 64 0 11 64 0 11 64 0 11
64 0 11 64 0 11 63 0 11 63 0 11 63 0 10 63 0 10 63 0 10 63 0 10 63 0
10 63 0 10 63 0 10 62 0 10 62 0 10 62 0 10 62 0 10 62 0 10 62 0 10 62
0 10 62 0 10 62 0 10 61 0 10 61 0 10 61 0 10 61 0 10 61 0 10 61 0 10
61 0 10 61 0 10 60 0 10 60 0 10 60 0 10 60 0 10 60 0 10 60 0 10 60 0
10 60 0 10 60 0 10 59 0 10 59 0 10 59 0 10 59 0 10 59 0 10 59 0 10
42 0 7 42 0 7 42 0 7 42 0 7 43 0 7 43 0 7 43 0 7 43 0 7 43 0 7 43 0 7
43 0 7 43 0 7 43 0 7 43 0 7 43 0 7 43 0 7 44 0 7 44 0 7 44 0 7 44 0 7
44 0 7 44 0 7 44 0 7 44 0 7 44 0 7 44 0 7 44 0 7 45 0 7 45 0 7 45 0 7
45 0 7 45 0 7 45 0 7 45 0 7 45 0 7 45 0 8 45 0 8 45 0 8 46 0 8 46 0 8
46 0 8 46 0 8 46 0 8 46 0 8 46 0 8 46 0 8 46 0 8 46 0 8 47 0 8 47 0 8
47 0 8 47 0 8 47 0 8 47 0 8 47 0 8 47 0 8 47 0 8 47 0 8 48 0 8 48 0 8
48 0 8 48 0 8 48 0 8 48 0 8 48 0 8 48 0 8 48 0 8 48 0 8 49 0 8 49 0 8
49 0 8 49 0 8 49 0 8 49 0 8 49 0 8 49 0 8 49 0 8 50 0 8 50 0 8 50 0 8
50 0 8 50 0 8 50 0 8 50 0 8 50 0 8 50 0 8 51 0 8 51 0 8 51 0 8 51 0 8
51 0 8 51 0 8 51 0 8 51 0 9 51 0 9 52 0 9 52 0 9 52 0 9 52 0 9 52 0 9
52 0 9 52 0 9 52 0 9 52 0 9 53 0 9 53 0 9 53 0 9 53 0 9 53 0 9 53 0 9
53 0 9 53 0 9 53 0 9 54 0 9 54 0 9 54 0 9 54 0 9 54 0 9 54 0 9 54 0 9
54 0 9 55 0 9 55 0 9 55 0 9 55 0 9 55 0 9 55 0 9 55 0 9 55 0 9 56 0 9
56 0 9 56 0 9 56 0 9 56 0 9 56 0 9 56 0 9 56 0 9 56 0 9 57 0 9 57 0 9
57 0 9 57 0 9 57 0 9 57 0 9 57 0 10 57 0 10 58 0 10 58 0 10 58 0 10 58
0 10 58 0 10 58 0 10 58 0 10 58 0 10 59 0 10 59 0 10 59 0 10 59 0 10
59 0 10 59 0 10 59 0 10 59 0 10 59 0 10 60 0 10 60 0 10 60 0 10 60 0
10 60 0 10 60 0 10 60 0 10 60 0 10 61 0 10 61 0 10 61 0 10 61 0 10 61
0 10 61 0 10 61 0 10 61 0 10 61 0 10 62 0 10 62 0 10 62 0 10 62 0 10
62 0 10 62 0 10 62 0 10 62 0 10 62 0 10 63 0 10 63 0 10 63 0 10 63 0
10 63 0 10 63 0 10 63 0 10 63 0 11 63 0 11 64 0 11 64 0 11 64 0 11 64
0 11 64 0 11 64 0 11 64 0 11 64 0 11 64 0 11 64 0 11 65 0 11 65 0 11
65 0 11 65 0 11 65 0 11 65 0 11 65 0 11 65 0 11 65 0 11 65 0 11 65 0
11 66 0 11 66 0 11 66 0 11 66 0 11 66 0 11 66 0 11 66 0 11 66 0 11 66
0 11 66 0 11 66 0 11 66 0 11 66 0 11 67 0 11 67 0 11 67 0 11 67 0 11
67 0 11 67 0 11 67 0 11 67 0 11 67 0 11 67 0 11 67 0 11 67 0 11 67 0
11 67 0 11 67 0 11 67 0 11 67 0 11 67 0 11 68 0 11 68 0 11 68 0 11 68
0 11 68 0 11 68 0 11 68 0 11 68 0 11 68 0 11 68 0 11 68 0 11 68 0 11
68 0 11 68 0 11 68 0 11 68 0 11 68 0 11 68 0 11 68 0 11 68 0 11 68 0
11 68 0 11 68 0 11 68 0 11 68 0 11 68 0 11 68 0 11 68 0 11 68 0 11 68
0 11 68 0 11 68 0 11 68 0 11 68 0 11 68 0 11 68 0 11 68 0 11 68 0 11
68 0 11 68 0 11 68 0 11 68 0 11 68 0 11 68 0 11 68 0 11 68 0 11 68 0
11 68 0 11 68 0 11 68 0 11 68 0 11 68 0 11 68 0 11 68 0 11 68 0 11 68
0 11 67 0 11 67 0 11 67 0 11 67 0 11 67 0 11 67 0 11 67 0 11 67 0 11
67 0 11 67 0 11 67 0 11 67 0 11 67 0 11 67 0 11 67 0 11 67 0 11 67 0
11 66 0 11 66 0 11 66 0 11 66 0 11 66 0 11 66 0 11 66 0 11 66 0 11 66
0 11 66 0 11 66 0 11 66 0 11 66 0 11 65 0 11 65 0 11 65 0 11 65 0 11
65 0 11 65 0 11 65 0 11 65 0 11 65 0 11 65 0 11 65 0 11 64 0 11 64 0
11 64 0 11 64 0 11 64 0 11 64 0 11 64 0 11 64 0 11 64 0 11 64 0 11 63
0 11 63 0 11 63 0 10 63 0 10 63 0 10 63 0 10 63 0 10 63 0 10 63 0 10
63 0 10 62 0 10 62 0 10 62 0 10 62 0 10 62 0 10 62 0 10 62 0 10 62 0
10 62 0 10 61 0 10 61 0 10 61 0 10 61 0 10 61 0 10 61 0 10 61 0 10 61
0 10 60 0 10 60 0 10 60 0 10 60 0 10 60 0 10 60 0 10 60 0 10 60 0 10
60 0 10 59 0 10 59 0 10 59 0 10 59 0 10 59 0 10 59 0 10 59 0 10
42 0 7 42 0 7 42 0 7 43 0 7 43 0 7 43 0 7 43 0 7 43 0 7 43 0 7 43 0 7
43 0 7 43 0 7 43 0 7 43 0 7 43 0 7 44 0 7 44 0 7 44 0 7 44 0 7 44 0 7
44 0 7 44 0 7 44 0 7 44 0 7 44 0 7 44 0 7 44 0 7 45 0 7 45 0 7 45 0 7
45 0 7 45 0 7 45 0 7 45 0 7 45 0 8 45 0 8 45 0 8 46 0 8 46 0 8 46 0 8
46 0 8 46 0 8 46 0 8 46 0 8 46 0 8 46 0 8 46 0 8 46 0 8 47 0 8 47 0 8
47 0 8 47 0 8 47 0 8 47 0 8 47 0 8 47 0 8 47 0 8 47 0 8 48 0 8 48 0 8
48 0 8 48 0 8 48 0 8 48 0 8 48 0 8 48 0 8 48 0 8 48 0 8 49 0 8 49 0 8
49 0 8 49 0 8 49 0 8 49 0 8 49 0 8 49 0 8 49 0 8 50 0 8 50 0 8 50 0 8
50 0 8 50 0 8 50 0 8 50 0 8 50 0 8 50 0 8 50 0 8 51 0 8 51 0 8 51 0 8
51 0 8 51 0 8 51 0 8 51 0 8 51 0 9 51 0 9 52 0 9 52 0 9 52 0 9 52 0 9
52 0 9 52 0 9 52 0 9 52 0 9 52 0 9 53 0 9 53 0 9 53 0 9 53 0 9 53 0 9
53 0 9 53 0 9 53 0 9 53 0 9 54 0 9 54 0 9 54 0 9 54 0 9 54 0 9 54 0 9
54 0 9 54 0 9 55 0 9 55 0 9 55 0 9 55 0 9 55 0 9 55 0 9 55 0 9 55 0 9
55 0 9 56 0 9 56 0 9 56 0 9 56 0 9 56 0 9 56 0 9 56 0 9 56 0 9 57 0 9
57 0 9 57 0 9 57 0 9 57 0 9 57 0 9 57 0 9 57 0 10 57 0 10 58 0 10 58 0
10 58 0 10 58 0 10 58 0 10 58 0 10 58 0 10 58 0 10 59 0 10 59 0 10 59
0 10 59 0 10 59 0 10 59 0 10 59 0 10 59 0 10 59 0 10 60 0 10 60 0 10
60 0 10 60 0 10 60 0 10 60 0 10 60 0 10 60 0 10 61 0 10 61 0 10 61 0
10 61 0 10 61 0 10 61 0 10 61 0 10 61 0 10 61 0 10 62 0 10 62 0 10 62
0 10 62 0 10 62 0 10 62 0 10 62 0 10 62 0 10 62 0 10 62 0 10 63 0 10
63 0 10 63 0 10 63 0 10 63 0 10 63 0 10 63 0 10 63 0 10 63 0 11 63 0
11 64 0 11 64 0 11 64 0 11 64 0 11 64 0 11 64 0 11 64 0 11 64 0 11 64
0 11 64 0 11 65 0 11 65 0 11 65 0 11 65 0 11 65 0 11 65 0 11 65 0 11
65 0 11 65 0 11 65 0 11 65 0 11 65 0 11 66 0 11 66 0 11 66 0 11 66 0
11 66 0 11 66 0 11 66 0 11 66 0 11 66 0 11 66 0 11 66 0 11 66 0 11 66
0 11 66 0 11 66 0 11 67 0 11 67 0 11 67 0 11 67 0 11 67 0 11 67 0 11
67 0 11 67 0 11 67 0 11 67 0 11 67 0 11 67 0 11 67 0 11 67 0 11 67 0
11 67 0 11 67 0 11 67 0 11 67 0 11 67 0 11 67 0 11 67 0 11 67 0 11 68
0 11 68 0 11 68 0 11 68 0 11 68 0 11 68 0 11 68 0 11 68 0 11 68 0 11
68 0 11 68 0 11 68 0 11 68 0 11 68 0 11 68 0 11 68 0 11 68 0 11 68 0
11 68 0 11 68 0 11 68 0 11 68 0 11 68 0 11 68 0 11 68 0 11 68 0 11 68
0 11 68 0 11 68 0 11 68 0 11 68 0 11 68 0 11 67 0 11 67 0 11 67 0 11
67 0 11 67 0 11 67 0 11 67 0 11 67 0 11 67 0 11 67 0 11 67 0 11 67 0
11 67 0 11 67 0 11 67 0 11 67 0 11 67 0 11 67 0 11 67 0 11 67 0 11 67
0 11 67 0 11 67 0 11 67 0 11 66 0 11 66 0 11 66 0 11 66 0 11 66 0 11
66 0 11 66 0 11 66 0 11 66 0 11 66 0 11 66 0 11 66 0 11 66 0 11 66 0
11 65 0 11 65 0 11 65 0 11 65 0 11 65 0 11 65 0 11 65 0 11 65 0 11 65
0 11 65 0 11 65 0 11 65 0 11 64 0 11 64 0 11 64 0 11 64 0 11 64 0 11
64 0 11 64 0 11 64 0 11 64 0 11 64 0 11 64 0 11 63 0 11 63 0 11 63 0
10 63 0 10 63 0 10 63 0 10 63 0 10 63 0 10 63 0 10 63 0 10 62 0 10 62
0 10 62 0 10 62 0 10 62 0 10 62 0 10 62 0 10 62 0 10 62 0 10 61 0 10
61 0 10 61 0 10 61 0 10 61 0 10 61 0 10 61 0 10 61 0 10 61 0 10 60 0
10 60 0 10 60 0 10 60 0 10 60 0 10 60 0 10 60 0 10 60 0 10 60 0 10 59
0 10 59 0 10 59 0 10 59 0 10 59 0 10 59 0 10 59 0 10 59 0 10
42 0 7 42 0 7 42 0 7 43 0 7 43 0 7 43 0 7 43 0 7 43 0 7 43 0 7 43 0 7
43 0 7 43 0 7 43 0 7 43 0 7 43 0 7 44 0 7 44 0 7 44 0 7 44 0 7 44 0 7
44 0 7 44 0 7 44 0 7 44 0 7 44 0 7 44 0 7 45 0 7 45 0 7 45 0 7 45 0 7
45 0 7 45 0 7 45 0 7 45 0 7 45 0 8 45 0 8 45 0 8 46 0 8 46 0 8 46 0 8
46 0 8 46 0 8 46 0 8 46 0 8 46 0 8 46 0 8 46 0 8 46 0 8 47 0 8 47 0 8
47 0 8 47 0 8 47 0 8 47 0 8 47 0 8 47 0 8 47 0 8 47 0 8 48 0 8 48 0 8
48 0 8 48 0 8 48 0 8 48 0 8 48 0 8 48 0 8 48 0 8 48 0 8 49 0 8 49 0 8
49 0 8 49 0 8 49 0 8 49 0 8 49 0 8 49 0 8 49 0 8 49 0 8 50 0 8 50 0 8
50 0 8 50 0 8 50 0 8 50 0 8 50 0 8 50 0 8 50 0 8 51 0 8 51 0 8 51 0 8
51 0 8 51 0 8 51 0 8 51 0 8 51 0 9 51 0 9 51 0 9 52 0 9 52 0 9 52 0 9
52 0 9 52 0 9 52 0 9 52 0 9 52 0 9 52 0 9 53 0 9 53 0 9 53 0 9 53 0 9
53 0 9 53 0 9 53 0 9 53 0 9 53 0 9 54 0 9 54 0 9 54 0 9 54 0 9 54 0 9
54 0 9 54 0 9 54 0 9 55 0 9 55 0 9 55 0 9 55 0 9 55 0 9 55 0 9 55 0 9
55 0 9 55 0 9 56 0 9 56 0 9 56 0 9 56 0 9 56 0 9 56 0 9 56 0 9 56 0 9
56 0 9 57 0 9 57 0 9 57 0 9 57 0 9 57 0 9 57 0 9 57 0 10 57 0 10 58 0
10 58 0 10 58 0 10 58 0 10 58 0 10 58 0 10 58 0 10 58 0 10 58 0 10 59
0 10 59 0 10 59 0 10 59 0 10 59 0 10 59 0 10 59 0 10 59 0 10 59 0 10
60 0 10 60 0 10 60 0 10 60 0 10 60 0 10 60 0 10 60 0 10 60 0 10 60 0
10 61 0 10 61 0 10 61 0 10 61 0 10 61 0 10 61 0 10 61 0 10 61 0 10 61
0 10 62 0 10 62 0 10 62 0 10 62 0 10 62 0 10 62 0 10 62 0 10 62 0 10
62 0 10 62 0 10 63 0 10 63 0 10 63 0 10 63 0 10 63 0 10 63 0 10 63 0
10 63 0 10 63 0 11 63 0 11 64 0 11 64 0 11 64 0 11 64 0 11 64 0 11 64
0 11 64 0 11 64 0 11 64 0 11 64 0 11 64 0 11 64 0 11 65 0 11 65 0 11
65 0 11 65 0 11 65 0 11 65 0 11 65 0 11 65 0 11 65 0 11 65 0 11 65 0
11 65 0 11 65 0 11 66 0 11 66 0 11 66 0 11 66 0 11 66 0 11 66 0 11 66
0 11 66 0 11 66 0 11 66 0 11 66 0 11 66 0 11 66 0 11 66 0 11 66 0 11
66 0 11 66 0 11 67 0 11 67 0 11 67 0 11 67 0 11 67 0 11 67 0 11 67 0
11 67 0 11 67 0 11 67 0 11 67 0 11 67 0 11 67 0 11 67 0 11 67 0 11 67
0 11 67 0 11 67 0 11 67 0 11 67 0 11 67 0 11 67 0 11 67 0 11 67 0 11
67 0 11 67 0 11 67 0 11 67 0 11 67 0 11 67 0 11 67 0 11 67 0 11 67 0
11 67 0 11 67 0 11 67 0 11 67 0 11 67 0 11 67 0 11 67 0 11 67 0 11 67
0 11 67 0 11 67 0 11 67 0 11 67 0 11 67 0 11 67 0 11 67 0 11 67 0 11
67 0 11 67 0 11 67 0 11 67 0 11 67 0 11 67 0 11 67 0 11 67 0 11 67 0
11 67 0 11 67 0 11 67 0 11 67 0 11 67 0 11 66 0 11 66 0 11 66 0 11 66
0 11 66 0 11 66 0 11 66 0 11 66 0 11 66 0 11 66 0 11 66 0 11 66 0 11
66 0 11 66 0 11 66 0 11 66 0 11 66 0 11 65 0 11 65 0 11 65 0 11 65 0
11 65 0 11 65 0 11 65 0 11 65 0 11 65 0 11 65 0 11 65 0 11 65 0 11 65
0 11 64 0 11 64 0 11 64 0 11 64 0 11 64 0 11 64 0 11 64 0 11 64 0 11
64 0 11 64 0 11 64 0 11 64 0 11 63 0 11 63 0 11 63 0 10 63 0 10 63 0
10 63 0 10 63 0 10 63 0 10 63 0 10 63 0 10 62 0 10 62 0 10 62 0 10 62
0 10 62 0 10 62 0 10 62 0 10 62 0 10 62 0 10 62 0 10 61 0 10 61 0 10
61 0 10 61 0 10 61 0 10 61 0 10 61 0 10 61 0 10 61 0 10 60 0 10 60 0
10 60 0 10 60 0 10 60 0 10 60 0 10 60 0 10 60 0 10 60 0 10 59 0 10 59
0 10 59 0 10 59 0 10 59 0 10 59 0 10 59 0 10 59 0 10 59 0 10
42 0 7 42 0 7 43 0 7 43 0 7 43 0 7 43 0 7 43 0 7 43 0 7 43 0 7 43 0 7
43 0 7 43 0 7 43 0 7 43 0 7 44 0 7 44 0 7 44 0 7 44 0 7 44 0 7 44 0 7
44 0 7 44 0 7 44 0 7 44 0 7 44 0 7 44 0 7 45 0 7 45 0 7 45 0 7 45 0 7
45 0 7 45 0 7 45 0 7 45 0 7 45 0 8 45 0 8 45 0 8 46 0 8 46 0 8 46 0 8
46 0 8 46 0 8 46 0 8 46 0 8 46 0 8 46 0 8 46 0 8 46 0 8 47 0 8 47 0 8
47 0 8 47 0 8 47 0 8 47 0 8 47 0 8 47 0 8 47 0 8 47 0 8 48 0 8 48 0 8
48 0 8 48 0 8 48 0 8 48 0 8 48 0 8 48 0 8 48 0 8 48 0 8 48 0 8 49 0 8
49 0 8 49 0 8 49 0 8 49 0 8 49 0 8 49 0 8 49 0 8 49 0 8 50 0 8 50 0 8
50 0 8 50 0 8 50 0 8 50 0 8 50 0 8 50 0 8 50 0 8 50 0 8 51 0 8 51 0 8
51 0 8 51 0 8 51 0 8 51 0 8 51 0 8 51 0 9 51 0 9 52 0 9 52 0 9 52 0 9
52 0 9 52 0 9 52 0 9 52 0 9 52 0 9 52 0 9 52 0 9 53 0 9 53 0 9 53 0 9
53 0 9 53 0 9 53 0 9 53 0 9 53 0 9 53 0 9 54 0 9 54 0 9 54 0 9 54 0 9
54 0 9 54 0 9 54 0 9 54 0 9 54 0 9 55 0 9 55 0 9 55 0 9 55 0 9 55 0 9
55 0 9 55 0 9 55 0 9 56 0 9 56 0 9 56 0 9 56 0 9 56 0 9 56 0 9 56 0 9
56 0 9 56 0 9 57 0 9 57 0 9 57 0 9 57 0 9 57 0 9 57 0 9 57 0 9 57 0 10
57 0 10 58 0 10 58 0 10 58 0 10 58 0 10 58 0 10 58 0 10 58 0 10 58 0
10 58 0 10 59 0 10 59 0 10 59 0 10 59 0 10 59 0 10 59 0 10 59 0 10 59
0 10 59 0 10 60 0 10 60 0 10 60 0 10 60 0 10 60 0 10 60 0 10 60 0 10
60 0 10 60 0 10 61 0 10 61 0 10 61 0 10 61 0 10 61 0 10 61 0 10 61 0
10 61 0 10 61 0 10 61 0 10 62 0 10 62 0 10 62 0 10 62 0 10 62 0 10 62
0 10 62 0 10 62 0 10 62 0 10 62 0 10 63 0 10 63 0 10 63 0 10 63 0 10
63 0 10 63 0 10 63 0 10 63 0 10 63 0 10 63 0 11 63 0 11 64 0 11 64 0
11 64 0 11 64 0 11 64 0 11 64 0 11 64 0 11 64 0 11 64 0 11 64 0 11 64
0 11 64 0 11 65 0 11 65 0 11 65 0 11 65 0 11 65 0 11 65 0 11 65 0 11
65 0 11 65 0 11 65 0 11 65 0 11 65 0 11 65 0 11 65 0 11 65 0 11 66 0
11 66 0 11 66 0 11 66 0 11 66 0 11 66 0 11 66 0 11 66 0 11 66 0 11 66
0 11 66 0 11 66 0 11 66 0 11 66 0 11 66 0 11 66 0 11 66 0 11 66 0 11
66 0 11 66 0 11 66 0 11 66 0 11 67 0 11 67 0 11 67 0 11 67 0 11 67 0
11 67 0 11 67 0 11 67 0 11 67 0 11 67 0 11 67 0 11 67 0 11 67 0 11 67
0 11 67 0 11 67 0 11 67 0 11 67 0 11 67 0 11 67 0 11 67 0 11 67 0 11
67 0 11 67 0 11 67 0 11 67 0 11 67 0 11 67 0 11 67 0 11 67 0 11 67 0
11 67 0 11 67 0 11 67 0 11 67 0 11 67 0 11 67 0 11 67 0 11 67 0 11 67
0 11 67 0 11 67 0 11 67 0 11 66 0 11 66 0 11 66 0 11 66 0 11 66 0 11
66 0 11 66 0 11 66 0 11 66 0 11 66 0 11 66 0 11 66 0 11 66 0 11 66 0
11 66 0 11 66 0 11 66 0 11 66 0 11 66 0 11 66 0 11 66 0 11 66 0 11 65
0 11 65 0 11 65 0 11 65 0 11 65 0 11 65 0 11 65 0 11 65 0 11 65 0 11
65 0 11 65 0 11 65 0 11 65 0 11 65 0 11 65 0 11 64 0 11 64 0 11 64 0
11 64 0 11 64 0 11 64 0 11 64 0 11 64 0 11 64 0 11 64 0 11 64 0 11 64
0 11 63 0 11 63 0 11 63 0 10 63 0 10 63 0 10 63 0 10 63 0 10 63 0 10
63 0 10 63 0 10 63 0 10 62 0 10 62 0 10 62 0 10 62 0 10 62 0 10 62 0
10 62 0 10 62 0 10 62 0 10 62 0 10 61 0 10 61 0 10 61 0 10 61 0 10 61
0 10 61 0 10 61 0 10 61 0 10 61 0 10 61 0 10 60 0 10 60 0 10 60 0 10
60 0 10 60 0 10 60 0 10 60 0 10 60 0 10 60 0 10 59 0 10 59 0 10 59 0
10 59 0 10 59 0 10 59 0 10 59 0 10 59 0 10 59 0 10 58 0 10
42 0 7 42 0 7 43 0 7 43 0 7 43 0 7 43 0 7 43 0 7 43 0 7 43 0 7 43 0 7
43 0 7 43 0 7 43 0 7 43 0 7 44 0 7 44 0 7 44 0 7 44 0 7 44 0 7 44 0 7
44 0 7 44 0 7 44 0 7 44 0 7 44 0 7 44 0 7 45 0 7 45 0 7 45 0 7 45 0 7
45 0 7 45 0 7 45 0 7 45 0 7 45 0 8 45 0 8 45 0 8 46 0 8 46 0 8 46 0 8
46 0 8 46 0 8 46 0 8 46 0 8 46 0 8 46 0 8 46 0 8 46 0 8 47 0 8 47 0 8
47 0 8 47 0 8 47 0 8 47 0 8 47 0 8 47 0 8 47 0 8 47 0 8 47 0 8 48 0 8
48 0 8 48 0 8 48 0 8 48 0 8 48 0 8 48 0 8 48 0 8 48 0 8 48 0 8 49 0 8
49 0 8 49 0 8 49 0 8 49 0 8 49 0 8 49 0 8 49 0 8 49 0 8 49 0 8 50 0 8
50 0 8 50 0 8 50 0 8 50 0 8 50 0 8 50 0 8 50 0 8 50 0 8 50 0 8 51 0 8
51 0 8 51 0 8 51 0 8 51 0 8 51 0 8 51 0 8 51 0 9 51 0 9 52 0 9 52 0 9
52 0 9 52 0 9 52 0 9 52 0 9 52 0 9 52 0 9 52 0 9 53 0 9 53 0 9 53 0 9
53 0 9 53 0 9 53 0 9 53 0 9 53 0 9 53 0 9 53 0 9 54 0 9 54 0 9 54 0 9
54 0 9 54 0 9 54 0 9 54 0 9 54 0 9 54 0 9 55 0 9 55 0 9 55 0 9 55 0 9
55 0 9 55 0 9 55 0 9 55 0 9 55 0 9 56 0 9 56 0 9 56 0 9 56 0 9 56 0 9
56 0 9 56 0 9 56 0 9 56 0 9 57 0 9 57 0 9 57 0 9 57 0 9 57 0 9 57 0 9
57 0 9 57 0 10 57 0 10 58 0 10 58 0 10 58 0 10 58 0 10 58 0 10 58 0 10
58 0 10 58 0 10 58 0 10 59 0 10 59 0 10 59 0 10 59 0 10 59 0 10 59 0
10 59 0 10 59 0 10 59 0 10 59 0 10 60 0 10 60 0 10 60 0 10 60 0 10 60
0 10 60 0 10 60 0 10 60 0 10 60 0 10 61 0 10 61 0 10 61 0 10 61 0 10
61 0 10 61 0 10 61 0 10 61 0 10 61 0 10 61 0 10 62 0 10 62 0 10 62 0
10 62 0 10 62 0 10 62 0 10 62 0 10 62 0 10 62 0 10 62 0 10 62 0 10 63
0 10 63 0 10 63 0 10 63 0 10 63 0 10 63 0 10 63 0 10 63 0 10 63 0 10
63 0 11 63 0 11 64 0 11 64 0 11 64 0 11 64 0 11 64 0 11 64 0 11 64 0
11 64 0 11 64 0 11 64 0 11 64 0 11 64 0 11 64 0 11 64 0 11 65 0 11 65
0 11 65 0 11 65 0 11 65 0 11 65 0 11 65 0 11 65 0 11 65 0 11 65 0 11
65 0 11 65 0 11 65 0 11 65 0 11 65 0 11 65 0 11 66 0 11 66 0 11 66 0
11 66 0 11 66 0 11 66 0 11 66 0 11 66 0 11 66 0 11 66 0 11 66 0 11 66
0 11 66 0 11 66 0 11 66 0 11 66 0 11 66 0 11 66 0 11 66 0 11 66 0 11
66 0 11 66 0 11 66 0 11 66 0 11 66 0 11 66 0 11 66 0 11 66 0 11 66 0
11 66 0 11 66 0 11 66 0 11 66 0 11 66 0 11 66 0 11 66 0 11 66 0 11 66
0 11 66 0 11 66 0 11 66 0 11 66 0 11 66 0 11 66 0 11 66 0 11 66 0 11
66 0 11 66 0 11 66 0 11 66 0 11 66 0 11 66 0 11 66 0 11 66 0 11 66 0
11 66 0 11 66 0 11 66 0 11 66 0 11 66 0 11 66 0 11 66 0 11 66 0 11 66
0 11 66 0 11 66 0 11 66 0 11 66 0 11 66 0 11 66 0 11 66 0 11 66 0 11
66 0 11 66 0 11 65 0 11 65 0 11 65 0 11 65 0 11 65 0 11 65 0 11 65 0
11 65 0 11 65 0 11 65 0 11 65 0 11 65 0 11 65 0 11 65 0 11 65 0 11 65
0 11 65 0 11 64 0 11 64 0 11 64 0 11 64 0 11 64 0 11 64 0 11 64 0 11
64 0 11 64 0 11 64 0 11 64 0 11 64 0 11 64 0 11 63 0 11 63 0 11 63 0
10 63 0 10 63 0 10 63 0 10 63 0 10 63 0 10 63 0 10 63 0 10 63 0 10 62
0 10 62 0 10 62 0 10 62 0 10 62 0 10 62 0 10 62 0 10 62 0 10 62 0 10
62 0 10 62 0 10 61 0 10 61 0 10 61 0 10 61 0 10 61 0 10 61 0 10 61 0
10 61 0 10 61 0 10 61 0 10 60 0 10 60 0 10 60 0 10 60 0 10 60 0 10 60
0 10 60 0 10 60 0 10 60 0 10 60 0 10 59 0 10 59 0 10 59 0 10 59 0 10
59 0 10 59 0 10 59 0 10 59 0 10 59 0 10 58 0 10 58 0 10
42 0 7 43 0 7 43 0 7 43 0 7 43 0 7 43 0 7 43 0 7 43 0 7 43 0 7 43 0 7
43 0 7 43 0 7 43 0 7 43 0 7 44 0 7 44 0 7 44 0 7 44 0 7 44 0 7 44 0 7
44 0 7 44 0 7 44 0 7 44 0 7 44 0 7 44 0 7 45 0 7 45 0 7 45 0 7 45 0 7
45 0 7 45 0 7 45 0 7 45 0 7 45 0 8 45 0 8 45 0 8 46 0 8 46 0 8 46 0 8
46 0 8 46 0 8 46 0 8 46 0 8 46 0 8 46 0 8 46 0 8 46 0 8 47 0 8 47 0 8
47 0 8 47 0 8 47 0 8 47 0 8 47 0 8 47 0 8 47 0 8 47 0 8 47 0 8 48 0 8
48 0 8 48 0 8 48 0 8 48 0 8 48 0 8 48 0 8 48 0 8 48 0 8 48 0 8 49 0 8
49 0 8 49 0 8 49 0 8 49 0 8 49 0 8 49 0 8 49 0 8 49 0 8 49 0 8 50 0 8
50 0 8 50 0 8 50 0 8 50 0 8 50 0 8 50 0 8 50 0 8 50 0 8 50 0 8 51 0 8
51 0 8 51 0 8 51 0 8 51 0 8 51 0 8 51 0 8 51 0 9 51 0 9 51 0 9 52 0 9
52 0 9 52 0 9 52 0 9 52 0 9 52 0 9 52 0 9 52 0 9 52 0 9 53 0 9 53 0 9
53 0 9 53 0 9 53 0 9 53 0 9 53 0 9 53 0 9 53 0 9 53 0 9 54 0 9 54 0 9
54 0 9 54 0 9 54 0 9 54 0 9 54 0 9 54 0 9 54 0 9 55 0 9 55 0 9 55 0 9
55 0 9 55 0 9 55 0 9 55 0 9 55 0 9 55 0 9 56 0 9 56 0 9 56 0 9 56 0 9
56 0 9 56 0 9 56 0 9 56 0 9 56 0 9 56 0 9 57 0 9 57 0 9 57 0 9 57 0 9
57 0 9 57 0 9 57 0 9 57 0 10 57 0 10 58 0 10 58 0 10 58 0 10 58 0 10
58 0 10 58 0 10 58 0 10 58 0 10 58 0 10 59 0 10 59 0 10 59 0 10 59 0
10 59 0 10 59 0 10 59 0 10 59 0 10 59 0 10 59 0 10 60 0 10 60 0 10 60
0 10 60 0 10 60 0 10 60 0 10 60 0 10 60 0 10 60 0 10 60 0 10 61 0 10
61 0 10 61 0 10 61 0 10 61 0 10 61 0 10 61 0 10 61 0 10 61 0 10 61 0
10 62 0 10 62 0 10 62 0 10 62 0 10 62 0 10 62 0 10 62 0 10 62 0 10 62
0 10 62 0 10 62 0 10 62 0 10 63 0 10 63 0 10 63 0 10 63 0 10 63 0 10
63 0 10 63 0 10 63 0 10 63 0 10 63 0 11 63 0 11 63 0 11 64 0 11 64 0
11 64 0 11 64 0 11 64 0 11 64 0 11 64 0 11 64 0 11 64 0 11 64 0 11 64
0 11 64 0 11 64 0 11 64 0 11 64 0 11 65 0 11 65 0 11 65 0 11 65 0 11
65 0 11 65 0 11 65 0 11 65 0 11 65 0 11 65 0 11 65 0 11 65 0 11 65 0
11 65 0 11 65 0 11 65 0 11 65 0 11 65 0 11 65 0 11 65 0 11 66 0 11 66
0 11 66 0 11 66 0 11 66 0 11 66 0 11 66 0 11 66 0 11 66 0 11 66 0 11
66 0 11 66 0 11 66 0 11 66 0 11 66 0 11 66 0 11 66 0 11 66 0 11 66 0
11 66 0 11 66 0 11 66 0 11 66 0 11 66 0 11 66 0 11 66 0 11 66 0 11 66
0 11 66 0 11 66 0 11 66 0 11 66 0 11 66 0 11 66 0 11 66 0 11 66 0 11
66 0 11 66 0 11 66 0 11 66 0 11 66 0 11 66 0 11 66 0 11 66 0 11 66 0
11 66 0 11 66 0 11 66 0 11 66 0 11 66 0 11 66 0 11 66 0 11 66 0 11 66
0 11 66 0 11 66 0 11 65 0 11 65 0 11 65 0 11 65 0 11 65 0 11 65 0 11
65 0 11 65 0 11 65 0 11 65 0 11 65 0 11 65 0 11 65 0 11 65 0 11 65 0
11 65 0 11 65 0 11 65 0 11 65 0 11 65 0 11 64 0 11 64 0 11 64 0 11 64
0 11 64 0 11 64 0 11 64 0 11 64 0 11 64 0 11 64 0 11 64 0 11 64 0 11
64 0 11 64 0 11 64 0 11 63 0 11 63 0 11 63 0 10 63 0 10 63 0 10 63 0
10 63 0 10 63 0 10 63 0 10 63 0 10 63 0 10 63 0 10 62 0 10 62 0 10 62
0 10 62 0 10 62 0 10 62 0 10 62 0 10 62 0 10 62 0 10 62 0 10 62 0 10
61 0 10 61 0 10 61 0 10 61 0 10 61 0 10 61 0 10 61 0 10 61 0 10 61 0
10 61 0 10 61 0 10 60 0 10 60 0 10 60 0 10 60 0 10 60 0 10 60 0 10 60
0 10 60 0 10 60 0 10 60 0 10 59 0 10 59 0 10 59 0 10 59 0 10 59 0 10
59 0 10 59 0 10 59 0 10 59 0 10 58 0 10 58 0 10 58 0 10
42 0 7 43 0 7 43 0 7 43 0 7 43 0 7 43 0 7 43 0 7 43 0 7 43 0 7 43 0 7
43 0 7 43 0 7 43 0 7 44 0 7 44 0 7 44 0 7 44 0 7 44 0 7 44 0 7 44 0 7
44 0 7 44 0 7 44 0 7 44 0 7 44 0 7 45 0 7 45 0 7 45 0 7 45 0 7 45 0 7
45 0 7 45 0 7 45 0 7 45 0 7 45 0 8 45 0 8 45 0 8 46 0 8 46 0 8 46 0 8
46 0 8 46 0 8 46 0 8 46 0 8 46 0 8 46 0 8 46 0 8 46 0 8 47 0 8 47 0 8
47 0 8 47 0 8 47 0 8 47 0 8 47 0 8 47 0 8 47 0 8 47 0 8 47 0 8 48 0 8
48 0 8 48 0 8 48 0 8 48 0 8 48 0 8 48 0 8 48 0 8 48 0 8 48 0 8 48 0 8
49 0 8 49 0 8 49 0 8 49 0 8 49 0 8 49 0 8 49 0 8 49 0 8 49 0 8 49 0 8
50 0 8 50 0 8 50 0 8 50 0 8 50 0 8 50 0 8 50 0 8 50 0 8 50 0 8 50 0 8
51 0 8 51 0 8 51 0 8 51 0 8 51 0 8 51 0 8 51 0 8 51 0 9 51 0 9 51 0 9
52 0 9 52 0 9 52 0 9 52 0 9 52 0 9 52 0 9 52 0 9 52 0 9 52 0 9 53 0 9
53 0 9 53 0 9 53 0 9 53 0 9 53 0 9 53 0 9 53 0 9 53 0 9 53 0 9 54 0 9
54 0 9 54 0 9 54 0 9 54 0 9 54 0 9 54 0 9 54 0 9 54 0 9 55 0 9 55 0 9
55 0 9 55 0 9 55 0 9 55 0 9 55 0 9 55 0 9 55 0 9 55 0 9 56 0 9 56 0 9
56 0 9 56 0 9 56 0 9 56 0 9 56 0 9 56 0 9 56 0 9 57 0 9 57 0 9 57 0 9
57 0 9 57 0 9 57 0 9 57 0 9 57 0 9 57 0 10 57 0 10 58 0 10 58 0 10 58
0 10 58 0 10 58 0 10 58 0 10 58 0 10 58 0 10 58 0 10 58 0 10 59 0 10
59 0 10 59 0 10 59 0 10 59 0 10 59 0 10 59 0 10 59 0 10 59 0 10 59 0
10 60 0 10 60 0 10 60 0 10 60 0 10 60 0 10 60 0 10 60 0 10 60 0 10 60
0 10 60 0 10 61 0 10 61 0 10 61 0 10 61 0 10 61 0 10 61 0 10 61 0 10
61 0 10 61 0 10 61 0 10 61 0 10 62 0 10 62 0 10 62 0 10 62 0 10 62 0
10 62 0 10 62 0 10 62 0 10 62 0 10 62 0 10 62 0 10 62 0 10 63 0 10 63
0 10 63 0 10 63 0 10 63 0 10 63 0 10 63 0 10 63 0 10 63 0 10 63 0 10
63 0 11 63 0 11 63 0 11 64 0 11 64 0 11 64 0 11 64 0 11 64 0 11 64 0
11 64 0 11 64 0 11 64 0 11 64 0 11 64 0 11 64 0 11 64 0 11 64 0 11 64
0 11 64 0 11 65 0 11 65 0 11 65 0 11 65 0 11 65 0 11 65 0 11 65 0 11
65 0 11 65 0 11 65 0 11 65 0 11 65 0 11 65 0 11 65 0 11 65 0 11 65 0
11 65 0 11 65 0 11 65 0 11 65 0 11 65 0 11 65 0 11 65 0 11 65 0 11 65
0 11 65 0 11 65 0 11 65 0 11 66 0 11 66 0 11 66 0 11 66 0 11 66 0 11
66 0 11 66 0 11 66 0 11 66 0 11 66 0 11 66 0 11 66 0 11 66 0 11 66 0
11 66 0 11 66 0 11 66 0 11 66 0 11 66 0 11 66 0 11 66 0 11 66 0 11 66
0 11 66 0 11 66 0 11 66 0 11 66 0 11 66 0 11 66 0 11 65 0 11 65 0 11
65 0 11 65 0 11 65 0 11 65 0 11 65 0 11 65 0 11 65 0 11 65 0 11 65 0
11 65 0 11 65 0 11 65 0 11 65 0 11 65 0 11 65 0 11 65 0 11 65 0 11 65
0 11 65 0 11 65 0 11 65 0 11 65 0 11 65 0 11 65 0 11 65 0 11 64 0 11
64 0 11 64 0 11 64 0 11 64 0 11 64 0 11 64 0 11 64 0 11 64 0 11 64 0
11 64 0 11 64 0 11 64 0 11 64 0 11 64 0 11 64 0 11 64 0 11 63 0 11 63
0 11 63 0 11 63 0 10 63 0 10 63 0 10 63 0 10 63 0 10 63 0 10 63 0 10
63 0 10 63 0 10 63 0 10 62 0 10 62 0 10 62 0 10 62 0 10 62 0 10 62 0
10 62 0 10 62 0 10 62 0 10 62 0 10 62 0 10 62 0 10 61 0 10 61 0 10 61
0 10 61 0 10 61 0 10 61 0 10 61 0 10 61 0 10 61 0 10 61 0 10 61 0 10
60 0 10 60 0 10 60 0 10 60 0 10 60 0 10 60 0 10 60 0 10 60 0 10 60 0
10 60 0 10 59 0 10 59 0 10 59 0 10 59 0 10 59 0 10 59 0 10 59 0 10 59
0 10 59 0 10 59 0 10 58 0 10 58 0 10 58 0 10 58 0 10
43 0 7 43 0 7 43 0 7 43 0 7 43 0 7 43 0 7 43 0 7 43 0 7 43 0 7 43 0 7
43 0 7 43 0 7 43 0 7 44 0 7 44 0 7 44 0 7 44 0 7 44 0 7 44 0 7 44 0 7
44 0 7 44 0 7 44 0 7 44 0 7 44 0 7 45 0 7 45 0 7 45 0 7 45 0 7 45 0 7
45 0 7 45 0 7 45 0 7 45 0 7 45 0 8 45 0 8 45 0 8 46 0 8 46 0 8 46 0 8
46 0 8 46 0 8 46 0 8 46 0 8 46 0 8 46 0 8 46 0 8 46 0 8 47 0 8 47 0 8
47 0 8 47 0 8 47 0 8 47 0 8 47 0 8 47 0 8 47 0 8 47 0 8 47 0 8 48 0 8
48 0 8 48 0 8 48 0 8 48 0 8 48 0 8 48 0 8 48 0 8 48 0 8 48 0 8 48 0 8
49 0 8 49 0 8 49 0 8 49 0 8 49 0 8 49 0 8 49 0 8 49 0 8 49 0 8 49 0 8
50 0 8 50 0 8 50 0 8 50 0 8 50 0 8 50 0 8 50 0 8 50 0 8 50 0 8 50 0 8
50 0 8 51 0 8 51 0 8 51 0 8 51 0 8 51 0 8 51 0 8 51 0 8 51 0 9 51 0 9
51 0 9 52 0 9 52 0 9 52 0 9 52 0 9 52 0 9 52 0 9 52 0 9 52 0 9 52 0 9
53 0 9 53 0 9 53 0 9 53 0 9 53 0 9 53 0 9 53 0 9 53 0 9 53 0 9 53 0 9
54 0 9 54 0 9 54 0 9 54 0 9 54 0 9 54 0 9 54 0 9 54 0 9 54 0 9 54 0 9
55 0 9 55 0 9 55 0 9 55 0 9 55 0 9 55 0 9 55 0 9 55 0 9 55 0 9 55 0 9
56 0 9 56 0 9 56 0 9 56 0 9 56 0 9 56 0 9 56 0 9 56 0 9 56 0 9 57 0 9
57 0 9 57 0 9 57 0 9 57 0 9 57 0 9 57 0 9 57 0 9 57 0 10 57 0 10 58 0
10 58 0 10 58 0 10 58 0 10 58 0 10 58 0 10 58 0 10 58 0 10 58 0 10 58
0 10 59 0 10 59 0 10 59 0 10 59 0 10 59 0 10 59 0 10 59 0 10 59 0 10
59 0 10 59 0 10 60 0 10 60 0 10 60 0 10 60 0 10 60 0 10 60 0 10 60 0
10 60 0 10 60 0 10 60 0 10 60 0 10 61 0 10 61 0 10 61 0 10 61 0 10 61
0 10 61 0 10 61 0 10 61 0 10 61 0 10 61 0 10 61 0 10 62 0 10 62 0 10
62 0 10 62 0 10 62 0 10 62 0 10 62 0 10 62 0 10 62 0 10 62 0 10 62 0
10 62 0 10 62 0 10 63 0 10 63 0 10 63 0 10 63 0 10 63 0 10 63 0 10 63
0 10 63 0 10 63 0 10 63 0 10 63 0 10 63 0 11 63 0 11 63 0 11 64 0 11
64 0 11 64 0 11 64 0 11 64 0 11 64 0 11 64 0 11 64 0 11 64 0 11 64 0
11 64 0 11 64 0 11 64 0 11 64 0 11 64 0 11 64 0 11 64 0 11 64 0 11 64
0 11 65 0 11 65 0 11 65 0 11 65 0 11 65 0 11 65 0 11 65 0 11 65 0 11
65 0 11 65 0 11 65 0 11 65 0 11 65 0 11 65 0 11 65 0 11 65 0 11 65 0
11 65 0 11 65 0 11 65 0 11 65 0 11 65 0 11 65 0 11 65 0 11 65 0 11 65
0 11 65 0 11 65 0 11 65 0 11 65 0 11 65 0 11 65 0 11 65 0 11 65 0 11
65 0 11 65 0 11 65 0 11 65 0 11 65 0 11 65 0 11 65 0 11 65 0 11 65 0
11 65 0 11 65 0 11 65 0 11 65 0 11 65 0 11 65 0 11 65 0 11 65 0 11 65
0 11 65 0 11 65 0 11 65 0 11 65 0 11 65 0 11 65 0 11 65 0 11 65 0 11
65 0 11 65 0 11 65 0 11 65 0 11 65 0 11 65 0 11 65 0 11 65 0 11 65 0
11 65 0 11 64 0 11 64 0 11 64 0 11 64 0 11 64 0 11 64 0 11 64 0 11 64
0 11 64 0 11 64 0 11 64 0 11 64 0 11 64 0 11 64 0 11 64 0 11 64 0 11
64 0 11 64 0 11 63 0 11 63 0 11 63 0 11 63 0 11 63 0 10 63 0 10 63 0
10 63 0 10 63 0 10 63 0 10 63 0 10 63 0 10 63 0 10 63 0 10 63 0 10 62
0 10 62 0 10 62 0 10 62 0 10 62 0 10 62 0 10 62 0 10 62 0 10 62 0 10
62 0 10 62 0 10 62 0 10 62 0 10 61 0 10 61 0 10 61 0 10 61 0 10 61 0
10 61 0 10 61 0 10 61 0 10 61 0 10 61 0 10 61 0 10 60 0 10 60 0 10 60
0 10 60 0 10 60 0 10 60 0 10 60 0 10 60 0 10 60 0 10 60 0 10 60 0 10
59 0 10 59 0 10 59 0 10 59 0 10 59 0 10 59 0 10 59 0 10 59 0 10 59 0
10 59 0 10 58 0 10 58 0 10 58 0 10 58 0 10 58 0 10
43 0 7 43 0 7 43 0 7 43 0 7 43 0 7 43 0 7 43 0 7 43 0 7 43 0 7 43 0 7
43 0 7 43 0 7 43 0 7 44 0 7 44 0 7 44 0 7 44 0 7 44 0 7 44 0 7 44 0 7
44 0 7 44 0 7 44 0 7 44 0 7 44 0 7 45 0 7 45 0 7 45 0 7 45 0 7 45 0 7
45 0 7 45 0 7 45 0 7 45 0 7 45 0 8 45 0 8 45 0 8 46 0 8 46 0 8 46 0 8
46 0 8 46 0 8 46 0 8 46 0 8 46 0 8 46 0 8 46 0 8 46 0 8 46 0 8 47 0 8
47 0 8 47 0 8 47 0 8 47 0 8 47 0 8 47 0 8 47 0 8 47 0 8 47 0 8 47 0 8
48 0 8 48 0 8 48 0 8 48 0 8 48 0 8 48 0 8 48 0 8 48 0 8 48 0 8 48 0 8
48 0 8 49 0 8 49 0 8 49 0 8 49 0 8 49 0 8 49 0 8 49 0 8 49 0 8 49 0 8
49 0 8 50 0 8 50 0 8 50 0 8 50 0 8 50 0 8 50 0 8 50 0 8 50 0 8 50 0 8
50 0 8 51 0 8 51 0 8 51 0 8 51 0 8 51 0 8 51 0 8 51 0 8 51 0 8 51 0 9
51 0 9 51 0 9 52 0 9 52 0 9 52 0 9 52 0 9 52 0 9 52 0 9 52 0 9 52 0 9
52 0 9 52 0 9 53 0 9 53 0 9 53 0 9 53 0 9 53 0 9 53 0 9 53 0 9 53 0 9
53 0 9 53 0 9 54 0 9 54 0 9 54 0 9 54 0 9 54 0 9 54 0 9 54 0 9 54 0 9
54 0 9 55 0 9 55 0 9 55 0 9 55 0 9 55 0 9 55 0 9 55 0 9 55 0 9 55 0 9
55 0 9 56 0 9 56 0 9 56 0 9 56 0 9 56 0 9 56 0 9 56 0 9 56 0 9 56 0 9
56 0 9 57 0 9 57 0 9 57 0 9 57 0 9 57 0 9 57 0 9 57 0 9 57 0 9 57 0 10
57 0 10 58 0 10 58 0 10 58 0 10 58 0 10 58 0 10 58 0 10 58 0 10 58 0
10 58 0 10 58 0 10 59 0 10 59 0 10 59 0 10 59 0 10 59 0 10 59 0 10 59
0 10 59 0 10 59 0 10 59 0 10 59 0 10 60 0 10 60 0 10 60 0 10 60 0 10
60 0 10 60 0 10 60 0 10 60 0 10 60 0 10 60 0 10 60 0 10 61 0 10 61 0
10 61 0 10 61 0 10 61 0 10 61 0 10 61 0 10 61 0 10 61 0 10 61 0 10 61
0 10 61 0 10 62 0 10 62 0 10 62 0 10 62 0 10 62 0 10 62 0 10 62 0 10
62 0 10 62 0 10 62 0 10 62 0 10 62 0 10 62 0 10 62 0 10 63 0 10 63 0
10 63 0 10 63 0 10 63 0 10 63 0 10 63 0 10 63 0 10 63 0 10 63 0 10 63
0 10 63 0 10 63 0 11 63 0 11 63 0 11 63 0 11 64 0 11 64 0 11 64 0 11
64 0 11 64 0 11 64 0 11 64 0 11 64 0 11 64 0 11 64 0 11 64 0 11 64 0
11 64 0 11 64 0 11 64 0 11 64 0 11 64 0 11 64 0 11 64 0 11 64 0 11 64
0 11 64 0 11 64 0 11 65 0 11 65 0 11 65 0 11 65 0 11 65 0 11 65 0 11
65 0 11 65 0 11 65 0 11 65 0 11 65 0 11 65 0 11 65 0 11 65 0 11 65 0
11 65 0 11 65 0 11 65 0 11 65 0 11 65 0 11 65 0 11 65 0 11 65 0 11 65
0 11 65 0 11 65 0 11 65 0 11 65 0 11 65 0 11 65 0 11 65 0 11 65 0 11
65 0 11 65 0 11 65 0 11 65 0 11 65 0 11 65 0 11 65 0 11 65 0 11 65 0
11 65 0 11 65 0 11 65 0 11 65 0 11 65 0 11 65 0 11 65 0 11 65 0 11 64
0 11 64 0 11 64 0 11 64 0 11 64 0 11 64 0 11 64 0 11 64 0 11 64 0 11
64 0 11 64 0 11 64 0 11 64 0 11 64 0 11 64 0 11 64 0 11 64 0 11 64 0
11 64 0 11 64 0 11 64 0 11 64 0 11 64 0 11 64 0 11 63 0 11 63 0 11 63
0 11 63 0 10 63 0 10 63 0 10 63 0 10 63 0 10 63 0 10 63 0 10 63 0 10
63 0 10 63 0 10 63 0 10 63 0 10 63 0 10 62 0 10 62 0 10 62 0 10 62 0
10 62 0 10 62 0 10 62 0 10 62 0 10 62 0 10 62 0 10 62 0 10 62 0 10 62
0 10 61 0 10 61 0 10 61 0 10 61 0 10 61 0 10 61 0 10 61 0 10 61 0 10
61 0 10 61 0 10 61 0 10 61 0 10 60 0 10 60 0 10 60 0 10 60 0 10 60 0
10 60 0 10 60 0 10 60 0 10 60 0 10 60 0 10 60 0 10 59 0 10 59 0 10 59
0 10 59 0 10 59 0 10 59 0 10 59 0 10 59 0 10 59 0 10 59 0 10 59 0 10
58 0 10 58 0 10 58 0 10 58 0 10 58 0 10 58 0 10
43 0 7 43 0 7 43 0 7 43 0 7 43 0 7 43 0 7 43 0 7 43 0 7 43 0 7 43 0 7
43 0 7 43 0 7 43 0 7 44 0 7 44 0 7 44 0 7 44 0 7 44 0 7 44 0 7 44 0 7
44 0 7 44 0 7 44 0 7 44 0 7 44 0 7 45 0 7 45 0 7 45 0 7 45 0 7 45 0 7
45 0 7 45 0 7 45 0 7 45 0 7 45 0 8 45 0 8 45 0 8 46 0 8 46 0 8 46 0 8
46 0 8 46 0 8 46 0 8 46 0 8 46 0 8 46 0 8 46 0 8 46 0 8 46 0 8 47 0 8
47 0 8 47 0 8 47 0 8 47 0 8 47 0 8 47 0 8 47 0 8 47 0 8 47 0 8 47 0 8
48 0 8 48 0 8 48 0 8 48 0 8 48 0 8 48 0 8 48 0 8 48 0 8 48 0 8 48 0 8
48 0 8 49 0 8 49 0 8 49 0 8 49 0 8 49 0 8 49 0 8 49 0 8 49 0 8 49 0 8
49 0 8 49 0 8 50 0 8 50 0 8 50 0 8 50 0 8 50 0 8 50 0 8 50 0 8 50 0 8
50 0 8 50 0 8 51 0 8 51 0 8 51 0 8 51 0 8 51 0 8 51 0 8 51 0 8 51 0 8
51 0 9 51 0 9 51 0 9 52 0 9 52 0 9 52 0 9 52 0 9 52 0 9 52 0 9 52 0 9
52 0 9 52 0 9 52 0 9 53 0 9 53 0 9 53 0 9 53 0 9 53 0 9 53 0 9 53 0 9
53 0 9 53 0 9 53 0 9 54 0 9 54 0 9 54 0 9 54 0 9 54 0 9 54 0 9 54 0 9
54 0 9 54 0 9 54 0 9 55 0 9 55 0 9 55 0 9 55 0 9 55 0 9 55 0 9 55 0 9
55 0 9 55 0 9 55 0 9 56 0 9 56 0 9 56 0 9 56 0 9 56 0 9 56 0 9 56 0 9
56 0 9 56 0 9 56 0 9 57 0 9 57 0 9 57 0 9 57 0 9 57 0 9 57 0 9 57 0 9
57 0 9 57 0 10 57 0 10 58 0 10 58 0 10 58 0 10 58 0 10 58 0 10 58 0 10
58 0 10 58 0 10 58 0 10 58 0 10 58 0 10 59 0 10 59 0 10 59 0 10 59 0
10 59 0 10 59 0 10 59 0 10 59 0 10 59 0 10 59 0 10 59 0 10 60 0 10 60
0 10 60 0 10 60 0 10 60 0 10 60 0 10 60 0 10 60 0 10 60 0 10 60 0 10
60 0 10 60 0 10 61 0 10 61 0 10 61 0 10 61 0 10 61 0 10 61 0 10 61 0
10 61 0 10 61 0 10 61 0 10 61 0 10 61 0 10 62 0 10 62 0 10 62 0 10 62
0 10 62 0 10 62 0 10 62 0 10 62 0 10 62 0 10 62 0 10 62 0 10 62 0 10
62 0 10 62 0 10 62 0 10 63 0 10 63 0 10 63 0 10 63 0 10 63 0 10 63 0
10 63 0 10 63 0 10 63 0 10 63 0 10 63 0 10 63 0 10 63 0 10 63 0 10 63
0 11 63 0 11 63 0 11 63 0 11 64 0 11 64 0 11 64 0 11 64 0 11 64 0 11
64 0 11 64 0 11 64 0 11 64 0 11 64 0 11 64 0 11 64 0 11 64 0 11 64 0
11 64 0 11 64 0 11 64 0 11 64 0 11 64 0 11 64 0 11 64 0 11 64 0 11 64
0 11 64 0 11 64 0 11 64 0 11 64 0 11 64 0 11 64 0 11 64 0 11 64 0 11
64 0 11 64 0 11 64 0 11 64 0 11 64 0 11 64 0 11 64 0 11 64 0 11 64 0
11 64 0 11 64 0 11 64 0 11 64 0 11 64 0 11 64 0 11 64 0 11 64 0 11 64
0 11 64 0 11 64 0 11 64 0 11 64 0 11 64 0 11 64 0 11 64 0 11 64 0 11
64 0 11 64 0 11 64 0 11 64 0 11 64 0 11 64 0 11 64 0 11 64 0 11 64 0
11 64 0 11 64 0 11 64 0 11 64 0 11 64 0 11 64 0 11 64 0 11 64 0 11 64
0 11 64 0 11 64 0 11 64 0 11 64 0 11 64 0 11 64 0 11 64 0 11 64 0 11
63 0 11 63 0 11 63 0 11 63 0 11 63 0 10 63 0 10 63 0 10 63 0 10 63 0
10 63 0 10 63 0 10 63 0 10 63 0 10 63 0 10 63 0 10 63 0 10 63 0 10 63
0 10 62 0 10 62 0 10 62 0 10 62 0 10 62 0 10 62 0 10 62 0 10 62 0 10
62 0 10 62 0 10 62 0 10 62 0 10 62 0 10 62 0 10 61 0 10 61 0 10 61 0
10 61 0 10 61 0 10 61 0 10 61 0 10 61 0 10 61 0 10 61 0 10 61 0 10 61
0 10 61 0 10 60 0 10 60 0 10 60 0 10 60 0 10 60 0 10 60 0 10 60 0 10
60 0 10 60 0 10 60 0 10 60 0 10 59 0 10 59 0 10 59 0 10 59 0 10 59 0
10 59 0 10 59 0 10 59 0 10 59 0 10 59 0 10 59 0 10 58 0 10 58 0 10 58
0 10 58 0 10 58 0 10 58 0 10 58 0 10 58 0 10
43 0 7 43 0 7 43 0 7 43 0 7 43 0 7 43 0 7 43 0 7 43 0 7 43 0 7 43 0 7
43 0 7 43 0 7 44 0 7 44 0 7 44 0 7 44 0 7 44 0 7 44 0 7 44 0 7 44 0 7
44 0 7 44 0 7 44 0 7 44 0 7 44 0 7 45 0 7 45 0 7 45 0 7 45 0 7 45 0 7
45 0 7 45 0 7 45 0 7 45 0 7 45 0 8 45 0 8 45 0 8 46 0 8 46 0 8 46 0 8
46 0 8 46 0 8 46 0 8 46 0 8 46 0 8 46 0 8 46 0 8 46 0 8 46 0 8 47 0 8
47 0 8 47 0 8 47 0 8 47 0 8 47 0 8 47 0 8 47 0 8 47 0 8 47 0 8 47 0 8
48 0 8 48 0 8 48 0 8 48 0 8 48 0 8 48 0 8 48 0 8 48 0 8 48 0 8 48 0 8
48 0 8 48 0 8 49 0 8 49 0 8 49 0 8 49 0 8 49 0 8 49 0 8 49 0 8 49 0 8
49 0 8 49 0 8 50 0 8 50 0 8 50 0 8 50 0 8 50 0 8 50 0 8 50 0 8 50 0 8
50 0 8 50 0 8 50 0 8 51 0 8 51 0 8 51 0 8 51 0 8 51 0 8 51 0 8 51 0 8
51 0 8 51 0 9 51 0 9 51 0 9 52 0 9 52 0 9 52 0 9 52 0 9 52 0 9 52 0 9
52 0 9 52 0 9 52 0 9 52 0 9 53 0 9 53 0 9 53 0 9 53 0 9 53 0 9 53 0 9
53 0 9 53 0 9 53 0 9 53 0 9 54 0 9 54 0 9 54 0 9 54 0 9 54 0 9 54 0 9
54 0 9 54 0 9 54 0 9 54 0 9 55 0 9 55 0 9 55 0 9 55 0 9 55 0 9 55 0 9
55 0 9 55 0 9 55 0 9 55 0 9 55 0 9 56 0 9 56 0 9 56 0 9 56 0 9 56 0 9
56 0 9 56 0 9 56 0 9 56 0 9 56 0 9 57 0 9 57 0 9 57 0 9 57 0 9 57 0 9
57 0 9 57 0 9 57 0 9 57 0 10 57 0 10 57 0 10 58 0 10 58 0 10 58 0 10
58 0 10 58 0 10 58 0 10 58 0 10 58 0 10 58 0 10 58 0 10 58 0 10 59 0
10 59 0 10 59 0 10 59 0 10 59 0 10 59 0 10 59 0 10 59 0 10 59 0 10 59
0 10 59 0 10 60 0 10 60 0 10 60 0 10 60 0 10 60 0 10 60 0 10 60 0 10
60 0 10 60 0 10 60 0 10 60 0 10 60 0 10 61 0 10 61 0 10 61 0 10 61 0
10 61 0 10 61 0 10 61 0 10 61 0 10 61 0 10 61 0 10 61 0 10 61 0 10 61
0 10 61 0 10 62 0 10 62 0 10 62 0 10 62 0 10 62 0 10 62 0 10 62 0 10
62 0 10 62 0 10 62 0 10 62 0 10 62 0 10 62 0 10 62 0 10 62 0 10 63 0
10 63 0 10 63 0 10 63 0 10 63 0 10 63 0 10 63 0 10 63 0 10 63 0 10 63
0 10 63 0 10 63 0 10 63 0 10 63 0 10 63 0 10 63 0 10 63 0 10 63 0 11
63 0 11 63 0 11 63 0 11 64 0 11 64 0 11 64 0 11 64 0 11 64 0 11 64 0
11 64 0 11 64 0 11 64 0 11 64 0 11 64 0 11 64 0 11 64 0 11 64 0 11 64
0 11 64 0 11 64 0 11 64 0 11 64 0 11 64 0 11 64 0 11 64 0 11 64 0 11
64 0 11 64 0 11 64 0 11 64 0 11 64 0 11 64 0 11 64 0 11 64 0 11 64 0
11 64 0 11 64 0 11 64 0 11 64 0 11 64 0 11 64 0 11 64 0 11 64 0 11 64
0 11 64 0 11 64 0 11 64 0 11 64 0 11 64 0 11 64 0 11 64 0 11 64 0 11
64 0 11 64 0 11 64 0 11 64 0 11 64 0 11 64 0 11 64 0 11 64 0 11 64 0
11 64 0 11 64 0 11 64 0 11 64 0 11 64 0 11 64 0 11 64 0 11 64 0 11 64
0 11 63 0 11 63 0 11 63 0 11 63 0 11 63 0 11 63 0 10 63 0 10 63 0 10
63 0 10 63 0 10 63 0 10 63 0 10 63 0 10 63 0 10 63 0 10 63 0 10 63 0
10 63 0 10 63 0 10 63 0 10 63 0 10 62 0 10 62 0 10 62 0 10 62 0 10 62
0 10 62 0 10 62 0 10 62 0 10 62 0 10 62 0 10 62 0 10 62 0 10 62 0 10
62 0 10 62 0 10 62 0 10 61 0 10 61 0 10 61 0 10 61 0 10 61 0 10 61 0
10 61 0 10 61 0 10 61 0 10 61 0 10 61 0 10 61 0 10 61 0 10 60 0 10 60
0 10 60 0 10 60 0 10 60 0 10 60 0 10 60 0 10 60 0 10 60 0 10 60 0 10
60 0 10 60 0 10 59 0 10 59 0 10 59 0 10 59 0 10 59 0 10 59 0 10 59 0
10 59 0 10 59 0 10 59 0 10 59 0 10 59 0 10 58 0 10 58 0 10 58 0 10 58
0 10 58 0 10 58 0 10 58 0 10 58 0 10 58 0 10
43 0 7 43 0 7 43 0 7 43 0 7 43 0 7 43 0 7 43 0 7 43 0 7 43 0 7 43 0 7
43 0 7 43 0 7 44 0 7 44 0 7 44 0 7 44 0 7 44 0 7 44 0 7 44 0 7 44 0 7
44 0 7 44 0 7 44 0 7 44 0 7 44 0 7 45 0 7 45 0 7 45 0 7 45 0 7 45 0 7
45 0 7 45 0 7 45 0 7 45 0 7 45 0 8 45 0 8 45 0 8 46 0 8 46 0 8 46 0 8
46 0 8 46 0 8 46 0 8 46 0 8 46 0 8 46 0 8 46 0 8 46 0 8 46 0 8 47 0 8
47 0 8 47 0 8 47 0 8 47 0 8 47 0 8 47 0 8 47 0 8 47 0 8 47 0 8 47 0 8
47 0 8 48 0 8 48 0 8 48 0 8 48 0 8 48 0 8 48 0 8 48 0 8 48 0 8 48 0 8
48 0 8 48 0 8 49 0 8 49 0 8 49 0 8 49 0 8 49 0 8 49 0 8 49 0 8 49 0 8
49 0 8 49 0 8 49 0 8 50 0 8 50 0 8 50 0 8 50 0 8 50 0 8 50 0 8 50 0 8
50 0 8 50 0 8 50 0 8 50 0 8 51 0 8 51 0 8 51 0 8 51 0 8 51 0 8 51 0 8
51 0 8 51 0 8 51 0 9 51 0 9 51 0 9 52 0 9 52 0 9 52 0 9 52 0 9 52 0 9
52 0 9 52 0 9 52 0 9 52 0 9 52 0 9 53 0 9 53 0 9 53 0 9 53 0 9 53 0 9
53 0 9 53 0 9 53 0 9 53 0 9 53 0 9 53 0 9 54 0 9 54 0 9 54 0 9 54 0 9
54 0 9 54 0 9 54 0 9 54 0 9 54 0 9 54 0 9 55 0 9 55 0 9 55 0 9 55 0 9
55 0 9 55 0 9 55 0 9 55 0 9 55 0 9 55 0 9 55 0 9 56 0 9 56 0 9 56 0 9
56 0 9 56 0 9 56 0 9 56 0 9 56 0 9 56 0 9 56 0 9 57 0 9 57 0 9 57 0 9
57 0 9 57 0 9 57 0 9 57 0 9 57 0 9 57 0 9 57 0 10 57 0 10 58 0 10 58 0
10 58 0 10 58 0 10 58 0 10 58 0 10 58 0 10 58 0 10 58 0 10 58 0 10 58
0 10 58 0 10 59 0 10 59 0 10 59 0 10 59 0 10 59 0 10 59 0 10 59 0 10
59 0 10 59 0 10 59 0 10 59 0 10 60 0 10 60 0 10 60 0 10 60 0 10 60 0
10 60 0 10 60 0 10 60 0 10 60 0 10 60 0 10 60 0 10 60 0 10 60 0 10 61
0 10 61 0 10 61 0 10 61 0 10 61 0 10 61 0 10 61 0 10 61 0 10 61 0 10
61 0 10 61 0 10 61 0 10 61 0 10 61 0 10 61 0 10 62 0 10 62 0 10 62 0
10 62 0 10 62 0 10 62 0 10 62 0 10 62 0 10 62 0 10 62 0 10 62 0 10 62
0 10 62 0 10 62 0 10 62 0 10 62 0 10 62 0 10 63 0 10 63 0 10 63 0 10
63 0 10 63 0 10 63 0 10 63 0 10 63 0 10 63 0 10 63 0 10 63 0 10 63 0
10 63 0 10 63 0 10 63 0 10 63 0 10 63 0 10 63 0 10 63 0 10 63 0 11 63
0 11 63 0 11 63 0 11 63 0 11 63 0 11 63 0 11 64 0 11 64 0 11 64 0 11
64 0 11 64 0 11 64 0 11 64 0 11 64 0 11 64 0 11 64 0 11 64 0 11 64 0
11 64 0 11 64 0 11 64 0 11 64 0 11 64 0 11 64 0 11 64 0 11 64 0 11 64
0 11 64 0 11 64 0 11 64 0 11 64 0 11 64 0 11 64 0 11 64 0 11 64 0 11
64 0 11 64 0 11 64 0 11 64 0 11 64 0 11 64 0 11 64 0 11 64 0 11 64 0
11 64 0 11 64 0 11 64 0 11 64 0 11 64 0 11 64 0 11 64 0 11 63 0 11 63
0 11 63 0 11 63 0 11 63 0 11 63 0 11 63 0 11 63 0 10 63 0 10 63 0 10
63 0 10 63 0 10 63 0 10 63 0 10 63 0 10 63 0 10 63 0 10 63 0 10 63 0
10 63 0 10 63 0 10 63 0 10 63 0 10 63 0 10 63 0 10 63 0 10 62 0 10 62
0 10 62 0 10 62 0 10 62 0 10 62 0 10 62 0 10 62 0 10 62 0 10 62 0 10
62 0 10 62 0 10 62 0 10 62 0 10 62 0 10 62 0 10 62 0 10 61 0 10 61 0
10 61 0 10 61 0 10 61 0 10 61 0 10 61 0 10 61 0 10 61 0 10 61 0 10 61
0 10 61 0 10 61 0 10 61 0 10 61 0 10 60 0 10 60 0 10 60 0 10 60 0 10
60 0 10 60 0 10 60 0 10 60 0 10 60 0 10 60 0 10 60 0 10 60 0 10 59 0
10 59 0 10 59 0 10 59 0 10 59 0 10 59 0 10 59 0 10 59 0 10 59 0 10 59
0 10 59 0 10 59 0 10 58 0 10 58 0 10 58 0 10 58 0 10 58 0 10 58 0 10
58 0 10 58 0 10 58 0 10 58 0 10 58 0 10
43 0 7 43 0 7 43 0 7 43 0 7 43 0 7 43 0 7 43 0 7 43 0 7 43 0 7 43 0 7
43 0 7 43 0 7 44 0 7 44 0 7 44 0 7 44 0 7 44 0 7 44 0 7 44 0 7 44 0 7
44 0 7 44 0 7 44 0 7 44 0 7 44 0 7 45 0 7 45 0 7 45 0 7 45 0 7 45 0 7
45 0 7 45 0 7 45 0 7 45 0 7 45 0 8 45 0 8 45 0 8 46 0 8 46 0 8 46 0 8
46 0 8 46 0 8 46 0 8 46 0 8 46 0 8 46 0 8 46 0 8 46 0 8 46 0 8 47 0 8
47 0 8 47 0 8 47 0 8 47 0 8 47 0 8 47 0 8 47 0 8 47 0 8 47 0 8 47 0 8
47 0 8 48 0 8 48 0 8 48 0 8 48 0 8 48 0 8 48 0 8 48 0 8 48 0 8 48 0 8
48 0 8 48 0 8 48 0 8 49 0 8 49 0 8 49 0 8 49 0 8 49 0 8 49 0 8 49 0 8
49 0 8 49 0 8 49 0 8 49 0 8 50 0 8 50 0 8 50 0 8 50 0 8 50 0 8 50 0 8
50 0 8 50 0 8 50 0 8 50 0 8 50 0 8 51 0 8 51 0 8 51 0 8 51 0 8 51 0 8
51 0 8 51 0 8 51 0 8 51 0 9 51 0 9 51 0 9 52 0 9 52 0 9 52 0 9 52 0 9
52 0 9 52 0 9 52 0 9 52 0 9 52 0 9 52 0 9 53 0 9 53 0 9 53 0 9 53 0 9
53 0 9 53 0 9 53 0 9 53 0 9 53 0 9 53 0 9 53 0 9 54 0 9 54 0 9 54 0 9
54 0 9 54 0 9 54 0 9 54 0 9 54 0 9 54 0 9 54 0 9 54 0 9 55 0 9 55 0 9
55 0 9 55 0 9 55 0 9 55 0 9 55 0 9 55 0 9 55 0 9 55 0 9 55 0 9 56 0 9
56 0 9 56 0 9 56 0 9 56 0 9 56 0 9 56 0 9 56 0 9 56 0 9 56 0 9 56 0 9
57 0 9 57 0 9 57 0 9 57 0 9 57 0 9 57 0 9 57 0 9 57 0 9 57 0 10 57 0
10 57 0 10 58 0 10 58 0 10 58 0 10 58 0 10 58 0 10 58 0 10 58 0 10 58
0 10 58 0 10 58 0 10 58 0 10 59 0 10 59 0 10 59 0 10 59 0 10 59 0 10
59 0 10 59 0 10 59 0 10 59 0 10 59 0 10 59 0 10 59 0 10 59 0 10 60 0
10 60 0 10 60 0 10 60 0 10 60 0 10 60 0 10 60 0 10 60 0 10 60 0 10 60
0 10 60 0 10 60 0 10 60 0 10 61 0 10 61 0 10 61 0 10 61 0 10 61 0 10
61 0 10 61 0 10 61 0 10 61 0 10 61 0 10 61 0 10 61 0 10 61 0 10 61 0
10 61 0 10 61 0 10 62 0 10 62 0 10 62 0 10 62 0 10 62 0 10 62 0 10 62
0 10 62 0 10 62 0 10 62 0 10 62 0 10 62 0 10 62 0 10 62 0 10 62 0 10
62 0 10 62 0 10 62 0 10 62 0 10 63 0 10 63 0 10 63 0 10 63 0 10 63 0
10 63 0 10 63 0 10 63 0 10 63 0 10 63 0 10 63 0 10 63 0 10 63 0 10 63
0 10 63 0 10 63 0 10 63 0 10 63 0 10 63 0 10 63 0 10 63 0 10 63 0 10
63 0 10 63 0 10 63 0 10 63 0 10 63 0 10 63 0 11 63 0 11 63 0 11 63 0
11 63 0 11 63 0 11 63 0 11 63 0 11 63 0 11 63 0 11 63 0 11 63 0 11 63
0 11 63 0 11 63 0 11 63 0 11 63 0 11 63 0 11 63 0 11 63 0 11 63 0 11
63 0 11 63 0 11 63 0 11 63 0 11 63 0 11 63 0 11 63 0 11 63 0 11 63 0
11 63 0 10 63 0 10 63 0 10 63 0 10 63 0 10 63 0 10 63 0 10 63 0 10 63
0 10 63 0 10 63 0 10 63 0 10 63 0 10 63 0 10 63 0 10 63 0 10 63 0 10
63 0 10 63 0 10 63 0 10 63 0 10 63 0 10 63 0 10 63 0 10 63 0 10 63 0
10 63 0 10 62 0 10 62 0 10 62 0 10 62 0 10 62 0 10 62 0 10 62 0 10 62
0 10 62 0 10 62 0 10 62 0 10 62 0 10 62 0 10 62 0 10 62 0 10 62 0 10
62 0 10 62 0 10 62 0 10 61 0 10 61 0 10 61 0 10 61 0 10 61 0 10 61 0
10 61 0 10 61 0 10 61 0 10 61 0 10 61 0 10 61 0 10 61 0 10 61 0 10 61
0 10 61 0 10 60 0 10 60 0 10 60 0 10 60 0 10 60 0 10 60 0 10 60 0 10
60 0 10 60 0 10 60 0 10 60 0 10 60 0 10 60 0 10 59 0 10 59 0 10 59 0
10 59 0 10 59 0 10 59 0 10 59 0 10 59 0 10 59 0 10 59 0 10 59 0 10 59
0 10 59 0 10 58 0 10 58 0 10 58 0 10 58 0 10 58 0 10 58 0 10 58 0 10
58 0 10 58 0 10 58 0 10 58 0 10 57 0 10
43 0 7 43 0 7 43 0 7 43 0 7 43 0 7 43 0 7 43 0 7 43 0 7 43 0 7 43 0 7
43 0 7 43 0 7 44 0 7 44 0 7 44 0 7 44 0 7 44 0 7 44 0 7 44 0 7 44 0 7
44 0 7 44 0 7 44 0 7 44 0 7 44 0 7 45 0 7 45 0 7 45 0 7 45 0 7 45 0 7
45 0 7 45 0 7 45 0 7 45 0 7 45 0 8 45 0 8 45 0 8 45 0 8 46 0 8 46 0 8
46 0 8 46 0 8 46 0 8 46 0 8 46 0 8 46 0 8 46 0 8 46 0 8 46 0 8 46 0 8
47 0 8 47 0 8 47 0 8 47 0 8 47 0 8 47 0 8 47 0 8 47 0 8 47 0 8 47 0 8
47 0 8 47 0 8 48 0 8 48 0 8 48 0 8 48 0 8 48 0 8 48 0 8 48 0 8 48 0 8
48 0 8 48 0 8 48 0 8 49 0 8 49 0 8 49 0 8 49 0 8 49 0 8 49 0 8 49 0 8
49 0 8 49 0 8 49 0 8 49 0 8 49 0 8 50 0 8 50 0 8 50 0 8 50 0 8 50 0 8
50 0 8 50 0 8 50 0 8 50 0 8 50 0 8 50 0 8 51 0 8 51 0 8 51 0 8 51 0 8
51 0 8 51 0 8 51 0 8 51 0 8 51 0 9 51 0 9 51 0 9 52 0 9 52 0 9 52 0 9
52 0 9 52 0 9 52 0 9 52 0 9 52 0 9 52 0 9 52 0 9 52 0 9 53 0 9 53 0 9
53 0 9 53 0 9 53 0 9 53 0 9 53 0 9 53 0 9 53 0 9 53 0 9 53 0 9 54 0 9
54 0 9 54 0 9 54 0 9 54 0 9 54 0 9 54 0 9 54 0 9 54 0 9 54 0 9 54 0 9
55 0 9 55 0 9 55 0 9 55 0 9 55 0 9 55 0 9 55 0 9 55 0 9 55 0 9 55 0 9
55 0 9 56 0 9 56 0 9 56 0 9 56 0 9 56 0 9 56 0 9 56 0 9 56 0 9 56 0 9
56 0 9 56 0 9 57 0 9 57 0 9 57 0 9 57 0 9 57 0 9 57 0 9 57 0 9 57 0 9
57 0 9 57 0 10 57 0 10 58 0 10 58 0 10 58 0 10 58 0 10 58 0 10 58 0 10
58 0 10 58 0 10 58 0 10 58 0 10 58 0 10 58 0 10 58 0 10 59 0 10 59 0
10 59 0 10 59 0 10 59 0 10 59 0 10 59 0 10 59 0 10 59 0 10 59 0 10 59
0 10 59 0 10 60 0 10 60 0 10 60 0 10 60 0 10 60 0 10 60 0 10 60 0 10
60 0 10 60 0 10 60 0 10 60 0 10 60 0 10 60 0 10 60 0 10 60 0 10 61 0
10 61 0 10 61 0 10 61 0 10 61 0 10 61 0 10 61 0 10 61 0 10 61 0 10 61
0 10 61 0 10 61 0 10 61 0 10 61 0 10 61 0 10 61 0 10 62 0 10 62 0 10
62 0 10 62 0 10 62 0 10 62 0 10 62 0 10 62 0 10 62 0 10 62 0 10 62 0
10 62 0 10 62 0 10 62 0 10 62 0 10 62 0 10 62 0 10 62 0 10 62 0 10 62
0 10 62 0 10 62 0 10 62 0 10 63 0 10 63 0 10 63 0 10 63 0 10 63 0 10
63 0 10 63 0 10 63 0 10 63 0 10 63 0 10 63 0 10 63 0 10 63 0 10 63 0
10 63 0 10 63 0 10 63 0 10 63 0 10 63 0 10 63 0 10 63 0 10 63 0 10 63
0 10 63 0 10 63 0 10 63 0 10 63 0 10 63 0 10 63 0 10 63 0 10 63 0 10
63 0 10 63 0 10 63 0 10 63 0 10 63 0 10 63 0 10 63 0 10 63 0 10 63 0
10 63 0 10 63 0 10 63 0 10 63 0 10 63 0 10 63 0 10 63 0 10 63 0 10 63
0 10 63 0 10 63 0 10 63 0 10 63 0 10 63 0 10 63 0 10 63 0 10 63 0 10
63 0 10 63 0 10 63 0 10 63 0 10 63 0 10 63 0 10 63 0 10 63 0 10 63 0
10 63 0 10 62 0 10 62 0 10 62 0 10 62 0 10 62 0 10 62 0 10 62 0 10 62
0 10 62 0 10 62 0 10 62 0 10 62 0 10 62 0 10 62 0 10 62 0 10 62 0 10
62 0 10 62 0 10 62 0 10 62 0 10 62 0 10 62 0 10 62 0 10 61 0 10 61 0
10 61 0 10 61 0 10 61 0 10 61 0 10 61 0 10 61 0 10 61 0 10 61 0 10 61
0 10 61 0 10 61 0 10 61 0 10 61 0 10 61 0 10 61 0 10 60 0 10 60 0 10
60 0 10 60 0 10 60 0 10 60 0 10 60 0 10 60 0 10 60 0 10 60 0 10 60 0
10 60 0 10 60 0 10 60 0 10 59 0 10 59 0 10 59 0 10 59 0 10 59 0 10 59
0 10 59 0 10 59 0 10 59 0 10 59 0 10 59 0 10 59 0 10 59 0 10 58 0 10
58 0 10 58 0 10 58 0 10 58 0 10 58 0 10 58 0 10 58 0 10 58 0 10 58 0
10 58 0 10 58 0 10 57 0 10 57 0 10
43 0 7 43 0 7 43 0 7 43 0 7 43 0 7 43 0 7 43 0 7 43 0 7 43 0 7 43 0 7
43 0 7 43 0 7 44 0 7 44 0 7 44 0 7 44 0 7 44 0 7 44 0 7 44 0 7 44 0 7
44 0 7 44 0 7 44 0 7 44 0 7 44 0 7 45 0 7 45 0 7 45 0 7 45 0 7 45 0 7
45 0 7 45 0 7 45 0 7 45 0 7 45 0 8 45 0 8 45 0 8 45 0 8 46 0 8 46 0 8
46 0 8 46 0 8 46 0 8 46 0 8 46 0 8 46 0 8 46 0 8 46 0 8 46 0 8 46 0 8
47 0 8 47 0 8 47 0 8 47 0 8 47 0 8 47 0 8 47 0 8 47 0 8 47 0 8 47 0 8
47 0 8 47 0 8 48 0 8 48 0 8 48 0 8 48 0 8 48 0 8 48 0 8 48 0 8 48 0 8
48 0 8 48 0 8 48 0 8 48 0 8 49 0 8 49 0 8 49 0 8 49 0 8 49 0 8 49 0 8
49 0 8 49 0 8 49 0 8 49 0 8 49 0 8 50 0 8 50 0 8 50 0 8 50 0 8 50 0 8
50 0 8 50 0 8 50 0 8 50 0 8 50 0 8 50 0 8 50 0 8 51 0 8 51 0 8 51 0 8
51 0 8 51 0 8 51 0 8 51 0 8 51 0 8 51 0 9 51 0 9 51 0 9 52 0 9 52 0 9
52 0 9 52 0 9 52 0 9 52 0 9 52 0 9 52 0 9 52 0 9 52 0 9 52 0 9 53 0 9
53 0 9 53 0 9 53 0 9 53 0 9 53 0 9 53 0 9 53 0 9 53 0 9 53 0 9 53 0 9
54 0 9 54 0 9 54 0 9 54 0 9 54 0 9 54 0 9 54 0 9 54 0 9 54 0 9 54 0 9
54 0 9 55 0 9 55 0 9 55 0 9 55 0 9 55 0 9 55 0 9 55 0 9 55 0 9 55 0 9
55 0 9 55 0 9 55 0 9 56 0 9 56 0 9 56 0 9 56 0 9 56 0 9 56 0 9 56 0 9
56 0 9 56 0 9 56 0 9 56 0 9 57 0 9 57 0 9 57 0 9 57 0 9 57 0 9 57 0 9
57 0 9 57 0 9 57 0 9 57 0 10 57 0 10 57 0 10 58 0 10 58 0 10 58 0 10
58 0 10 58 0 10 58 0 10 58 0 10 58 0 10 58 0 10 58 0 10 58 0 10 58 0
10 58 0 10 59 0 10 59 0 10 59 0 10 59 0 10 59 0 10 59 0 10 59 0 10 59
0 10 59 0 10 59 0 10 59 0 10 59 0 10 59 0 10 60 0 10 60 0 10 60 0 10
60 0 10 60 0 10 60 0 10 60 0 10 60 0 10 60 0 10 60 0 10 60 0 10 60 0
10 60 0 10 60 0 10 60 0 10 61 0 10 61 0 10 61 0 10 61 0 10 61 0 10 61
0 10 61 0 10 61 0 10 61 0 10 61 0 10 61 0 10 61 0 10 61 0 10 61 0 10
61 0 10 61 0 10 61 0 10 61 0 10 61 0 10 62 0 10 62 0 10 62 0 10 62 0
10 62 0 10 62 0 10 62 0 10 62 0 10 62 0 10 62 0 10 62 0 10 62 0 10 62
0 10 62 0 10 62 0 10 62 0 10 62 0 10 62 0 10 62 0 10 62 0 10 62 0 10
62 0 10 62 0 10 62 0 10 62 0 10 62 0 10 62 0 10 62 0 10 63 0 10 63 0
10 63 0 10 63 0 10 63 0 10 63 0 10 63 0 10 63 0 10 63 0 10 63 0 10 63
0 10 63 0 10 63 0 10 63 0 10 63 0 10 63 0 10 63 0 10 63 0 10 63 0 10
63 0 10 63 0 10 63 0 10 63 0 10 63 0 10 63 0 10 63 0 10 63 0 10 63 0
10 63 0 10 63 0 10 63 0 10 63 0 10 63 0 10 63 0 10 63 0 10 63 0 10 63
0 10 63 0 10 63 0 10 63 0 10 63 0 10 63 0 10 63 0 10 63 0 10 63 0 10
62 0 10 62 0 10 62 0 10 62 0 10 62 0 10 62 0 10 62 0 10 62 0 10 62 0
10 62 0 10 62 0 10 62 0 10 62 0 10 62 0 10 62 0 10 62 0 10 62 0 10 62
0 10 62 0 10 62 0 10 62 0 10 62 0 10 62 0 10 62 0 10 62 0 10 62 0 10
62 0 10 62 0 10 61 0 10 61 0 10 61 0 10 61 0 10 61 0 10 61 0 10 61 0
10 61 0 10 61 0 10 61 0 10 61 0 10 61 0 10 61 0 10 61 0 10 61 0 10 61
0 10 61 0 10 61 0 10 60 0 10 60 0 10 60 0 10 60 0 10 60 0 10 60 0 10
60 0 10 60 0 10 60 0 10 60 0 10 60 0 10 60 0 10 60 0 10 60 0 10 60 0
10 59 0 10 59 0 10 59 0 10 59 0 10 59 0 10 59 0 10 59 0 10 59 0 10 59
0 10 59 0 10 59 0 10 59 0 10 59 0 10 59 0 10 58 0 10 58 0 10 58 0 10
58 0 10 58 0 10 58 0 10 58 0 10 58 0 10 58 0 10 58 0 10 58 0 10 58 0
10 57 0 10 57 0 10 57 0 10 57 0 9
43 0 7 43 0 7 43 0 7 43 0 7 43 0 7 43 0 7 43 0 7 43 0 7 43 0 7 43 0 7
43 0 7 43 0 7 44 0 7 44 0 7 44 0 7 44 0 7 44 0 7 44 0 7 44 0 7 44 0 7
44 0 7 44 0 7 44 0 7 44 0 7 44 0 7 45 0 7 45 0 7 45 0 7 45 0 7 45 0 7
45 0 7 45 0 7 45 0 7 45 0 7 45 0 8 45 0 8 45 0 8 45 0 8 46 0 8 46 0 8
46 0 8 46 0 8 46 0 8 46 0 8 46 0 8 46 0 8 46 0 8 46 0 8 46 0 8 46 0 8
47 0 8 47 0 8 47 0 8 47 0 8 47 0 8 47 0 8 47 0 8 47 0 8 47 0 8 47 0 8
47 0 8 47 0 8 47 0 8 48 0 8 48 0 8 48 0 8 48 0 8 48 0 8 48 0 8 48 0 8
48 0 8 48 0 8 48 0 8 48 0 8 48 0 8 49 0 8 49 0 8 49 0 8 49 0 8 49 0 8
49 0 8 49 0 8 49 0 8 49 0 8 49 0 8 49 0 8 50 0 8 50 0 8 50 0 8 50 0 8
50 0 8 50 0 8 50 0 8 50 0 8 50 0 8 50 0 8 50 0 8 50 0 8 51 0 8 51 0 8
51 0 8 51 0 8 51 0 8 51 0 8 51 0 8 51 0 8 51 0 9 51 0 9 51 0 9 52 0 9
52 0 9 52 0 9 52 0 9 52 0 9 52 0 9 52 0 9 52 0 9 52 0 9 52 0 9 52 0 9
52 0 9 53 0 9 53 0 9 53 0 9 53 0 9 53 0 9 53 0 9 53 0 9 53 0 9 53 0 9
53 0 9 53 0 9 54 0 9 54 0 9 54 0 9 54 0 9 54 0 9 54 0 9 54 0 9 54 0 9
54 0 9 54 0 9 54 0 9 55 0 9 55 0 9 55 0 9 55 0 9 55 0 9 55 0 9 55 0 9
55 0 9 55 0 9 55 0 9 55 0 9 55 0 9 56 0 9 56 0 9 56 0 9 56 0 9 56 0 9
56 0 9 56 0 9 56 0 9 56 0 9 56 0 9 56 0 9 56 0 9 57 0 9 57 0 9 57 0 9
57 0 9 57 0 9 57 0 9 57 0 9 57 0 9 57 0 9 57 0 10 57 0 10 57 0 10 58 0
10 58 0 10 58 0 10 58 0 10 58 0 10 58 0 10 58 0 10 58 0 10 58 0 10 58
0 10 58 0 10 58 0 10 58 0 10 59 0 10 59 0 10 59 0 10 59 0 10 59 0 10
59 0 10 59 0 10 59 0 10 59 0 10 59 0 10 59 0 10 59 0 10 59 0 10 59 0
10 60 0 10 60 0 10 60 0 10 60 0 10 60 0 10 60 0 10 60 0 10 60 0 10 60
0 10 60 0 10 60 0 10 60 0 10 60 0 10 60 0 10 60 0 10 60 0 10 61 0 10
61 0 10 61 0 10 61 0 10 61 0 10 61 0 10 61 0 10 61 0 10 61 0 10 61 0
10 61 0 10 61 0 10 61 0 10 61 0 10 61 0 10 61 0 10 61 0 10 61 0 10 61
0 10 61 0 10 61 0 10 62 0 10 62 0 10 62 0 10 62 0 10 62 0 10 62 0 10
62 0 10 62 0 10 62 0 10 62 0 10 62 0 10 62 0 10 62 0 10 62 0 10 62 0
10 62 0 10 62 0 10 62 0 10 62 0 10 62 0 10 62 0 10 62 0 10 62 0 10 62
0 10 62 0 10 62 0 10 62 0 10 62 0 10 62 0 10 62 0 10 62 0 10 62 0 10
62 0 10 62 0 10 62 0 10 62 0 10 62 0 10 62 0 10 62 0 10 62 0 10 62 0
10 62 0 10 62 0 10 62 0 10 62 0 10 62 0 10 62 0 10 62 0 10 62 0 10 62
0 10 62 0 10 62 0 10 62 0 10 62 0 10 62 0 10 62 0 10 62 0 10 62 0 10
62 0 10 62 0 10 62 0 10 62 0 10 62 0 10 62 0 10 62 0 10 62 0 10 62 0
10 62 0 10 62 0 10 62 0 10 62 0 10 62 0 10 62 0 10 62 0 10 62 0 10 62
0 10 62 0 10 62 0 10 62 0 10 62 0 10 62 0 10 62 0 10 62 0 10 62 0 10
62 0 10 62 0 10 62 0 10 62 0 10 61 0 10 61 0 10 61 0 10 61 0 10 61 0
10 61 0 10 61 0 10 61 0 10 61 0 10 61 0 10 61 0 10 61 0 10 61 0 10 61
0 10 61 0 10 61 0 10 61 0 10 61 0 10 61 0 10 61 0 10 60 0 10 60 0 10
60 0 10 60 0 10 60 0 10 60 0 10 60 0 10 60 0 10 60 0 10 60 0 10 60 0
10 60 0 10 60 0 10 60 0 10 60 0 10 60 0 10 59 0 10 59 0 10 59 0 10 59
0 10 59 0 10 59 0 10 59 0 10 59 0 10 59 0 10 59 0 10 59 0 10 59 0 10
59 0 10 59 0 10 59 0 10 58 0 10 58 0 10 58 0 10 58 0 10 58 0 10 58 0
10 58 0 10 58 0 10 58 0 10 58 0 10 58 0 10 58 0 10 58 0 10 57 0 10 57
0 10 57 0 9 57 0 9 57 0 9
43 0 7 43 0 7 43 0 7 43 0 7 43 0 7 43 0 7 43 0 7 43 0 7 43 0 7 43 0 7
43 0 7 44 0 7 44 0 7 44 0 7 44 0 7 44 0 7 44 0 7 44 0 7 44 0 7 44 0 7
44 0 7 44 0 7 44 0 7 44 0 7 44 0 7 45 0 7 45 0 7 45 0 7 45 0 7 45 0 7
45 0 7 45 0 7 45 0 7 45 0 7 45 0 8 45 0 8 45 0 8 45 0 8 46 0 8 46 0 8
46 0 8 46 0 8 46 0 8 46 0 8 46 0 8 46 0 8 46 0 8 46 0 8 46 0 8 46 0 8
46 0 8 47 0 8 47 0 8 47 0 8 47 0 8 47 0 8 47 0 8 47 0 8 47 0 8 47 0 8
47 0 8 47 0 8 47 0 8 48 0 8 48 0 8 48 0 8 48 0 8 48 0 8 48 0 8 48 0 8
48 0 8 48 0 8 48 0 8 48 0 8 48 0 8 49 0 8 49 0 8 49 0 8 49 0 8 49 0 8
49 0 8 49 0 8 49 0 8 49 0 8 49 0 8 49 0 8 49 0 8 50 0 8 50 0 8 50 0 8
50 0 8 50 0 8 50 0 8 50 0 8 50 0 8 50 0 8 50 0 8 50 0 8 50 0 8 51 0 8
51 0 8 51 0 8 51 0 8 51 0 8 51 0 8 51 0 8 51 0 8 51 0 8 51 0 9 51 0 9
52 0 9 52 0 9 52 0 9 52 0 9 52 0 9 52 0 9 52 0 9 52 0 9 52 0 9 52 0 9
52 0 9 52 0 9 53 0 9 53 0 9 53 0 9 53 0 9 53 0 9 53 0 9 53 0 9 53 0 9
53 0 9 53 0 9 53 0 9 53 0 9 54 0 9 54 0 9 54 0 9 54 0 9 54 0 9 54 0 9
54 0 9 54 0 9 54 0 9 54 0 9 54 0 9 55 0 9 55 0 9 55 0 9 55 0 9 55 0 9
55 0 9 55 0 9 55 0 9 55 0 9 55 0 9 55 0 9 55 0 9 56 0 9 56 0 9 56 0 9
56 0 9 56 0 9 56 0 9 56 0 9 56 0 9 56 0 9 56 0 9 56 0 9 56 0 9 57 0 9
57 0 9 57 0 9 57 0 9 57 0 9 57 0 9 57 0 9 57 0 9 57 0 9 57 0 9 57 0 10
57 0 10 57 0 10 58 0 10 58 0 10 58 0 10 58 0 10 58 0 10 58 0 10 58 0
10 58 0 10 58 0 10 58 0 10 58 0 10 58 0 10 58 0 10 58 0 10 59 0 10 59
0 10 59 0 10 59 0 10 59 0 10 59 0 10 59 0 10 59 0 10 59 0 10 59 0 10
59 0 10 59 0 10 59 0 10 59 0 10 59 0 10 60 0 10 60 0 10 60 0 10 60 0
10 60 0 10 60 0 10 60 0 10 60 0 10 60 0 10 60 0 10 60 0 10 60 0 10 60
0 10 60 0 10 60 0 10 60 0 10 60 0 10 61 0 10 61 0 10 61 0 10 61 0 10
61 0 10 61 0 10 61 0 10 61 0 10 61 0 10 61 0 10 61 0 10 61 0 10 61 0
10 61 0 10 61 0 10 61 0 10 61 0 10 61 0 10 61 0 10 61 0 10 61 0 10 61
0 10 61 0 10 61 0 10 62 0 10 62 0 10 62 0 10 62 0 10 62 0 10 62 0 10
62 0 10 62 0 10 62 0 10 62 0 10 62 0 10 62 0 10 62 0 10 62 0 10 62 0
10 62 0 10 62 0 10 62 0 10 62 0 10 62 0 10 62 0 10 62 0 10 62 0 10 62
0 10 62 0 10 62 0 10 62 0 10 62 0 10 62 0 10 62 0 10 62 0 10 62 0 10
62 0 10 62 0 10 62 0 10 62 0 10 62 0 10 62 0 10 62 0 10 62 0 10 62 0
10 62 0 10 62 0 10 62 0 10 62 0 10 62 0 10 62 0 10 62 0 10 62 0 10 62
0 10 62 0 10 62 0 10 62 0 10 62 0 10 62 0 10 62 0 10 62 0 10 62 0 10
62 0 10 62 0 10 62 0 10 62 0 10 62 0 10 62 0 10 62 0 10 62 0 10 62 0
10 62 0 10 62 0 10 62 0 10 62 0 10 61 0 10 61 0 10 61 0 10 61 0 10 61
0 10 61 0 10 61 0 10 61 0 10 61 0 10 61 0 10 61 0 10 61 0 10 61 0 10
61 0 10 61 0 10 61 0 10 61 0 10 61 0 10 61 0 10 61 0 10 61 0 10 61 0
10 61 0 10 61 0 10 60 0 10 60 0 10 60 0 10 60 0 10 60 0 10 60 0 10 60
0 10 60 0 10 60 0 10 60 0 10 60 0 10 60 0 10 60 0 10 60 0 10 60 0 10
60 0 10 60 0 10 59 0 10 59 0 10 59 0 10 59 0 10 59 0 10 59 0 10 59 0
10 59 0 10 59 0 10 59 0 10 59 0 10 59 0 10 59 0 10 59 0 10 59 0 10 58
0 10 58 0 10 58 0 10 58 0 10 58 0 10 58 0 10 58 0 10 58 0 10 58 0 10
58 0 10 58 0 10 58 0 10 58 0 10 58 0 10 57 0 10 57 0 10 57 0 10 57 0 9
57 0 9 57 0 9 57 0 9
43 0 7 43 0 7 43 0 7 43 0 7 43 0 7 43 0 7 43 0 7 43 0 7 43 0 7 43 0 7
43 0 7 44 0 7 44 0 7 44 0 7 44 0 7 44 0 7 44 0 7 44 0 7 44 0 7 44 0 7
44 0 7 44 0 7 44 0 7 44 0 7 44 0 7 45 0 7 45 0 7 45 0 7 45 0 7 45 0 7
45 0 7 45 0 7 45 0 7 45 0 7 45 0 7 45 0 8 45 0 8 45 0 8 46 0 8 46 0 8
46 0 8 46 0 8 46 0 8 46 0 8 46 0 8 46 0 8 46 0 8 46 0 8 46 0 8 46 0 8
46 0 8 47 0 8 47 0 8 47 0 8 47 0 8 47 0 8 47 0 8 47 0 8 47 0 8 47 0 8
47 0 8 47 0 8 47 0 8 47 0 8 48 0 8 48 0 8 48 0 8 48 0 8 48 0 8 48 0 8
48 0 8 48 0 8 48 0 8 48 0 8 48 0 8 48 0 8 49 0 8 49 0 8 49 0 8 49 0 8
49 0 8 49 0 8 49 0 8 49 0 8 49 0 8 49 0 8 49 0 8 49 0 8 50 0 8 50 0 8
50 0 8 50 0 8 50 0 8 50 0 8 50 0 8 50 0 8 50 0 8 50 0 8 50 0 8 50 0 8
51 0 8 51 0 8 51 0 8 51 0 8 51 0 8 51 0 8 51 0 8 51 0 8 51 0 8 51 0 9
51 0 9 51 0 9 52 0 9 52 0 9 52 0 9 52 0 9 52 0 9 52 0 9 52 0 9 52 0 9
52 0 9 52 0 9 52 0 9 52 0 9 53 0 9 53 0 9 53 0 9 53 0 9 53 0 9 53 0 9
53 0 9 53 0 9 53 0 9 53 0 9 53 0 9 54 0 9 54 0 9 54 0 9 54 0 9 54 0 9
54 0 9 54 0 9 54 0 9 54 0 9 54 0 9 54 0 9 54 0 9 55 0 9 55 0 9 55 0 9
55 0 9 55 0 9 55 0 9 55 0 9 55 0 9 55 0 9 55 0 9 55 0 9 55 0 9 56 0 9
56 0 9 56 0 9 56 0 9 56 0 9 56 0 9 56 0 9 56 0 9 56 0 9 56 0 9 56 0 9
56 0 9 56 0 9 57 0 9 57 0 9 57 0 9 57 0 9 57 0 9 57 0 9 57 0 9 57 0 9
57 0 9 57 0 9 57 0 10 57 0 10 57 0 10 58 0 10 58 0 10 58 0 10 58 0 10
58 0 10 58 0 10 58 0 10 58 0 10 58 0 10 58 0 10 58 0 10 58 0 10 58 0
10 58 0 10 59 0 10 59 0 10 59 0 10 59 0 10 59 0 10 59 0 10 59 0 10 59
0 10 59 0 10 59 0 10 59 0 10 59 0 10 59 0 10 59 0 10 59 0 10 59 0 10
60 0 10 60 0 10 60 0 10 60 0 10 60 0 10 60 0 10 60 0 10 60 0 10 60 0
10 60 0 10 60 0 10 60 0 10 60 0 10 60 0 10 60 0 10 60 0 10 60 0 10 60
0 10 60 0 10 61 0 10 61 0 10 61 0 10 61 0 10 61 0 10 61 0 10 61 0 10
61 0 10 61 0 10 61 0 10 61 0 10 61 0 10 61 0 10 61 0 10 61 0 10 61 0
10 61 0 10 61 0 10 61 0 10 61 0 10 61 0 10 61 0 10 61 0 10 61 0 10 61
0 10 61 0 10 61 0 10 61 0 10 61 0 10 62 0 10 62 0 10 62 0 10 62 0 10
62 0 10 62 0 10 62 0 10 62 0 10 62 0 10 62 0 10 62 0 10 62 0 10 62 0
10 62 0 10 62 0 10 62 0 10 62 0 10 62 0 10 62 0 10 62 0 10 62 0 10 62
0 10 62 0 10 62 0 10 62 0 10 62 0 10 62 0 10 62 0 10 62 0 10 62 0 10
62 0 10 62 0 10 62 0 10 62 0 10 62 0 10 62 0 10 62 0 10 62 0 10 62 0
10 62 0 10 62 0 10 62 0 10 62 0 10 62 0 10 62 0 10 62 0 10 62 0 10 62
0 10 62 0 10 62 0 10 61 0 10 61 0 10 61 0 10 61 0 10 61 0 10 61 0 10
61 0 10 61 0 10 61 0 10 61 0 10 61 0 10 61 0 10 61 0 10 61 0 10 61 0
10 61 0 10 61 0 10 61 0 10 61 0 10 61 0 10 61 0 10 61 0 10 61 0 10 61
0 10 61 0 10 61 0 10 61 0 10 61 0 10 61 0 10 60 0 10 60 0 10 60 0 10
60 0 10 60 0 10 60 0 10 60 0 10 60 0 10 60 0 10 60 0 10 60 0 10 60 0
10 60 0 10 60 0 10 60 0 10 60 0 10 60 0 10 60 0 10 60 0 10 59 0 10 59
0 10 59 0 10 59 0 10 59 0 10 59 0 10 59 0 10 59 0 10 59 0 10 59 0 10
59 0 10 59 0 10 59 0 10 59 0 10 59 0 10 59 0 10 58 0 10 58 0 10 58 0
10 58 0 10 58 0 10 58 0 10 58 0 10 58 0 10 58 0 10 58 0 10 58 0 10 58
0 10 58 0 10 58 0 10 57 0 10 57 0 10 57 0 10 57 0 9 57 0 9 57 0 9 57 0
9 57 0 9 57 0 9
43 0 7 43 0 7 43 0 7 43 0 7 43 0 7 43 0 7 43 0 7 43 0 7 43 0 7 43 0 7
43 0 7 44 0 7 44 0 7 44 0 7 44 0 7 44 0 7 44 0 7 44 0 7 44 0 7 44 0 7
44 0 7 44 0 7 44 0 7 44 0 7 44 0 7 45 0 7 45 0 7 45 0 7 45 0 7 45 0 7
45 0 7 45 0 7 45 0 7 45 0 7 45 0 7 45 0 8 45 0 8 45 0 8 45 0 8 46 0 8
46 0 8 46 0 8 46 0 8 46 0 8 46 0 8 46 0 8 46 0 8 46 0 8 46 0 8 46 0 8
46 0 8 46 0 8 47 0 8 47 0 8 47 0 8 47 0 8 47 0 8 47 0 8 47 0 8 47 0 8
47 0 8 47 0 8 47 0 8 47 0 8 48 0 8 48 0 8 48 0 8 48 0 8 48 0 8 48 0 8
48 0 8 48 0 8 48 0 8 48 0 8 48 0 8 48 0 8 48 0 8 49 0 8 49 0 8 49 0 8
49 0 8 49 0 8 49 0 8 49 0 8 49 0 8 49 0 8 49 0 8 49 0 8 49 0 8 50 0 8
50 0 8 50 0 8 50 0 8 50 0 8 50 0 8 50 0 8 50 0 8 50 0 8 50 0 8 50 0 8
50 0 8 51 0 8 51 0 8 51 0 8 51 0 8 51 0 8 51 0 8 51 0 8 51 0 8 51 0 8
51 0 9 51 0 9 51 0 9 52 0 9 52 0 9 52 0 9 52 0 9 52 0 9 52 0 9 52 0 9
52 0 9 52 0 9 52 0 9 52 0 9 52 0 9 53 0 9 53 0 9 53 0 9 53 0 9 53 0 9
53 0 9 53 0 9 53 0 9 53 0 9 53 0 9 53 0 9 53 0 9 54 0 9 54 0 9 54 0 9
54 0 9 54 0 9 54 0 9 54 0 9 54 0 9 54 0 9 54 0 9 54 0 9 54 0 9 55 0 9
55 0 9 55 0 9 55 0 9 55 0 9 55 0 9 55 0 9 55 0 9 55 0 9 55 0 9 55 0 9
55 0 9 55 0 9 56 0 9 56 0 9 56 0 9 56 0 9 56 0 9 56 0 9 56 0 9 56 0 9
56 0 9 56 0 9 56 0 9 56 0 9 56 0 9 57 0 9 57 0 9 57 0 9 57 0 9 57 0 9
57 0 9 57 0 9 57 0 9 57 0 9 57 0 9 57 0 10 57 0 10 57 0 10 58 0 10 58
0 10 58 0 10 58 0 10 58 0 10 58 0 10 58 0 10 58 0 10 58 0 10 58 0 10
58 0 10 58 0 10 58 0 10 58 0 10 58 0 10 59 0 10 59 0 10 59 0 10 59 0
10 59 0 10 59 0 10 59 0 10 59 0 10 59 0 10 59 0 10 59 0 10 59 0 10 59
0 10 59 0 10 59 0 10 59 0 10 59 0 10 60 0 10 60 0 10 60 0 10 60 0 10
60 0 10 60 0 10 60 0 10 60 0 10 60 0 10 60 0 10 60 0 10 60 0 10 60 0
10 60 0 10 60 0 10 60 0 10 60 0 10 60 0 10 60 0 10 60 0 10 60 0 10 61
0 10 61 0 10 61 0 10 61 0 10 61 0 10 61 0 10 61 0 10 61 0 10 61 0 10
61 0 10 61 0 10 61 0 10 61 0 10 61 0 10 61 0 10 61 0 10 61 0 10 61 0
10 61 0 10 61 0 10 61 0 10 61 0 10 61 0 10 61 0 10 61 0 10 61 0 10 61
0 10 61 0 10 61 0 10 61 0 10 61 0 10 61 0 10 61 0 10 61 0 10 61 0 10
61 0 10 61 0 10 61 0 10 61 0 10 61 0 10 61 0 10 61 0 10 61 0 10 61 0
10 61 0 10 61 0 10 61 0 10 61 0 10 61 0 10 61 0 10 61 0 10 61 0 10 61
0 10 61 0 10 61 0 10 61 0 10 61 0 10 61 0 10 61 0 10 61 0 10 61 0 10
61 0 10 61 0 10 61 0 10 61 0 10 61 0 10 61 0 10 61 0 10 61 0 10 61 0
10 61 0 10 61 0 10 61 0 10 61 0 10 61 0 10 61 0 10 61 0 10 61 0 10 61
0 10 61 0 10 61 0 10 61 0 10 61 0 10 61 0 10 61 0 10 61 0 10 61 0 10
61 0 10 61 0 10 61 0 10 61 0 10 61 0 10 61 0 10 61 0 10 61 0 10 60 0
10 60 0 10 60 0 10 60 0 10 60 0 10 60 0 10 60 0 10 60 0 10 60 0 10 60
0 10 60 0 10 60 0 10 60 0 10 60 0 10 60 0 10 60 0 10 60 0 10 60 0 10
60 0 10 60 0 10 60 0 10 59 0 10 59 0 10 59 0 10 59 0 10 59 0 10 59 0
10 59 0 10 59 0 10 59 0 10 59 0 10 59 0 10 59 0 10 59 0 10 59 0 10 59
0 10 59 0 10 59 0 10 58 0 10 58 0 10 58 0 10 58 0 10 58 0 10 58 0 10
58 0 10 58 0 10 58 0 10 58 0 10 58 0 10 58 0 10 58 0 10 58 0 10 58 0
10 57 0 10 57 0 10 57 0 10 57 0 9 57 0 9 57 0 9 57 0 9 57 0 9 57 0 9
57 0 9 57 0 9
43 0 7 43 0 7 43 0 7 43 0 7 43 0 7 43 0 7 43 0 7 43 0 7 43 0 7 43 0 7
43 0 7 44 0 7 44 0 7 44 0 7 44 0 7 44 0 7 44 0 7 44 0 7 44 0 7 44 0 7
44 0 7 44 0 7 44 0 7 44 0 7 44 0 7 45 0 7 45 0 7 45 0 7 45 0 7 45 0 7
45 0 7 45 0 7 45 0 7 45 0 7 45 0 7 45 0 8 45 0 8 45 0 8 45 0 8 46 0 8
46 0 8 46 0 8 46 0 8 46 0 8 46 0 8 46 0 8 46 0 8 46 0 8 46 0 8 46 0 8
46 0 8 46 0 8 47 0 8 47 0 8 47 0 8 47 0 8 47 0 8 47 0 8 47 0 8 47 0 8
47 0 8 47 0 8 47 0 8 47 0 8 47 0 8 48 0 8 48 0 8 48 0 8 48 0 8 48 0 8
48 0 8 48 0 8 48 0 8 48 0 8 48 0 8 48 0 8 48 0 8 48 0 8 49 0 8 49 0 8
49 0 8 49 0 8 49 0 8 49 0 8 49 0 8 49 0 8 49 0 8 49 0 8 49 0 8 49 0 8
50 0 8 50 0 8 50 0 8 50 0 8 50 0 8 50 0 8 50 0 8 50 0 8 50 0 8 50 0 8
50 0 8 50 0 8 51 0 8 51 0 8 51 0 8 51 0 8 51 0 8 51 0 8 51 0 8 51 0 8
51 0 8 51 0 9 51 0 9 51 0 9 52 0 9 52 0 9 52 0 9 52 0 9 52 0 9 52 0 9
52 0 9 52 0 9 52 0 9 52 0 9 52 0 9 52 0 9 52 0 9 53 0 9 53 0 9 53 0 9
53 0 9 53 0 9 53 0 9 53 0 9 53 0 9 53 0 9 53 0 9 53 0 9 53 0 9 54 0 9
54 0 9 54 0 9 54 0 9 54 0 9 54 0 9 54 0 9 54 0 9 54 0 9 54 0 9 54 0 9
54 0 9 55 0 9 55 0 9 55 0 9 55 0 9 55 0 9 55 0 9 55 0 9 55 0 9 55 0 9
55 0 9 55 0 9 55 0 9 55 0 9 56 0 9 56 0 9 56 0 9 56 0 9 56 0 9 56 0 9
56 0 9 56 0 9 56 0 9 56 0 9 56 0 9 56 0 9 56 0 9 56 0 9 57 0 9 57 0 9
57 0 9 57 0 9 57 0 9 57 0 9 57 0 9 57 0 9 57 0 9 57 0 9 57 0 9 57 0 10
57 0 10 57 0 10 58 0 10 58 0 10 58 0 10 58 0 10 58 0 10 58 0 10 58 0
10 58 0 10 58 0 10 58 0 10 58 0 10 58 0 10 58 0 10 58 0 10 58 0 10 59
0 10 59 0 10 59 0 10 59 0 10 59 0 10 59 0 10 59 0 10 59 0 10 59 0 10
59 0 10 59 0 10 59 0 10 59 0 10 59 0 10 59 0 10 59 0 10 59 0 10 59 0
10 59 0 10 60 0 10 60 0 10 60 0 10 60 0 10 60 0 10 60 0 10 60 0 10 60
0 10 60 0 10 60 0 10 60 0 10 60 0 10 60 0 10 60 0 10 60 0 10 60 0 10
60 0 10 60 0 10 60 0 10 60 0 10 60 0 10 60 0 10 60 0 10 61 0 10 61 0
10 61 0 10 61 0 10 61 0 10 61 0 10 61 0 10 61 0 10 61 0 10 61 0 10 61
0 10 61 0 10 61 0 10 61 0 10 61 0 10 61 0 10 61 0 10 61 0 10 61 0 10
61 0 10 61 0 10 61 0 10 61 0 10 61 0 10 61 0 10 61 0 10 61 0 10 61 0
10 61 0 10 61 0 10 61 0 10 61 0 10 61 0 10 61 0 10 61 0 10 61 0 10 61
0 10 61 0 10 61 0 10 61 0 10 61 0 10 61 0 10 61 0 10 61 0 10 61 0 10
61 0 10 61 0 10 61 0 10 61 0 10 61 0 10 61 0 10 61 0 10 61 0 10 61 0
10 61 0 10 61 0 10 61 0 10 61 0 10 61 0 10 61 0 10 61 0 10 61 0 10 61
0 10 61 0 10 61 0 10 61 0 10 61 0 10 61 0 10 61 0 10 61 0 10 61 0 10
61 0 10 61 0 10 61 0 10 61 0 10 61 0 10 61 0 10 61 0 10 61 0 10 61 0
10 60 0 10 60 0 10 60 0 10 60 0 10 60 0 10 60 0 10 60 0 10 60 0 10 60
0 10 60 0 10 60 0 10 60 0 10 60 0 10 60 0 10 60 0 10 60 0 10 60 0 10
60 0 10 60 0 10 60 0 10 60 0 10 60 0 10 60 0 10 60 0 10 59 0 10 59 0
10 59 0 10 59 0 10 59 0 10 59 0 10 59 0 10 59 0 10 59 0 10 59 0 10 59
0 10 59 0 10 59 0 10 59 0 10 59 0 10 59 0 10 59 0 10 59 0 10 58 0 10
58 0 10 58 0 10 58 0 10 58 0 10 58 0 10 58 0 10 58 0 10 58 0 10 58 0
10 58 0 10 58 0 10 58 0 10 58 0 10 58 0 10 58 0 10 57 0 10 57 0 10 57
0 10 57 0 9 57 0 9 57 0 9 57 0 9 57 0 9 57 0 9 57 0 9 57 0 9 57 0 9 57
0 9
43 0 7 43 0 7 43 0 7 43 0 7 43 0 7 43 0 7 43 0 7 43 0 7 43 0 7 43 0 7
43 0 7 44 0 7 44 0 7 44 0 7 44 0 7 44 0 7 44 0 7 44 0 7 44 0 7 44 0 7
44 0 7 44 0 7 44 0 7 44 0 7 44 0 7 45 0 7 45 0 7 45 0 7 45 0 7 45 0 7
45 0 7 45 0 7 45 0 7 45 0 7 45 0 7 45 0 8 45 0 8 45 0 8 45 0 8 46 0 8
46 0 8 46 0 8 46 0 8 46 0 8 46 0 8 46 0 8 46 0 8 46 0 8 46 0 8 46 0 8
46 0 8 46 0 8 47 0 8 47 0 8 47 0 8 47 0 8 47 0 8 47 0 8 47 0 8 47 0 8
47 0 8 47 0 8 47 0 8 47 0 8 47 0 8 47 0 8 48 0 8 48 0 8 48 0 8 48 0 8
48 0 8 48 0 8 48 0 8 48 0 8 48 0 8 48 0 8 48 0 8 48 0 8 49 0 8 49 0 8
49 0 8 49 0 8 49 0 8 49 0 8 49 0 8 49 0 8 49 0 8 49 0 8 49 0 8 49 0 8
49 0 8 50 0 8 50 0 8 50 0 8 50 0 8 50 0 8 50 0 8 50 0 8 50 0 8 50 0 8
50 0 8 50 0 8 50 0 8 51 0 8 51 0 8 51 0 8 51 0 8 51 0 8 51 0 8 51 0 8
51 0 8 51 0 8 51 0 8 51 0 9 51 0 9 51 0 9 52 0 9 52 0 9 52 0 9 52 0 9
52 0 9 52 0 9 52 0 9 52 0 9 52 0 9 52 0 9 52 0 9 52 0 9 53 0 9 53 0 9
53 0 9 53 0 9 53 0 9 53 0 9 53 0 9 53 0 9 53 0 9 53 0 9 53 0 9 53 0 9
53 0 9 54 0 9 54 0 9 54 0 9 54 0 9 54 0 9 54 0 9 54 0 9 54 0 9 54 0 9
54 0 9 54 0 9 54 0 9 54 0 9 55 0 9 55 0 9 55 0 9 55 0 9 55 0 9 55 0 9
55 0 9 55 0 9 55 0 9 55 0 9 55 0 9 55 0 9 55 0 9 56 0 9 56 0 9 56 0 9
56 0 9 56 0 9 56 0 9 56 0 9 56 0 9 56 0 9 56 0 9 56 0 9 56 0 9 56 0 9
56 0 9 57 0 9 57 0 9 57 0 9 57 0 9 57 0 9 57 0 9 57 0 9 57 0 9 57 0 9
57 0 9 57 0 9 57 0 10 57 0 10 57 0 10 58 0 10 58 0 10 58 0 10 58 0 10
58 0 10 58 0 10 58 0 10 58 0 10 58 0 10 58 0 10 58 0 10 58 0 10 58 0
10 58 0 10 58 0 10 58 0 10 58 0 10 59 0 10 59 0 10 59 0 10 59 0 10 59
0 10 59 0 10 59 0 10 59 0 10 59 0 10 59 0 10 59 0 10 59 0 10 59 0 10
59 0 10 59 0 10 59 0 10 59 0 10 59 0 10 59 0 10 60 0 10 60 0 10 60 0
10 60 0 10 60 0 10 60 0 10 60 0 10 60 0 10 60 0 10 60 0 10 60 0 10 60
0 10 60 0 10 60 0 10 60 0 10 60 0 10 60 0 10 60 0 10 60 0 10 60 0 10
60 0 10 60 0 10 60 0 10 60 0 10 60 0 10 60 0 10 60 0 10 60 0 10 60 0
10 61 0 10 61 0 10 61 0 10 61 0 10 61 0 10 61 0 10 61 0 10 61 0 10 61
0 10 61 0 10 61 0 10 61 0 10 61 0 10 61 0 10 61 0 10 61 0 10 61 0 10
61 0 10 61 0 10 61 0 10 61 0 10 61 0 10 61 0 10 61 0 10 61 0 10 61 0
10 61 0 10 61 0 10 61 0 10 61 0 10 61 0 10 61 0 10 61 0 10 61 0 10 61
0 10 61 0 10 61 0 10 61 0 10 61 0 10 61 0 10 61 0 10 61 0 10 61 0 10
61 0 10 61 0 10 61 0 10 61 0 10 61 0 10 61 0 10 61 0 10 61 0 10 61 0
10 61 0 10 61 0 10 61 0 10 61 0 10 61 0 10 61 0 10 61 0 10 61 0 10 60
0 10 60 0 10 60 0 10 60 0 10 60 0 10 60 0 10 60 0 10 60 0 10 60 0 10
60 0 10 60 0 10 60 0 10 60 0 10 60 0 10 60 0 10 60 0 10 60 0 10 60 0
10 60 0 10 60 0 10 60 0 10 60 0 10 60 0 10 60 0 10 60 0 10 60 0 10 60
0 10 60 0 10 59 0 10 59 0 10 59 0 10 59 0 10 59 0 10 59 0 10 59 0 10
59 0 10 59 0 10 59 0 10 59 0 10 59 0 10 59 0 10 59 0 10 59 0 10 59 0
10 59 0 10 59 0 10 59 0 10 59 0 10 58 0 10 58 0 10 58 0 10 58 0 10 58
0 10 58 0 10 58 0 10 58 0 10 58 0 10 58 0 10 58 0 10 58 0 10 58 0 10
58 0 10 58 0 10 58 0 10 57 0 10 57 0 10 57 0 10 57 0 10 57 0 9 57 0 9
57 0 9 57 0 9 57 0 9 57 0 9 57 0 9 57 0 9 57 0 9 57 0 9 57 0 9 56 0 9
43 0 7 43 0 7 43 0 7 43 0 7 43 0 7 43 0 7 43 0 7 43 0 7 43 0 7 43 0 7
43 0 7 44 0 7 44 0 7 44 0 7 44 0 7 44 0 7 44 0 7 44 0 7 44 0 7 44 0 7
44 0 7 44 0 7 44 0 7 44 0 7 44 0 7 45 0 7 45 0 7 45 0 7 45 0 7 45 0 7
45 0 7 45 0 7 45 0 7 45 0 7 45 0 7 45 0 7 45 0 8 45 0 8 45 0 8 46 0 8
46 0 8 46 0 8 46 0 8 46 0 8 46 0 8 46 0 8 46 0 8 46 0 8 46 0 8 46 0 8
46 0 8 46 0 8 46 0 8 47 0 8 47 0 8 47 0 8 47 0 8 47 0 8 47 0 8 47 0 8
47 0 8 47 0 8 47 0 8 47 0 8 47 0 8 47 0 8 48 0 8 48 0 8 48 0 8 48 0 8
48 0 8 48 0 8 48 0 8 48 0 8 48 0 8 48 0 8 48 0 8 48 0 8 48 0 8 49 0 8
49 0 8 49 0 8 49 0 8 49 0 8 49 0 8 49 0 8 49 0 8 49 0 8 49 0 8 49 0 8
49 0 8 49 0 8 50 0 8 50 0 8 50 0 8 50 0 8 50 0 8 50 0 8 50 0 8 50 0 8
50 0 8 50 0 8 50 0 8 50 0 8 50 0 8 51 0 8 51 0 8 51 0 8 51 0 8 51 0 8
51 0 8 51 0 8 51 0 8 51 0 8 51 0 9 51 0 9 51 0 9 52 0 9 52 0 9 52 0 9
52 0 9 52 0 9 52 0 9 52 0 9 52 0 9 52 0 9 52 0 9 52 0 9 52 0 9 52 0 9
53 0 9 53 0 9 53 0 9 53 0 9 53 0 9 53 0 9 53 0 9 53 0 9 53 0 9 53 0 9
53 0 9 53 0 9 53 0 9 54 0 9 54 0 9 54 0 9 54 0 9 54 0 9 54 0 9 54 0 9
54 0 9 54 0 9 54 0 9 54 0 9 54 0 9 54 0 9 55 0 9 55 0 9 55 0 9 55 0 9
55 0 9 55 0 9 55 0 9 55 0 9 55 0 9 55 0 9 55 0 9 55 0 9 55 0 9 55 0 9
56 0 9 56 0 9 56 0 9 56 0 9 56 0 9 56 0 9 56 0 9 56 0 9 56 0 9 56 0 9
56 0 9 56 0 9 56 0 9 56 0 9 57 0 9 57 0 9 57 0 9 57 0 9 57 0 9 57 0 9
57 0 9 57 0 9 57 0 9 57 0 9 57 0 9 57 0 9 57 0 10 57 0 10 57 0 10 58 0
10 58 0 10 58 0 10 58 0 10 58 0 10 58 0 10 58 0 10 58 0 10 58 0 10 58
0 10 58 0 10 58 0 10 58 0 10 58 0 10 58 0 10 58 0 10 58 0 10 58 0 10
59 0 10 59 0 10 59 0 10 59 0 10 59 0 10 59 0 10 59 0 10 59 0 10 59 0
10 59 0 10 59 0 10 59 0 10 59 0 10 59 0 10 59 0 10 59 0 10 59 0 10 59
0 10 59 0 10 59 0 10 59 0 10 60 0 10 60 0 10 60 0 10 60 0 10 60 0 10
60 0 10 60 0 10 60 0 10 60 0 10 60 0 10 60 0 10 60 0 10 60 0 10 60 0
10 60 0 10 60 0 10 60 0 10 60 0 10 60 0 10 60 0 10 60 0 10 60 0 10 60
0 10 60 0 10 60 0 10 60 0 10 60 0 10 60 0 10 60 0 10 60 0 10 60 0 10
60 0 10 60 0 10 60 0 10 60 0 10 60 0 10 60 0 10 60 0 10 61 0 10 61 0
10 61 0 10 61 0 10 61 0 10 61 0 10 61 0 10 61 0 10 61 0 10 61 0 10 61
0 10 61 0 10 61 0 10 61 0 10 61 0 10 61 0 10 61 0 10 61 0 10 61 0 10
61 0 10 61 0 10 61 0 10 61 0 10 61 0 10 61 0 10 61 0 10 61 0 10 61 0
10 61 0 10 60 0 10 60 0 10 60 0 10 60 0 10 60 0 10 60 0 10 60 0 10 60
0 10 60 0 10 60 0 10 60 0 10 60 0 10 60 0 10 60 0 10 60 0 10 60 0 10
60 0 10 60 0 10 60 0 10 60 0 10 60 0 10 60 0 10 60 0 10 60 0 10 60 0
10 60 0 10 60 0 10 60 0 10 60 0 10 60 0 10 60 0 10 60 0 10 60 0 10 60
0 10 60 0 10 60 0 10 60 0 10 60 0 10 59 0 10 59 0 10 59 0 10 59 0 10
59 0 10 59 0 10 59 0 10 59 0 10 59 0 10 59 0 10 59 0 10 59 0 10 59 0
10 59 0 10 59 0 10 59 0 10 59 0 10 59 0 10 59 0 10 59 0 10 59 0 10 58
0 10 58 0 10 58 0 10 58 0 10 58 0 10 58 0 10 58 0 10 58 0 10 58 0 10
58 0 10 58 0 10 58 0 10 58 0 10 58 0 10 58 0 10 58 0 10 58 0 10 58 0
10 57 0 10 57 0 10 57 0 10 57 0 9 57 0 9 57 0 9 57 0 9 57 0 9 57 0 9
57 0 9 57 0 9 57 0 9 57 0 9 57 0 9 57 0 9 56 0 9 56 0 9 56 0 9
43 0 7 43 0 7 43 0 7 43 0 7 43 0 7 43 0 7 43 0 7 43 0 7 43 0 7 43 0 7
43 0 7 44 0 7 44 0 7 44 0 7 44 0 7 44 0 7 44 0 7 44 0 7 44 0 7 44 0 7
44 0 7 44 0 7 44 0 7 44 0 7 44 0 7 44 0 7 45 0 7 45 0 7 45 0 7 45 0 7
45 0 7 45 0 7 45 0 7 45 0 7 45 0 7 45 0 7 45 0 8 45 0 8 45 0 8 45 0 8
46 0 8 46 0 8 46 0 8 46 0 8 46 0 8 46 0 8 46 0 8 46 0 8 46 0 8 46 0 8
46 0 8 46 0 8 46 0 8 47 0 8 47 0 8 47 0 8 47 0 8 47 0 8 47 0 8 47 0 8
47 0 8 47 0 8 47 0 8 47 0 8 47 0 8 47 0 8 47 0 8 48 0 8 48 0 8 48 0 8
48 0 8 48 0 8 48 0 8 48 0 8 48 0 8 48 0 8 48 0 8 48 0 8 48 0 8 48 0 8
49 0 8 49 0 8 49 0 8 49 0 8 49 0 8 49 0 8 49 0 8 49 0 8 49 0 8 49 0 8
49 0 8 49 0 8 49 0 8 50 0 8 50 0 8 50 0 8 50 0 8 50 0 8 50 0 8 50 0 8
50 0 8 50 0 8 50 0 8 50 0 8 50 0 8 50 0 8 51 0 8 51 0 8 51 0 8 51 0 8
51 0 8 51 0 8 51 0 8 51 0 8 51 0 8 51 0 8 51 0 9 51 0 9 51 0 9 52 0 9
52 0 9 52 0 9 52 0 9 52 0 9 52 0 9 52 0 9 52 0 9 52 0 9 52 0 9 52 0 9
52 0 9 52 0 9 53 0 9 53 0 9 53 0 9 53 0 9 53 0 9 53 0 9 53 0 9 53 0 9
53 0 9 53 0 9 53 0 9 53 0 9 53 0 9 54 0 9 54 0 9 54 0 9 54 0 9 54 0 9
54 0 9 54 0 9 54 0 9 54 0 9 54 0 9 54 0 9 54 0 9 54 0 9 55 0 9 55 0 9
55 0 9 55 0 9 55 0 9 55 0 9 55 0 9 55 0 9 55 0 9 55 0 9 55 0 9 55 0 9
55 0 9 55 0 9 56 0 9 56 0 9 56 0 9 56 0 9 56 0 9 56 0 9 56 0 9 56 0 9
56 0 9 56 0 9 56 0 9 56 0 9 56 0 9 56 0 9 56 0 9 57 0 9 57 0 9 57 0 9
57 0 9 57 0 9 57 0 9 57 0 9 57 0 9 57 0 9 57 0 9 57 0 9 57 0 9 57 0 10
57 0 10 57 0 10 57 0 10 58 0 10 58 0 10 58 0 10 58 0 10 58 0 10 58 0
10 58 0 10 58 0 10 58 0 10 58 0 10 58 0 10 58 0 10 58 0 10 58 0 10 58
0 10 58 0 10 58 0 10 58 0 10 58 0 10 59 0 10 59 0 10 59 0 10 59 0 10
59 0 10 59 0 10 59 0 10 59 0 10 59 0 10 59 0 10 59 0 10 59 0 10 59 0
10 59 0 10 59 0 10 59 0 10 59 0 10 59 0 10 59 0 10 59 0 10 59 0 10 59
0 10 59 0 10 59 0 10 60 0 10 60 0 10 60 0 10 60 0 10 60 0 10 60 0 10
60 0 10 60 0 10 60 0 10 60 0 10 60 0 10 60 0 10 60 0 10 60 0 10 60 0
10 60 0 10 60 0 10 60 0 10 60 0 10 60 0 10 60 0 10 60 0 10 60 0 10 60
0 10 60 0 10 60 0 10 60 0 10 60 0 10 60 0 10 60 0 10 60 0 10 60 0 10
60 0 10 60 0 10 60 0 10 60 0 10 60 0 10 60 0 10 60 0 10 60 0 10 60 0
10 60 0 10 60 0 10 60 0 10 60 0 10 60 0 10 60 0 10 60 0 10 60 0 10 60
0 10 60 0 10 60 0 10 60 0 10 60 0 10 60 0 10 60 0 10 60 0 10 60 0 10
60 0 10 60 0 10 60 0 10 60 0 10 60 0 10 60 0 10 60 0 10 60 0 10 60 0
10 60 0 10 60 0 10 60 0 10 60 0 10 60 0 10 60 0 10 60 0 10 60 0 10 60
0 10 60 0 10 60 0 10 60 0 10 60 0 10 60 0 10 60 0 10 60 0 10 60 0 10
60 0 10 60 0 10 60 0 10 60 0 10 60 0 10 60 0 10 60 0 10 59 0 10 59 0
10 59 0 10 59 0 10 59 0 10 59 0 10 59 0 10 59 0 10 59 0 10 59 0 10 59
0 10 59 0 10 59 0 10 59 0 10 59 0 10 59 0 10 59 0 10 59 0 10 59 0 10
59 0 10 59 0 10 59 0 10 59 0 10 59 0 10 58 0 10 58 0 10 58 0 10 58 0
10 58 0 10 58 0 10 58 0 10 58 0 10 58 0 10 58 0 10 58 0 10 58 0 10 58
0 10 58 0 10 58 0 10 58 0 10 58 0 10 58 0 10 57 0 10 57 0 10 57 0 10
57 0 10 57 0 9 57 0 9 57 0 9 57 0 9 57 0 9 57 0 9 57 0 9 57 0 9 57 0 9
57 0 9 57 0 9 57 0 9 56 0 9 56 0 9 56 0 9 56 0 9 56 0 9
43 0 7 43 0 7 43 0 7 43 0 7 43 0 7 43 0 7 43 0 7 43 0 7 43 0 7 43 0 7
43 0 7 44 0 7 44 0 7 44 0 7 44 0 7 44 0 7 44 0 7 44 0 7 44 0 7 44 0 7
44 0 7 44 0 7 44 0 7 44 0 7 44 0 7 44 0 7 45 0 7 45 0 7 45 0 7 45 0 7
45 0 7 45 0 7 45 0 7 45 0 7 45 0 7 45 0 7 45 0 8 45 0 8 45 0 8 45 0 8
46 0 8 46 0 8 46 0 8 46 0 8 46 0 8 46 0 8 46 0 8 46 0 8 46 0 8 46 0 8
46 0 8 46 0 8 46 0 8 46 0 8 47 0 8 47 0 8 47 0 8 47 0 8 47 0 8 47 0 8
47 0 8 47 0 8 47 0 8 47 0 8 47 0 8 47 0 8 47 0 8 47 0 8 48 0 8 48 0 8
48 0 8 48 0 8 48 0 8 48 0 8 48 0 8 48 0 8 48 0 8 48 0 8 48 0 8 48 0 8
48 0 8 49 0 8 49 0 8 49 0 8 49 0 8 49 0 8 49 0 8 49 0 8 49 0 8 49 0 8
49 0 8 49 0 8 49 0 8 49 0 8 50 0 8 50 0 8 50 0 8 50 0 8 50 0 8 50 0 8
50 0 8 50 0 8 50 0 8 50 0 8 50 0 8 50 0 8 50 0 8 51 0 8 51 0 8 51 0 8
51 0 8 51 0 8 51 0 8 51 0 8 51 0 8 51 0 8 51 0 8 51 0 9 51 0 9 51 0 9
52 0 9 52 0 9 52 0 9 52 0 9 52 0 9 52 0 9 52 0 9 52 0 9 52 0 9 52 0 9
52 0 9 52 0 9 52 0 9 52 0 9 53 0 9 53 0 9 53 0 9 53 0 9 53 0 9 53 0 9
53 0 9 53 0 9 53 0 9 53 0 9 53 0 9 53 0 9 53 0 9 54 0 9 54 0 9 54 0 9
54 0 9 54 0 9 54 0 9 54 0 9 54 0 9 54 0 9 54 0 9 54 0 9 54 0 9 54 0 9
54 0 9 55 0 9 55 0 9 55 0 9 55 0 9 55 0 9 55 0 9 55 0 9 55 0 9 55 0 9
55 0 9 55 0 9 55 0 9 55 0 9 55 0 9 56 0 9 56 0 9 56 0 9 56 0 9 56 0 9
56 0 9 56 0 9 56 0 9 56 0 9 56 0 9 56 0 9 56 0 9 56 0 9 56 0 9 56 0 9
56 0 9 57 0 9 57 0 9 57 0 9 57 0 9 57 0 9 57 0 9 57 0 9 57 0 9 57 0 9
57 0 9 57 0 9 57 0 9 57 0 10 57 0 10 57 0 10 57 0 10 58 0 10 58 0 10
58 0 10 58 0 10 58 0 10 58 0 10 58 0 10 58 0 10 58 0 10 58 0 10 58 0
10 58 0 10 58 0 10 58 0 10 58 0 10 58 0 10 58 0 10 58 0 10 58 0 10 58
0 10 59 0 10 59 0 10 59 0 10 59 0 10 59 0 10 59 0 10 59 0 10 59 0 10
59 0 10 59 0 10 59 0 10 59 0 10 59 0 10 59 0 10 59 0 10 59 0 10 59 0
10 59 0 10 59 0 10 59 0 10 59 0 10 59 0 10 59 0 10 59 0 10 59 0 10 59
0 10 59 0 10 59 0 10 60 0 10 60 0 10 60 0 10 60 0 10 60 0 10 60 0 10
60 0 10 60 0 10 60 0 10 60 0 10 60 0 10 60 0 10 60 0 10 60 0 10 60 0
10 60 0 10 60 0 10 60 0 10 60 0 10 60 0 10 60 0 10 60 0 10 60 0 10 60
0 10 60 0 10 60 0 10 60 0 10 60 0 10 60 0 10 60 0 10 60 0 10 60 0 10
60 0 10 60 0 10 60 0 10 60 0 10 60 0 10 60 0 10 60 0 10 60 0 10 60 0
10 60 0 10 60 0 10 60 0 10 60 0 10 60 0 10 60 0 10 60 0 10 60 0 10 60
0 10 60 0 10 60 0 10 60 0 10 60 0 10 60 0 10 60 0 10 60 0 10 60 0 10
60 0 10 60 0 10 60 0 10 60 0 10 60 0 10 60 0 10 60 0 10 60 0 10 60 0
10 60 0 10 60 0 10 60 0 10 60 0 10 60 0 10 60 0 10 60 0 10 59 0 10 59
0 10 59 0 10 59 0 10 59 0 10 59 0 10 59 0 10 59 0 10 59 0 10 59 0 10
59 0 10 59 0 10 59 0 10 59 0 10 59 0 10 59 0 10 59 0 10 59 0 10 59 0
10 59 0 10 59 0 10 59 0 10 59 0 10 59 0 10 59 0 10 59 0 10 59 0 10 58
0 10 58 0 10 58 0 10 58 0 10 58 0 10 58 0 10 58 0 10 58 0 10 58 0 10
58 0 10 58 0 10 58 0 10 58 0 10 58 0 10 58 0 10 58 0 10 58 0 10 58 0
10 58 0 10 58 0 10 57 0 10 57 0 10 57 0 10 57 0 10 57 0 9 57 0 9 57 0
9 57 0 9 57 0 9 57 0 9 57 0 9 57 0 9 57 0 9 57 0 9 57 0 9 57 0 9 57 0
9 56 0 9 56 0 9 56 0 9 56 0 9 56 0 9 56 0 9 56 0 9
43 0 7 43 0 7 43 0 7 43 0 7 43 0 7 43 0 7 43 0 7 43 0 7 43 0 7 43 0 7
43 0 7 44 0 7 44 0 7 44 0 7 44 0 7 44 0 7 44 0 7 44 0 7 44 0 7 44 0 7
44 0 7 44 0 7 44 0 7 44 0 7 44 0 7 44 0 7 45 0 7 45 0 7 45 0 7 45 0 7
45 0 7 45 0 7 45 0 7 45 0 7 45 0 7 45 0 7 45 0 8 45 0 8 45 0 8 45 0 8
46 0 8 46 0 8 46 0 8 46 0 8 46 0 8 46 0 8 46 0 8 46 0 8 46 0 8 46 0 8
46 0 8 46 0 8 46 0 8 46 0 8 46 0 8 47 0 8 47 0 8 47 0 8 47 0 8 47 0 8
47 0 8 47 0 8 47 0 8 47 0 8 47 0 8 47 0 8 47 0 8 47 0 8 48 0 8 48 0 8
48 0 8 48 0 8 48 0 8 48 0 8 48 0 8 48 0 8 48 0 8 48 0 8 48 0 8 48 0 8
48 0 8 48 0 8 49 0 8 49 0 8 49 0 8 49 0 8 49 0 8 49 0 8 49 0 8 49 0 8
49 0 8 49 0 8 49 0 8 49 0 8 49 0 8 50 0 8 50 0 8 50 0 8 50 0 8 50 0 8
50 0 8 50 0 8 50 0 8 50 0 8 50 0 8 50 0 8 50 0 8 50 0 8 50 0 8 51 0 8
51 0 8 51 0 8 51 0 8 51 0 8 51 0 8 51 0 8 51 0 8 51 0 8 51 0 8 51 0 9
51 0 9 51 0 9 52 0 9 52 0 9 52 0 9 52 0 9 52 0 9 52 0 9 52 0 9 52 0 9
52 0 9 52 0 9 52 0 9 52 0 9 52 0 9 53 0 9 53 0 9 53 0 9 53 0 9 53 0 9
53 0 9 53 0 9 53 0 9 53 0 9 53 0 9 53 0 9 53 0 9 53 0 9 53 0 9 54 0 9
54 0 9 54 0 9 54 0 9 54 0 9 54 0 9 54 0 9 54 0 9 54 0 9 54 0 9 54 0 9
54 0 9 54 0 9 54 0 9 55 0 9 55 0 9 55 0 9 55 0 9 55 0 9 55 0 9 55 0 9
55 0 9 55 0 9 55 0 9 55 0 9 55 0 9 55 0 9 55 0 9 55 0 9 56 0 9 56 0 9
56 0 9 56 0 9 56 0 9 56 0 9 56 0 9 56 0 9 56 0 9 56 0 9 56 0 9 56 0 9
56 0 9 56 0 9 56 0 9 56 0 9 57 0 9 57 0 9 57 0 9 57 0 9 57 0 9 57 0 9
57 0 9 57 0 9 57 0 9 57 0 9 57 0 9 57 0 9 57 0 9 57 0 9 57 0 10 57 0
10 57 0 10 57 0 10 58 0 10 58 0 10 58 0 10 58 0 10 58 0 10 58 0 10 58
0 10 58 0 10 58 0 10 58 0 10 58 0 10 58 0 10 58 0 10 58 0 10 58 0 10
58 0 10 58 0 10 58 0 10 58 0 10 58 0 10 58 0 10 59 0 10 59 0 10 59 0
10 59 0 10 59 0 10 59 0 10 59 0 10 59 0 10 59 0 10 59 0 10 59 0 10 59
0 10 59 0 10 59 0 10 59 0 10 59 0 10 59 0 10 59 0 10 59 0 10 59 0 10
59 0 10 59 0 10 59 0 10 59 0 10 59 0 10 59 0 10 59 0 10 59 0 10 59 0
10 59 0 10 59 0 10 59 0 10 59 0 10 60 0 10 60 0 10 60 0 10 60 0 10 60
0 10 60 0 10 60 0 10 60 0 10 60 0 10 60 0 10 60 0 10 60 0 10 60 0 10
60 0 10 60 0 10 60 0 10 60 0 10 60 0 10 60 0 10 60 0 10 60 0 10 60 0
10 60 0 10 60 0 10 60 0 10 60 0 10 60 0 10 60 0 10 60 0 10 60 0 10 60
0 10 60 0 10 60 0 10 60 0 10 60 0 10 60 0 10 60 0 10 60 0 10 60 0 10
60 0 10 60 0 10 60 0 10 60 0 10 60 0 10 60 0 10 60 0 10 60 0 10 60 0
10 60 0 10 60 0 10 60 0 10 60 0 10 59 0 10 59 0 10 59 0 10 59 0 10 59
0 10 59 0 10 59 0 10 59 0 10 59 0 10 59 0 10 59 0 10 59 0 10 59 0 10
59 0 10 59 0 10 59 0 10 59 0 10 59 0 10 59 0 10 59 0 10 59 0 10 59 0
10 59 0 10 59 0 10 59 0 10 59 0 10 59 0 10 59 0 10 59 0 10 59 0 10 59
0 10 59 0 10 59 0 10 58 0 10 58 0 10 58 0 10 58 0 10 58 0 10 58 0 10
58 0 10 58 0 10 58 0 10 58 0 10 58 0 10 58 0 10 58 0 10 58 0 10 58 0
10 58 0 10 58 0 10 58 0 10 58 0 10 58 0 10 58 0 10 58 0 10 57 0 10 57
0 10 57 0 10 57 0 10 57 0 9 57 0 9 57 0 9 57 0 9 57 0 9 57 0 9 57 0 9
57 0 9 57 0 9 57 0 9 57 0 9 57 0 9 57 0 9 57 0 9 56 0 9 56 0 9 56 0 9
56 0 9 56 0 9 56 0 9 56 0 9 56 0 9 56 0 9
43 0 7 43 0 7 43 0 7 43 0 7 43 0 7 43 0 7 43 0 7 43 0 7 43 0 7 43 0 7
43 0 7 44 0 7 44 0 7 44 0 7 44 0 7 44 0 7 44 0 7 44 0 7 44 0 7 44 0 7
44 0 7 44 0 7 44 0 7 44 0 7 44 0 7 44 0 7 45 0 7 45 0 7 45 0 7 45 0 7
45 0 7 45 0 7 45 0 7 45 0 7 45 0 7 45 0 7 45 0 7 45 0 8 45 0 8 45 0 8
45 0 8 46 0 8 46 0 8 46 0 8 46 0 8 46 0 8 46 0 8 46 0 8 46 0 8 46 0 8
46 0 8 46 0 8 46 0 8 46 0 8 46 0 8 47 0 8 47 0 8 47 0 8 47 0 8 47 0 8
47 0 8 47 0 8 47 0 8 47 0 8 47 0 8 47 0 8 47 0 8 47 0 8 47 0 8 48 0 8
48 0 8 48 0 8 48 0 8 48 0 8 48 0 8 48 0 8 48 0 8 48 0 8 48 0 8 48 0 8
48 0 8 48 0 8 48 0 8 49 0 8 49 0 8 49 0 8 49 0 8 49 0 8 49 0 8 49 0 8
49 0 8 49 0 8 49 0 8 49 0 8 49 0 8 49 0 8 50 0 8 50 0 8 50 0 8 50 0 8
50 0 8 50 0 8 50 0 8 50 0 8 50 0 8 50 0 8 50 0 8 50 0 8 50 0 8 50 0 8
51 0 8 51 0 8 51 0 8 51 0 8 51 0 8 51 0 8 51 0 8 51 0 8 51 0 8 51 0 8
51 0 9 51 0 9 51 0 9 51 0 9 52 0 9 52 0 9 52 0 9 52 0 9 52 0 9 52 0 9
52 0 9 52 0 9 52 0 9 52 0 9 52 0 9 52 0 9 52 0 9 53 0 9 53 0 9 53 0 9
53 0 9 53 0 9 53 0 9 53 0 9 53 0 9 53 0 9 53 0 9 53 0 9 53 0 9 53 0 9
53 0 9 54 0 9 54 0 9 54 0 9 54 0 9 54 0 9 54 0 9 54 0 9 54 0 9 54 0 9
54 0 9 54 0 9 54 0 9 54 0 9 54 0 9 54 0 9 55 0 9 55 0 9 55 0 9 55 0 9
55 0 9 55 0 9 55 0 9 55 0 9 55 0 9 55 0 9 55 0 9 55 0 9 55 0 9 55 0 9
55 0 9 56 0 9 56 0 9 56 0 9 56 0 9 56 0 9 56 0 9 56 0 9 56 0 9 56 0 9
56 0 9 56 0 9 56 0 9 56 0 9 56 0 9 56 0 9 56 0 9 56 0 9 57 0 9 57 0 9
57 0 9 57 0 9 57 0 9 57 0 9 57 0 9 57 0 9 57 0 9 57 0 9 57 0 9 57 0 9
57 0 9 57 0 9 57 0 10 57 0 10 57 0 10 57 0 10 57 0 10 58 0 10 58 0 10
58 0 10 58 0 10 58 0 10 58 0 10 58 0 10 58 0 10 58 0 10 58 0 10 58 0
10 58 0 10 58 0 10 58 0 10 58 0 10 58 0 10 58 0 10 58 0 10 58 0 10 58
0 10 58 0 10 58 0 10 58 0 10 59 0 10 59 0 10 59 0 10 59 0 10 59 0 10
59 0 10 59 0 10 59 0 10 59 0 10 59 0 10 59 0 10 59 0 10 59 0 10 59 0
10 59 0 10 59 0 10 59 0 10 59 0 10 59 0 10 59 0 10 59 0 10 59 0 10 59
0 10 59 0 10 59 0 10 59 0 10 59 0 10 59 0 10 59 0 10 59 0 10 59 0 10
59 0 10 59 0 10 59 0 10 59 0 10 59 0 10 59 0 10 59 0 10 59 0 10 59 0
10 59 0 10 59 0 10 59 0 10 59 0 10 59 0 10 59 0 10 59 0 10 59 0 10 59
0 10 59 0 10 59 0 10 59 0 10 59 0 10 59 0 10 59 0 10 59 0 10 59 0 10
59 0 10 59 0 10 59 0 10 59 0 10 59 0 10 59 0 10 59 0 10 59 0 10 59 0
10 59 0 10 59 0 10 59 0 10 59 0 10 59 0 10 59 0 10 59 0 10 59 0 10 59
0 10 59 0 10 59 0 10 59 0 10 59 0 10 59 0 10 59 0 10 59 0 10 59 0 10
59 0 10 59 0 10 59 0 10 59 0 10 59 0 10 59 0 10 59 0 10 59 0 10 59 0
10 59 0 10 59 0 10 59 0 10 59 0 10 59 0 10 59 0 10 59 0 10 59 0 10 59
0 10 59 0 10 59 0 10 59 0 10 59 0 10 59 0 10 58 0 10 58 0 10 58 0 10
58 0 10 58 0 10 58 0 10 58 0 10 58 0 10 58 0 10 58 0 10 58 0 10 58 0
10 58 0 10 58 0 10 58 0 10 58 0 10 58 0 10 58 0 10 58 0 10 58 0 10 58
0 10 58 0 10 58 0 10 57 0 10 57 0 10 57 0 10 57 0 10 57 0 10 57 0 9 57
0 9 57 0 9 57 0 9 57 0 9 57 0 9 57 0 9 57 0 9 57 0 9 57 0 9 57 0 9 57
0 9 57 0 9 57 0 9 56 0 9 56 0 9 56 0 9 56 0 9 56 0 9 56 0 9 56 0 9 56
0 9 56 0 9 56 0 9 56 0 9 56 0 9
43 0 7 43 0 7 43 0 7 43 0 7 43 0 7 43 0 7 43 0 7 43 0 7 43 0 7 43 0 7
43 0 7 44 0 7 44 0 7 44 0 7 44 0 7 44 0 7 44 0 7 44 0 7 44 0 7 44 0 7
44 0 7 44 0 7 44 0 7 44 0 7 44 0 7 44 0 7 44 0 7 45 0 7 45 0 7 45 0 7
45 0 7 45 0 7 45 0 7 45 0 7 45 0 7 45 0 7 45 0 7 45 0 8 45 0 8 45 0 8
45 0 8 46 0 8 46 0 8 46 0 8 46 0 8 46 0 8 46 0 8 46 0 8 46 0 8 46 0 8
46 0 8 46 0 8 46 0 8 46 0 8 46 0 8 46 0 8 47 0 8 47 0 8 47 0 8 47 0 8
47 0 8 47 0 8 47 0 8 47 0 8 47 0 8 47 0 8 47 0 8 47 0 8 47 0 8 47 0 8
48 0 8 48 0 8 48 0 8 48 0 8 48 0 8 48 0 8 48 0 8 48 0 8 48 0 8 48 0 8
48 0 8 48 0 8 48 0 8 48 0 8 49 0 8 49 0 8 49 0 8 49 0 8 49 0 8 49 0 8
49 0 8 49 0 8 49 0 8 49 0 8 49 0 8 49 0 8 49 0 8 49 0 8 50 0 8 50 0 8
50 0 8 50 0 8 50 0 8 50 0 8 50 0 8 50 0 8 50 0 8 50 0 8 50 0 8 50 0 8
50 0 8 50 0 8 51 0 8 51 0 8 51 0 8 51 0 8 51 0 8 51 0 8 51 0 8 51 0 8
51 0 8 51 0 8 51 0 9 51 0 9 51 0 9 52 0 9 52 0 9 52 0 9 52 0 9 52 0 9
52 0 9 52 0 9 52 0 9 52 0 9 52 0 9 52 0 9 52 0 9 52 0 9 52 0 9 53 0 9
53 0 9 53 0 9 53 0 9 53 0 9 53 0 9 53 0 9 53 0 9 53 0 9 53 0 9 53 0 9
53 0 9 53 0 9 53 0 9 53 0 9 54 0 9 54 0 9 54 0 9 54 0 9 54 0 9 54 0 9
54 0 9 54 0 9 54 0 9 54 0 9 54 0 9 54 0 9 54 0 9 54 0 9 54 0 9 55 0 9
55 0 9 55 0 9 55 0 9 55 0 9 55 0 9 55 0 9 55 0 9 55 0 9 55 0 9 55 0 9
55 0 9 55 0 9 55 0 9 55 0 9 55 0 9 56 0 9 56 0 9 56 0 9 56 0 9 56 0 9
56 0 9 56 0 9 56 0 9 56 0 9 56 0 9 56 0 9 56 0 9 56 0 9 56 0 9 56 0 9
56 0 9 56 0 9 57 0 9 57 0 9 57 0 9 57 0 9 57 0 9 57 0 9 57 0 9 57 0 9
57 0 9 57 0 9 57 0 9 57 0 9 57 0 9 57 0 9 57 0 9 57 0 10 57 0 10 57 0
10 57 0 10 57 0 10 58 0 10 58 0 10 58 0 10 58 0 10 58 0 10 58 0 10 58
0 10 58 0 10 58 0 10 58 0 10 58 0 10 58 0 10 58 0 10 58 0 10 58 0 10
58 0 10 58 0 10 58 0 10 58 0 10 58 0 10 58 0 10 58 0 10 58 0 10 58 0
10 58 0 10 58 0 10 59 0 10 59 0 10 59 0 10 59 0 10 59 0 10 59 0 10 59
0 10 59 0 10 59 0 10 59 0 10 59 0 10 59 0 10 59 0 10 59 0 10 59 0 10
59 0 10 59 0 10 59 0 10 59 0 10 59 0 10 59 0 10 59 0 10 59 0 10 59 0
10 59 0 10 59 0 10 59 0 10 59 0 10 59 0 10 59 0 10 59 0 10 59 0 10 59
0 10 59 0 10 59 0 10 59 0 10 59 0 10 59 0 10 59 0 10 59 0 10 59 0 10
59 0 10 59 0 10 59 0 10 59 0 10 59 0 10 59 0 10 59 0 10 59 0 10 59 0
10 59 0 10 59 0 10 59 0 10 59 0 10 59 0 10 59 0 10 59 0 10 59 0 10 59
0 10 59 0 10 59 0 10 59 0 10 59 0 10 59 0 10 59 0 10 59 0 10 59 0 10
59 0 10 59 0 10 59 0 10 59 0 10 59 0 10 59 0 10 59 0 10 59 0 10 59 0
10 59 0 10 59 0 10 59 0 10 59 0 10 59 0 10 59 0 10 59 0 10 59 0 10 59
0 10 59 0 10 59 0 10 59 0 10 59 0 10 59 0 10 59 0 10 58 0 10 58 0 10
58 0 10 58 0 10 58 0 10 58 0 10 58 0 10 58 0 10 58 0 10 58 0 10 58 0
10 58 0 10 58 0 10 58 0 10 58 0 10 58 0 10 58 0 10 58 0 10 58 0 10 58
0 10 58 0 10 58 0 10 58 0 10 58 0 10 58 0 10 58 0 10 57 0 10 57 0 10
57 0 10 57 0 10 57 0 10 57 0 9 57 0 9 57 0 9 57 0 9 57 0 9 57 0 9 57 0
9 57 0 9 57 0 9 57 0 9 57 0 9 57 0 9 57 0 9 57 0 9 57 0 9 56 0 9 56 0
9 56 0 9 56 0 9 56 0 9 56 0 9 56 0 9 56 0 9 56 0 9 56 0 9 56 0 9 56 0
9 56 0 9 56 0 9 56 0 9
43 0 7 43 0 7 43 0 7 43 0 7 43 0 7 43 0 7 43 0 7 43 0 7 43 0 7 43 0 7
43 0 7 44 0 7 44 0 7 44 0 7 44 0 7 44 0 7 44 0 7 44 0 7 44 0 7 44 0 7
44 0 7 44 0 7 44 0 7 44 0 7 44 0 7 44 0 7 44 0 7 45 0 7 45 0 7 45 0 7
45 0 7 45 0 7 45 0 7 45 0 7 45 0 7 45 0 7 45 0 7 45 0 7 45 0 8 45 0 8
45 0 8 45 0 8 46 0 8 46 0 8 46 0 8 46 0 8 46 0 8 46 0 8 46 0 8 46 0 8
46 0 8 46 0 8 46 0 8 46 0 8 46 0 8 46 0 8 47 0 8 47 0 8 47 0 8 47 0 8
47 0 8 47 0 8 47 0 8 47 0 8 47 0 8 47 0 8 47 0 8 47 0 8 47 0 8 47 0 8
47 0 8 48 0 8 48 0 8 48 0 8 48 0 8 48 0 8 48 0 8 48 0 8 48 0 8 48 0 8
48 0 8 48 0 8 48 0 8 48 0 8 48 0 8 49 0 8 49 0 8 49 0 8 49 0 8 49 0 8
49 0 8 49 0 8 49 0 8 49 0 8 49 0 8 49 0 8 49 0 8 49 0 8 49 0 8 50 0 8
50 0 8 50 0 8 50 0 8 50 0 8 50 0 8 50 0 8 50 0 8 50 0 8 50 0 8 50 0 8
50 0 8 50 0 8 50 0 8 51 0 8 51 0 8 51 0 8 51 0 8 51 0 8 51 0 8 51 0 8
51 0 8 51 0 8 51 0 8 51 0 8 51 0 9 51 0 9 51 0 9 52 0 9 52 0 9 52 0 9
52 0 9 52 0 9 52 0 9 52 0 9 52 0 9 52 0 9 52 0 9 52 0 9 52 0 9 52 0 9
52 0 9 53 0 9 53 0 9 53 0 9 53 0 9 53 0 9 53 0 9 53 0 9 53 0 9 53 0 9
53 0 9 53 0 9 53 0 9 53 0 9 53 0 9 53 0 9 54 0 9 54 0 9 54 0 9 54 0 9
54 0 9 54 0 9 54 0 9 54 0 9 54 0 9 54 0 9 54 0 9 54 0 9 54 0 9 54 0 9
54 0 9 54 0 9 55 0 9 55 0 9 55 0 9 55 0 9 55 0 9 55 0 9 55 0 9 55 0 9
55 0 9 55 0 9 55 0 9 55 0 9 55 0 9 55 0 9 55 0 9 55 0 9 56 0 9 56 0 9
56 0 9 56 0 9 56 0 9 56 0 9 56 0 9 56 0 9 56 0 9 56 0 9 56 0 9 56 0 9
56 0 9 56 0 9 56 0 9 56 0 9 56 0 9 56 0 9 57 0 9 57 0 9 57 0 9 57 0 9
57 0 9 57 0 9 57 0 9 57 0 9 57 0 9 57 0 9 57 0 9 57 0 9 57 0 9 57 0 9
57 0 9 57 0 9 57 0 10 57 0 10 57 0 10 57 0 10 57 0 10 58 0 10 58 0 10
58 0 10 58 0 10 58 0 10 58 0 10 58 0 10 58 0 10 58 0 10 58 0 10 58 0
10 58 0 10 58 0 10 58 0 10 58 0 10 58 0 10 58 0 10 58 0 10 58 0 10 58
0 10 58 0 10 58 0 10 58 0 10 58 0 10 58 0 10 58 0 10 58 0 10 58 0 10
58 0 10 58 0 10 59 0 10 59 0 10 59 0 10 59 0 10 59 0 10 59 0 10 59 0
10 59 0 10 59 0 10 59 0 10 59 0 10 59 0 10 59 0 10 59 0 10 59 0 10 59
0 10 59 0 10 59 0 10 59 0 10 59 0 10 59 0 10 59 0 10 59 0 10 59 0 10
59 0 10 59 0 10 59 0 10 59 0 10 59 0 10 59 0 10 59 0 10 59 0 10 59 0
10 59 0 10 59 0 10 59 0 10 59 0 10 59 0 10 59 0 10 59 0 10 59 0 10 59
0 10 59 0 10 59 0 10 59 0 10 59 0 10 59 0 10 59 0 10 59 0 10 59 0 10
59 0 10 59 0 10 59 0 10 59 0 10 59 0 10 59 0 10 59 0 10 59 0 10 59 0
10 59 0 10 59 0 10 59 0 10 59 0 10 59 0 10 59 0 10 59 0 10 59 0 10 59
0 10 59 0 10 59 0 10 59 0 10 59 0 10 59 0 10 59 0 10 58 0 10 58 0 10
58 0 10 58 0 10 58 0 10 58 0 10 58 0 10 58 0 10 58 0 10 58 0 10 58 0
10 58 0 10 58 0 10 58 0 10 58 0 10 58 0 10 58 0 10 58 0 10 58 0 10 58
0 10 58 0 10 58 0 10 58 0 10 58 0 10 58 0 10 58 0 10 58 0 10 58 0 10
58 0 10 58 0 10 57 0 10 57 0 10 57 0 10 57 0 10 57 0 10 57 0 9 57 0 9
57 0 9 57 0 9 57 0 9 57 0 9 57 0 9 57 0 9 57 0 9 57 0 9 57 0 9 57 0 9
57 0 9 57 0 9 57 0 9 57 0 9 56 0 9 56 0 9 56 0 9 56 0 9 56 0 9 56 0 9
56 0 9 56 0 9 56 0 9 56 0 9 56 0 9 56 0 9 56 0 9 56 0 9 56 0 9 56 0 9
56 0 9 56 0 9
43 0 7 43 0 7 43 0 7 43 0 7 43 0 7 43 0 7 43 0 7 43 0 7 43 0 7 43 0 7
43 0 7 43 0 7 44 0 7 44 0 7 44 0 7 44 0 7 44 0 7 44 0 7 44 0 7 44 0 7
44 0 7 44 0 7 44 0 7 44 0 7 44 0 7 44 0 7 44 0 7 45 0 7 45 0 7 45 0 7
45 0 7 45 0 7 45 0 7 45 0 7 45 0 7 45 0 7 45 0 7 45 0 7 45 0 8 45 0 8
45 0 8 45 0 8 46 0 8 46 0 8 46 0 8 46 0 8 46 0 8 46 0 8 46 0 8 46 0 8
46 0 8 46 0 8 46 0 8 46 0 8 46 0 8 46 0 8 46 0 8 47 0 8 47 0 8 47 0 8
47 0 8 47 0 8 47 0 8 47 0 8 47 0 8 47 0 8 47 0 8 47 0 8 47 0 8 47 0 8
47 0 8 47 0 8 48 0 8 48 0 8 48 0 8 48 0 8 48 0 8 48 0 8 48 0 8 48 0 8
48 0 8 48 0 8 48 0 8 48 0 8 48 0 8 48 0 8 49 0 8 49 0 8 49 0 8 49 0 8
49 0 8 49 0 8 49 0 8 49 0 8 49 0 8 49 0 8 49 0 8 49 0 8 49 0 8 49 0 8
50 0 8 50 0 8 50 0 8 50 0 8 50 0 8 50 0 8 50 0 8 50 0 8 50 0 8 50 0 8
50 0 8 50 0 8 50 0 8 50 0 8 50 0 8 51 0 8 51 0 8 51 0 8 51 0 8 51 0 8
51 0 8 51 0 8 51 0 8 51 0 8 51 0 8 51 0 9 51 0 9 51 0 9 51 0 9 52 0 9
52 0 9 52 0 9 52 0 9 52 0 9 52 0 9 52 0 9 52 0 9 52 0 9 52 0 9 52 0 9
52 0 9 52 0 9 52 0 9 52 0 9 53 0 9 53 0 9 53 0 9 53 0 9 53 0 9 53 0 9
53 0 9 53 0 9 53 0 9 53 0 9 53 0 9 53 0 9 53 0 9 53 0 9 53 0 9 54 0 9
54 0 9 54 0 9 54 0 9 54 0 9 54 0 9 54 0 9 54 0 9 54 0 9 54 0 9 54 0 9
54 0 9 54 0 9 54 0 9 54 0 9 55 0 9 55 0 9 55 0 9 55 0 9 55 0 9 55 0 9
55 0 9 55 0 9 55 0 9 55 0 9 55 0 9 55 0 9 55 0 9 55 0 9 55 0 9 55 0 9
55 0 9 56 0 9 56 0 9 56 0 9 56 0 9 56 0 9 56 0 9 56 0 9 56 0 9 56 0 9
56 0 9 56 0 9 56 0 9 56 0 9 56 0 9 56 0 9 56 0 9 56 0 9 56 0 9 56 0 9
57 0 9 57 0 9 57 0 9 57 0 9 57 0 9 57 0 9 57 0 9 57 0 9 57 0 9 57 0 9
57 0 9 57 0 9 57 0 9 57 0 9 57 0 9 57 0 9 57 0 9 57 0 9 57 0 10 57 0
10 57 0 10 57 0 10 57 0 10 58 0 10 58 0 10 58 0 10 58 0 10 58 0 10 58
0 10 58 0 10 58 0 10 58 0 10 58 0 10 58 0 10 58 0 10 58 0 10 58 0 10
58 0 10 58 0 10 58 0 10 58 0 10 58 0 10 58 0 10 58 0 10 58 0 10 58 0
10 58 0 10 58 0 10 58 0 10 58 0 10 58 0 10 58 0 10 58 0 10 58 0 10 58
0 10 58 0 10 58 0 10 58 0 10 58 0 10 58 0 10 59 0 10 59 0 10 59 0 10
59 0 10 59 0 10 59 0 10 59 0 10 59 0 10 59 0 10 59 0 10 59 0 10 59 0
10 59 0 10 59 0 10 59 0 10 59 0 10 59 0 10 59 0 10 59 0 10 59 0 10 59
0 10 59 0 10 59 0 10 59 0 10 59 0 10 59 0 10 59 0 10 59 0 10 59 0 10
59 0 10 59 0 10 59 0 10 59 0 10 59 0 10 59 0 10 59 0 10 59 0 10 59 0
10 59 0 10 59 0 10 59 0 10 59 0 10 59 0 10 59 0 10 59 0 10 59 0 10 59
0 10 59 0 10 59 0 10 59 0 10 58 0 10 58 0 10 58 0 10 58 0 10 58 0 10
58 0 10 58 0 10 58 0 10 58 0 10 58 0 10 58 0 10 58 0 10 58 0 10 58 0
10 58 0 10 58 0 10 58 0 10 58 0 10 58 0 10 58 0 10 58 0 10 58 0 10 58
0 10 58 0 10 58 0 10 58 0 10 58 0 10 58 0 10 58 0 10 58 0 10 58 0 10
58 0 10 58 0 10 58 0 10 58 0 10 58 0 10 57 0 10 57 0 10 57 0 10 57 0
10 57 0 10 57 0 10 57 0 9 57 0 9 57 0 9 57 0 9 57 0 9 57 0 9 57 0 9 57
0 9 57 0 9 57 0 9 57 0 9 57 0 9 57 0 9 57 0 9 57 0 9 57 0 9 57 0 9 56
0 9 56 0 9 56 0 9 56 0 9 56 0 9 56 0 9 56 0 9 56 0 9 56 0 9 56 0 9 56
0 9 56 0 9 56 0 9 56 0 9 56 0 9 56 0 9 56 0 9 56 0 9 56 0 9 55 0 9 55
0 9
43 0 7 43 0 7 43 0 7 43 0 7 43 0 7 43 0 7 43 0 7 43 0 7 43 0 7 43 0 7
43 0 7 43 0 7 44 0 7 44 0 7 44 0 7 44 0 7 44 0 7 44 0 7 44 0 7 44 0 7
44 0 7 44 0 7 44 0 7 44 0 7 44 0 7 44 0 7 44 0 7 45 0 7 45 0 7 45 0 7
45 0 7 45 0 7 45 0 7 45 0 7 45 0 7 45 0 7 45 0 7 45 0 7 45 0 8 45 0 8
45 0 8 45 0 8 45 0 8 46 0 8 46 0 8 46 0 8 46 0 8 46 0 8 46 0 8 46 0 8
46 0 8 46 0 8 46 0 8 46 0 8 46 0 8 46 0 8 46 0 8 46 0 8 47 0 8 47 0 8
47 0 8 47 0 8 47 0 8 47 0 8 47 0 8 47 0 8 47 0 8 47 0 8 47 0 8 47 0 8
47 0 8 47 0 8 48 0 8 48 0 8 48 0 8 48 0 8 48 0 8 48 0 8 48 0 8 48 0 8
48 0 8 48 0 8 48 0 8 48 0 8 48 0 8 48 0 8 48 0 8 49 0 8 49 0 8 49 0 8
49 0 8 49 0 8 49 0 8 49 0 8 49 0 8 49 0 8 49 0 8 49 0 8 49 0 8 49 0 8
49 0 8 49 0 8 50 0 8 50 0 8 50 0 8 50 0 8 50 0 8 50 0 8 50 0 8 50 0 8
50 0 8 50 0 8 50 0 8 50 0 8 50 0 8 50 0 8 51 0 8 51 0 8 51 0 8 51 0 8
51 0 8 51 0 8 51 0 8 51 0 8 51 0 8 51 0 8 51 0 8 51 0 9 51 0 9 51 0 9
51 0 9 52 0 9 52 0 9 52 0 9 52 0 9 52 0 9 52 0 9 52 0 9 52 0 9 52 0 9
52 0 9 52 0 9 52 0 9 52 0 9 52 0 9 52 0 9 53 0 9 53 0 9 53 0 9 53 0 9
53 0 9 53 0 9 53 0 9 53 0 9 53 0 9 53 0 9 53 0 9 53 0 9 53 0 9 53 0 9
53 0 9 54 0 9 54 0 9 54 0 9 54 0 9 54 0 9 54 0 9 54 0 9 54 0 9 54 0 9
54 0 9 54 0 9 54 0 9 54 0 9 54 0 9 54 0 9 54 0 9 55 0 9 55 0 9 55 0 9
55 0 9 55 0 9 55 0 9 55 0 9 55 0 9 55 0 9 55 0 9 55 0 9 55 0 9 55 0 9
55 0 9 55 0 9 55 0 9 55 0 9 55 0 9 56 0 9 56 0 9 56 0 9 56 0 9 56 0 9
56 0 9 56 0 9 56 0 9 56 0 9 56 0 9 56 0 9 56 0 9 56 0 9 56 0 9 56 0 9
56 0 9 56 0 9 56 0 9 56 0 9 56 0 9 57 0 9 57 0 9 57 0 9 57 0 9 57 0 9
57 0 9 57 0 9 57 0 9 57 0 9 57 0 9 57 0 9 57 0 9 57 0 9 57 0 9 57 0 9
57 0 9 57 0 9 57 0 9 57 0 9 57 0 10 57 0 10 57 0 10 57 0 10 57 0 10 57
0 10 58 0 10 58 0 10 58 0 10 58 0 10 58 0 10 58 0 10 58 0 10 58 0 10
58 0 10 58 0 10 58 0 10 58 0 10 58 0 10 58 0 10 58 0 10 58 0 10 58 0
10 58 0 10 58 0 10 58 0 10 58 0 10 58 0 10 58 0 10 58 0 10 58 0 10 58
0 10 58 0 10 58 0 10 58 0 10 58 0 10 58 0 10 58 0 10 58 0 10 58 0 10
58 0 10 58 0 10 58 0 10 58 0 10 58 0 10 58 0 10 58 0 10 58 0 10 58 0
10 58 0 10 58 0 10 58 0 10 58 0 10 58 0 10 58 0 10 58 0 10 58 0 10 58
0 10 58 0 10 58 0 10 58 0 10 58 0 10 58 0 10 58 0 10 58 0 10 58 0 10
58 0 10 58 0 10 58 0 10 58 0 10 58 0 10 58 0 10 58 0 10 58 0 10 58 0
10 58 0 10 58 0 10 58 0 10 58 0 10 58 0 10 58 0 10 58 0 10 58 0 10 58
0 10 58 0 10 58 0 10 58 0 10 58 0 10 58 0 10 58 0 10 58 0 10 58 0 10
58 0 10 58 0 10 58 0 10 58 0 10 58 0 10 58 0 10 58 0 10 58 0 10 58 0
10 58 0 10 58 0 10 58 0 10 58 0 10 58 0 10 58 0 10 58 0 10 58 0 10 58
0 10 58 0 10 58 0 10 58 0 10 58 0 10 58 0 10 58 0 10 58 0 10 57 0 10
57 0 10 57 0 10 57 0 10 57 0 10 57 0 10 57 0 9 57 0 9 57 0 9 57 0 9 57
0 9 57 0 9 57 0 9 57 0 9 57 0 9 57 0 9 57 0 9 57 0 9 57 0 9 57 0 9 57
0 9 57 0 9 57 0 9 57 0 9 57 0 9 56 0 9 56 0 9 56 0 9 56 0 9 56 0 9 56
0 9 56 0 9 56 0 9 56 0 9 56 0 9 56 0 9 56 0 9 56 0 9 56 0 9 56 0 9 56
0 9 56 0 9 56 0 9 56 0 9 56 0 9 55 0 9 55 0 9 55 0 9 55 0 9
43 0 7 43 0 7 43 0 7 43 0 7 43 0 7 43 0 7 43 0 7 43 0 7 43 0 7 43 0 7
43 0 7 43 0 7 44 0 7 44 0 7 44 0 7 44 0 7 44 0 7 44 0 7 44 0 7 44 0 7
44 0 7 44 0 7 44 0 7 44 0 7 44 0 7 44 0 7 44 0 7 44 0 7 45 0 7 45 0 7
45 0 7 45 0 7 45 0 7 45 0 7 45 0 7 45 0 7 45 0 7 45 0 7 45 0 7 45 0 8
45 0 8 45 0 8 45 0 8 46 0 8 46 0 8 46 0 8 46 0 8 46 0 8 46 0 8 46 0 8
46 0 8 46 0 8 46 0 8 46 0 8 46 0 8 46 0 8 46 0 8 46 0 8 47 0 8 47 0 8
47 0 8 47 0 8 47 0 8 47 0 8 47 0 8 47 0 8 47 0 8 47 0 8 47 0 8 47 0 8
47 0 8 47 0 8 47 0 8 48 0 8 48 0 8 48 0 8 48 0 8 48 0 8 48 0 8 48 0 8
48 0 8 48 0 8 48 0 8 48 0 8 48 0 8 48 0 8 48 0 8 48 0 8 49 0 8 49 0 8
49 0 8 49 0 8 49 0 8 49 0 8 49 0 8 49 0 8 49 0 8 49 0 8 49 0 8 49 0 8
49 0 8 49 0 8 49 0 8 50 0 8 50 0 8 50 0 8 50 0 8 50 0 8 50 0 8 50 0 8
50 0 8 50 0 8 50 0 8 50 0 8 50 0 8 50 0 8 50 0 8 50 0 8 51 0 8 51 0 8
51 0 8 51 0 8 51 0 8 51 0 8 51 0 8 51 0 8 51 0 8 51 0 8 51 0 8 51 0 9
51 0 9 51 0 9 51 0 9 52 0 9 52 0 9 52 0 9 52 0 9 52 0 9 52 0 9 52 0 9
52 0 9 52 0 9 52 0 9 52 0 9 52 0 9 52 0 9 52 0 9 52 0 9 53 0 9 53 0 9
53 0 9 53 0 9 53 0 9 53 0 9 53 0 9 53 0 9 53 0 9 53 0 9 53 0 9 53 0 9
53 0 9 53 0 9 53 0 9 53 0 9 54 0 9 54 0 9 54 0 9 54 0 9 54 0 9 54 0 9
54 0 9 54 0 9 54 0 9 54 0 9 54 0 9 54 0 9 54 0 9 54 0 9 54 0 9 54 0 9
54 0 9 55 0 9 55 0 9 55 0 9 55 0 9 55 0 9 55 0 9 55 0 9 55 0 9 55 0 9
55 0 9 55 0 9 55 0 9 55 0 9 55 0 9 55 0 9 55 0 9 55 0 9 55 0 9 56 0 9
56 0 9 56 0 9 56 0 9 56 0 9 56 0 9 56 0 9 56 0 9 56 0 9 56 0 9 56 0 9
56 0 9 56 0 9 56 0 9 56 0 9 56 0 9 56 0 9 56 0 9 56 0 9 56 0 9 56 0 9
57 0 9 57 0 9 57 0 9 57 0 9 57 0 9 57 0 9 57 0 9 57 0 9 57 0 9 57 0 9
57 0 9 57 0 9 57 0 9 57 0 9 57 0 9 57 0 9 57 0 9 57 0 9 57 0 9 57 0 9
57 0 9 57 0 10 57 0 10 57 0 10 57 0 10 57 0 10 57 0 10 57 0 10 58 0 10
58 0 10 58 0 10 58 0 10 58 0 10 58 0 10 58 0 10 58 0 10 58 0 10 58 0
10 58 0 10 58 0 10 58 0 10 58 0 10 58 0 10 58 0 10 58 0 10 58 0 10 58
0 10 58 0 10 58 0 10 58 0 10 58 0 10 58 0 10 58 0 10 58 0 10 58 0 10
58 0 10 58 0 10 58 0 10 58 0 10 58 0 10 58 0 10 58 0 10 58 0 10 58 0
10 58 0 10 58 0 10 58 0 10 58 0 10 58 0 10 58 0 10 58 0 10 58 0 10 58
0 10 58 0 10 58 0 10 58 0 10 58 0 10 58 0 10 58 0 10 58 0 10 58 0 10
58 0 10 58 0 10 58 0 10 58 0 10 58 0 10 58 0 10 58 0 10 58 0 10 58 0
10 58 0 10 58 0 10 58 0 10 58 0 10 58 0 10 58 0 10 58 0 10 58 0 10 58
0 10 58 0 10 58 0 10 58 0 10 58 0 10 58 0 10 58 0 10 58 0 10 58 0 10
58 0 10 58 0 10 58 0 10 58 0 10 58 0 10 58 0 10 58 0 10 58 0 10 58 0
10 58 0 10 58 0 10 58 0 10 58 0 10 58 0 10 58 0 10 58 0 10 58 0 10 57
0 10 57 0 10 57 0 10 57 0 10 57 0 10 57 0 10 57 0 10 57 0 9 57 0 9 57
0 9 57 0 9 57 0 9 57 0 9 57 0 9 57 0 9 57 0 9 57 0 9 57 0 9 57 0 9 57
0 9 57 0 9 57 0 9 57 0 9 57 0 9 57 0 9 57 0 9 57 0 9 57 0 9 56 0 9 56
0 9 56 0 9 56 0 9 56 0 9 56 0 9 56 0 9 56 0 9 56 0 9 56 0 9 56 0 9 56
0 9 56 0 9 56 0 9 56 0 9 56 0 9 56 0 9 56 0 9 56 0 9 56 0 9 56 0 9 55
0 9 55 0 9 55 0 9 55 0 9 55 0 9 55 0 9 55 0 9
43 0 7 43 0 7 43 0 7 43 0 7 43 0 7 43 0 7 43 0 7 43 0 7 43 0 7 43 0 7
43 0 7 43 0 7 44 0 7 44 0 7 44 0 7 44 0 7 44 0 7 44 0 7 44 0 7 44 0 7
44 0 7 44 0 7 44 0 7 44 0 7 44 0 7 44 0 7 44 0 7 44 0 7 45 0 7 45 0 7
45 0 7 45 0 7 45 0 7 45 0 7 45 0 7 45 0 7 45 0 7 45 0 7 45 0 7 45 0 8
45 0 8 45 0 8 45 0 8 45 0 8 46 0 8 46 0 8 46 0 8 46 0 8 46 0 8 46 0 8
46 0 8 46 0 8 46 0 8 46 0 8 46 0 8 46 0 8 46 0 8 46 0 8 46 0 8 47 0 8
47 0 8 47 0 8 47 0 8 47 0 8 47 0 8 47 0 8 47 0 8 47 0 8 47 0 8 47 0 8
47 0 8 47 0 8 47 0 8 47 0 8 48 0 8 48 0 8 48 0 8 48 0 8 48 0 8 48 0 8
48 0 8 48 0 8 48 0 8 48 0 8 48 0 8 48 0 8 48 0 8 48 0 8 48 0 8 49 0 8
49 0 8 49 0 8 49 0 8 49 0 8 49 0 8 49 0 8 49 0 8 49 0 8 49 0 8 49 0 8
49 0 8 49 0 8 49 0 8 49 0 8 50 0 8 50 0 8 50 0 8 50 0 8 50 0 8 50 0 8
50 0 8 50 0 8 50 0 8 50 0 8 50 0 8 50 0 8 50 0 8 50 0 8 50 0 8 51 0 8
51 0 8 51 0 8 51 0 8 51 0 8 51 0 8 51 0 8 51 0 8 51 0 8 51 0 8 51 0 8
51 0 8 51 0 9 51 0 9 51 0 9 51 0 9 52 0 9 52 0 9 52 0 9 52 0 9 52 0 9
52 0 9 52 0 9 52 0 9 52 0 9 52 0 9 52 0 9 52 0 9 52 0 9 52 0 9 52 0 9
53 0 9 53 0 9 53 0 9 53 0 9 53 0 9 53 0 9 53 0 9 53 0 9 53 0 9 53 0 9
53 0 9 53 0 9 53 0 9 53 0 9 53 0 9 53 0 9 53 0 9 54 0 9 54 0 9 54 0 9
54 0 9 54 0 9 54 0 9 54 0 9 54 0 9 54 0 9 54 0 9 54 0 9 54 0 9 54 0 9
54 0 9 54 0 9 54 0 9 54 0 9 55 0 9 55 0 9 55 0 9 55 0 9 55 0 9 55 0 9
55 0 9 55 0 9 55 0 9 55 0 9 55 0 9 55 0 9 55 0 9 55 0 9 55 0 9 55 0 9
55 0 9 55 0 9 55 0 9 56 0 9 56 0 9 56 0 9 56 0 9 56 0 9 56 0 9 56 0 9
56 0 9 56 0 9 56 0 9 56 0 9 56 0 9 56 0 9 56 0 9 56 0 9 56 0 9 56 0 9
56 0 9 56 0 9 56 0 9 56 0 9 56 0 9 56 0 9 57 0 9 57 0 9 57 0 9 57 0 9
57 0 9 57 0 9 57 0 9 57 0 9 57 0 9 57 0 9 57 0 9 57 0 9 57 0 9 57 0 9
57 0 9 57 0 9 57 0 9 57 0 9 57 0 9 57 0 9 57 0 9 57 0 9 57 0 10 57 0
10 57 0 10 57 0 10 57 0 10 57 0 10 57 0 10 57 0 10 57 0 10 58 0 10 58
0 10 58 0 10 58 0 10 58 0 10 58 0 10 58 0 10 58 0 10 58 0 10 58 0 10
58 0 10 58 0 10 58 0 10 58 0 10 58 0 10 58 0 10 58 0 10 58 0 10 58 0
10 58 0 10 58 0 10 58 0 10 58 0 10 58 0 10 58 0 10 58 0 10 58 0 10 58
0 10 58 0 10 58 0 10 58 0 10 58 0 10 58 0 10 58 0 10 58 0 10 58 0 10
58 0 10 58 0 10 58 0 10 58 0 10 58 0 10 58 0 10 58 0 10 58 0 10 58 0
10 58 0 10 58 0 10 58 0 10 58 0 10 58 0 10 58 0 10 58 0 10 58 0 10 58
0 10 58 0 10 58 0 10 58 0 10 58 0 10 58 0 10 58 0 10 58 0 10 58 0 10
58 0 10 58 0 10 58 0 10 58 0 10 58 0 10 58 0 10 58 0 10 58 0 10 58 0
10 58 0 10 58 0 10 58 0 10 58 0 10 58 0 10 58 0 10 58 0 10 58 0 10 57
0 10 57 0 10 57 0 10 57 0 10 57 0 10 57 0 10 57 0 10 57 0 10 57 0 10
57 0 9 57 0 9 57 0 9 57 0 9 57 0 9 57 0 9 57 0 9 57 0 9 57 0 9 57 0 9
57 0 9 57 0 9 57 0 9 57 0 9 57 0 9 57 0 9 57 0 9 57 0 9 57 0 9 57 0 9
57 0 9 57 0 9 57 0 9 56 0 9 56 0 9 56 0 9 56 0 9 56 0 9 56 0 9 56 0 9
56 0 9 56 0 9 56 0 9 56 0 9 56 0 9 56 0 9 56 0 9 56 0 9 56 0 9 56 0 9
56 0 9 56 0 9 56 0 9 56 0 9 56 0 9 55 0 9 55 0 9 55 0 9 55 0 9 55 0 9
55 0 9 55 0 9 55 0 9 55 0 9 55 0 9
43 0 7 43 0 7 43 0 7 43 0 7 43 0 7 43 0 7 43 0 7 43 0 7 43 0 7 43 0 7
43 0 7 43 0 7 44 0 7 44 0 7 44 0 7 44 0 7 44 0 7 44 0 7 44 0 7 44 0 7
44 0 7 44 0 7 44 0 7 44 0 7 44 0 7 44 0 7 44 0 7 44 0 7 45 0 7 45 0 7
45 0 7 45 0 7 45 0 7 45 0 7 45 0 7 45 0 7 45 0 7 45 0 7 45 0 7 45 0 7
45 0 8 45 0 8 45 0 8 45 0 8 46 0 8 46 0 8 46 0 8 46 0 8 46 0 8 46 0 8
46 0 8 46 0 8 46 0 8 46 0 8 46 0 8 46 0 8 46 0 8 46 0 8 46 0 8 46 0 8
47 0 8 47 0 8 47 0 8 47 0 8 47 0 8 47 0 8 47 0 8 47 0 8 47 0 8 47 0 8
47 0 8 47 0 8 47 0 8 47 0 8 47 0 8 48 0 8 48 0 8 48 0 8 48 0 8 48 0 8
48 0 8 48 0 8 48 0 8 48 0 8 48 0 8 48 0 8 48 0 8 48 0 8 48 0 8 48 0 8
49 0 8 49 0 8 49 0 8 49 0 8 49 0 8 49 0 8 49 0 8 49 0 8 49 0 8 49 0 8
49 0 8 49 0 8 49 0 8 49 0 8 49 0 8 49 0 8 50 0 8 50 0 8 50 0 8 50 0 8
50 0 8 50 0 8 50 0 8 50 0 8 50 0 8 50 0 8 50 0 8 50 0 8 50 0 8 50 0 8
50 0 8 51 0 8 51 0 8 51 0 8 51 0 8 51 0 8 51 0 8 51 0 8 51 0 8 51 0 8
51 0 8 51 0 8 51 0 8 51 0 9 51 0 9 51 0 9 51 0 9 52 0 9 52 0 9 52 0 9
52 0 9 52 0 9 52 0 9 52 0 9 52 0 9 52 0 9 52 0 9 52 0 9 52 0 9 52 0 9
52 0 9 52 0 9 52 0 9 53 0 9 53 0 9 53 0 9 53 0 9 53 0 9 53 0 9 53 0 9
53 0 9 53 0 9 53 0 9 53 0 9 53 0 9 53 0 9 53 0 9 53 0 9 53 0 9 54 0 9
54 0 9 54 0 9 54 0 9 54 0 9 54 0 9 54 0 9 54 0 9 54 0 9 54 0 9 54 0 9
54 0 9 54 0 9 54 0 9 54 0 9 54 0 9 54 0 9 54 0 9 55 0 9 55 0 9 55 0 9
55 0 9 55 0 9 55 0 9 55 0 9 55 0 9 55 0 9 55 0 9 55 0 9 55 0 9 55 0 9
55 0 9 55 0 9 55 0 9 55 0 9 55 0 9 55 0 9 55 0 9 56 0 9 56 0 9 56 0 9
56 0 9 56 0 9 56 0 9 56 0 9 56 0 9 56 0 9 56 0 9 56 0 9 56 0 9 56 0 9
56 0 9 56 0 9 56 0 9 56 0 9 56 0 9 56 0 9 56 0 9 56 0 9 56 0 9 56 0 9
56 0 9 57 0 9 57 0 9 57 0 9 57 0 9 57 0 9 57 0 9 57 0 9 57 0 9 57 0 9
57 0 9 57 0 9 57 0 9 57 0 9 57 0 9 57 0 9 57 0 9 57 0 9 57 0 9 57 0 9
57 0 9 57 0 9 57 0 9 57 0 9 57 0 9 57 0 9 57 0 9 57 0 9 57 0 10 57 0
10 57 0 10 57 0 10 57 0 10 57 0 10 57 0 10 57 0 10 57 0 10 57 0 10 57
0 10 58 0 10 58 0 10 58 0 10 58 0 10 58 0 10 58 0 10 58 0 10 58 0 10
58 0 10 58 0 10 58 0 10 58 0 10 58 0 10 58 0 10 58 0 10 58 0 10 58 0
10 58 0 10 58 0 10 58 0 10 58 0 10 58 0 10 58 0 10 58 0 10 58 0 10 58
0 10 58 0 10 58 0 10 58 0 10 58 0 10 58 0 10 58 0 10 58 0 10 58 0 10
58 0 10 58 0 10 58 0 10 58 0 10 58 0 10 58 0 10 58 0 10 58 0 10 58 0
10 58 0 10 58 0 10 58 0 10 58 0 10 58 0 10 58 0 10 58 0 10 58 0 10 58
0 10 58 0 10 58 0 10 58 0 10 58 0 10 58 0 10 57 0 10 57 0 10 57 0 10
57 0 10 57 0 10 57 0 10 57 0 10 57 0 10 57 0 10 57 0 10 57 0 10 57 0 9
57 0 9 57 0 9 57 0 9 57 0 9 57 0 9 57 0 9 57 0 9 57 0 9 57 0 9 57 0 9
57 0 9 57 0 9 57 0 9 57 0 9 57 0 9 57 0 9 57 0 9 57 0 9 57 0 9 57 0 9
57 0 9 57 0 9 57 0 9 57 0 9 57 0 9 56 0 9 56 0 9 56 0 9 56 0 9 56 0 9
56 0 9 56 0 9 56 0 9 56 0 9 56 0 9 56 0 9 56 0 9 56 0 9 56 0 9 56 0 9
56 0 9 56 0 9 56 0 9 56 0 9 56 0 9 56 0 9 56 0 9 56 0 9 56 0 9 55 0 9
55 0 9 55 0 9 55 0 9 55 0 9 55 0 9 55 0 9 55 0 9 55 0 9 55 0 9 55 0 9
55 0 9 55 0 9
43 0 7 43 0 7 43 0 7 43 0 7 43 0 7 43 0 7 43 0 7 43 0 7 43 0 7 43 0 7
43 0 7 43 0 7 44 0 7 44 0 7 44 0 7 44 0 7 44 0 7 44 0 7 44 0 7 44 0 7
44 0 7 44 0 7 44 0 7 44 0 7 44 0 7 44 0 7 44 0 7 44 0 7 44 0 7 45 0 7
45 0 7 45 0 7 45 0 7 45 0 7 45 0 7 45 0 7 45 0 7 45 0 7 45 0 7 45 0 7
45 0 8 45 0 8 45 0 8 45 0 8 45 0 8 46 0 8 46 0 8 46 0 8 46 0 8 46 0 8
46 0 8 46 0 8 46 0 8 46 0 8 46 0 8 46 0 8 46 0 8 46 0 8 46 0 8 46 0 8
46 0 8 47 0 8 47 0 8 47 0 8 47 0 8 47 0 8 47 0 8 47 0 8 47 0 8 47 0 8
47 0 8 47 0 8 47 0 8 47 0 8 47 0 8 47 0 8 48 0 8 48 0 8 48 0 8 48 0 8
48 0 8 48 0 8 48 0 8 48 0 8 48 0 8 48 0 8 48 0 8 48 0 8 48 0 8 48 0 8
48 0 8 48 0 8 49 0 8 49 0 8 49 0 8 49 0 8 49 0 8 49 0 8 49 0 8 49 0 8
49 0 8 49 0 8 49 0 8 49 0 8 49 0 8 49 0 8 49 0 8 50 0 8 50 0 8 50 0 8
50 0 8 50 0 8 50 0 8 50 0 8 50 0 8 50 0 8 50 0 8 50 0 8 50 0 8 50 0 8
50 0 8 50 0 8 50 0 8 51 0 8 51 0 8 51 0 8 51 0 8 51 0 8 51 0 8 51 0 8
51 0 8 51 0 8 51 0 8 51 0 8 51 0 8 51 0 9 51 0 9 51 0 9 51 0 9 52 0 9
52 0 9 52 0 9 52 0 9 52 0 9 52 0 9 52 0 9 52 0 9 52 0 9 52 0 9 52 0 9
52 0 9 52 0 9 52 0 9 52 0 9 52 0 9 53 0 9 53 0 9 53 0 9 53 0 9 53 0 9
53 0 9 53 0 9 53 0 9 53 0 9 53 0 9 53 0 9 53 0 9 53 0 9 53 0 9 53 0 9
53 0 9 53 0 9 54 0 9 54 0 9 54 0 9 54 0 9 54 0 9 54 0 9 54 0 9 54 0 9
54 0 9 54 0 9 54 0 9 54 0 9 54 0 9 54 0 9 54 0 9 54 0 9 54 0 9 54 0 9
54 0 9 55 0 9 55 0 9 55 0 9 55 0 9 55 0 9 55 0 9 55 0 9 55 0 9 55 0 9
55 0 9 55 0 9 55 0 9 55 0 9 55 0 9 55 0 9 55 0 9 55 0 9 55 0 9 55 0 9
55 0 9 55 0 9 56 0 9 56 0 9 56 0 9 56 0 9 56 0 9 56 0 9 56 0 9 56 0 9
56 0 9 56 0 9 56 0 9 56 0 9 56 0 9 56 0 9 56 0 9 56 0 9 56 0 9 56 0 9
56 0 9 56 0 9 56 0 9 56 0 9 56 0 9 56 0 9 56 0 9 56 0 9 57 0 9 57 0 9
57 0 9 57 0 9 57 0 9 57 0 9 57 0 9 57 0 9 57 0 9 57 0 9 57 0 9 57 0 9
57 0 9 57 0 9 57 0 9 57 0 9 57 0 9 57 0 9 57 0 9 57 0 9 57 0 9 57 0 9
57 0 9 57 0 9 57 0 9 57 0 9 57 0 9 57 0 9 57 0 9 57 0 9 57 0 9 57 0 10
57 0 10 57 0 10 57 0 10 57 0 10 57 0 10 57 0 10 57 0 10 57 0 10 57 0
10 57 0 10 57 0 10 57 0 10 57 0 10 57 0 10 57 0 10 57 0 10 57 0 10 57
0 10 57 0 10 57 0 10 57 0 10 57 0 10 58 0 10 58 0 10 58 0 10 58 0 10
58 0 10 58 0 10 58 0 10 58 0 10 58 0 10 58 0 10 58 0 10 58 0 10 57 0
10 57 0 10 57 0 10 57 0 10 57 0 10 57 0 10 57 0 10 57 0 10 57 0 10 57
0 10 57 0 10 57 0 10 57 0 10 57 0 10 57 0 10 57 0 10 57 0 10 57 0 10
57 0 10 57 0 10 57 0 10 57 0 10 57 0 9 57 0 9 57 0 9 57 0 9 57 0 9 57
0 9 57 0 9 57 0 9 57 0 9 57 0 9 57 0 9 57 0 9 57 0 9 57 0 9 57 0 9 57
0 9 57 0 9 57 0 9 57 0 9 57 0 9 57 0 9 57 0 9 57 0 9 57 0 9 57 0 9 57
0 9 57 0 9 57 0 9 57 0 9 57 0 9 57 0 9 57 0 9 56 0 9 56 0 9 56 0 9 56
0 9 56 0 9 56 0 9 56 0 9 56 0 9 56 0 9 56 0 9 56 0 9 56 0 9 56 0 9 56
0 9 56 0 9 56 0 9 56 0 9 56 0 9 56 0 9 56 0 9 56 0 9 56 0 9 56 0 9 56
0 9 56 0 9 56 0 9 55 0 9 55 0 9 55 0 9 55 0 9 55 0 9 55 0 9 55 0 9 55
0 9 55 0 9 55 0 9 55 0 9 55 0 9 55 0 9 55 0 9 55 0 9 55 0 9
