P3
50 25
255
0 0 0 0 0 0 0 0 0 0 0 0 0 0 0 0 0 0 0 0 0 0 0 0 0 0 0 0 0 0 0 0 0 0 0
0 0 0 0 0 0 0 0 0 0 0 0 0 0 0 0 0 0 0 0 0 0 0 0 0 0 0 0 0 0 0 0 0 0 0
0 0 0 0 0 0 0 0 79 202 9 84 207 12 116 255 25 66 155 10 50 114 8 36 79
6 20 41 4 9 13 2 7 13 2 5 13 1 0 0 0 0 0 0 0 0 0 0 0 0 0 0 0 0 0 0 0 0
0 45 16 6 38 14 5 33 12 5 28 10 4 23 8 3 19 7 3 19 7 3
0 0 0 0 0 0 0 0 0 0 0 0 0 0 0 0 0 0 0 0 0 0 0 0 0 0 0 0 0 0 0 0 0 0 0
0 0 0 0 0 0 0 0 0 0 0 0 0 0 0 0 0 0 0 0 0 0 0 0 0 0 0 0 0 0 0 0 0 0 0
0 0 0 0 0 0 0 0 83 205 11 89 209 13 131 255 31 80 170 15 57 122 10 41
86 7 24 47 5 7 19 2 9 13 2 0 0 0 0 0 0 0 0 0 0 0 0 0 0 0 0 0 0 0 0 0 0
0 0 46 16 6 39 15 6 34 12 5 28 10 4 24 8 3 19 7 3 19 7 3
0 0 0 0 0 0 0 0 0 0 0 0 0 0 0 0 0 0 0 0 0 0 0 0 0 0 0 0 0 0 0 0 0 0 0
0 0 0 0 0 0 0 0 0 0 0 0 0 0 0 0 0 0 0 0 0 0 0 0 0 0 0 0 0 0 0 0 0 0 0
0 0 0 0 0 0 0 0 0 0 0 87 204 13 87 189 15 74 159 13 58 125 10 42 88 7
25 48 5 11 14 3 9 13 3 0 0 0 0 0 0 0 0 0 0 0 0 0 0 0 0 0 0 0 0 0 0 0 0
47 17 6 44 24 7 34 12 5 29 10 4 24 9 3 20 7 3 19 7 3
0 0 0 0 0 0 0 0 0 0 0 0 0 0 0 0 0 0 0 0 0 0 0 0 0 0 0 0 0 0 0 0 0 0 0
0 0 0 0 0 0 0 0 0 0 0 0 0 0 0 0 0 0 0 0 0 0 0 0 0 0 0 0 0 0 0 0 0 0 0
0 0 0 0 0 0 0 0 0 0 0 72 175 10 77 176 12 69 152 11 55 120 9 39 82 7
22 40 5 10 14 3 0 0 0 0 0 0 0 0 0 0 0 0 0 0 0 0 0 0 0 0 0 0 0 0 0 0 0
48 17 7 41 15 6 35 13 5 30 11 4 25 9 3 20 7 3 19 7 3
0 0 0 0 0 0 0 0 0 0 0 0 0 0 0 0 0 0 0 0 0 0 0 0 0 0 0 0 0 0 0 0 0 0 0
0 0 0 0 0 0 0 0 0 0 0 0 0 0 0 0 0 0 0 0 0 0 0 0 0 0 0 0 0 0 0 0 0 0 0
0 0 0 0 0 0 0 0 0 0 0 0 0 0 0 0 0 55 125 8 45 98 7 30 60 6 10 14 3 0 0
0 0 0 0 0 0 0 0 0 0 0 0 0 0 0 0 0 0 0 0 0 0 0 0 0 0 0 0 0 0 0 43 15 6
37 13 5 31 11 4 26 9 4 21 7 3 19 7 3
0 0 0 0 0 0 0 0 0 0 0 0 0 0 0 0 0 0 0 0 0 0 0 0 0 0 0 0 0 0 0 0 0 0 0
0 0 0 0 0 0 0 0 0 0 0 0 0 0 0 0 0 0 0 0 0 0 0 0 0 0 0 0 0 0 0 0 0 0 0
0 0 0 0 0 0 0 0 0 0 0 0 0 0 0 0 0 0 0 0 0 0 0 0 0 0 0 0 0 0 0 0 0 0 0
0 0 0 0 0 0 0 0 0 0 0 0 0 0 0 0 0 0 0 0 0 0 0 0 0 0 0 45 16 6 38 13 5
32 11 4 27 10 4 22 8 3 19 7 3
0 0 0 0 0 0 0 0 0 0 0 0 0 0 0 0 0 0 0 0 0 0 0 0 0 0 0 0 0 0 0 0 0 0 0
0 0 0 0 0 0 0 0 0 0 0 0 0 0 0 0 0 0 0 0 0 0 0 0 0 0 0 0 0 0 0 0 0 0 0
0 0 0 0 0 0 0 0 0 0 0 0 0 0 0 0 0 0 0 0 0 0 0 0 0 0 0 0 0 0 0 0 0 0 0
0 0 0 0 0 0 0 0 0 0 0 0 0 0 0 0 0 0 0 0 0 0 0 0 0 0 0 0 0 0 0 0 0 34
12 5 28 10 4 23 8 3 19 7 3
0 0 0 0 0 0 0 0 0 0 0 0 0 0 0 0 0 0 0 0 0 0 0 0 0 0 0 0 0 0 0 0 0 0 0
0 0 0 0 0 0 0 0 0 0 0 0 0 0 0 0 0 0 0 0 0 0 0 0 0 0 0 0 0 0 0 0 0 0 0
0 0 0 0 0 0 0 0 0 0 0 0 0 0 0 0 0 0 0 0 0 0 0 0 0 0 0 0 0 0 0 0 0 0 0
0 0 0 0 0 0 0 0 0 0 0 0 0 0 0 0 0 0 0 0 0 0 0 0 0 0 0 0 0 0 0 0 0 0 0
0 0 0 0 0 0 0 0 0 0
0 0 0 0 0 0 0 0 0 0 0 0 0 0 0 0 0 0 0 0 0 0 0 0 0 0 0 0 0 0 0 0 0 0 0
0 0 0 0 0 0 0 0 0 0 0 0 0 0 0 0 0 0 0 0 0 0 0 0 0 0 0 0 0 0 0 0 0 0 0
0 0 0 0 0 0 0 0 0 0 0 0 0 0 0 0 0 0 0 0 0 0 0 0 0 0 0 0 0 0 0 0 0 0 0
0 0 0 0 0 0 0 0 0 0 0 0 0 0 0 0 0 0 0 0 0 0 0 0 0 0 0 11 37 9 10 31 8
7 23 6 4 13 3 3 11 3 0 0 0
0 0 0 0 0 0 0 0 0 0 0 0 0 0 0 0 0 0 0 0 0 0 0 0 0 0 0 0 0 0 0 0 0 0 0
0 0 0 0 0 0 0 0 0 0 0 0 0 0 0 0 0 0 0 0 0 0 0 0 0 0 0 0 0 0 0 0 0 0 0
0 0 0 0 0 0 0 0 0 0 0 0 0 0 0 0 0 0 0 0 0 0 0 0 0 0 0 0 0 0 0 0 0 0 0
0 0 0 0 0 0 0 0 0 0 0 0 0 0 0 0 0 0 0 0 0 0 0 0 15 49 12 14 44 11 11
36 9 8 27 7 5 18 4 3 11 3 3 11 3
5 1 2 5 1 2 5 1 2 5 1 2 5 1 2 5 1 2 5 1 2 5 1 2 5 1 2 5 1 2 5 1 2 5 1
2 5 1 2 5 1 2 5 1 2 5 1 2 5 1 2 5 1 2 5 1 2 5 1 2 5 1 2 5 1 2 5 1 2 5
1 2 5 1 2 5 1 2 5 1 2 5 1 2 5 1 2 5 1 2 5 1 2 5 1 2 5 1 2 5 1 2 5 1 2
5 1 2 5 1 2 5 1 2 5 1 2 5 1 2 5 1 2 5 1 2 5 1 2 17 54 13 14 47 11 12
38 9 9 29 7 6 20 5 3 11 3 3 11 3
6 1 3 6 1 3 6 1 3 6 1 3 6 1 3 6 1 3 6 1 3 6 1 3 6 1 3 6 1 3 6 1 3 6 1
3 6 1 3 6 1 3 6 1 3 6 1 3 6 1 3 6 1 3 6 1 3 6 1 3 6 1 3 6 1 3 6 1 3 6
1 3 6 1 3 6 1 3 6 1 3 6 1 3 6 1 3 6 1 3 6 1 3 6 1 3 6 1 3 6 1 3 6 1 3
6 1 3 6 1 3 6 1 3 6 1 3 6 1 3 6 1 3 6 1 3 18 58 14 17 55 13 15 49 12
12 39 9 9 30 7 6 20 5 3 11 3 3 11 3
7 1 3 7 1 3 7 1 3 7 1 3 7 1 3 7 1 3 7 1 3 7 1 3 7 1 3 7 1 3 7 1 3 7 1
3 7 1 3 7 1 3 7 1 3 7 1 3 7 1 3 7 1 3 7 1 3 7 1 3 7 1 3 7 1 3 7 1 3 7
1 3 7 1 3 7 1 3 7 1 3 7 1 3 7 1 3 7 1 3 7 1 3 7 1 3 7 1 3 7 1 3 7 1 3
7 1 3 7 1 3 7 1 3 7 1 3 7 1 3 7 1 3 7 1 3 18 57 14 17 54 13 15 47 11
12 39 9 9 30 7 6 20 5 3 11 3 3 11 3
8 2 4 9 2 4 9 2 4 9 2 4 9 2 4 9 2 4 9 2 4 9 2 4 9 2 4 9 2 4 9 2 4 9 2
4 9 2 4 9 2 4 9 2 4 9 2 4 9 2 4 9 2 4 9 2 4 9 2 4 9 2 4 9 2 4 9 2 4 9
2 4 9 2 4 9 2 4 9 2 4 9 2 4 9 2 4 9 2 4 9 2 4 9 2 4 9 2 4 9 2 4 9 2 4
9 2 4 8 2 4 8 2 4 8 2 4 8 2 4 8 1 4 8 1 4 8 1 4 16 52 12 14 45 11 11
37 9 9 28 7 6 18 4 3 11 3 3 11 3
10 2 5 10 2 5 10 2 5 10 2 5 10 2 5 10 2 5 40 32 17 31 25 13 24 19 10
11 2 5 11 2 5 11 2 5 11 2 5 11 2 5 11 2 5 11 2 5 11 2 5 11 2 5 11 2 5
11 2 5 11 2 5 11 2 5 11 2 5 11 2 5 11 2 5 11 2 5 10 2 5 10 2 5 10 2 5
10 2 5 10 2 5 10 2 5 10 2 4 10 2 4 10 2 4 10 2 4 10 2 4 10 2 4 10 2 4
10 2 4 10 2 4 10 2 4 10 2 4 14 45 11 13 41 10 10 33 8 8 25 6 5 15 4 3
11 3 3 11 3
13 2 6 13 2 6 13 2 6 13 2 6 41 32 17 31 24 13 24 19 10 18 14 7 14 11 6
14 11 6 13 2 6 13 2 6 13 2 6 13 2 6 13 2 6 13 2 6 13 2 6 13 2 6 13 2 6
13 2 6 13 2 6 13 2 6 13 2 6 13 2 6 13 2 6 13 2 6 13 2 6 13 2 6 12 2 6
12 2 5 12 2 5 12 2 5 12 2 5 12 2 5 12 2 5 12 2 5 12 2 5 11 2 5 11 2 5
11 2 5 11 2 5 11 2 5 11 2 5 11 2 5 10 31 7 8 27 7 6 19 5 3 11 3 3 11 3
10 2 5
16 3 7 16 3 7 16 3 7 32 26 13 24 19 10 18 14 7 14 11 6 14 11 6 14 11 6
14 11 6 14 11 6 17 3 8 17 3 8 17 3 8 17 3 8 17 3 7 17 3 7 17 3 7 17 3
7 17 3 7 16 3 7 16 3 7 16 3 7 16 3 7 16 3 7 15 3 7 15 3 7 15 3 7 15 3
7 15 3 6 14 3 6 14 3 6 14 3 6 14 2 6 14 2 6 14 2 6 13 2 6 13 2 6 13 2
6 13 2 6 13 2 6 13 2 6 12 2 5 12 2 5 12 2 5 12 2 5 12 2 5 12 2 5 12 2
5 11 2 5
21 4 9 21 4 9 22 4 10 19 15 8 14 11 6 14 11 6 14 11 6 14 11 6 14 11 6
14 11 6 14 11 6 23 4 10 22 4 10 22 4 10 22 4 10 22 4 10 22 4 10 21 4 9
21 4 9 21 4 9 20 4 9 20 4 9 20 4 9 19 3 9 19 3 8 19 3 8 18 3 8 18 3 8
17 3 8 17 3 8 17 3 7 17 3 7 16 3 7 16 3 7 16 3 7 15 3 7 15 3 7 15 3 7
15 3 6 14 3 6 14 3 6 14 3 6 14 2 6 14 2 6 13 2 6 13 2 6 13 2 6 13 2 6
13 2 6 13 2 6
29 5 13 29 5 13 30 5 13 14 11 6 14 11 6 14 11 6 14 11 6 14 11 6 14 11
6 14 11 6 14 11 6 30 5 13 30 5 13 29 5 13 29 5 13 28 5 12 27 5 12 27 5
12 26 5 11 25 5 11 25 4 11 24 4 11 23 4 10 23 4 10 22 4 10 21 4 9 21 4
9 20 4 9 20 4 9 19 3 9 19 3 8 19 3 8 18 3 8 18 3 8 17 3 8 17 3 8 17 3
7 16 3 7 16 3 7 16 3 7 16 3 7 15 3 7 15 3 7 15 3 7 15 3 6 14 3 6 14 3
6 14 2 6 14 2 6 14 2 6
40 7 18 41 7 18 42 7 18 14 11 6 14 11 6 14 11 6 14 11 6 14 11 6 14 11
6 14 11 6 14 11 6 38 7 17 37 7 16 36 6 16 34 6 15 33 6 15 32 6 14 31 6
14 30 5 13 29 5 13 28 5 12 27 5 12 26 5 11 25 4 11 24 4 11 23 4 10 23
4 10 22 4 10 21 4 9 21 4 9 20 4 9 20 4 9 19 3 9 19 3 8 19 3 8 18 3 8
18 3 8 17 3 8 17 3 8 17 3 7 16 3 7 16 3 7 16 3 7 16 3 7 15 3 7 15 3 7
15 3 7 15 3 7 15 3 6 14 3 6
49 9 22 50 9 22 51 9 22 5 1 2 14 11 6 14 11 6 14 11 6 14 11 6 14 11 6
14 11 6 14 11 6 5 1 2 5 1 2 5 1 2 5 1 2 5 1 2 5 1 2 5 1 2 31 5 14 29 5
13 28 5 13 27 5 12 27 5 12 26 5 11 25 4 11 24 4 11 23 4 10 23 4 10 22
4 10 22 4 10 21 4 9 21 4 9 20 4 9 20 4 9 19 3 9 19 3 8 18 3 8 18 3 8
18 3 8 17 3 8 17 3 8 17 3 7 17 3 7 16 3 7 16 3 7 16 3 7 16 3 7 15 3 7
15 3 7 15 3 7
47 8 21 47 8 21 47 8 21 46 8 21 5 1 2 5 1 2 5 1 2 5 1 2 5 1 2 5 1 2 5
1 2 5 1 2 5 1 2 5 1 2 33 6 15 32 6 14 31 6 14 30 5 13 29 5 13 28 5 13
27 5 12 27 5 12 26 5 11 25 5 11 25 4 11 24 4 11 23 4 10 23 4 10 22 4
10 22 4 10 21 4 9 21 4 9 20 4 9 20 4 9 19 3 9 19 3 8 19 3 8 18 3 8 18
3 8 18 3 8 17 3 8 17 3 8 17 3 7 17 3 7 16 3 7 16 3 7 16 3 7 16 3 7 16
3 7 15 3 7
40 7 18 40 7 17 39 7 17 39 7 17 38 7 17 37 7 17 37 7 16 36 6 16 35 6
16 34 6 15 33 6 15 33 6 14 32 6 14 31 6 14 30 5 13 29 5 13 29 5 13 28
5 12 27 5 12 27 5 12 26 5 11 25 5 11 25 4 11 24 4 11 24 4 10 23 4 10
23 4 10 22 4 10 22 4 10 21 4 9 21 4 9 20 4 9 20 4 9 20 4 9 19 3 9 19 3
8 19 3 8 18 3 8 18 3 8 18 3 8 18 3 8 17 3 8 17 3 8 17 3 7 17 3 7 16 3
7 16 3 7 16 3 7 16 3 7 16 3 7
34 6 15 34 6 15 33 6 15 33 6 15 32 6 14 32 6 14 32 6 14 31 6 14 31 5
14 30 5 13 29 5 13 29 5 13 28 5 13 28 5 12 27 5 12 27 5 12 26 5 12 26
5 11 25 5 11 25 4 11 24 4 11 24 4 11 23 4 10 23 4 10 23 4 10 22 4 10
22 4 10 21 4 9 21 4 9 21 4 9 20 4 9 20 4 9 20 4 9 19 3 9 19 3 8 19 3 8
19 3 8 18 3 8 18 3 8 18 3 8 18 3 8 17 3 8 17 3 8 17 3 7 17 3 7 16 3 7
16 3 7 16 3 7 16 3 7 16 3 7
30 5 13 29 5 13 29 5 13 29 5 13 29 5 13 28 5 13 28 5 12 28 5 12 27 5
12 27 5 12 27 5 12 26 5 12 26 5 11 25 5 11 25 5 11 25 4 11 24 4 11 24
4 11 24 4 10 23 4 10 23 4 10 23 4 10 22 4 10 22 4 10 22 4 10 21 4 9 21
4 9 21 4 9 20 4 9 20 4 9 20 4 9 20 4 9 19 3 9 19 3 8 19 3 8 19 3 8 18
3 8 18 3 8 18 3 8 18 3 8 17 3 8 17 3 8 17 3 8 17 3 7 17 3 7 16 3 7 16
3 7 16 3 7 16 3 7 16 3 7
