P3
100 50
255
25 0 10 25 0 10 25 0 10 25 0 10 25 0 10 25 0 10 25 0 10 25 0 10 25 0
10 25 0 10 25 0 10 25 0 10 25 0 10 25 0 10 25 0 10 25 0 10 25 0 10 25
0 10 25 0 10 25 0 10 25 0 10 25 0 10 25 0 10 25 0 10 25 0 10 25 0 10
25 0 10 25 0 10 25 0 10 25 0 10 25 0 10 25 0 10 25 0 10 25 0 10 25 0
10 25 0 10 25 0 10 25 0 10 25 0 10 25 0 10 25 0 10 25 0 10 25 0 10 25
0 10 25 0 10 25 0 10 25 0 10 25 0 10 25 0 10 25 0 10 25 0 10 25 0 10
25 0 10 25 0 10 25 0 10 25 0 10 25 0 10 25 0 10 25 0 10 25 0 10 25 0
10 25 0 10 25 0 10 25 0 10 25 0 10 25 0 10 25 0 10 25 0 10 25 0 10 25
0 10 25 0 10 25 0 10 25 0 10 25 0 10 25 0 10 25 0 10 25 0 10 25 0 10
25 0 10 25 0 10 25 0 10 25 0 10 25 0 10 25 0 10 25 0 10 25 0 10 25 0
10 25 0 10 25 0 10 25 0 10 25 0 10 25 0 10 25 0 10 25 0 10 25 0 10 25
0 10 25 0 10 25 0 10 25 0 10 25 0 10
26 0 10 26 0 10 26 0 10 26 0 10 26 0 10 26 0 10 26 0 10 26 0 10 26 0
10 26 0 10 26 0 10 26 0 10 26 0 10 26 0 10 26 0 10 26 0 10 26 0 10 26
0 10 26 0 10 26 0 10 26 0 10 26 0 10 26 0 10 26 0 10 26 0 10 26 0 10
26 0 10 26 0 10 26 0 10 26 0 10 26 0 10 26 0 10 26 0 10 26 0 10 26 0
10 26 0 10 26 0 10 26 0 10 26 0 10 26 0 10 26 0 10 26 0 10 26 0 10 26
0 10 26 0 10 26 0 10 26 0 10 26 0 10 26 0 10 26 0 10 26 0 10 26 0 10
26 0 10 26 0 10 26 0 10 26 0 10 26 0 10 26 0 10 26 0 10 26 0 10 26 0
10 26 0 10 26 0 10 26 0 10 26 0 10 26 0 10 26 0 10 26 0 10 26 0 10 26
0 10 26 0 10 26 0 10 26 0 10 26 0 10 26 0 10 26 0 10 26 0 10 26 0 10
26 0 10 26 0 10 26 0 10 26 0 10 26 0 10 26 0 10 26 0 10 26 0 10 26 0
10 26 0 10 26 0 10 26 0 10 26 0 10 26 0 10 26 0 10 26 0 10 26 0 10 26
0 10 26 0 10 26 0 10 26 0 10 26 0 10
27 0 10 27 0 10 27 0 11 27 0 11 27 0 11 27 0 11 27 0 11 27 0 11 27 0
11 27 0 11 27 0 11 27 0 11 27 0 11 27 0 11 27 0 11 27 0 11 27 0 11 27
0 11 27 0 11 27 0 11 27 0 11 27 0 11 27 0 11 28 0 11 28 0 11 28 0 11
28 0 11 28 0 11 28 0 11 28 0 11 28 0 11 28 0 11 28 0 11 28 0 11 28 0
11 28 0 11 28 0 11 28 0 11 28 0 11 28 0 11 28 0 11 28 0 11 28 0 11 28
0 11 28 0 11 28 0 11 28 0 11 28 0 11 28 0 11 28 0 11 28 0 11 28 0 11
28 0 11 28 0 11 28 0 11 28 0 11 28 0 11 28 0 11 28 0 11 28 0 11 28 0
11 28 0 11 28 0 11 28 0 11 28 0 11 28 0 11 28 0 11 28 0 11 28 0 11 28
0 11 28 0 11 28 0 11 28 0 11 28 0 11 27 0 11 27 0 11 27 0 11 27 0 11
27 0 11 27 0 11 27 0 11 27 0 11 27 0 11 27 0 11 27 0 11 27 0 11 27 0
11 27 0 11 27 0 11 27 0 11 27 0 11 27 0 11 27 0 11 27 0 11 27 0 11 27
0 10 27 0 10 27 0 10 27 0 10 27 0 10
28 0 11 28 0 11 28 0 11 28 0 11 28 0 11 28 0 11 28 0 11 29 0 11 29 0
11 29 0 11 29 0 11 29 0 11 29 0 11 29 0 11 29 0 11 29 0 11 29 0 11 29
0 11 29 0 11 29 0 11 29 0 11 29 0 11 29 0 11 29 0 11 29 0 11 29 0 11
29 0 11 29 0 11 29 0 11 29 0 11 29 0 11 29 0 11 29 0 11 29 0 11 29 0
11 29 0 11 29 0 11 29 0 11 29 0 11 29 0 11 29 0 11 29 0 11 29 0 11 29
0 11 29 0 11 29 0 11 29 0 11 29 0 11 29 0 11 29 0 11 29 0 11 29 0 11
29 0 11 29 0 11 29 0 11 29 0 11 29 0 11 29 0 11 29 0 11 29 0 11 29 0
11 29 0 11 29 0 11 29 0 11 29 0 11 29 0 11 29 0 11 29 0 11 29 0 11 29
0 11 29 0 11 29 0 11 29 0 11 29 0 11 29 0 11 29 0 11 29 0 11 29 0 11
29 0 11 29 0 11 29 0 11 29 0 11 29 0 11 29 0 11 29 0 11 29 0 11 29 0
11 29 0 11 29 0 11 28 0 11 28 0 11 28 0 11 28 0 11 28 0 11 28 0 11 28
0 11 28 0 11 28 0 11 28 0 11 28 0 11
30 0 11 30 0 12 30 0 12 30 0 12 30 0 12 30 0 12 30 0 12 30 0 12 30 0
12 30 0 12 30 0 12 30 0 12 30 0 12 30 0 12 30 0 12 30 0 12 30 0 12 30
0 12 30 0 12 30 0 12 30 0 12 31 0 12 31 0 12 31 0 12 31 0 12 31 0 12
31 0 12 31 0 12 31 0 12 31 0 12 31 0 12 31 0 12 31 0 12 31 0 12 31 0
12 31 0 12 31 0 12 31 0 12 31 0 12 31 0 12 31 0 12 31 0 12 31 0 12 31
0 12 31 0 12 31 0 12 31 0 12 31 0 12 31 0 12 31 0 12 31 0 12 31 0 12
31 0 12 31 0 12 31 0 12 31 0 12 31 0 12 31 0 12 31 0 12 31 0 12 31 0
12 31 0 12 31 0 12 31 0 12 31 0 12 31 0 12 31 0 12 31 0 12 31 0 12 31
0 12 31 0 12 31 0 12 31 0 12 31 0 12 30 0 12 30 0 12 30 0 12 30 0 12
30 0 12 30 0 12 30 0 12 30 0 12 30 0 12 30 0 12 30 0 12 30 0 12 30 0
12 30 0 12 30 0 12 30 0 12 30 0 12 30 0 12 30 0 12 30 0 12 30 0 12 30
0 11 30 0 11 30 0 11 29 0 11 29 0 11
31 0 12 31 0 12 31 0 12 31 0 12 31 0 12 31 0 12 31 0 12 31 0 12 31 0
12 32 0 12 32 0 12 32 0 12 32 0 12 32 0 12 32 0 12 32 0 12 32 0 12 32
0 12 32 0 12 32 0 12 32 0 12 32 0 12 32 0 13 32 0 13 32 0 13 32 0 13
32 0 13 32 0 13 32 0 13 33 0 13 33 0 13 33 0 13 33 0 13 33 0 13 33 0
13 33 0 13 33 0 13 33 0 13 33 0 13 33 0 13 33 0 13 33 0 13 33 0 13 33
0 13 33 0 13 33 0 13 33 0 13 33 0 13 33 0 13 33 0 13 33 0 13 33 0 13
33 0 13 33 0 13 33 0 13 33 0 13 33 0 13 33 0 13 33 0 13 33 0 13 33 0
13 33 0 13 33 0 13 33 0 13 33 0 13 33 0 13 32 0 13 32 0 13 32 0 13 32
0 13 32 0 13 32 0 13 32 0 13 32 0 12 32 0 12 32 0 12 32 0 12 32 0 12
32 0 12 32 0 12 32 0 12 32 0 12 32 0 12 32 0 12 32 0 12 32 0 12 31 0
12 31 0 12 31 0 12 31 0 12 31 0 12 31 0 12 31 0 12 31 0 12 31 0 12 31
0 12 31 0 12 31 0 12 31 0 12 31 0 12
33 0 13 33 0 13 33 0 13 33 0 13 33 0 13 33 0 13 33 0 13 33 0 13 33 0
13 33 0 13 33 0 13 33 0 13 33 0 13 33 0 13 34 0 13 34 0 13 34 0 13 34
0 13 34 0 13 34 0 13 34 0 13 34 0 13 34 0 13 34 0 13 34 0 13 34 0 13
34 0 13 34 0 13 34 0 13 34 0 13 34 0 13 35 0 13 35 0 13 35 0 13 35 0
13 35 0 13 35 0 13 35 0 13 35 0 13 35 0 13 35 0 14 35 0 14 35 0 14 35
0 14 35 0 14 35 0 14 35 0 14 35 0 14 35 0 14 35 0 14 35 0 14 35 0 14
35 0 14 35 0 14 35 0 13 35 0 13 35 0 13 35 0 13 35 0 13 35 0 13 35 0
13 35 0 13 34 0 13 34 0 13 34 0 13 34 0 13 34 0 13 34 0 13 34 0 13 34
0 13 34 0 13 34 0 13 34 0 13 34 0 13 34 0 13 34 0 13 34 0 13 34 0 13
34 0 13 33 0 13 33 0 13 33 0 13 33 0 13 33 0 13 33 0 13 3 0 0 1 0 0 1
0 0 1 0 0 33 0 13 33 0 13 33 0 13 33 0 13 33 0 13 32 0 13 32 0 13 32 0
13 32 0 13 32 0 12 32 0 12
34 0 13 34 0 13 34 0 13 34 0 13 34 0 13 35 0 13 35 0 13 35 0 13 35 0
14 35 0 14 35 0 14 35 0 14 35 0 14 35 0 14 35 0 14 35 0 14 35 0 14 36
0 14 36 0 14 36 0 14 36 0 14 36 0 14 36 0 14 36 0 14 36 0 14 36 0 14
36 0 14 36 0 14 36 0 14 36 0 14 36 0 14 37 0 14 37 0 14 37 0 14 37 0
14 37 0 14 37 0 14 37 0 14 37 0 14 37 0 14 37 0 14 37 0 14 37 0 14 37
0 14 37 0 14 37 0 14 37 0 14 37 0 14 37 0 14 37 0 14 37 0 14 37 0 14
37 0 14 37 0 14 37 0 14 37 0 14 37 0 14 37 0 14 37 0 14 37 0 14 37 0
14 37 0 14 36 0 14 36 0 14 36 0 14 36 0 14 36 0 14 36 0 14 36 0 14 36
0 14 36 0 14 36 0 14 36 0 14 36 0 14 36 0 14 36 0 14 35 0 14 35 0 14
35 0 14 35 0 14 35 0 14 35 0 14 35 0 14 25 5 3 18 4 2 11 2 1 3 0 0 1 0
0 1 0 0 1 0 0 1 0 0 34 0 13 34 0 13 34 0 13 34 0 13 34 0 13 34 0 13 34
0 13 34 0 13 33 0 13
36 0 14 36 0 14 36 0 14 36 0 14 36 0 14 36 0 14 36 0 14 36 0 14 37 0
14 37 0 14 37 0 14 37 0 14 37 0 14 37 0 14 37 0 14 37 0 14 37 0 15 38
0 15 38 0 15 38 0 15 38 0 15 38 0 15 38 0 15 38 0 15 38 0 15 38 0 15
38 0 15 38 0 15 39 0 15 39 0 15 39 0 15 39 0 15 39 0 15 39 0 15 39 0
15 39 0 15 39 0 15 39 0 15 39 0 15 39 0 15 39 0 15 39 0 15 39 0 15 39
0 15 39 0 15 39 0 15 39 0 15 39 0 15 39 0 15 39 0 15 39 0 15 39 0 15
39 0 15 39 0 15 39 0 15 39 0 15 39 0 15 39 0 15 39 0 15 39 0 15 39 0
15 39 0 15 39 0 15 39 0 15 38 0 15 38 0 15 38 0 15 38 0 15 38 0 15 38
0 15 38 0 15 38 0 15 38 0 15 38 0 15 38 0 15 37 0 15 37 0 14 37 0 14
37 0 14 37 0 14 37 0 14 37 0 14 37 7 4 30 6 3 22 4 2 14 3 2 6 1 1 1 0
0 1 0 0 1 0 0 1 0 0 1 0 0 36 0 14 36 0 14 35 0 14 35 0 14 35 0 14 35 0
14 35 0 14 35 0 14
37 0 15 38 0 15 38 0 15 38 0 15 38 0 15 38 0 15 38 0 15 38 0 15 39 0
15 39 0 15 39 0 15 39 0 15 39 0 15 39 0 15 39 0 15 39 0 15 40 0 15 40
0 15 40 0 15 40 0 15 40 0 16 40 0 16 40 0 16 40 0 16 40 0 16 41 0 16
41 0 16 41 0 16 41 0 16 41 0 16 41 0 16 41 0 16 41 0 16 41 0 16 41 0
16 41 0 16 41 0 16 42 0 16 42 0 16 42 0 16 42 0 16 42 0 16 42 0 16 42
0 16 42 0 16 42 0 16 42 0 16 42 0 16 42 0 16 42 0 16 42 0 16 42 0 16
42 0 16 42 0 16 41 0 16 41 0 16 41 0 16 41 0 16 41 0 16 41 0 16 41 0
16 41 0 16 41 0 16 41 0 16 41 0 16 41 0 16 40 0 16 40 0 16 40 0 16 40
0 16 40 0 16 40 0 15 40 0 15 40 0 15 40 0 15 39 0 15 39 0 15 39 0 15
39 0 15 39 0 15 39 0 15 47 9 5 41 8 5 33 6 4 25 5 3 16 3 2 8 2 1 1 0 0
1 0 0 1 0 0 1 0 0 1 0 0 37 0 14 37 0 14 37 0 14 37 0 14 37 0 14 37 0
14 36 0 14 36 0 14
39 0 15 39 0 15 40 0 15 40 0 15 40 0 15 40 0 16 40 0 16 40 0 16 41 0
16 41 0 16 41 0 16 41 0 16 41 0 16 41 0 16 41 0 16 42 0 16 42 0 16 42
0 16 42 0 16 42 0 16 42 0 16 42 0 16 43 0 17 43 0 17 43 0 17 43 0 17
43 0 17 43 0 17 43 0 17 43 0 17 44 0 17 44 0 17 44 0 17 44 0 17 44 0
17 44 0 17 44 0 17 44 0 17 44 0 17 44 0 17 44 0 17 44 0 17 44 0 17 44
0 17 44 0 17 44 0 17 44 0 17 44 0 17 44 0 17 44 0 17 44 0 17 44 0 17
44 0 17 44 0 17 44 0 17 44 0 17 44 0 17 44 0 17 44 0 17 44 0 17 43 0
17 43 0 17 43 0 17 43 0 17 43 0 17 43 0 17 43 0 17 43 0 17 43 0 16 42
0 16 42 0 16 42 0 16 42 0 16 42 0 16 42 0 16 41 0 16 41 0 16 41 0 16
41 0 16 41 0 16 41 0 16 50 10 6 43 8 5 35 7 4 26 5 3 18 3 2 9 2 1 1 0
0 1 0 0 1 0 0 1 0 0 1 0 0 1 0 0 39 0 15 39 0 15 38 0 15 38 0 15 38 0
15 38 0 15 38 0 15
41 0 16 41 0 16 42 0 16 42 0 16 42 0 16 42 0 16 42 0 16 43 0 17 43 0
17 43 0 17 43 0 17 43 0 17 43 0 17 44 0 17 44 0 17 44 0 17 44 0 17 44
0 17 45 0 17 45 0 17 45 0 17 45 0 17 45 0 18 45 0 18 46 0 18 46 0 18
46 0 18 46 0 18 46 0 18 46 0 18 46 0 18 46 0 18 47 0 18 47 0 18 47 0
18 47 0 18 47 0 18 47 0 18 47 0 18 47 0 18 47 0 18 47 0 18 47 0 18 47
0 18 47 0 18 47 0 18 47 0 18 47 0 18 47 0 18 47 0 18 47 0 18 47 0 18
47 0 18 47 0 18 47 0 18 47 0 18 47 0 18 47 0 18 46 0 18 46 0 18 46 0
18 46 0 18 46 0 18 46 0 18 46 0 18 45 0 18 45 0 18 45 0 17 45 0 17 45
0 17 45 0 17 44 0 17 44 0 17 44 0 17 44 0 17 44 0 17 43 0 17 43 0 17
43 0 17 43 0 17 43 0 17 52 10 6 46 9 6 36 7 4 27 5 3 19 4 2 10 2 1 1 0
0 1 0 0 1 0 0 1 0 0 1 0 0 1 0 0 40 0 16 40 0 16 40 0 16 40 0 15 40 0
15 40 0 15 39 0 15
43 0 17 44 0 17 44 0 17 44 0 17 44 0 17 44 0 17 45 0 17 45 0 17 45 0
17 45 0 18 45 0 18 46 0 18 46 0 18 46 0 18 46 0 18 47 0 18 47 0 18 47
0 18 47 0 18 47 0 18 48 0 18 48 0 19 48 0 19 48 0 19 48 0 19 49 0 19
49 0 19 49 0 19 49 0 19 49 0 19 49 0 19 50 0 19 50 0 19 50 0 19 50 0
19 50 0 19 50 0 19 50 0 19 50 0 20 50 0 20 50 0 20 50 0 20 50 0 20 50
0 20 50 0 20 50 0 20 50 0 20 50 0 20 50 0 20 50 0 20 50 0 19 50 0 19
50 0 19 50 0 19 50 0 19 50 0 19 50 0 19 49 0 19 49 0 19 49 0 19 49 0
19 49 0 19 49 0 19 48 0 19 48 0 19 48 0 19 48 0 19 48 0 18 47 0 18 47
0 18 47 0 18 47 0 18 47 0 18 46 0 18 46 0 18 46 0 18 46 0 18 46 0 18
45 0 18 45 0 17 45 0 17 53 10 6 121 18 45 37 7 4 28 5 3 19 4 2 10 2 1
2 0 0 1 0 0 1 0 0 1 0 0 1 0 0 1 0 0 42 0 16 42 0 16 42 0 16 42 0 16 41
0 16 41 0 16 41 0 16
45 0 18 46 0 18 46 0 18 46 0 18 46 0 18 47 0 18 47 0 18 47 0 18 47 0
18 48 0 19 48 0 19 48 0 19 49 0 19 49 0 19 49 0 19 49 0 19 50 0 19 50
0 19 50 0 19 50 0 20 51 0 20 51 0 20 51 0 20 51 0 20 51 0 20 52 0 20
52 0 20 52 0 20 52 0 20 53 0 20 53 0 20 53 0 21 53 0 21 53 0 21 53 0
21 53 0 21 54 0 21 54 0 21 54 0 21 54 0 21 54 0 21 54 0 21 54 0 21 54
0 21 54 0 21 54 0 21 54 0 21 54 0 21 54 0 21 54 0 21 54 0 21 53 0 21
53 0 21 53 0 21 53 0 21 53 0 21 53 0 20 53 0 20 52 0 20 52 0 20 52 0
20 52 0 20 52 0 20 51 0 20 51 0 20 51 0 20 51 0 20 50 0 20 50 0 19 50
0 19 50 0 19 49 0 19 49 0 19 49 0 19 49 0 19 48 0 19 48 0 19 48 0 19
48 0 18 47 0 18 47 0 18 53 10 6 45 9 5 37 7 4 28 5 3 19 4 2 10 2 1 1 0
0 1 0 0 1 0 0 1 0 0 1 0 0 44 0 17 44 0 17 44 0 17 43 0 17 43 0 17 43 0
17 24 0 9 24 0 9
48 0 19 48 0 19 48 0 19 49 0 19 49 0 19 49 0 19 49 0 19 50 0 19 50 0
19 50 0 20 51 0 20 51 0 20 51 0 20 52 0 20 52 0 20 52 0 20 53 0 20 53
0 21 53 0 21 53 0 21 54 0 21 54 0 21 54 0 21 55 0 21 55 0 21 55 0 21
55 0 21 56 0 22 56 0 22 56 0 22 56 0 22 57 0 22 57 0 22 57 0 22 57 0
22 57 0 22 57 0 22 57 0 22 58 0 22 58 0 22 58 0 22 58 0 22 58 0 22 58
0 22 58 0 22 58 0 22 58 0 22 58 0 22 57 0 22 57 0 22 57 0 22 57 0 22
57 0 22 57 0 22 57 0 22 56 0 22 56 0 22 56 0 22 56 0 22 56 0 22 55 0
21 55 0 21 55 0 21 54 0 21 54 0 21 54 0 21 54 0 21 53 0 21 53 0 21 53
0 20 52 0 20 52 0 20 52 0 20 51 0 20 51 0 20 51 0 20 51 0 20 50 0 20
50 0 19 50 0 19 49 0 19 52 10 6 44 9 5 36 7 4 27 5 3 19 4 2 10 2 1 1 0
0 1 0 0 1 0 0 1 0 0 1 0 0 46 0 18 24 0 9 24 0 9 24 0 9 24 0 9 24 0 9
24 0 9 24 0 9
50 0 19 50 0 20 51 0 20 51 0 20 51 0 20 52 0 20 52 0 20 53 0 20 53 0
21 53 0 21 54 0 21 54 0 21 54 0 21 55 0 21 55 0 21 55 0 22 56 0 22 56
0 22 56 0 22 57 0 22 57 0 22 58 0 22 58 0 22 58 0 23 59 0 23 59 0 23
59 0 23 59 0 23 60 0 23 60 0 23 60 0 23 61 0 23 61 0 24 61 0 24 61 0
24 61 0 24 61 0 24 62 0 24 62 0 24 62 0 24 62 0 24 62 0 24 62 0 24 62
0 24 62 0 24 62 0 24 62 0 24 62 0 24 62 0 24 61 0 24 61 0 24 61 0 24
61 0 24 61 0 24 60 0 23 60 0 23 60 0 23 60 0 23 59 0 23 59 0 23 59 0
23 58 0 23 58 0 23 58 0 22 57 0 22 57 0 22 57 0 22 56 0 22 56 0 22 56
0 22 55 0 21 55 0 21 55 0 21 54 0 21 54 0 21 53 0 21 53 0 21 53 0 20
52 0 20 52 0 20 52 0 20 51 0 20 42 8 5 35 7 4 26 5 3 17 3 2 8 2 1 1 0
0 1 0 0 1 0 0 1 0 0 24 0 9 24 0 9 24 0 9 24 0 9 24 0 9 24 0 9 24 0 9
24 0 9 24 0 9
53 0 20 53 0 21 53 0 21 54 0 21 54 0 21 55 0 21 55 0 21 55 0 22 56 0
22 56 0 22 57 0 22 57 0 22 58 0 22 58 0 23 58 0 23 59 0 23 59 0 23 60
0 23 60 0 23 61 0 24 61 0 24 61 0 24 62 0 24 62 0 24 63 0 24 63 0 24
63 0 25 64 0 25 64 0 25 64 0 25 65 0 25 65 0 25 65 0 25 65 0 25 66 0
26 66 0 26 66 0 26 66 0 26 66 0 26 66 0 26 67 0 26 67 0 26 67 0 26 67
0 26 67 0 26 66 0 26 66 0 26 66 0 26 66 0 26 66 0 26 66 0 25 65 0 25
65 0 25 65 0 25 65 0 25 65 1 59 67 1 61 60 1 55 51 1 46 40 1 36 37 0
33 62 0 24 62 0 24 61 0 24 61 0 24 60 0 23 60 0 23 60 0 23 59 0 23 59
0 23 58 0 23 58 0 22 57 0 22 57 0 22 57 0 22 56 0 22 56 0 22 55 0 21
55 0 21 55 0 21 54 0 21 54 0 21 53 0 21 30 6 3 23 5 3 14 3 2 5 1 1 1 0
0 1 0 0 24 0 9 24 0 9 24 0 9 24 0 9 24 0 9 24 0 9 24 0 9 24 0 9 24 0 9
24 0 9 24 0 9
55 0 21 56 0 22 56 0 22 57 0 22 57 0 22 58 0 22 58 0 23 59 0 23 59 0
23 60 0 23 60 0 23 61 0 24 61 0 24 62 0 24 62 0 24 63 0 24 63 0 24 64
0 25 64 0 25 65 0 25 65 0 25 66 0 25 66 0 26 67 0 26 67 0 26 67 0 26
68 0 26 68 0 27 69 0 27 69 0 27 70 0 27 70 0 27 70 0 27 71 0 27 71 0
27 71 0 28 71 0 28 71 0 28 72 0 28 72 0 28 72 0 28 72 0 28 72 0 28 72
0 28 72 0 28 72 0 28 71 0 28 71 0 28 71 0 28 71 0 27 70 0 27 70 0 27
70 0 27 69 0 27 80 1 73 82 1 75 77 1 70 69 1 62 59 1 53 48 1 43 37 0
33 37 0 33 66 0 25 65 0 25 65 0 25 64 0 25 64 0 25 63 0 24 62 0 24 62
0 24 61 0 24 61 0 24 60 0 23 60 0 23 59 0 23 59 0 23 59 0 23 58 0 23
58 0 22 57 0 22 57 0 22 24 0 9 24 0 9 24 0 9 24 0 9 24 0 9 24 0 9 24 0
9 24 0 9 24 0 9 24 0 9 24 0 9 24 0 9 24 0 9 24 0 9 24 0 9 24 0 9 24 0
9 24 0 9 24 0 9
58 0 23 59 0 23 59 0 23 60 0 23 60 0 23 61 0 24 61 0 24 62 0 24 62 0
24 63 0 24 64 0 25 64 0 25 65 0 25 65 0 25 66 0 26 67 0 26 67 0 26 68
0 26 68 0 27 69 0 27 70 0 27 70 0 27 71 0 27 71 0 28 72 0 28 72 0 28
73 0 28 74 0 29 74 0 29 74 0 29 75 0 29 75 0 29 76 0 29 76 0 30 76 0
30 77 0 30 77 0 30 77 0 30 77 0 30 77 0 30 77 0 30 77 0 30 77 0 30 77
0 30 77 0 30 77 0 30 77 0 30 77 0 30 76 0 30 76 0 30 76 0 29 75 0 29
75 0 29 74 0 29 92 1 84 89 1 81 82 1 75 73 1 66 63 1 57 52 1 47 41 1
36 37 0 33 37 0 33 69 0 27 68 0 27 68 0 26 67 0 26 67 0 26 66 0 26 65
0 25 65 0 25 64 0 25 64 0 25 63 0 24 62 0 24 62 0 24 61 0 24 61 0 24
24 0 9 24 0 9 24 0 9 24 0 9 24 0 9 24 0 9 24 0 9 24 0 9 24 0 9 24 0 9
24 0 9 24 0 9 24 0 9 24 0 9 24 0 9 24 0 9 24 0 9 24 0 9 24 0 9 24 0 9
24 0 9 24 0 9
61 0 24 62 0 24 62 0 24 63 0 24 64 0 25 64 0 25 65 0 25 65 0 25 66 0
26 67 0 26 67 0 26 68 0 26 69 0 27 70 0 27 70 0 27 71 0 28 72 0 28 72
0 28 73 0 28 74 0 29 75 0 29 75 0 29 76 0 29 77 0 30 77 0 30 78 0 30
79 0 31 79 0 31 80 0 31 80 0 31 81 0 31 81 0 32 82 0 32 82 0 32 83 0
32 83 0 32 83 0 32 84 0 32 84 0 33 84 0 33 84 0 33 84 0 33 84 0 33 84
0 33 84 0 32 83 0 32 83 0 32 83 0 32 82 0 32 82 0 32 81 0 32 81 0 31
80 0 31 93 1 85 96 1 88 92 1 84 84 1 77 75 1 68 65 1 59 54 1 49 43 1
38 38 0 33 38 0 33 73 0 28 72 0 28 72 0 28 71 0 28 70 0 27 70 0 27 69
0 27 68 0 26 67 0 26 67 0 26 66 0 26 24 0 9 24 0 9 24 0 9 24 0 9 24 0
9 24 0 9 24 0 9 24 0 9 24 0 9 24 0 9 24 0 9 24 0 9 24 0 9 24 0 9 24 0
9 24 0 9 24 0 9 24 0 9 24 0 9 24 0 9 24 0 9 24 0 9 24 0 9 24 0 9 24 0
9 24 0 9
64 0 25 65 0 25 66 0 25 66 0 26 67 0 26 68 0 26 68 0 27 69 0 27 70 0
27 71 0 27 72 0 28 72 0 28 73 0 28 74 0 29 75 0 29 76 0 29 76 0 30 77
0 30 78 0 30 79 0 31 80 0 31 81 0 31 82 0 32 82 0 32 83 0 32 84 0 33
85 0 33 86 0 33 86 0 34 87 0 34 88 0 34 88 0 34 89 0 34 89 0 35 90 0
35 90 0 35 91 0 35 91 0 35 91 0 35 91 0 35 91 0 35 91 0 35 91 0 35 91
0 35 91 0 35 90 0 35 90 0 35 89 0 35 89 0 35 88 0 34 88 0 34 87 0 34
86 0 34 96 1 88 98 1 89 93 1 85 85 1 77 76 1 69 66 1 59 55 1 49 43 1
38 38 0 33 38 0 33 38 0 33 77 0 30 76 0 29 75 0 29 74 0 29 73 0 28 72
0 28 72 0 28 24 0 9 24 0 9 24 0 9 24 0 9 24 0 9 24 0 9 24 0 9 24 0 9
24 0 9 24 0 9 24 0 9 24 0 9 24 0 9 24 0 9 24 0 9 24 0 9 24 0 9 24 0 9
24 0 9 24 0 9 24 0 9 24 0 9 24 0 9 24 0 9 24 0 9 24 0 9 24 0 9 24 0 9
24 0 9
68 0 26 68 0 27 69 0 27 70 0 27 71 0 27 72 0 28 72 0 28 73 0 28 74 0
29 75 0 29 76 0 29 77 0 30 78 0 30 79 0 31 80 0 31 81 0 31 82 0 32 83
0 32 84 0 33 85 0 33 86 0 33 87 0 34 88 0 34 89 0 34 90 0 35 91 0 35
92 0 36 93 0 36 94 0 36 94 0 37 95 0 37 96 0 37 97 0 38 97 0 38 98 0
38 98 0 38 99 0 38 99 0 38 99 0 38 99 0 39 99 0 39 99 0 39 99 0 38 99
0 38 98 0 38 98 0 38 97 0 38 97 0 38 96 0 37 95 0 37 95 0 37 94 0 36
93 0 36 94 1 86 96 1 88 91 1 83 84 1 76 75 1 67 65 1 58 54 1 48 42 1
37 38 0 33 38 0 33 82 0 32 81 0 31 80 0 31 79 0 31 78 0 30 24 0 9 24 0
9 24 0 9 24 0 9 24 0 9 24 0 9 24 0 9 24 0 9 24 0 9 24 0 9 24 0 9 24 0
9 24 0 9 24 0 9 24 0 9 24 0 9 24 0 9 24 0 9 24 0 9 24 0 9 24 0 9 24 0
9 24 0 9 24 0 9 24 0 9 24 0 9 24 0 9 24 0 9 24 0 9 24 0 9 24 0 9 24 0
9
71 0 28 72 0 28 73 0 28 74 0 29 75 0 29 76 0 29 76 0 30 77 0 30 78 0
30 80 0 31 81 0 31 82 0 32 83 0 32 84 0 33 85 0 33 86 0 33 87 0 34 89
0 34 90 0 35 91 0 35 92 0 36 94 0 36 95 0 37 96 0 37 97 0 38 98 0 38
100 0 39 101 0 39 102 0 39 103 0 40 104 0 40 105 0 41 105 0 41 106 0
41 107 0 41 107 0 42 108 0 42 108 0 42 108 0 42 108 0 42 108 0 42 108
0 42 108 0 42 108 0 42 107 0 42 106 0 41 106 0 41 105 0 41 104 0 40
103 0 40 102 0 40 101 0 39 100 0 39 86 1 78 92 1 83 88 1 79 81 1 73 72
1 64 62 1 55 51 1 45 40 1 34 39 1 33 39 1 33 87 0 34 85 0 33 84 0 33
24 0 9 24 0 9 24 0 9 24 0 9 24 0 9 24 0 9 24 0 9 24 0 9 24 0 9 24 0 9
24 0 9 24 0 9 24 0 9 24 0 9 24 0 9 24 0 9 24 0 9 24 0 9 24 0 9 24 0 9
24 0 9 24 0 9 24 0 9 24 0 9 24 0 9 24 0 9 24 0 9 24 0 9 24 0 9 24 0 9
24 0 9 24 0 9 24 0 9 24 0 9
75 0 29 76 0 29 77 0 30 78 0 30 79 0 31 80 0 31 81 0 31 82 0 32 83 0
32 84 0 33 86 0 33 87 0 34 88 0 34 89 0 35 91 0 35 92 0 36 94 0 36 95
0 37 96 0 37 98 0 38 99 0 39 101 0 39 102 0 40 104 0 40 105 0 41 107 0
41 108 0 42 110 0 43 111 0 43 112 1 44 113 1 44 114 1 44 115 1 45 116
1 45 117 1 45 118 1 46 118 1 46 119 1 46 119 1 46 119 1 46 119 1 46
118 1 46 118 1 46 117 1 46 117 1 45 116 1 45 115 1 45 114 1 44 113 1
44 111 1 43 110 0 43 109 0 42 107 0 42 106 0 41 84 1 75 82 1 73 75 1
68 67 1 60 58 1 51 47 1 41 39 1 33 39 1 33 39 1 33 91 0 35 24 0 9 24 0
9 24 0 9 24 0 9 24 0 9 24 0 9 24 0 9 24 0 9 24 0 9 24 0 9 24 0 9 24 0
9 24 0 9 24 0 9 24 0 9 24 0 9 24 0 9 24 0 9 24 0 9 24 0 9 24 0 9 24 0
9 24 0 9 24 0 9 24 0 9 24 0 9 24 0 9 24 0 9 24 0 9 24 0 9 24 0 9 24 0
9 24 0 9 24 0 9 24 0 9 24 0 9
78 0 30 79 0 31 80 0 31 82 0 32 83 0 32 84 0 33 85 0 33 87 0 34 88 0
34 89 0 35 91 0 35 92 0 36 94 0 36 95 0 37 97 0 38 98 0 38 100 0 39
102 0 39 103 0 40 105 0 41 107 0 42 109 0 42 111 0 43 112 1 44 114 1
44 116 1 45 118 1 46 119 1 46 121 1 47 123 1 48 124 1 48 125 1 49 127
1 49 128 1 50 129 1 50 129 1 50 130 1 50 130 1 51 130 1 51 130 1 51
130 1 51 130 1 50 129 1 50 128 1 50 127 1 49 126 1 49 125 1 48 123 1
48 122 1 47 120 1 47 119 1 46 117 1 45 115 1 45 113 1 44 112 1 43 71 1
63 67 1 60 60 1 53 51 1 44 40 1 34 39 1 34 39 1 34 24 0 9 24 0 9 24 0
9 24 0 9 24 0 9 24 0 9 24 0 9 24 0 9 24 0 9 24 0 9 24 0 9 24 0 9 24 0
9 24 0 9 24 0 9 24 0 9 24 0 9 24 0 9 24 0 9 24 0 9 24 0 9 24 0 9 24 0
9 24 0 9 24 0 9 24 0 9 24 0 9 24 0 9 24 0 9 24 0 9 24 0 9 24 0 9 64 0
25 63 0 25 63 0 24 62 0 24 62 0 24 61 0 24
82 0 32 83 0 32 85 0 33 86 0 33 87 0 34 89 0 34 90 0 35 91 0 35 93 0
36 95 0 37 96 0 37 98 0 38 100 0 39 101 0 39 103 0 40 105 0 41 107 0
42 109 0 42 111 0 43 113 1 44 115 1 45 117 1 46 120 1 46 122 1 47 124
1 48 126 1 49 128 1 50 130 1 51 132 1 51 134 1 52 136 1 53 138 1 53
139 1 54 140 1 55 142 1 55 142 1 55 143 1 56 143 1 56 143 1 56 143 1
56 143 1 55 142 1 55 141 1 55 140 1 54 139 1 54 137 1 53 135 1 53 134
1 52 132 1 51 130 1 50 128 1 49 125 1 49 123 1 48 121 1 47 119 1 46
117 1 45 52 1 45 48 1 41 40 1 34 40 1 34 24 0 9 24 0 9 24 0 9 24 0 9
24 0 9 24 0 9 24 0 9 24 0 9 24 0 9 24 0 9 24 0 9 24 0 9 24 0 9 24 0 9
24 0 9 24 0 9 24 0 9 24 0 9 24 0 9 24 0 9 24 0 9 24 0 9 24 0 9 24 0 9
24 0 9 24 0 9 24 0 9 24 0 9 70 0 27 69 0 27 69 0 27 68 0 26 67 0 26 67
0 26 66 0 26 65 0 25 65 0 25 64 0 25 63 0 25 63 0 24
86 0 33 87 0 34 89 0 34 90 0 35 92 0 36 93 0 36 95 0 37 96 0 37 98 0
38 100 0 39 102 0 40 104 0 40 106 0 41 108 0 42 110 0 43 112 1 43 114
1 44 117 1 45 119 1 46 122 1 47 124 1 48 127 1 49 129 1 50 132 1 51
134 1 52 137 1 53 140 1 54 142 1 55 145 1 56 147 1 57 149 1 58 151 1
59 153 1 59 155 1 60 156 1 60 157 1 61 157 1 61 158 1 61 158 1 61 157
1 61 157 1 61 156 1 60 154 1 60 153 1 59 151 1 59 149 1 58 146 1 57
144 1 56 142 1 55 139 1 54 136 1 53 134 1 52 131 1 51 129 1 50 126 1
49 123 1 48 121 1 47 119 1 46 116 1 45 114 1 44 24 0 9 24 0 9 24 0 9
24 0 9 24 0 9 24 0 9 24 0 9 24 0 9 24 0 9 24 0 9 24 0 9 24 0 9 24 0 9
24 0 9 24 0 9 24 0 9 24 0 9 24 0 9 24 0 9 24 0 9 24 0 9 79 0 31 78 0
30 77 0 30 76 0 29 75 0 29 74 0 29 73 0 28 72 0 28 71 0 28 71 0 27 70
0 27 69 0 27 68 0 26 68 0 26 67 0 26 66 0 26 66 0 25 65 0 25 64 0 25
90 0 35 91 0 35 93 0 36 94 0 37 96 0 37 98 0 38 100 0 39 102 0 39 103
0 40 105 0 41 108 0 42 110 0 43 112 1 43 114 1 44 117 1 45 119 1 46
122 1 47 125 1 48 127 1 49 130 1 51 133 1 52 136 1 53 139 1 54 143 1
55 146 1 57 149 1 58 152 1 59 155 1 60 158 1 61 161 1 62 163 1 63 166
1 64 168 1 65 170 1 66 171 1 66 172 1 67 173 1 67 173 1 67 173 1 67
172 1 67 171 1 66 170 1 66 168 1 65 166 1 64 163 1 63 160 1 62 158 1
61 155 1 60 152 1 59 148 1 58 145 1 56 142 1 55 139 1 54 136 1 53 133
1 52 130 1 50 127 1 49 124 1 48 122 1 47 119 1 46 116 1 45 114 1 44 24
0 9 24 0 9 24 0 9 24 0 9 24 0 9 24 0 9 24 0 9 24 0 9 24 0 9 24 0 9 93
0 36 91 0 35 90 0 35 88 0 34 87 0 34 86 0 33 84 0 33 83 0 32 82 0 32
81 0 31 80 0 31 79 0 31 78 0 30 77 0 30 76 0 29 75 0 29 74 0 29 73 0
28 72 0 28 71 0 28 71 0 27 70 0 27 69 0 27 68 0 27 68 0 26 67 0 26 66
0 26 66 0 26
94 0 36 95 0 37 97 0 38 99 0 38 101 0 39 103 0 40 105 0 41 107 0 41
109 0 42 111 0 43 113 1 44 116 1 45 118 1 46 121 1 47 124 1 48 127 1
49 130 1 50 133 1 52 136 1 53 139 1 54 143 1 55 146 1 57 150 1 58 154
1 60 157 1 61 161 1 62 165 1 64 168 1 65 172 1 67 175 1 68 178 1 69
181 1 70 184 1 71 186 1 72 187 1 73 189 1 73 189 1 73 189 1 73 188 1
73 187 1 73 186 1 72 184 1 71 181 1 70 178 1 69 175 1 68 172 1 67 168
1 65 165 1 64 161 1 62 157 1 61 153 1 60 150 1 58 146 1 57 143 1 55
139 1 54 136 1 53 133 1 51 130 1 50 127 1 49 124 1 48 121 1 47 118 1
46 116 1 45 113 1 44 111 0 43 109 0 42 107 0 41 104 0 41 103 0 40 101
0 39 99 0 38 97 0 38 95 0 37 94 0 36 92 0 36 91 0 35 89 0 35 88 0 34
87 0 34 85 0 33 84 0 33 83 0 32 82 0 32 81 0 31 80 0 31 79 0 31 78 0
30 77 0 30 76 0 29 75 0 29 74 0 29 73 0 28 72 0 28 72 0 28 71 0 27 70
0 27 69 0 27 69 0 27 68 0 26 67 0 26
98 0 38 99 0 39 101 0 39 103 0 40 105 0 41 107 0 42 109 0 42 112 1 43
114 1 44 117 1 45 119 1 46 122 1 47 125 1 48 128 1 50 131 1 51 134 1
52 137 1 53 141 1 55 144 1 56 148 1 58 152 1 59 156 1 61 160 1 62 165
1 64 169 1 66 173 1 67 177 1 69 182 1 70 186 1 72 190 1 74 193 1 75
196 1 76 199 1 77 202 1 78 203 1 79 204 1 79 205 1 79 204 1 79 203 1
79 202 1 78 199 1 77 197 1 76 193 1 75 190 1 74 186 1 72 182 1 71 178
1 69 173 1 67 169 1 66 165 1 64 161 1 62 156 1 61 152 1 59 149 1 58
145 1 56 141 1 55 138 1 53 134 1 52 131 1 51 128 1 50 125 1 48 122 1
47 119 1 46 117 1 45 114 1 44 112 1 43 110 0 43 107 0 42 105 0 41 103
0 40 101 0 39 100 0 39 98 0 38 96 0 37 95 0 37 93 0 36 91 0 36 90 0 35
89 0 34 87 0 34 86 0 33 85 0 33 84 0 32 83 0 32 81 0 32 80 0 31 79 0
31 78 0 30 77 0 30 76 0 30 76 0 29 75 0 29 74 0 29 73 0 28 72 0 28 71
0 28 71 0 27 70 0 27 69 0 27 69 0 27
102 0 39 103 0 40 105 0 41 107 0 42 110 0 43 112 1 43 114 1 44 117 1
45 119 1 46 122 1 47 125 1 48 128 1 50 131 1 51 134 1 52 137 1 53 141
1 55 145 1 56 148 1 58 153 1 59 157 1 61 161 1 63 166 1 64 170 1 66
175 1 68 180 1 70 185 1 72 189 1 73 194 1 75 199 1 77 203 1 79 207 1
80 210 1 82 213 1 83 216 1 84 217 1 84 218 1 85 218 1 85 218 1 84 216
1 84 214 1 83 211 1 82 207 1 81 204 1 79 199 1 77 195 1 76 190 1 74
185 1 72 181 1 70 176 1 68 171 1 66 166 1 65 162 1 63 157 1 61 153 1
59 149 1 58 145 1 56 142 1 55 138 1 54 135 1 52 131 1 51 128 1 50 125
1 49 122 1 47 120 1 46 117 1 45 115 1 44 112 1 44 110 0 43 108 0 42
106 0 41 104 0 40 102 0 40 100 0 39 98 0 38 97 0 37 95 0 37 93 0 36 92
0 36 91 0 35 89 0 35 88 0 34 87 0 34 85 0 33 84 0 33 83 0 32 82 0 32
81 0 31 80 0 31 79 0 31 78 0 30 77 0 30 76 0 30 75 0 29 74 0 29 74 0
29 73 0 28 72 0 28 71 0 28 71 0 27 70 0 27
105 0 41 107 0 42 109 0 42 111 1 43 114 1 44 116 1 45 119 1 46 121 1
47 124 1 48 127 1 49 130 1 50 133 1 52 136 1 53 140 1 54 143 1 56 147
1 57 151 1 59 155 1 60 160 1 62 164 1 64 169 1 66 174 1 67 179 1 69
184 1 71 189 1 73 194 1 75 199 1 77 204 1 79 209 1 81 214 1 83 218 1
85 222 1 86 224 1 87 227 1 88 228 1 89 229 1 89 228 1 89 227 1 88 225
1 87 222 1 86 219 1 85 215 1 83 211 1 82 206 1 80 201 1 78 196 1 76
191 1 74 185 1 72 180 1 70 175 1 68 170 1 66 166 1 64 161 1 63 157 1
61 152 1 59 148 1 58 145 1 56 141 1 55 137 1 53 134 1 52 131 1 51 128
1 50 125 1 48 122 1 47 119 1 46 117 1 45 114 1 44 112 1 43 110 0 43
108 0 42 106 0 41 104 0 40 102 0 40 100 0 39 98 0 38 97 0 38 95 0 37
94 0 36 92 0 36 91 0 35 90 0 35 88 0 34 87 0 34 86 0 33 85 0 33 83 0
32 82 0 32 81 0 32 80 0 31 79 0 31 78 0 30 78 0 30 77 0 30 76 0 29 75
0 29 74 0 29 73 0 28 73 0 28 72 0 28 71 0 28
109 0 42 111 0 43 113 1 44 115 1 45 118 1 46 120 1 47 123 1 48 125 1
49 128 1 50 131 1 51 135 1 52 138 1 54 141 1 55 145 1 56 149 1 58 153
1 59 157 1 61 161 1 63 166 1 64 171 1 66 176 1 68 181 1 70 186 1 72
191 1 74 196 1 76 202 1 78 207 1 80 212 1 82 217 1 84 221 1 86 225 1
87 229 1 89 231 1 90 233 1 91 234 1 91 235 1 91 234 1 91 232 1 90 230
1 89 227 1 88 223 1 87 219 1 85 214 1 83 209 1 81 204 1 79 198 1 77
193 1 75 188 1 73 183 1 71 178 1 69 173 1 67 168 1 65 163 1 63 159 1
62 154 1 60 150 1 58 146 1 57 143 1 55 139 1 54 136 1 53 133 1 51 129
1 50 127 1 49 124 1 48 121 1 47 118 1 46 116 1 45 114 1 44 111 1 43
109 0 42 107 0 42 105 0 41 103 0 40 102 0 39 100 0 39 98 0 38 97 0 38
95 0 37 94 0 36 92 0 36 91 0 35 90 0 35 88 0 34 87 0 34 86 0 33 85 0
33 84 0 33 83 0 32 82 0 32 81 0 31 80 0 31 79 0 31 78 0 30 77 0 30 76
0 30 75 0 29 75 0 29 74 0 29 73 0 28 72 0 28
112 1 43 114 1 44 116 1 45 119 1 46 121 1 47 124 1 48 126 1 49 129 1
50 132 1 51 135 1 53 139 1 54 142 1 55 146 1 57 149 1 58 153 1 60 157
1 61 162 1 63 166 1 65 171 1 66 176 1 68 181 1 70 186 1 72 191 1 74
196 1 76 201 1 78 206 1 80 211 1 82 216 1 84 221 1 86 225 1 87 228 1
89 231 1 90 234 1 91 235 1 91 236 1 92 236 1 91 235 1 91 233 1 90 230
1 89 227 1 88 223 1 86 218 1 85 214 1 83 209 1 81 204 1 79 198 1 77
193 1 75 188 1 73 183 1 71 178 1 69 173 1 67 168 1 65 164 1 64 159 1
62 155 1 60 151 1 59 147 1 57 144 1 56 140 1 54 137 1 53 134 1 52 131
1 51 128 1 50 125 1 48 122 1 47 120 1 46 117 1 46 115 1 45 113 1 44
111 0 43 109 0 42 107 0 41 105 0 41 103 0 40 101 0 39 100 0 39 98 0 38
96 0 37 95 0 37 94 0 36 92 0 36 91 0 35 90 0 35 88 0 34 87 0 34 86 0
33 85 0 33 84 0 33 83 0 32 82 0 32 81 0 31 80 0 31 79 0 31 78 0 30 77
0 30 76 0 30 76 0 29 75 0 29 74 0 29 73 0 28
115 1 44 117 1 45 119 1 46 122 1 47 124 1 48 127 1 49 130 1 50 132 1
51 136 1 53 139 1 54 142 1 55 145 1 56 149 1 58 153 1 59 157 1 61 161
1 62 165 1 64 169 1 66 174 1 68 179 1 69 183 1 71 188 1 73 193 1 75
198 1 77 203 1 79 208 1 81 212 1 82 217 1 84 221 1 86 224 1 87 227 1
88 230 1 89 232 1 90 233 1 90 233 1 90 232 1 90 231 1 90 229 1 89 226
1 88 223 1 87 219 1 85 215 1 83 210 1 82 206 1 80 201 1 78 196 1 76
191 1 74 186 1 72 181 1 70 177 1 69 172 1 67 168 1 65 163 1 63 159 1
62 155 1 60 151 1 59 148 1 57 144 1 56 141 1 55 137 1 53 134 1 52 131
1 51 128 1 50 126 1 49 123 1 48 121 1 47 118 1 46 116 1 45 114 1 44
112 1 43 110 0 43 108 0 42 106 0 41 104 0 40 102 0 40 101 0 39 99 0 38
98 0 38 96 0 37 95 0 37 93 0 36 92 0 36 91 0 35 89 0 35 88 0 34 87 0
34 86 0 33 85 0 33 84 0 33 83 0 32 82 0 32 81 0 31 80 0 31 79 0 31 78
0 30 78 0 30 77 0 30 76 0 29 75 0 29 74 0 29
117 1 45 119 1 46 122 1 47 124 1 48 127 1 49 129 1 50 132 1 51 135 1
52 138 1 54 141 1 55 145 1 56 148 1 57 151 1 59 155 1 60 159 1 62 163
1 63 167 1 65 171 1 66 176 1 68 180 1 70 184 1 72 189 1 73 193 1 75
198 1 77 202 1 79 207 1 80 211 1 82 214 1 83 218 1 84 221 1 86 223 1
87 225 1 87 226 1 88 227 1 88 227 1 88 226 1 88 224 1 87 222 1 86 220
1 85 217 1 84 213 1 83 209 1 81 205 1 80 201 1 78 196 1 76 192 1 75
187 1 73 183 1 71 179 1 69 174 1 68 170 1 66 166 1 64 162 1 63 158 1
61 154 1 60 150 1 58 147 1 57 143 1 56 140 1 54 137 1 53 134 1 52 131
1 51 129 1 50 126 1 49 123 1 48 121 1 47 119 1 46 116 1 45 114 1 44
112 1 44 110 0 43 108 0 42 107 0 41 105 0 41 103 0 40 101 0 39 100 0
39 98 0 38 97 0 38 96 0 37 94 0 37 93 0 36 92 0 36 90 0 35 89 0 35 88
0 34 87 0 34 86 0 33 85 0 33 84 0 33 83 0 32 82 0 32 81 0 31 80 0 31
79 0 31 78 0 30 78 0 30 77 0 30 76 0 30 75 0 29
119 1 46 122 1 47 124 1 48 126 1 49 129 1 50 131 1 51 134 1 52 137 1
53 140 1 54 143 1 56 146 1 57 150 1 58 153 1 59 157 1 61 160 1 62 164
1 64 168 1 65 172 1 67 176 1 68 180 1 70 184 1 71 188 1 73 192 1 74
196 1 76 199 1 77 203 1 79 206 1 80 209 1 81 212 1 82 215 1 83 216 1
84 218 1 84 218 1 85 219 1 85 218 1 85 217 1 84 216 1 84 214 1 83 212
1 82 209 1 81 206 1 80 202 1 79 199 1 77 195 1 76 191 1 74 187 1 73
183 1 71 179 1 69 175 1 68 171 1 66 167 1 65 163 1 63 159 1 62 156 1
60 152 1 59 149 1 58 146 1 56 142 1 55 139 1 54 136 1 53 134 1 52 131
1 51 128 1 50 126 1 49 123 1 48 121 1 47 119 1 46 117 1 45 115 1 44
113 1 44 111 0 43 109 0 42 107 0 42 105 0 41 104 0 40 102 0 40 101 0
39 99 0 38 98 0 38 96 0 37 95 0 37 94 0 36 92 0 36 91 0 35 90 0 35 89
0 35 88 0 34 87 0 34 86 0 33 85 0 33 84 0 33 83 0 32 82 0 32 81 0 31
80 0 31 79 0 31 79 0 30 78 0 30 77 0 30 76 0 30
121 1 47 123 1 48 126 1 49 128 1 50 130 1 51 133 1 52 136 1 53 138 1
54 141 1 55 144 1 56 147 1 57 150 1 58 154 1 60 157 1 61 160 1 62 164
1 64 167 1 65 171 1 66 174 1 68 178 1 69 182 1 70 185 1 72 189 1 73
192 1 74 195 1 76 198 1 77 201 1 78 203 1 79 205 1 80 207 1 80 208 1
81 209 1 81 210 1 81 210 1 81 209 1 81 208 1 81 207 1 80 205 1 80 203
1 79 200 1 78 198 1 77 195 1 76 191 1 74 188 1 73 185 1 72 181 1 70
178 1 69 174 1 68 170 1 66 167 1 65 163 1 63 160 1 62 156 1 61 153 1
59 150 1 58 147 1 57 144 1 56 141 1 55 138 1 54 135 1 53 133 1 51 130
1 51 128 1 50 125 1 49 123 1 48 121 1 47 119 1 46 117 1 45 115 1 44
113 1 44 111 0 43 109 0 42 107 0 42 106 0 41 104 0 40 103 0 40 101 0
39 100 0 39 98 0 38 97 0 38 96 0 37 94 0 37 93 0 36 92 0 36 91 0 35 90
0 35 89 0 34 87 0 34 86 0 34 85 0 33 84 0 33 84 0 32 83 0 32 82 0 32
81 0 31 80 0 31 79 0 31 78 0 30 78 0 30 77 0 30
122 1 48 125 1 48 127 1 49 129 1 50 132 1 51 134 1 52 137 1 53 139 1
54 142 1 55 145 1 56 147 1 57 150 1 58 153 1 60 156 1 61 159 1 62 163
1 63 166 1 64 169 1 66 172 1 67 175 1 68 178 1 69 181 1 70 184 1 72
187 1 73 190 1 74 192 1 75 194 1 75 196 1 76 198 1 77 199 1 77 200 1
78 201 1 78 201 1 78 201 1 78 200 1 78 199 1 77 198 1 77 196 1 76 194
1 75 192 1 75 190 1 74 187 1 73 184 1 72 181 1 70 178 1 69 175 1 68
172 1 67 169 1 66 166 1 64 163 1 63 159 1 62 156 1 61 153 1 59 150 1
58 147 1 57 145 1 56 142 1 55 139 1 54 136 1 53 134 1 52 131 1 51 129
1 50 127 1 49 125 1 48 122 1 47 120 1 47 118 1 46 116 1 45 114 1 44
113 1 44 111 0 43 109 0 42 107 0 42 106 0 41 104 0 40 103 0 40 101 0
39 100 0 39 99 0 38 97 0 38 96 0 37 95 0 37 94 0 36 92 0 36 91 0 35 90
0 35 89 0 35 88 0 34 87 0 34 86 0 33 85 0 33 84 0 33 83 0 32 82 0 32
82 0 32 81 0 31 80 0 31 79 0 31 78 0 30 78 0 30
123 1 48 125 1 49 128 1 50 130 1 50 132 1 51 134 1 52 137 1 53 139 1
54 142 1 55 144 1 56 147 1 57 150 1 58 152 1 59 155 1 60 158 1 61 161
1 62 164 1 64 166 1 65 169 1 66 172 1 67 175 1 68 177 1 69 180 1 70
182 1 71 184 1 71 186 1 72 188 1 73 189 1 73 190 1 74 191 1 74 192 1
74 192 1 75 192 1 75 192 1 74 191 1 74 190 1 74 189 1 73 188 1 73 186
1 72 184 1 71 182 1 71 180 1 70 177 1 69 175 1 68 172 1 67 169 1 66
167 1 65 164 1 64 161 1 63 158 1 61 155 1 60 153 1 59 150 1 58 147 1
57 145 1 56 142 1 55 140 1 54 137 1 53 135 1 52 132 1 51 130 1 50 128
1 50 126 1 49 124 1 48 122 1 47 120 1 46 118 1 46 116 1 45 114 1 44
112 1 44 111 0 43 109 0 42 107 0 42 106 0 41 104 0 40 103 0 40 101 0
39 100 0 39 99 0 38 98 0 38 96 0 37 95 0 37 94 0 36 93 0 36 92 0 36 91
0 35 90 0 35 89 0 34 88 0 34 87 0 34 86 0 33 85 0 33 84 0 33 83 0 32
82 0 32 81 0 32 81 0 31 80 0 31 79 0 31 78 0 30
124 1 48 126 1 49 128 1 50 130 1 51 132 1 51 134 1 52 137 1 53 139 1
54 141 1 55 144 1 56 146 1 57 149 1 58 151 1 59 154 1 60 156 1 61 158
1 62 161 1 62 163 1 63 166 1 64 168 1 65 170 1 66 172 1 67 174 1 68
176 1 68 178 1 69 180 1 70 181 1 70 182 1 71 183 1 71 184 1 71 184 1
71 184 1 71 184 1 71 184 1 71 183 1 71 182 1 71 181 1 70 180 1 70 178
1 69 177 1 69 175 1 68 173 1 67 171 1 66 168 1 65 166 1 64 164 1 64
161 1 63 159 1 62 156 1 61 154 1 60 151 1 59 149 1 58 147 1 57 144 1
56 142 1 55 139 1 54 137 1 53 135 1 52 133 1 52 131 1 51 128 1 50 126
1 49 124 1 48 122 1 48 121 1 47 119 1 46 117 1 45 115 1 45 113 1 44
112 1 43 110 0 43 109 0 42 107 0 42 106 0 41 104 0 40 103 0 40 102 0
39 100 0 39 99 0 38 98 0 38 97 0 37 95 0 37 94 0 37 93 0 36 92 0 36 91
0 35 90 0 35 89 0 35 88 0 34 87 0 34 86 0 33 85 0 33 84 0 33 84 0 32
83 0 32 82 0 32 81 0 31 80 0 31 80 0 31 79 0 31
124 1 48 126 1 49 128 1 50 130 1 50 132 1 51 134 1 52 136 1 53 138 1
54 140 1 55 143 1 55 145 1 56 147 1 57 149 1 58 151 1 59 154 1 60 156
1 60 158 1 61 160 1 62 162 1 63 164 1 64 166 1 64 168 1 65 169 1 66
171 1 66 172 1 67 173 1 67 174 1 68 175 1 68 176 1 68 176 1 68 177 1
69 177 1 69 176 1 68 176 1 68 175 1 68 175 1 68 174 1 67 172 1 67 171
1 66 170 1 66 168 1 65 166 1 65 164 1 64 163 1 63 161 1 62 158 1 62
156 1 61 154 1 60 152 1 59 150 1 58 148 1 57 145 1 56 143 1 56 141 1
55 139 1 54 137 1 53 135 1 52 133 1 51 131 1 51 129 1 50 127 1 49 125
1 48 123 1 48 121 1 47 119 1 46 118 1 46 116 1 45 114 1 44 113 1 44
111 0 43 110 0 43 108 0 42 107 0 41 105 0 41 104 0 40 103 0 40 22 8 27
9 6 18 7 5 16 33 5 24 97 0 37 95 0 37 94 0 37 93 0 36 92 0 36 91 0 35
90 0 35 89 0 35 88 0 34 87 0 34 87 0 34 86 0 33 85 0 33 84 0 33 83 0
32 82 0 32 82 0 32 81 0 31 80 0 31 79 0 31
124 1 48 126 1 49 128 1 50 130 1 50 132 1 51 133 1 52 135 1 53 137 1
53 139 1 54 141 1 55 143 1 56 145 1 56 147 1 57 149 1 58 151 1 59 153
1 59 155 1 60 156 1 61 158 1 61 160 1 62 161 1 63 163 1 63 164 1 64
165 1 64 166 1 65 167 1 65 168 1 65 169 1 66 169 1 66 170 1 66 170 1
66 170 1 66 169 1 66 169 1 66 168 1 65 168 1 65 167 1 65 166 1 64 165
1 64 163 1 63 162 1 63 160 1 62 159 1 62 157 1 61 155 1 60 154 1 60
152 1 59 150 1 58 148 1 57 146 1 57 144 1 56 142 1 55 140 1 54 138 1
54 136 1 53 134 1 52 132 1 51 130 1 51 129 1 50 127 1 49 125 1 49 123
1 48 122 1 47 120 1 47 118 1 46 117 1 45 115 1 45 114 1 44 112 1 43
111 0 43 109 0 42 108 0 42 106 0 41 105 0 41 71 10 50 10 7 21 8 6 17 7
5 14 5 4 11 5 4 11 5 4 11 5 4 11 94 0 37 93 0 36 92 0 36 91 0 35 90 0
35 90 0 35 89 0 34 88 0 34 87 0 34 86 0 33 85 0 33 84 0 33 84 0 32 83
0 32 82 0 32 81 0 32 81 0 31 80 0 31
124 1 48 126 1 49 127 1 49 129 1 50 131 1 51 133 1 51 134 1 52 136 1
53 138 1 53 140 1 54 141 1 55 143 1 56 145 1 56 146 1 57 148 1 57 150
1 58 151 1 59 153 1 59 154 1 60 156 1 60 157 1 61 158 1 61 159 1 62
160 1 62 161 1 63 162 1 63 163 1 63 163 1 63 163 1 63 163 1 63 164 1
63 163 1 63 163 1 63 163 1 63 162 1 63 162 1 63 161 1 62 160 1 62 159
1 62 158 1 61 156 1 61 155 1 60 154 1 60 152 1 59 151 1 58 149 1 58
147 1 57 146 1 57 144 1 56 142 1 55 140 1 54 139 1 54 137 1 53 135 1
52 133 1 52 132 1 51 130 1 50 128 1 50 127 1 49 125 1 48 123 1 48 122
1 47 120 1 47 119 1 46 117 1 45 115 1 45 114 1 44 113 1 44 111 0 43
110 0 43 108 0 42 107 0 42 106 0 41 105 0 41 16 8 25 8 6 18 7 5 14 5 4
11 5 4 11 5 4 11 5 4 11 5 4 11 5 4 11 93 0 36 93 0 36 92 0 36 91 0 35
90 0 35 89 0 34 88 0 34 87 0 34 86 0 33 85 0 33 85 0 33 84 0 33 83 0
32 82 0 32 82 0 32 81 0 31 80 0 31
124 1 48 125 1 49 127 1 49 128 1 50 130 1 50 131 1 51 133 1 52 135 1
52 136 1 53 138 1 53 139 1 54 141 1 55 142 1 55 144 1 56 145 1 56 147
1 57 148 1 57 149 1 58 151 1 58 152 1 59 153 1 59 154 1 60 155 1 60
155 1 60 156 1 61 157 1 61 157 1 61 158 1 61 158 1 61 158 1 61 158 1
61 158 1 61 157 1 61 157 1 61 157 1 61 156 1 61 155 1 60 154 1 60 153
1 60 152 1 59 151 1 59 150 1 58 149 1 58 147 1 57 146 1 57 145 1 56
143 1 56 142 1 55 140 1 54 139 1 54 137 1 53 135 1 53 134 1 52 132 1
51 131 1 51 129 1 50 128 1 50 126 1 49 125 1 48 123 1 48 122 1 47 120
1 47 119 1 46 117 1 45 116 1 45 114 1 44 113 1 44 112 1 43 110 0 43
109 0 42 108 0 42 106 0 41 105 0 41 103 9 60 10 7 19 7 5 15 5 4 12 5 4
11 5 4 11 5 4 11 5 4 11 5 4 11 5 4 11 30 4 20 93 0 36 92 0 36 91 0 35
90 0 35 89 0 35 88 0 34 87 0 34 86 0 34 86 0 33 85 0 33 84 0 33 83 0
32 83 0 32 82 0 32 81 0 32 81 0 31
123 1 48 124 1 48 126 1 49 127 1 49 129 1 50 130 1 51 132 1 51 133 1
52 134 1 52 136 1 53 137 1 53 139 1 54 140 1 54 141 1 55 142 1 55 144
1 56 145 1 56 146 1 57 147 1 57 148 1 57 149 1 58 150 1 58 150 1 58
151 1 59 152 1 59 152 1 59 152 1 59 153 1 59 153 1 59 153 1 59 153 1
59 153 1 59 152 1 59 152 1 59 151 1 59 151 1 59 150 1 58 149 1 58 149
1 58 148 1 57 147 1 57 146 1 56 144 1 56 143 1 56 142 1 55 141 1 55
139 1 54 138 1 54 137 1 53 135 1 53 134 1 52 133 1 51 131 1 51 130 1
50 128 1 50 127 1 49 125 1 49 124 1 48 123 1 48 121 1 47 120 1 46 118
1 46 117 1 45 116 1 45 114 1 44 113 1 44 112 1 43 111 0 43 109 0 42
108 0 42 107 0 42 106 0 41 105 0 41 112 8 61 8 6 16 6 4 13 5 4 11 5 4
11 5 4 11 5 4 11 5 4 11 5 4 11 5 4 11 5 4 11 92 0 36 92 0 36 91 0 35
90 0 35 89 0 35 88 0 34 87 0 34 87 0 34 86 0 33 85 0 33 84 0 33 84 0
32 83 0 32 82 0 32 82 0 32 81 0 31
122 1 47 124 1 48 125 1 48 126 1 49 127 1 49 129 1 50 130 1 50 131 1
51 133 1 51 134 1 52 135 1 52 136 1 53 137 1 53 139 1 54 140 1 54 141
1 55 142 1 55 143 1 55 143 1 56 144 1 56 145 1 56 146 1 57 146 1 57
147 1 57 147 1 57 148 1 57 148 1 57 148 1 57 148 1 57 148 1 57 148 1
57 148 1 57 148 1 57 147 1 57 147 1 57 146 1 57 146 1 56 145 1 56 144
1 56 143 1 56 142 1 55 141 1 55 140 1 54 139 1 54 138 1 54 137 1 53
136 1 53 135 1 52 134 1 52 132 1 51 131 1 51 130 1 50 128 1 50 127 1
49 126 1 49 125 1 48 123 1 48 122 1 47 121 1 47 119 1 46 118 1 46 117
1 45 116 1 45 114 1 44 113 1 44 112 1 43 111 0 43 110 0 43 108 0 42
107 0 42 106 0 41 105 0 41 104 0 40 93 7 52 27 5 22 5 4 11 5 4 11 5 4
11 5 4 11 5 4 11 5 4 11 5 4 11 5 4 11 5 4 11 45 4 26 92 0 36 91 0 35
90 0 35 89 0 35 88 0 34 88 0 34 87 0 34 86 0 33 85 0 33 85 0 33 84 0
33 83 0 32 83 0 32 82 0 32 81 0 32
121 1 47 123 1 48 124 1 48 125 1 48 126 1 49 127 1 49 128 1 50 130 1
50 131 1 51 132 1 51 133 1 52 134 1 52 135 1 52 136 1 53 137 1 53 138
1 53 139 1 54 139 1 54 140 1 54 141 1 55 141 1 55 142 1 55 143 1 55
143 1 55 143 1 56 144 1 56 144 1 56 144 1 56 144 1 56 144 1 56 144 1
56 144 1 56 143 1 56 143 1 55 142 1 55 142 1 55 141 1 55 141 1 55 140
1 54 139 1 54 139 1 54 138 1 53 137 1 53 136 1 53 135 1 52 134 1 52
133 1 52 132 1 51 131 1 51 129 1 50 128 1 50 127 1 49 126 1 49 125 1
48 124 1 48 122 1 48 121 1 47 120 1 47 119 1 46 118 1 46 116 1 45 115
1 45 114 1 44 113 1 44 112 1 43 111 0 43 110 0 43 109 0 42 107 0 42
106 0 41 105 0 41 104 0 40 103 0 40 72 7 42 59 5 33 24 4 18 5 4 11 5 4
11 5 4 11 5 4 11 5 4 11 5 4 11 5 4 11 20 4 16 43 4 25 91 0 35 91 0 35
90 0 35 89 0 35 88 0 34 88 0 34 87 0 34 86 0 33 85 0 33 85 0 33 84 0
33 83 0 32 83 0 32 82 0 32 81 0 32
120 1 47 121 1 47 123 1 48 124 1 48 125 1 48 126 1 49 127 1 49 128 1
50 129 1 50 130 1 50 131 1 51 132 1 51 133 1 51 133 1 52 134 1 52 135
1 52 136 1 53 136 1 53 137 1 53 138 1 53 138 1 54 139 1 54 139 1 54
139 1 54 140 1 54 140 1 54 140 1 54 140 1 54 140 1 54 140 1 54 140 1
54 140 1 54 139 1 54 139 1 54 139 1 54 138 1 54 138 1 53 137 1 53 136
1 53 136 1 53 135 1 52 134 1 52 133 1 52 133 1 51 132 1 51 131 1 51
130 1 50 129 1 50 128 1 50 127 1 49 126 1 49 125 1 48 124 1 48 123 1
48 121 1 47 120 1 47 119 1 46 118 1 46 117 1 45 116 1 45 115 1 45 114
1 44 113 1 44 112 1 43 111 0 43 110 0 43 109 0 42 108 0 42 107 0 41
106 0 41 105 0 41 104 0 40 103 0 40 64 6 39 58 4 32 48 4 27 35 4 22 21
4 17 5 4 11 5 4 11 5 4 11 5 4 11 21 4 17 33 4 21 45 4 26 91 0 35 91 0
35 90 0 35 89 0 35 88 0 34 88 0 34 87 0 34 86 0 33 85 0 33 85 0 33 84
0 33 83 0 32 83 0 32 82 0 32 82 0 32
119 1 46 120 1 47 121 1 47 122 1 47 123 1 48 124 1 48 125 1 49 126 1
49 127 1 49 128 1 50 129 1 50 129 1 50 130 1 51 131 1 51 132 1 51 132
1 51 133 1 52 134 1 52 134 1 52 135 1 52 135 1 52 135 1 53 136 1 53
136 1 53 136 1 53 136 1 53 136 1 53 137 1 53 137 1 53 136 1 53 136 1
53 136 1 53 136 1 53 135 1 53 135 1 52 135 1 52 134 1 52 134 1 52 133
1 52 132 1 51 132 1 51 131 1 51 130 1 51 130 1 50 129 1 50 128 1 50
127 1 49 126 1 49 125 1 49 124 1 48 123 1 48 122 1 47 121 1 47 120 1
47 119 1 46 118 1 46 117 1 46 116 1 45 115 1 45 114 1 44 113 1 44 112
1 44 111 1 43 110 0 43 109 0 42 108 0 42 107 0 42 107 0 41 106 0 41
105 0 41 104 0 40 103 0 40 102 0 40 101 0 39 56 4 31 51 4 29 46 4 27
41 4 24 36 4 23 33 4 21 32 4 21 33 4 21 35 4 22 40 4 24 92 0 36 91 0
35 90 0 35 90 0 35 89 0 35 88 0 34 88 0 34 87 0 34 86 0 33 86 0 33 85
0 33 84 0 33 84 0 32 83 0 32 82 0 32 82 0 32
