P3
200 100
255
0 0 0 0 0 0 0 0 0 0 0 0 0 0 0 0 0 0 0 0 0 0 0 0 0 0 0 0 0 0 0 0 0 0 0
0 0 0 0 0 0 0 0 0 0 0 0 0 0 0 0 0 0 0 0 0 0 0 0 0 0 0 0 0 0 0 0 0 0 0
0 0 0 0 0 0 0 0 0 0 0 0 0 0 0 0 0 0 0 0 0 0 0 0 0 0 0 0 0 7 69 69 7 69
69 7 69 69 7 69 69 7 69 69 7 69 69 7 69 69 7 69 69 8 74 74 8 81 81 9
88 87 10 95 94 11 101 100 12 108 106 13 114 112 13 121 119 14 127 125
15 133 131 16 139 137 16 146 142 17 151 148 18 157 154 19 163 159 19
168 164 20 173 169 20 178 173 21 182 177 22 189 185 22 197 193 23 205
200 24 212 207 24 218 213 25 223 219 26 229 226 32 237 237 31 238 238
25 230 229 23 224 223 0 0 0 0 0 0 0 0 0 0 0 0 0 0 0 0 0 0 0 0 0 19 59
3 19 59 3 19 59 3 19 59 3 19 59 3 19 59 3 19 59 3 19 59 3 19 59 3 19
59 3 19 59 3 19 59 3 19 59 3 19 59 3 19 59 3 19 59 3 19 59 3 19 59 3
19 59 3 19 59 3 19 59 3 19 59 3 19 59 3 19 59 3 19 59 3 19 59 3 19 59
3 19 59 3 19 59 3 19 59 3 19 59 3 19 59 3 19 59 3 19 59 3 19 59 3 19
59 3 19 59 3 19 59 3 19 60 3 19 61 3 19 62 3 20 64 3 20 65 3 21 66 3
21 68 3 21 69 4 22 70 4 22 72 4 23 73 4 23 75 4 23 76 4 24 78 4 24 79
4 25 81 4 25 83 4 26 84 4 26 86 4 27 88 5 27 89 5 28 91 5 28 93 5 29
95 5 29 97 5 30 99 5 30 101 5 31 103 5 31 105 5 32 107 6 32 108 6 33
110 6 33 110 6 0 0 0 0 0 0 0 0 0 0 0 0 0 0 0 0 0 0 0 0 0 0 0 0 0 0 0 0
0 0 0 0 0 0 0 0 0 0 0 0 0 0 0 0 0 0 0 0 0 0 0 0 0 0 0 0 0 0 0 0 0 0 0
0 0 0 0 0 0 0 0 0 0 0 0 0 0 0 0 0 0 0 0 0 0 0 0 0 0 0 0 0 0 0 0 0 0 0
0 0 0 0 0 0 0 0 0 0 0 0 0 0 0 0 0 0 0 0 0 0 0 0 0 0 0 0 0 0 0 0 0 0 0
0 0 0 0 0 0 0 0 0 0 0 0 0 0 0 0 0 0 0 0
0 0 0 0 0 0 0 0 0 0 0 0 0 0 0 0 0 0 0 0 0 0 0 0 0 0 0 0 0 0 0 0 0 0 0
0 0 0 0 0 0 0 0 0 0 0 0 0 0 0 0 0 0 0 0 0 0 0 0 0 0 0 0 0 0 0 0 0 0 0
0 0 0 0 0 0 0 0 0 0 0 0 0 0 0 0 0 0 0 0 0 0 0 0 0 0 0 0 0 7 69 69 7 69
69 7 69 69 7 69 69 7 69 69 7 69 69 7 69 69 7 69 69 7 72 72 8 79 79 9
86 85 10 93 92 11 99 98 12 106 105 12 113 111 13 119 117 14 125 123 15
132 129 15 138 135 16 144 141 17 150 146 18 155 152 18 161 157 19 166
162 20 171 167 20 176 171 21 181 177 22 190 185 22 198 193 23 205 200
24 212 207 24 218 214 25 223 220 29 231 229 35 240 241 28 234 233 24
228 226 21 212 213 0 0 0 0 0 0 0 0 0 0 0 0 0 0 0 0 0 0 0 0 0 19 59 3
19 59 3 19 59 3 19 59 3 19 59 3 19 59 3 19 59 3 19 59 3 19 59 3 19 59
3 19 59 3 19 59 3 19 59 3 19 59 3 19 59 3 19 59 3 19 59 3 19 59 3 19
59 3 19 59 3 19 59 3 19 59 3 19 59 3 19 59 3 19 59 3 19 59 3 19 59 3
19 59 3 19 59 3 19 59 3 19 59 3 19 59 3 19 59 3 19 59 3 19 59 3 19 59
3 19 59 3 19 59 3 19 60 3 19 61 3 19 62 3 20 64 3 20 65 3 21 66 3 21
68 3 21 69 4 22 70 4 22 72 4 23 73 4 23 75 4 23 76 4 24 78 4 24 79 4
25 81 4 25 83 4 26 84 4 26 86 4 27 88 5 27 89 5 28 91 5 28 93 5 29 95
5 29 97 5 30 99 5 30 101 5 31 103 5 31 105 5 32 107 6 32 109 6 33 110
6 33 111 6 0 0 0 0 0 0 0 0 0 0 0 0 0 0 0 0 0 0 0 0 0 0 0 0 0 0 0 0 0 0
0 0 0 0 0 0 0 0 0 0 0 0 0 0 0 0 0 0 0 0 0 0 0 0 0 0 0 0 0 0 0 0 0 0 0
0 0 0 0 0 0 0 0 0 0 0 0 0 0 0 0 0 0 0 0 0 0 0 0 0 0 0 0 0 0 0 0 0 0 0
0 0 0 0 0 0 0 0 0 0 0 0 0 0 0 0 0 0 0 0 0 0 0 0 0 0 0 0 0 0 0 0 0 0 0
0 0 0 0 0 0 0 0 0 0 0 0 0 0 0 0 0 0
0 0 0 0 0 0 0 0 0 0 0 0 0 0 0 0 0 0 0 0 0 0 0 0 0 0 0 0 0 0 0 0 0 0 0
0 0 0 0 0 0 0 0 0 0 0 0 0 0 0 0 0 0 0 0 0 0 0 0 0 0 0 0 0 0 0 0 0 0 0
0 0 0 0 0 0 0 0 0 0 0 0 0 0 0 0 0 0 0 0 0 0 0 0 0 0 0 0 0 0 0 0 7 69
69 7 69 69 7 69 69 7 69 69 7 69 69 7 69 69 7 69 69 7 70 70 8 77 77 9
84 83 10 91 90 10 97 96 11 104 102 12 110 109 13 117 115 14 123 121 14
129 127 15 135 133 16 141 138 17 147 144 17 153 149 18 158 154 19 163
159 19 168 164 20 173 168 21 181 177 21 190 185 22 197 193 23 205 200
23 211 207 24 217 213 26 223 221 31 233 232 31 235 235 24 228 226 23
223 222 0 0 0 0 0 0 0 0 0 0 0 0 0 0 0 0 0 0 0 0 0 19 59 3 19 59 3 19
59 3 19 59 3 19 59 3 19 59 3 19 59 3 19 59 3 19 59 3 19 59 3 19 59 3
19 59 3 19 59 3 19 59 3 19 59 3 19 59 3 19 59 3 19 59 3 19 59 3 19 59
3 19 59 3 19 59 3 19 59 3 19 59 3 19 59 3 19 59 3 19 59 3 19 59 3 19
59 3 19 59 3 19 59 3 19 59 3 19 59 3 19 59 3 19 59 3 19 59 3 19 59 3
19 59 3 19 59 3 19 60 3 19 61 3 19 62 3 20 64 3 20 65 3 21 66 3 21 68
3 21 69 4 22 70 4 22 72 4 23 73 4 23 75 4 23 76 4 24 78 4 24 79 4 25
81 4 25 83 4 26 84 4 26 86 4 27 88 5 27 89 5 28 91 5 28 93 5 29 95 5
29 97 5 30 99 5 30 101 5 31 103 5 31 105 5 32 107 6 33 109 6 33 111 6
33 112 6 0 0 0 0 0 0 0 0 0 0 0 0 0 0 0 0 0 0 0 0 0 0 0 0 0 0 0 0 0 0 0
0 0 0 0 0 0 0 0 0 0 0 0 0 0 0 0 0 0 0 0 0 0 0 0 0 0 0 0 0 0 0 0 0 0 0
0 0 0 0 0 0 0 0 0 0 0 0 0 0 0 0 0 0 0 0 0 0 0 0 0 0 0 0 0 0 0 0 0 0 0
0 0 0 0 0 0 0 0 0 0 0 0 0 0 0 0 0 0 0 0 0 0 0 0 0 0 0 0 0 0 0 0 0 0 0
0 0 0 0 0 0 0 0 0 0 0 0 0 0 0 0 0
0 0 0 0 0 0 0 0 0 0 0 0 0 0 0 0 0 0 0 0 0 0 0 0 0 0 0 0 0 0 0 0 0 0 0
0 0 0 0 0 0 0 0 0 0 0 0 0 0 0 0 0 0 0 0 0 0 0 0 0 0 0 0 0 0 0 0 0 0 0
0 0 0 0 0 0 0 0 0 0 0 0 0 0 0 0 0 0 0 0 0 0 0 0 0 0 0 0 0 0 0 0 0 0 0
7 69 69 7 69 69 7 69 69 7 69 69 7 69 69 7 69 69 7 69 69 8 74 74 8 81
81 9 88 87 10 95 94 11 101 100 12 108 106 13 114 112 13 120 118 14 127
124 15 133 130 16 139 136 16 144 141 17 150 146 18 155 151 18 160 156
19 165 161 20 172 168 20 181 177 21 189 185 22 196 192 23 203 200 23
210 206 24 216 213 26 223 221 29 229 228 25 226 225 23 223 222 0 0 0 0
0 0 0 0 0 0 0 0 0 0 0 0 0 0 0 0 0 0 0 0 19 59 3 19 59 3 19 59 3 19 59
3 19 59 3 19 59 3 19 59 3 19 59 3 19 59 3 19 59 3 19 59 3 19 59 3 19
59 3 19 59 3 19 59 3 19 59 3 19 59 3 19 59 3 19 59 3 19 59 3 19 59 3
19 59 3 19 59 3 19 59 3 19 59 3 19 59 3 19 59 3 19 59 3 19 59 3 19 59
3 19 59 3 19 59 3 19 59 3 19 59 3 19 59 3 19 59 3 19 59 3 19 59 3 19
59 3 19 60 3 19 61 3 19 62 3 20 64 3 20 65 3 21 66 3 21 68 3 21 69 4
22 70 4 22 72 4 22 73 4 23 75 4 23 76 4 24 78 4 24 79 4 25 81 4 25 83
4 26 84 4 26 86 4 27 88 5 27 89 5 28 91 5 28 93 5 29 95 5 29 97 5 30
99 5 30 101 5 31 103 5 31 105 5 32 107 6 33 109 6 33 111 6 33 112 6 33
112 6 0 0 0 0 0 0 0 0 0 0 0 0 0 0 0 0 0 0 0 0 0 0 0 0 0 0 0 0 0 0 0 0
0 0 0 0 0 0 0 0 0 0 0 0 0 0 0 0 0 0 0 0 0 0 0 0 0 0 0 0 0 0 0 0 0 0 0
0 0 0 0 0 0 0 0 0 0 0 0 0 0 0 0 0 0 0 0 0 0 0 0 0 0 0 0 0 0 0 0 0 0 0
0 0 0 0 0 0 0 0 0 0 0 0 0 0 0 0 0 0 0 0 0 0 0 0 0 0 0 0 0 0 0 0 0 0 0
0 0 0 0 0 0 0 0 0 0 0 0 0
0 0 0 0 0 0 0 0 0 0 0 0 0 0 0 0 0 0 0 0 0 0 0 0 0 0 0 0 0 0 0 0 0 0 0
0 0 0 0 0 0 0 0 0 0 0 0 0 0 0 0 0 0 0 0 0 0 0 0 0 0 0 0 0 0 0 0 0 0 0
0 0 0 0 0 0 0 0 0 0 0 0 0 0 0 0 0 0 0 0 0 0 0 0 0 0 0 0 0 0 0 0 0 0 0
0 0 0 7 69 69 7 69 69 7 69 69 7 69 69 7 69 69 7 69 69 7 71 71 8 78 77
9 85 84 10 91 91 11 98 97 11 105 103 12 111 109 13 117 115 14 123 121
14 129 127 15 135 132 16 141 138 16 146 143 17 151 148 18 156 152 18
163 159 19 171 167 20 179 176 21 187 184 22 195 191 22 202 198 23 208
205 24 214 211 25 219 218 24 221 219 23 220 219 21 214 214 0 0 0 0 0 0
0 0 0 0 0 0 0 0 0 0 0 0 0 0 0 0 0 0 19 59 3 19 59 3 19 59 3 19 59 3 19
59 3 19 59 3 19 59 3 19 59 3 19 59 3 19 59 3 19 59 3 19 59 3 19 59 3
19 59 3 19 59 3 19 59 3 19 59 3 19 59 3 19 59 3 19 59 3 19 59 3 19 59
3 19 59 3 19 59 3 19 59 3 19 59 3 19 59 3 19 59 3 19 59 3 19 59 3 19
59 3 19 59 3 19 59 3 19 59 3 19 59 3 19 59 3 19 59 3 19 59 3 19 59 3
19 60 3 19 61 3 19 62 3 20 64 3 20 65 3 21 66 3 21 68 3 21 69 4 22 70
4 22 72 4 22 73 4 23 75 4 23 76 4 24 78 4 24 79 4 25 81 4 25 82 4 26
84 4 26 86 4 27 88 5 27 89 5 28 91 5 28 93 5 29 95 5 29 97 5 30 99 5
30 101 5 31 103 5 31 105 5 32 107 6 33 109 6 33 111 6 34 113 6 34 113
6 0 0 0 0 0 0 0 0 0 0 0 0 0 0 0 0 0 0 0 0 0 0 0 0 0 0 0 0 0 0 0 0 0 0
0 0 0 0 0 0 0 0 0 0 0 0 0 0 0 0 0 0 0 0 0 0 0 0 0 0 0 0 0 0 0 0 0 0 0
0 0 0 0 0 0 0 0 0 0 0 0 0 0 0 0 0 0 0 0 0 0 0 0 0 0 0 0 0 0 0 0 0 0 0
0 0 0 0 0 0 0 0 0 0 0 0 0 0 0 0 0 0 0 0 0 0 0 0 0 0 0 0 0 0 0 0 0 0 0
0 0 0 0 0 0 0 0 0 0 0
0 0 0 0 0 0 0 0 0 0 0 0 0 0 0 0 0 0 0 0 0 0 0 0 0 0 0 0 0 0 0 0 0 0 0
0 0 0 0 0 0 0 0 0 0 0 0 0 0 0 0 0 0 0 0 0 0 0 0 0 0 0 0 0 0 0 0 0 0 0
0 0 0 0 0 0 0 0 0 0 0 0 0 0 0 0 0 0 0 0 0 0 0 0 0 0 0 0 0 0 0 0 0 0 0
0 0 0 7 69 69 7 69 69 7 69 69 7 69 69 7 69 69 7 69 69 7 69 69 8 74 74
8 81 80 9 88 87 10 94 93 11 101 100 12 107 106 12 113 112 13 119 117
14 125 123 15 131 128 15 137 134 16 142 139 17 147 143 17 152 149 18
161 158 19 169 166 20 178 174 20 185 182 21 193 189 22 199 196 22 205
202 23 210 208 23 214 212 22 215 214 21 212 212 0 0 0 0 0 0 0 0 0 0 0
0 0 0 0 0 0 0 0 0 0 0 0 0 0 0 0 19 59 3 19 59 3 19 59 3 19 59 3 19 59
3 19 59 3 19 59 3 19 59 3 19 59 3 19 59 3 19 59 3 19 59 3 19 59 3 19
59 3 19 59 3 19 59 3 19 59 3 19 59 3 19 59 3 19 59 3 19 59 3 19 59 3
19 59 3 19 59 3 19 59 3 19 59 3 19 59 3 19 59 3 19 59 3 19 59 3 19 59
3 19 59 3 19 59 3 19 59 3 19 59 3 19 59 3 19 59 3 19 59 3 19 59 3 19
60 3 19 61 3 19 62 3 20 64 3 20 65 3 21 66 3 21 67 3 21 69 4 22 70 4
22 72 4 22 73 4 23 75 4 23 76 4 24 78 4 24 79 4 25 81 4 25 82 4 26 84
4 26 86 4 27 88 5 27 89 5 28 91 5 28 93 5 29 95 5 29 97 5 30 99 5 30
101 5 31 103 5 31 105 5 32 107 6 33 109 6 33 111 6 34 113 6 34 113 6 0
0 0 0 0 0 0 0 0 0 0 0 0 0 0 0 0 0 0 0 0 0 0 0 0 0 0 0 0 0 0 0 0 0 0 0
0 0 0 0 0 0 0 0 0 0 0 0 0 0 0 0 0 0 0 0 0 0 0 0 0 0 0 0 0 0 0 0 0 0 0
0 0 0 0 0 0 0 0 0 0 0 0 0 0 0 0 0 0 0 0 0 0 0 0 0 0 0 0 0 0 0 0 0 0 0
0 0 0 0 0 0 0 0 0 0 0 0 0 0 0 0 0 0 0 0 0 0 0 0 0 0 0 0 0 0 0 0 0 0 0
0 0 0 0 0 0 0 0 0
0 0 0 0 0 0 0 0 0 0 0 0 0 0 0 0 0 0 0 0 0 0 0 0 0 0 0 0 0 0 0 0 0 0 0
0 0 0 0 0 0 0 0 0 0 0 0 0 0 0 0 0 0 0 0 0 0 0 0 0 0 0 0 0 0 0 0 0 0 0
0 0 0 0 0 0 0 0 0 0 0 0 0 0 0 0 0 0 0 0 0 0 0 0 0 0 0 0 0 0 0 0 0 0 0
0 0 0 0 0 0 7 69 69 7 69 69 7 69 69 7 69 69 7 69 69 7 69 69 7 69 69 8
76 76 9 83 83 10 90 89 10 96 95 11 103 101 12 109 107 13 115 113 13
121 119 14 126 124 15 132 129 15 137 134 16 141 138 17 150 147 18 159
156 19 167 164 19 175 172 20 183 180 21 190 187 21 196 193 22 201 199
22 205 204 22 208 207 21 207 206 0 0 0 0 0 0 0 0 0 0 0 0 0 0 0 0 0 0 0
0 0 0 0 0 0 0 0 0 0 0 19 59 3 19 59 3 19 59 3 19 59 3 19 59 3 19 59 3
19 59 3 19 59 3 19 59 3 19 59 3 19 59 3 19 59 3 19 59 3 19 59 3 19 59
3 19 59 3 19 59 3 19 59 3 19 59 3 19 59 3 19 59 3 19 59 3 19 59 3 19
59 3 19 59 3 19 59 3 19 59 3 19 59 3 19 59 3 19 59 3 19 59 3 19 59 3
19 59 3 19 59 3 19 59 3 19 59 3 19 59 3 19 59 3 19 59 3 19 60 3 19 61
3 19 62 3 20 63 3 20 65 3 20 66 3 21 67 3 21 69 4 22 70 4 22 72 4 22
73 4 23 75 4 23 76 4 24 78 4 24 79 4 25 81 4 25 82 4 26 84 4 26 86 4
27 87 5 27 89 5 28 91 5 28 93 5 29 95 5 29 97 5 30 99 5 30 101 5 31
103 5 31 105 5 32 107 6 33 109 6 33 111 6 34 113 6 34 114 6 0 0 0 0 0
0 0 0 0 0 0 0 0 0 0 0 0 0 0 0 0 0 0 0 0 0 0 0 0 0 0 0 0 0 0 0 0 0 0 0
0 0 0 0 0 0 0 0 0 0 0 0 0 0 0 0 0 0 0 0 0 0 0 0 0 0 0 0 0 0 0 0 0 0 0
0 0 0 0 0 0 0 0 0 0 0 0 0 0 0 0 0 0 0 0 0 0 0 0 0 0 0 0 0 0 0 0 0 0 0
0 0 0 0 0 0 0 0 0 0 0 0 0 0 0 0 0 0 0 0 0 0 0 0 0 0 0 0 0 0 0 0 0 0 0
0 0 0 0 0
0 0 0 0 0 0 0 0 0 0 0 0 0 0 0 0 0 0 0 0 0 0 0 0 0 0 0 0 0 0 0 0 0 0 0
0 0 0 0 0 0 0 0 0 0 0 0 0 0 0 0 0 0 0 0 0 0 0 0 0 0 0 0 0 0 0 0 0 0 0
0 0 0 0 0 0 0 0 0 0 0 0 0 0 0 0 0 0 0 0 0 0 0 0 0 0 0 0 0 0 0 0 0 0 0
0 0 0 0 0 0 0 0 0 0 0 0 7 69 69 7 69 69 7 69 69 7 69 69 7 69 69 7 71
71 8 78 78 9 85 84 10 91 90 11 98 97 11 104 102 12 110 108 13 115 113
13 121 119 14 126 124 15 131 128 15 139 136 16 148 145 17 156 153 18
164 162 19 172 169 19 179 177 20 186 183 20 191 189 21 196 194 21 199
198 20 199 199 0 0 0 0 0 0 0 0 0 0 0 0 0 0 0 0 0 0 0 0 0 0 0 0 0 0 0 0
0 0 19 59 3 19 59 3 19 59 3 19 59 3 19 59 3 19 59 3 19 59 3 19 59 3 19
59 3 19 59 3 19 59 3 19 59 3 19 59 3 19 59 3 19 59 3 19 59 3 19 59 3
19 59 3 19 59 3 19 59 3 19 59 3 19 59 3 19 59 3 19 59 3 19 59 3 19 59
3 19 59 3 19 59 3 19 59 3 19 59 3 19 59 3 19 59 3 19 59 3 19 59 3 19
59 3 19 59 3 19 59 3 19 59 3 19 59 3 19 59 3 19 60 3 19 61 3 19 62 3
20 63 3 20 65 3 20 66 3 21 67 3 21 69 4 22 70 4 22 72 4 22 73 4 23 74
4 23 76 4 24 77 4 24 79 4 25 81 4 25 82 4 26 84 4 26 86 4 26 87 5 27
89 5 28 91 5 28 93 5 30 96 6 31 98 7 30 99 6 30 101 5 31 103 5 31 105
5 32 107 6 33 109 6 33 111 6 34 113 6 34 114 6 0 0 0 0 0 0 0 0 0 0 0 0
0 0 0 0 0 0 0 0 0 0 0 0 0 0 0 0 0 0 0 0 0 0 0 0 0 0 0 0 0 0 0 0 0 0 0
0 0 0 0 0 0 0 0 0 0 0 0 0 0 0 0 0 0 0 0 0 0 0 0 0 0 0 0 0 0 0 0 0 0 0
0 0 0 0 0 0 0 0 0 0 0 0 0 0 0 0 0 0 0 0 0 0 0 0 0 0 0 0 0 0 0 0 0 0 0
0 0 0 0 0 0 0 0 0 0 0 0 0 0 0 0 0 0 0 0 0 0 0 0 0 0 0 0 0 0 0 0 0
0 0 0 0 0 0 0 0 0 0 0 0 0 0 0 0 0 0 0 0 0 0 0 0 0 0 0 0 0 0 0 0 0 0 0
0 0 0 0 0 0 0 0 0 0 0 0 0 0 0 0 0 0 0 0 0 0 0 0 0 0 0 0 0 0 0 0 0 0 0
0 0 0 0 0 0 0 0 0 0 0 0 0 0 0 0 0 0 0 0 0 0 0 0 0 0 0 0 0 0 0 0 0 0 0
0 0 0 0 0 0 0 0 0 0 0 0 0 0 0 7 69 69 7 69 69 7 69 69 7 69 69 7 69 69
7 72 72 8 79 78 9 85 85 10 92 91 11 98 97 11 103 102 12 109 107 13 114
112 13 119 117 14 127 125 15 136 134 16 144 142 17 152 150 17 160 158
18 168 166 19 174 173 19 180 179 19 185 184 19 189 188 19 188 189 0 0
0 0 0 0 0 0 0 0 0 0 0 0 0 0 0 0 0 0 0 0 0 0 0 0 0 0 0 0 0 0 0 19 59 3
19 59 3 19 59 3 19 59 3 19 59 3 19 59 3 19 59 3 19 59 3 19 59 3 19 59
3 19 59 3 19 59 3 19 59 3 19 59 3 19 59 3 19 59 3 19 59 3 19 59 3 19
59 3 19 59 3 19 59 3 19 59 3 19 59 3 19 59 3 19 59 3 19 59 3 19 59 3
19 59 3 19 59 3 19 59 3 19 59 3 19 59 3 19 59 3 19 59 3 19 59 3 19 59
3 19 59 3 19 59 3 19 59 3 19 59 3 19 60 3 19 61 3 19 62 3 20 63 3 20
65 3 20 66 3 21 67 3 21 69 4 22 70 4 22 71 4 22 73 4 23 74 4 23 76 4
24 77 4 24 79 4 25 81 4 25 82 4 25 84 4 26 86 4 26 87 5 27 89 5 27 91
5 28 93 5 32 98 9 34 102 12 31 100 7 30 101 5 31 103 5 31 105 5 32 107
6 33 109 6 33 111 6 34 113 6 34 114 6 0 0 0 0 0 0 0 0 0 0 0 0 0 0 0 0
0 0 0 0 0 0 0 0 0 0 0 0 0 0 0 0 0 0 0 0 0 0 0 0 0 0 0 0 0 0 0 0 0 0 0
0 0 0 0 0 0 0 0 0 0 0 0 0 0 0 0 0 0 0 0 0 0 0 0 0 0 0 0 0 0 0 0 0 0 0
0 0 0 0 0 0 0 0 0 0 0 0 0 0 0 0 0 0 0 0 0 0 0 0 0 0 0 0 0 0 0 0 0 0 0
0 0 0 0 0 0 0 0 0 0 0 0 0 0 0 0 0 0 0 0 0 0 0 0 0 0 0 0 0
0 0 0 0 0 0 0 0 0 0 0 0 0 0 0 0 0 0 0 0 0 0 0 0 0 0 0 0 0 0 0 0 0 0 0
0 0 0 0 0 0 0 0 0 0 0 0 0 0 0 0 0 0 0 0 0 0 0 0 0 0 0 0 0 0 0 0 0 0 0
0 0 0 0 0 0 0 0 0 0 0 0 0 0 0 0 0 0 0 0 0 0 0 0 0 0 0 0 0 0 0 0 0 0 0
0 0 0 0 0 0 0 0 0 0 0 0 0 0 0 0 0 0 7 69 69 7 69 69 7 69 69 7 69 69 7
69 69 7 71 71 8 78 78 9 84 84 10 90 90 10 96 95 11 102 100 12 107 105
12 114 113 13 123 122 14 132 130 15 140 138 16 148 146 16 155 154 17
162 161 18 168 167 18 173 173 18 176 176 17 171 172 0 0 0 0 0 0 0 0 0
0 0 0 0 0 0 0 0 0 0 0 0 0 0 0 0 0 0 0 0 0 0 0 0 0 0 0 19 59 3 19 59 3
19 59 3 19 59 3 19 59 3 19 59 3 19 59 3 19 59 3 19 59 3 19 59 3 19 59
3 19 59 3 19 59 3 19 59 3 19 59 3 19 59 3 19 59 3 19 59 3 19 59 3 19
59 3 19 59 3 19 59 3 19 59 3 19 59 3 19 59 3 19 59 3 19 59 3 19 59 3
19 59 3 19 59 3 19 59 3 19 59 3 19 59 3 19 59 3 19 59 3 19 59 3 19 59
3 19 59 3 19 59 3 19 59 3 19 59 3 19 61 3 19 62 3 20 63 3 20 65 3 20
66 3 21 67 3 21 69 4 22 70 4 22 71 4 22 73 4 23 74 4 23 76 4 24 77 4
24 79 4 25 80 4 25 82 4 25 84 4 26 85 4 26 87 5 27 89 5 27 91 5 29 93
6 34 100 12 40 107 19 33 102 10 30 101 5 31 103 5 31 105 5 32 107 6 33
109 6 33 111 6 34 113 6 34 114 6 34 112 6 0 0 0 0 0 0 0 0 0 0 0 0 0 0
0 0 0 0 0 0 0 0 0 0 0 0 0 0 0 0 0 0 0 0 0 0 0 0 0 0 0 0 0 0 0 0 0 0 0
0 0 0 0 0 0 0 0 0 0 0 0 0 0 0 0 0 0 0 0 0 0 0 0 0 0 0 0 0 0 0 0 0 0 0
0 0 0 0 0 0 0 0 0 0 0 0 0 0 0 0 0 0 0 0 0 0 0 0 0 0 0 0 0 0 0 0 0 0 0
0 0 0 0 0 0 0 0 0 0 0 0 0 0 0 0 0 0 0 0 0 0 0 0 0 0 0 0
0 0 0 0 0 0 0 0 0 0 0 0 0 0 0 0 0 0 0 0 0 0 0 0 0 0 0 0 0 0 0 0 0 0 0
0 0 0 0 0 0 0 0 0 0 0 0 0 0 0 0 0 0 0 0 0 0 0 0 0 0 0 0 0 0 0 0 0 0 0
0 0 0 0 0 0 0 0 0 0 0 0 0 0 0 0 0 0 0 0 0 0 0 0 0 0 0 0 0 0 0 0 0 0 0
0 0 0 0 0 0 0 0 0 0 0 0 0 0 0 0 0 0 0 0 0 0 0 0 7 69 69 7 69 69 7 69
69 7 69 69 7 69 69 8 75 75 9 81 81 9 87 86 10 92 92 11 101 100 12 110
109 13 118 117 13 127 126 14 134 133 15 142 141 15 149 148 16 155 154
16 159 159 16 160 161 0 0 0 0 0 0 0 0 0 0 0 0 0 0 0 0 0 0 0 0 0 0 0 0
0 0 0 0 0 0 0 0 0 0 0 0 0 0 0 0 0 0 19 59 3 19 59 3 19 59 3 19 59 3 19
59 3 19 59 3 19 59 3 19 59 3 19 59 3 19 59 3 19 59 3 19 59 3 19 59 3
19 59 3 19 59 3 19 59 3 19 59 3 19 59 3 19 59 3 19 59 3 19 59 3 19 59
3 19 59 3 19 59 3 19 59 3 19 59 3 19 59 3 19 59 3 19 59 3 19 59 3 19
59 3 19 59 3 19 59 3 19 59 3 19 59 3 19 59 3 19 59 3 19 59 3 19 59 3
19 59 3 19 59 3 19 61 3 19 62 3 20 63 3 20 64 3 20 66 3 21 67 3 21 68
4 22 70 4 22 71 4 22 73 4 23 74 4 23 76 4 24 77 4 24 79 4 24 80 4 25
82 4 25 84 4 26 85 4 26 87 5 27 89 5 27 91 5 28 93 6 34 100 12 40 108
21 34 102 11 30 101 5 31 102 5 31 105 5 32 107 6 32 109 6 33 111 6 34
113 6 34 114 6 34 113 6 0 0 0 0 0 0 0 0 0 0 0 0 0 0 0 0 0 0 0 0 0 0 0
0 0 0 0 0 0 0 0 0 0 0 0 0 0 0 0 0 0 0 0 0 0 0 0 0 0 0 0 0 0 0 0 0 0 0
0 0 0 0 0 0 0 0 0 0 0 0 0 0 0 0 0 0 0 0 0 0 0 0 0 0 0 0 0 0 0 0 0 0 0
0 0 0 0 0 0 0 0 0 0 0 0 0 0 0 0 0 0 0 0 0 0 0 0 0 0 0 0 0 0 0 0 0 0 0
0 0 0 0 0 0 0 0 0 0 0 0 0 0 0 0 0 0 0
0 0 0 0 0 0 0 0 0 0 0 0 0 0 0 0 0 0 0 0 0 0 0 0 0 0 0 0 0 0 0 0 0 0 0
0 0 0 0 0 0 0 0 0 0 0 0 0 0 0 0 0 0 0 0 0 0 0 0 0 0 0 0 0 0 0 0 0 0 0
0 0 0 0 0 0 0 0 0 0 0 0 0 0 0 0 0 0 0 0 0 0 0 0 0 0 0 0 0 0 0 0 0 0 0
0 0 0 0 0 0 0 0 0 0 0 0 0 0 0 0 0 0 0 0 0 0 0 0 0 0 0 0 0 0 0 0 0 7 69
69 7 69 69 7 69 69 7 69 69 8 76 76 9 85 85 10 94 94 11 103 103 11 111
111 12 119 119 13 126 126 13 133 133 14 138 138 0 0 0 0 0 0 0 0 0 0 0
0 0 0 0 0 0 0 0 0 0 0 0 0 0 0 0 0 0 0 0 0 0 0 0 0 0 0 0 0 0 0 0 0 0 0
0 0 0 0 0 19 59 3 19 59 3 19 59 3 19 59 3 19 59 3 19 59 3 19 59 3 19
59 3 19 59 3 19 59 3 19 59 3 19 59 3 19 59 3 19 59 3 19 59 3 19 59 3
19 59 3 19 59 3 19 59 3 19 59 3 19 59 3 19 59 3 19 59 3 19 59 3 19 59
3 19 59 3 19 59 3 19 59 3 19 59 3 19 59 3 19 59 3 19 59 3 19 59 3 19
59 3 19 59 3 19 59 3 19 59 3 19 59 3 19 59 3 19 59 3 19 59 3 19 60 3
19 62 3 20 63 3 20 64 3 20 66 3 21 67 3 21 68 4 22 70 4 22 71 4 22 73
4 23 74 4 23 75 4 24 77 4 24 79 4 24 80 4 25 82 4 25 83 4 26 85 4 26
87 4 27 89 5 27 90 5 28 93 5 32 97 9 36 103 14 32 101 8 30 100 5 31
102 5 31 104 5 32 106 6 32 109 6 33 111 6 33 112 6 34 114 6 34 113 6 0
0 0 0 0 0 0 0 0 0 0 0 0 0 0 0 0 0 0 0 0 0 0 0 0 0 0 0 0 0 0 0 0 0 0 0
0 0 0 0 0 0 0 0 0 0 0 0 0 0 0 0 0 0 0 0 0 0 0 0 0 0 0 0 0 0 0 0 0 0 0
0 0 0 0 0 0 0 0 0 0 0 0 0 0 0 0 0 0 0 0 0 0 0 0 0 0 0 0 0 0 0 0 0 0 0
0 0 0 0 0 0 0 0 0 0 0 0 0 0 0 0 0 0 0 0 0 0 0 0 0 0 0 0 0 0 0 0 0 0 0
0 0 0 0 0 0
0 0 0 0 0 0 0 0 0 0 0 0 0 0 0 0 0 0 0 0 0 0 0 0 0 0 0 0 0 0 0 0 0 0 0
0 0 0 0 0 0 0 0 0 0 0 0 0 0 0 0 0 0 0 0 0 0 0 0 0 0 0 0 0 0 0 0 0 0 0
0 0 0 0 0 0 0 0 0 0 0 0 0 0 0 0 0 0 0 0 0 0 0 0 0 0 0 0 0 0 0 0 0 0 0
0 0 0 0 0 0 0 0 0 0 0 0 0 0 0 0 0 0 0 0 0 0 0 0 0 0 0 0 0 0 0 0 0 0 0
0 0 0 0 0 0 0 0 0 0 8 79 79 8 82 83 8 87 87 9 92 93 9 98 99 0 0 0 0 0
0 0 0 0 0 0 0 0 0 0 0 0 0 0 0 0 0 0 0 0 0 0 0 0 0 0 0 0 0 0 0 0 0 0 0
0 0 0 0 0 0 0 0 0 0 0 0 0 0 0 0 0 0 0 0 0 0 0 19 59 3 19 59 3 19 59 3
19 59 3 19 59 3 19 59 3 19 59 3 19 59 3 19 59 3 19 59 3 19 59 3 19 59
3 19 59 3 19 59 3 19 59 3 19 59 3 19 59 3 19 59 3 19 59 3 19 59 3 19
59 3 19 59 3 19 59 3 19 59 3 19 59 3 19 59 3 19 59 3 19 59 3 19 59 3
19 59 3 19 59 3 19 59 3 19 59 3 19 59 3 19 59 3 19 59 3 19 59 3 19 59
3 19 59 3 19 59 3 19 59 3 19 60 3 19 62 3 20 63 3 20 64 3 20 65 3 21
67 3 21 68 4 21 70 4 22 71 4 22 72 4 23 74 4 23 75 4 24 77 4 24 78 4
24 80 4 25 82 4 25 83 4 26 85 4 26 87 4 27 88 5 27 90 5 28 92 5 29 95
6 31 98 8 30 99 6 30 100 5 31 102 5 31 104 5 32 106 6 32 108 6 33 110
6 33 112 6 34 113 6 33 112 6 0 0 0 0 0 0 0 0 0 0 0 0 0 0 0 0 0 0 0 0 0
0 0 0 0 0 0 0 0 0 0 0 0 0 0 0 0 0 0 0 0 0 0 0 0 0 0 0 0 0 0 0 0 0 0 0
0 0 0 0 0 0 0 0 0 0 0 0 0 0 0 0 0 0 0 0 0 0 0 0 0 0 0 0 0 0 0 0 0 0 0
0 0 0 0 0 0 0 0 0 0 0 0 0 0 0 0 0 0 0 0 0 0 0 0 0 0 0 0 0 0 0 0 0 0 0
0 0 0 0 0 0 0 0 0 0 0 0 0 0 0 0 0 0 0 0 0
0 0 0 0 0 0 0 0 0 0 0 0 0 0 0 0 0 0 0 0 0 0 0 0 0 0 0 0 0 0 0 0 0 0 0
0 0 0 0 0 0 0 0 0 0 0 0 0 0 0 0 0 0 0 0 0 0 0 0 0 0 0 0 0 0 0 0 0 0 0
0 0 0 0 0 0 0 0 0 0 0 0 0 0 0 0 0 0 0 0 0 0 0 0 0 0 0 0 0 0 0 0 0 0 0
0 0 0 0 0 0 0 0 0 0 0 0 0 0 0 0 0 0 0 0 0 0 0 0 0 0 0 0 0 0 0 0 0 0 0
0 0 0 0 0 0 0 0 0 0 0 0 0 0 0 0 0 0 0 0 0 0 0 0 0 0 0 0 0 0 0 0 0 0 0
0 0 0 0 0 0 0 0 0 0 0 0 0 0 0 0 0 0 0 0 0 0 0 0 0 0 0 0 0 0 0 0 0 0 0
0 0 0 0 0 0 0 0 0 0 0 0 0 0 0 0 0 0 19 59 3 19 59 3 19 59 3 19 59 3 19
59 3 19 59 3 19 59 3 19 59 3 19 59 3 19 59 3 19 59 3 19 59 3 19 59 3
19 59 3 19 59 3 19 59 3 19 59 3 19 59 3 19 59 3 19 59 3 19 59 3 19 59
3 19 59 3 19 59 3 19 59 3 19 59 3 19 59 3 19 59 3 19 59 3 19 59 3 19
59 3 19 59 3 19 59 3 19 59 3 19 59 3 19 59 3 19 59 3 19 59 3 19 59 3
19 59 3 19 59 3 19 60 3 19 61 3 20 63 3 20 64 3 20 65 3 21 67 3 21 68
4 21 69 4 22 71 4 22 72 4 23 74 4 23 75 4 23 77 4 24 78 4 24 80 4 25
81 4 25 83 4 26 85 4 26 86 4 27 88 5 27 90 5 28 92 5 28 94 5 29 96 6
30 98 5 30 100 5 31 102 5 31 104 5 32 106 6 32 108 6 33 110 6 33 112 6
34 113 6 33 112 6 0 0 0 0 0 0 0 0 0 0 0 0 0 0 0 0 0 0 0 0 0 0 0 0 0 0
0 0 0 0 0 0 0 0 0 0 0 0 0 0 0 0 0 0 0 0 0 0 0 0 0 0 0 0 0 0 0 0 0 0 0
0 0 0 0 0 0 0 0 0 0 0 0 0 0 0 0 0 0 0 0 0 0 0 0 0 0 0 0 0 0 0 0 0 0 0
0 0 0 0 0 0 0 0 0 0 0 0 0 0 0 0 0 0 0 0 0 0 0 0 0 0 0 0 0 0 0 0 0 0 0
0 0 0 0 0 0 0 0 0 0 0 0 0 0 0 0
0 0 0 0 0 0 0 0 0 0 0 0 0 0 0 0 0 0 0 0 0 0 0 0 0 0 0 0 0 0 0 0 0 0 0
0 0 0 0 0 0 0 0 0 0 0 0 0 0 0 0 0 0 0 0 0 0 0 0 0 0 0 0 0 0 0 0 0 0 0
0 0 0 0 0 0 0 0 0 0 0 0 0 0 0 0 0 0 0 0 0 0 0 0 0 0 0 0 0 0 0 0 0 0 0
0 0 0 0 0 0 0 0 0 0 0 0 0 0 0 0 0 0 0 0 0 0 0 0 0 0 0 0 0 0 0 0 0 0 0
0 0 0 0 0 0 0 0 0 0 0 0 0 0 0 0 0 0 0 0 0 0 0 0 0 0 0 0 0 0 0 0 0 0 0
0 0 0 0 0 0 0 0 0 0 0 0 0 0 0 0 0 0 0 0 0 0 0 0 0 0 0 0 0 0 0 0 0 0 0
0 0 0 0 0 0 0 0 0 0 0 0 0 0 0 0 0 0 19 59 3 19 59 3 19 59 3 19 59 3 19
59 3 19 59 3 19 59 3 19 59 3 19 59 3 19 59 3 19 59 3 19 59 3 19 59 3
19 59 3 19 59 3 19 59 3 19 59 3 19 59 3 19 59 3 19 59 3 19 59 3 19 59
3 19 59 3 19 59 3 19 59 3 19 59 3 19 59 3 19 59 3 19 59 3 19 59 3 19
59 3 19 59 3 19 59 3 19 59 3 19 59 3 19 59 3 19 59 3 19 59 3 19 59 3
19 59 3 19 59 3 19 60 3 19 61 3 20 63 3 20 64 3 20 65 3 21 67 3 21 68
3 21 69 4 22 71 4 22 72 4 23 74 4 23 75 4 23 77 4 24 78 4 24 80 4 25
81 4 25 83 4 26 85 4 26 86 4 27 88 5 27 90 5 28 92 5 28 94 5 29 96 5
29 97 5 30 99 5 30 102 5 31 104 5 32 106 5 32 108 6 33 110 6 33 111 6
34 112 6 33 110 6 0 0 0 0 0 0 0 0 0 0 0 0 0 0 0 0 0 0 0 0 0 0 0 0 0 0
0 0 0 0 0 0 0 0 0 0 0 0 0 0 0 0 0 0 0 0 0 0 0 0 0 0 0 0 0 0 0 0 0 0 0
0 0 0 0 0 0 0 0 0 0 0 0 0 0 0 0 0 0 0 0 0 0 0 0 0 0 0 0 0 0 0 0 0 0 0
0 0 0 0 0 0 0 0 0 0 0 0 0 0 0 0 0 0 0 0 0 0 0 0 0 0 0 0 0 0 0 0 0 0 0
0 0 0 0 0 0 0 0 0 0 0 0 0 0 0 0
0 0 0 0 0 0 0 0 0 0 0 0 0 0 0 0 0 0 0 0 0 0 0 0 0 0 0 0 0 0 0 0 0 0 0
0 0 0 0 0 0 0 0 0 0 0 0 0 0 0 0 0 0 0 0 0 0 0 0 0 0 0 0 0 0 0 0 0 0 0
0 0 0 0 0 0 0 0 0 0 0 0 0 0 0 0 0 0 0 0 0 0 0 0 0 0 0 0 0 0 0 0 0 0 0
0 0 0 0 0 0 0 0 0 0 0 0 0 0 0 0 0 0 0 0 0 0 0 0 0 0 0 0 0 0 0 0 0 0 0
0 0 0 0 0 0 0 0 0 0 0 0 0 0 0 0 0 0 0 0 0 0 0 0 0 0 0 0 0 0 0 0 0 0 0
0 0 0 0 0 0 0 0 0 0 0 0 0 0 0 0 0 0 0 0 0 0 0 0 0 0 0 0 0 0 0 0 0 0 0
0 0 0 0 0 0 0 0 0 0 0 0 0 0 0 0 0 0 19 59 3 19 59 3 19 59 3 19 59 3 19
59 3 19 59 3 19 59 3 19 59 3 19 59 3 19 59 3 19 59 3 19 59 3 19 59 3
19 59 3 19 59 3 19 59 3 19 59 3 19 59 3 19 59 3 19 59 3 19 59 3 19 59
3 19 59 3 19 59 3 19 59 3 19 59 3 19 59 3 19 59 3 19 59 3 19 59 3 19
59 3 19 59 3 19 59 3 19 59 3 19 59 3 19 59 3 19 59 3 19 59 3 19 59 3
19 59 3 19 59 3 19 60 3 19 61 3 19 62 3 20 64 3 20 65 3 21 66 3 21 68
3 21 69 4 22 70 4 22 72 4 23 73 4 23 75 4 23 76 4 24 78 4 24 79 4 25
81 4 25 83 4 26 84 4 26 86 4 27 88 5 27 90 5 28 91 5 28 93 5 29 95 5
29 97 5 30 99 5 30 101 5 31 103 5 31 105 5 32 107 6 33 109 6 33 111 6
33 112 6 0 0 0 0 0 0 0 0 0 0 0 0 0 0 0 0 0 0 0 0 0 0 0 0 0 0 0 0 0 0 0
0 0 0 0 0 0 0 0 0 0 0 0 0 0 0 0 0 0 0 0 0 0 0 0 0 0 0 0 0 0 0 0 0 0 0
0 0 0 0 0 0 0 0 0 0 0 0 0 0 0 0 0 0 0 0 0 0 0 0 0 0 0 0 0 0 0 0 0 0 0
0 0 0 0 0 0 0 0 0 0 0 0 0 0 0 0 0 0 0 0 0 0 0 0 0 0 0 0 0 0 0 0 0 0 0
0 0 0 0 0 0 0 0 0 0 0 0 0 0
0 0 0 0 0 0 0 0 0 0 0 0 0 0 0 0 0 0 0 0 0 0 0 0 0 0 0 0 0 0 0 0 0 0 0
0 0 0 0 0 0 0 0 0 0 0 0 0 0 0 0 0 0 0 0 0 0 0 0 0 0 0 0 0 0 0 0 0 0 0
0 0 0 0 0 0 0 0 0 0 0 0 0 0 0 0 0 0 0 0 0 0 0 0 0 0 0 0 0 0 0 0 0 0 0
0 0 0 0 0 0 0 0 0 0 0 0 0 0 0 0 0 0 0 0 0 0 0 0 0 0 0 0 0 0 0 0 0 0 0
0 0 0 0 0 0 0 0 0 0 0 0 0 0 0 0 0 0 0 0 0 0 0 0 0 0 0 0 0 0 0 0 0 0 0
0 0 0 0 0 0 0 0 0 0 0 0 0 0 0 0 0 0 0 0 0 0 0 0 0 0 0 0 0 0 0 0 0 0 0
0 0 0 0 0 0 0 0 0 0 0 0 0 0 0 0 0 0 19 59 3 19 59 3 19 59 3 19 59 3 19
59 3 19 59 3 19 59 3 19 59 3 19 59 3 19 59 3 19 59 3 19 59 3 19 59 3
19 59 3 19 59 3 19 59 3 19 59 3 19 59 3 19 59 3 19 59 3 19 59 3 19 59
3 19 59 3 19 59 3 19 59 3 19 59 3 19 59 3 19 59 3 19 59 3 19 59 3 19
59 3 19 59 3 19 59 3 19 59 3 19 59 3 19 59 3 19 59 3 19 59 3 19 59 3
19 59 3 19 59 3 19 60 3 19 61 3 19 62 3 20 64 3 20 65 3 21 66 3 21 68
3 21 69 4 22 70 4 22 72 4 22 73 4 23 75 4 23 76 4 24 78 4 24 79 4 25
81 4 25 82 4 26 84 4 26 86 4 27 88 5 27 89 5 28 91 5 28 93 5 29 95 5
29 97 5 30 99 5 30 101 5 31 103 5 31 105 5 32 107 6 32 109 6 33 110 6
33 111 6 0 0 0 0 0 0 0 0 0 0 0 0 0 0 0 0 0 0 0 0 0 0 0 0 0 0 0 0 0 0 0
0 0 0 0 0 0 0 0 0 0 0 0 0 0 0 0 0 0 0 0 0 0 0 0 0 0 0 0 0 0 0 0 0 0 0
0 0 0 0 0 0 0 0 0 0 0 0 0 0 0 0 0 0 0 0 0 0 0 0 0 0 0 0 0 0 0 0 0 0 0
0 0 0 0 0 0 0 0 0 0 0 0 0 0 0 0 0 0 0 0 0 0 0 0 0 0 0 0 0 0 0 0 0 0 0
0 0 0 0 0 0 0 0 0 0 0 0 0 0
0 0 0 0 0 0 0 0 0 0 0 0 0 0 0 0 0 0 0 0 0 0 0 0 0 0 0 0 0 0 0 0 0 0 0
0 0 0 0 0 0 0 0 0 0 0 0 0 0 0 0 0 0 0 0 0 0 0 0 0 0 0 0 0 0 0 0 0 0 0
0 0 0 0 0 0 0 0 0 0 0 0 0 0 0 0 0 0 0 0 0 0 0 0 0 0 0 0 0 0 0 0 0 0 0
0 0 0 0 0 0 0 0 0 0 0 0 0 0 0 0 0 0 0 0 0 0 0 0 0 0 0 0 0 0 0 0 0 0 0
0 0 0 0 0 0 0 0 0 0 0 0 0 0 0 0 0 0 0 0 0 0 0 0 0 0 0 0 0 0 0 0 0 0 0
0 0 0 0 0 0 0 0 0 0 0 0 0 0 0 0 0 0 0 0 0 0 0 0 0 0 0 0 0 0 0 0 0 0 0
0 0 0 0 0 0 0 0 0 0 0 0 0 0 0 0 0 0 19 59 3 19 59 3 19 59 3 19 59 3 19
59 3 19 59 3 19 59 3 19 59 3 19 59 3 19 59 3 19 59 3 19 59 3 19 59 3
19 59 3 19 59 3 19 59 3 19 59 3 19 59 3 19 59 3 19 59 3 19 59 3 19 59
3 19 59 3 19 59 3 19 59 3 19 59 3 19 59 3 19 59 3 19 59 3 19 59 3 19
59 3 19 59 3 19 59 3 19 59 3 19 59 3 19 59 3 19 59 3 19 59 3 19 59 3
19 59 3 19 59 3 19 60 3 19 61 3 19 62 3 20 63 3 20 65 3 20 66 3 21 67
3 21 69 4 22 70 4 22 72 4 22 73 4 23 74 4 23 76 4 24 77 4 24 79 4 25
81 4 25 82 4 25 84 4 26 86 4 26 87 5 27 89 5 27 91 5 28 93 5 29 95 5
29 97 5 30 99 5 30 100 5 31 102 5 31 104 5 32 106 6 32 108 6 33 110 6
33 110 6 0 0 0 0 0 0 0 0 0 0 0 0 0 0 0 0 0 0 0 0 0 0 0 0 0 0 0 0 0 0 0
0 0 0 0 0 0 0 0 0 0 0 0 0 0 0 0 0 0 0 0 0 0 0 0 0 0 0 0 0 0 0 0 0 0 0
0 0 0 0 0 0 0 0 0 0 0 0 0 0 0 0 0 0 0 0 0 0 0 0 0 0 0 0 0 0 0 0 0 0 0
0 0 0 0 0 0 0 0 0 0 0 0 0 0 0 0 0 0 0 0 0 0 0 0 0 0 0 0 0 0 0 0 0 0 0
0 0 0 0 0 0 0 0 0 0 0 0 0 0
0 0 0 0 0 0 0 0 0 0 0 0 0 0 0 0 0 0 0 0 0 0 0 0 0 0 0 0 0 0 0 0 0 0 0
0 0 0 0 0 0 0 0 0 0 0 0 0 0 0 0 0 0 0 0 0 0 0 0 0 0 0 0 0 0 0 0 0 0 0
0 0 0 0 0 0 0 0 0 0 0 0 0 0 0 0 0 0 0 0 0 0 0 0 0 0 0 0 0 0 0 0 0 0 0
0 0 0 0 0 0 0 0 0 0 0 0 0 0 0 0 0 0 0 0 0 0 0 0 0 0 0 0 0 0 0 0 0 0 0
0 0 0 0 0 0 0 0 0 0 0 0 0 0 0 0 0 0 0 0 0 0 0 0 0 0 0 0 0 0 0 0 0 0 0
0 0 0 0 0 0 0 0 0 0 0 0 0 0 0 0 0 0 0 0 0 0 0 0 0 0 0 0 0 0 0 0 0 0 0
0 0 0 0 0 0 0 0 0 0 0 0 0 0 0 0 0 0 0 0 0 19 59 3 19 59 3 19 59 3 19
59 3 19 59 3 19 59 3 19 59 3 19 59 3 19 59 3 19 59 3 19 59 3 19 59 3
19 59 3 19 59 3 19 59 3 19 59 3 19 59 3 19 59 3 19 59 3 19 59 3 19 59
3 19 59 3 19 59 3 19 59 3 19 59 3 19 59 3 19 59 3 19 59 3 19 59 3 19
59 3 19 59 3 19 59 3 19 59 3 19 59 3 19 59 3 19 59 3 19 59 3 19 59 3
19 59 3 19 59 3 19 59 3 19 61 3 19 62 3 20 63 3 20 65 3 20 66 3 21 67
3 21 69 4 22 70 4 22 71 4 22 73 4 23 74 4 23 76 4 24 77 4 24 79 4 24
80 4 25 82 4 25 84 4 26 85 4 26 87 5 27 89 5 27 91 5 28 92 5 28 94 5
29 96 5 29 98 5 30 100 5 31 102 5 31 104 5 32 106 5 32 108 6 33 109 6
33 109 6 0 0 0 0 0 0 0 0 0 0 0 0 0 0 0 0 0 0 0 0 0 0 0 0 0 0 0 0 0 0 0
0 0 0 0 0 0 0 0 0 0 0 0 0 0 0 0 0 0 0 0 0 0 0 0 0 0 0 0 0 0 0 0 0 0 0
0 0 0 0 0 0 0 0 0 0 0 0 0 0 0 0 0 0 0 0 0 0 0 0 0 0 0 0 0 0 0 0 0 0 0
0 0 0 0 0 0 0 0 0 0 0 0 0 0 0 0 0 0 0 0 0 0 0 0 0 0 0 0 0 0 0 0 0 0 0
0 0 0 0 0 0 0 0 0 0 0 0 0 0
0 0 0 0 0 0 0 0 0 0 0 0 0 0 0 0 0 0 0 0 0 0 0 0 0 0 0 0 0 0 0 0 0 0 0
0 0 0 0 0 0 0 0 0 0 0 0 0 0 0 0 0 0 0 0 0 0 0 0 0 0 0 0 0 0 0 0 0 0 0
0 0 0 0 0 0 0 0 0 0 0 0 0 0 0 0 0 0 0 0 0 0 0 0 0 0 0 0 0 0 0 0 0 0 0
0 0 0 0 0 0 0 0 0 0 0 0 0 0 0 0 0 0 0 0 0 0 0 0 0 0 0 0 0 0 0 0 0 0 0
0 0 0 0 0 0 0 0 0 0 0 0 0 0 0 0 0 0 0 0 0 0 0 0 0 0 0 0 0 0 0 0 0 0 0
0 0 0 0 0 0 0 0 0 0 0 0 0 0 0 0 0 0 0 0 0 0 0 0 0 0 0 0 0 0 0 0 0 0 0
0 0 0 0 0 0 0 0 0 0 0 0 0 0 0 0 0 0 0 0 0 19 59 3 19 59 3 19 59 3 19
59 3 19 59 3 19 59 3 19 59 3 19 59 3 19 59 3 19 59 3 19 59 3 19 59 3
19 59 3 19 59 3 19 59 3 19 59 3 19 59 3 19 59 3 19 59 3 19 59 3 19 59
3 19 59 3 19 59 3 19 59 3 19 59 3 19 59 3 19 59 3 19 59 3 19 59 3 19
59 3 19 59 3 19 59 3 19 59 3 19 59 3 19 59 3 19 59 3 19 59 3 19 59 3
19 59 3 19 59 3 19 59 3 19 60 3 19 62 3 20 63 3 20 64 3 20 66 3 21 67
3 21 68 4 22 70 4 22 71 4 22 73 4 23 74 4 23 75 4 24 77 4 24 78 4 24
80 4 25 82 4 25 83 4 26 85 4 26 87 4 27 88 5 27 90 5 28 92 5 28 94 5
29 96 5 29 98 5 30 100 5 30 102 5 31 104 5 32 105 5 32 107 6 32 108 6
32 108 6 0 0 0 0 0 0 0 0 0 0 0 0 0 0 0 0 0 0 0 0 0 0 0 0 0 0 0 0 0 0 0
0 0 0 0 0 0 0 0 0 0 0 0 0 0 0 0 0 0 0 0 0 0 0 0 0 0 0 0 0 0 0 0 0 0 0
0 0 0 0 0 0 0 0 0 0 0 0 0 0 0 0 0 0 0 0 0 0 0 0 0 0 0 0 0 0 0 0 0 0 0
0 0 0 0 0 0 0 0 0 0 0 0 0 0 0 0 0 0 0 0 0 0 0 0 0 0 0 0 0 0 0 0 0 0 0
0 0 0 0 0 0 0 0 0 0 0 0 0 0
0 0 0 0 0 0 0 0 0 0 0 0 0 0 0 0 0 0 0 0 0 0 0 0 0 0 0 0 0 0 0 0 0 0 0
0 0 0 0 0 0 0 0 0 0 0 0 0 0 0 0 0 0 0 0 0 0 0 0 0 0 0 0 0 0 0 0 0 0 0
0 0 0 0 0 0 0 0 0 0 0 0 0 0 0 0 0 0 0 0 0 0 0 0 0 0 0 0 0 0 0 0 0 0 0
0 0 0 0 0 0 0 0 0 0 0 0 0 0 0 0 0 0 0 0 0 0 0 0 0 0 0 0 0 0 0 0 0 0 0
0 0 0 0 0 0 0 0 0 0 0 0 0 0 0 0 0 0 0 0 0 0 0 0 0 0 0 0 0 0 0 0 0 0 0
0 0 0 0 0 0 0 0 0 0 0 0 0 0 0 0 0 0 0 0 0 0 0 0 0 0 0 0 0 0 0 0 0 0 0
0 0 0 0 0 0 0 0 0 0 0 0 0 0 0 0 0 0 0 0 0 19 59 3 19 59 3 19 59 3 19
59 3 19 59 3 19 59 3 19 59 3 19 59 3 19 59 3 19 59 3 19 59 3 19 59 3
19 59 3 19 59 3 19 59 3 19 59 3 19 59 3 19 59 3 19 59 3 19 59 3 19 59
3 19 59 3 19 59 3 19 59 3 19 59 3 19 59 3 19 59 3 19 59 3 19 59 3 19
59 3 19 59 3 19 59 3 19 59 3 19 59 3 19 59 3 19 59 3 19 59 3 19 59 3
19 59 3 19 59 3 19 59 3 19 60 3 19 62 3 20 63 3 20 64 3 20 65 3 21 67
3 21 68 4 21 69 4 22 71 4 22 72 4 23 74 4 23 75 4 23 77 4 24 78 4 24
80 4 25 81 4 25 83 4 26 85 4 26 86 4 27 88 5 27 90 5 28 92 5 28 94 5
29 95 5 29 97 5 30 99 5 30 101 5 31 103 5 31 105 5 32 106 6 32 107 6
32 107 6 0 0 0 0 0 0 0 0 0 0 0 0 0 0 0 0 0 0 0 0 0 0 0 0 0 0 0 0 0 0 0
0 0 0 0 0 0 0 0 0 0 0 0 0 0 0 0 0 0 0 0 0 0 0 0 0 0 0 0 0 0 0 0 0 0 0
0 0 0 0 0 0 0 0 0 0 0 0 0 0 0 0 0 0 0 0 0 0 0 0 0 0 0 0 0 0 0 0 0 0 0
0 0 0 0 0 0 0 0 0 0 0 0 0 0 0 0 0 0 0 0 0 0 0 0 0 0 0 0 0 0 0 0 0 0 0
0 0 0 0 0 0 0 0 0 0 0 0 0 0
0 0 0 0 0 0 0 0 0 0 0 0 0 0 0 0 0 0 0 0 0 0 0 0 0 0 0 0 0 0 0 0 0 0 0
0 0 0 0 0 0 0 0 0 0 0 0 0 0 0 0 0 0 0 0 0 0 0 0 0 0 0 0 0 0 0 0 0 0 0
0 0 0 0 0 0 0 0 0 0 0 0 0 0 0 0 0 0 0 0 0 0 0 0 0 0 0 0 0 0 0 0 0 0 0
0 0 0 0 0 0 0 0 0 0 0 0 0 0 0 0 0 0 0 0 0 0 0 0 0 0 0 0 0 0 0 0 0 0 0
0 0 0 0 0 0 0 0 0 0 0 0 0 0 0 0 0 0 0 0 0 0 0 0 0 0 0 0 0 0 0 0 0 0 0
0 0 0 0 0 0 0 0 0 0 0 0 0 0 0 0 0 0 0 0 0 0 0 0 0 0 0 0 0 0 0 0 0 0 0
0 0 0 0 0 0 0 0 0 0 0 0 0 0 0 0 0 0 0 0 0 19 59 3 19 59 3 19 59 3 19
59 3 19 59 3 19 59 3 19 59 3 19 59 3 19 59 3 19 59 3 19 59 3 19 59 3
19 59 3 19 59 3 19 59 3 19 59 3 19 59 3 19 59 3 19 59 3 19 59 3 19 59
3 19 59 3 19 59 3 19 59 3 19 59 3 19 59 3 19 59 3 19 59 3 19 59 3 19
59 3 19 59 3 19 59 3 19 59 3 19 59 3 19 59 3 19 59 3 19 59 3 19 59 3
19 59 3 19 59 3 19 59 3 19 60 3 19 61 3 20 63 3 20 64 3 20 65 3 21 66
3 21 68 3 21 69 4 22 71 4 22 72 4 23 73 4 23 75 4 23 76 4 24 78 4 24
79 4 25 81 4 25 83 4 26 84 4 26 86 4 27 88 5 27 90 5 28 91 5 28 93 5
29 95 5 29 97 5 30 99 5 30 101 5 31 102 5 31 104 5 32 106 5 32 106 6 0
0 0 0 0 0 0 0 0 0 0 0 0 0 0 0 0 0 0 0 0 0 0 0 0 0 0 0 0 0 0 0 0 0 0 0
0 0 0 0 0 0 0 0 0 0 0 0 0 0 0 0 0 0 0 0 0 0 0 0 0 0 0 0 0 0 0 0 0 0 0
0 0 0 0 0 0 0 0 0 0 0 0 0 0 0 0 0 0 0 0 0 0 0 0 0 0 0 0 0 0 0 0 0 0 0
0 0 0 0 0 0 0 0 0 0 0 0 0 0 0 0 0 0 0 0 0 0 0 0 0 0 0 0 0 0 0 0 0 0 0
0 0 0 0 0 0 0 0 0 0 0 0
0 0 0 0 0 0 0 0 0 0 0 0 0 0 0 0 0 0 0 0 0 0 0 0 0 0 0 0 0 0 0 0 0 0 0
0 0 0 0 0 0 0 0 0 0 0 0 0 0 0 0 0 0 0 0 0 0 0 0 0 0 0 0 0 0 0 0 0 0 0
0 0 0 0 0 0 0 0 0 0 0 0 0 0 0 0 0 0 0 0 0 0 0 0 0 0 0 0 0 0 0 0 0 0 0
0 0 0 0 0 0 0 0 0 0 0 0 0 0 0 0 0 0 0 0 0 0 0 0 0 0 0 0 0 0 0 0 0 0 0
0 0 0 0 0 0 0 0 0 0 0 0 0 0 0 0 0 0 0 0 0 0 0 0 0 0 0 0 0 0 0 0 0 0 0
0 0 0 0 0 0 0 0 0 0 0 0 0 0 0 0 0 0 0 0 0 0 0 0 0 0 0 0 0 0 0 0 0 0 0
0 0 0 0 0 0 0 0 0 0 0 0 0 0 0 0 0 0 0 0 0 19 59 3 19 59 3 19 59 3 19
59 3 19 59 3 19 59 3 19 59 3 19 59 3 19 59 3 19 59 3 19 59 3 19 59 3
19 59 3 19 59 3 19 59 3 19 59 3 19 59 3 19 59 3 19 59 3 19 59 3 19 59
3 19 59 3 19 59 3 19 59 3 19 59 3 19 59 3 19 59 3 19 59 3 19 59 3 19
59 3 19 59 3 19 59 3 19 59 3 19 59 3 19 59 3 19 59 3 19 59 3 19 59 3
19 59 3 19 59 3 19 59 3 19 60 3 19 61 3 19 62 3 20 64 3 20 65 3 21 66
3 21 68 3 21 69 4 22 70 4 22 72 4 22 73 4 23 75 4 23 76 4 24 78 4 24
79 4 25 81 4 25 82 4 26 84 4 26 86 4 26 87 5 27 89 5 27 91 5 28 93 5
28 95 5 29 96 5 30 98 5 30 100 5 31 102 5 31 103 5 31 105 5 31 105 5 0
0 0 0 0 0 0 0 0 0 0 0 0 0 0 0 0 0 0 0 0 0 0 0 0 0 0 0 0 0 0 0 0 0 0 0
0 0 0 0 0 0 0 0 0 0 0 0 0 0 0 0 0 0 0 0 0 0 0 0 0 0 0 0 0 0 0 0 0 0 0
0 0 0 0 0 0 0 0 0 0 0 0 0 0 0 0 0 0 0 0 0 0 0 0 0 0 0 0 0 0 0 0 0 0 0
0 0 0 0 0 0 0 0 0 0 0 0 0 0 0 0 0 0 0 0 0 0 0 0 0 0 0 0 0 0 0 0 0 0 0
0 0 0 0 0 0 0 0 0 0 0 0
0 0 0 0 0 0 0 0 0 0 0 0 0 0 0 0 0 0 0 0 0 0 0 0 0 0 0 0 0 0 0 0 0 0 0
0 0 0 0 0 0 0 0 0 0 0 0 0 0 0 0 0 0 0 0 0 0 0 0 0 0 0 0 0 0 0 0 0 0 0
0 0 0 0 0 0 0 0 0 0 0 0 0 0 0 0 0 0 0 0 0 0 0 0 0 0 0 0 0 0 0 0 0 0 0
0 0 0 0 0 0 0 0 0 0 0 0 0 0 0 0 0 0 0 0 0 0 0 0 0 0 0 0 0 0 0 0 0 0 0
0 0 0 0 0 0 0 0 0 0 0 0 0 0 0 0 0 0 0 0 0 0 0 0 0 0 0 0 0 0 0 0 0 0 0
0 0 0 0 0 0 0 0 0 0 0 0 0 0 0 0 0 0 0 0 0 0 0 0 0 0 0 0 0 0 0 0 0 0 0
0 0 0 0 0 0 0 0 0 0 0 0 0 0 0 0 0 0 0 0 0 0 0 0 19 59 3 19 59 3 19 59
3 19 59 3 19 59 3 19 59 3 19 59 3 19 59 3 19 59 3 19 59 3 19 59 3 19
59 3 19 59 3 19 59 3 19 59 3 19 59 3 19 59 3 19 59 3 19 59 3 19 59 3
19 59 3 19 59 3 19 59 3 19 59 3 19 59 3 19 59 3 19 59 3 19 59 3 19 59
3 19 59 3 19 59 3 19 59 3 19 59 3 19 59 3 19 59 3 19 59 3 19 59 3 19
59 3 19 59 3 19 59 3 19 60 3 19 61 3 19 62 3 20 63 3 20 65 3 20 66 3
21 67 3 21 69 4 22 70 4 22 71 4 22 73 4 23 74 4 23 76 4 24 77 4 24 79
4 25 80 4 25 82 4 25 84 4 26 85 4 26 87 5 27 89 5 27 90 5 28 92 5 28
94 5 29 96 5 29 98 5 30 99 5 30 101 5 31 103 5 31 104 5 31 104 5 0 0 0
0 0 0 0 0 0 0 0 0 0 0 0 0 0 0 0 0 0 0 0 0 0 0 0 0 0 0 0 0 0 0 0 0 0 0
0 0 0 0 0 0 0 0 0 0 0 0 0 0 0 0 0 0 0 0 0 0 0 0 0 0 0 0 0 0 0 0 0 0 0
0 0 0 0 0 0 0 0 0 0 0 0 0 0 0 0 0 0 0 0 0 0 0 0 0 0 0 0 0 0 0 0 0 0 0
0 0 0 0 0 0 0 0 0 0 0 0 0 0 0 0 0 0 0 0 0 0 0 0 0 0 0 0 0 0 0 0 0 0 0
0 0 0 0 0 0 0 0 0 0
0 0 0 0 0 0 0 0 0 0 0 0 0 0 0 0 0 0 0 0 0 0 0 0 0 0 0 0 0 0 0 0 0 0 0
0 0 0 0 0 0 0 0 0 0 0 0 0 0 0 0 0 0 0 0 0 0 0 0 0 0 0 0 0 0 0 0 0 0 0
0 0 0 0 0 0 0 0 0 0 0 0 0 0 0 0 0 0 0 0 0 0 0 0 0 0 0 0 0 0 0 0 0 0 0
0 0 0 0 0 0 0 0 0 0 0 0 0 0 0 0 0 0 0 0 0 0 0 0 0 0 0 0 0 0 0 0 0 0 0
0 0 0 0 0 0 0 0 0 0 0 0 0 0 0 0 0 0 0 0 0 0 0 0 0 0 0 0 0 0 0 0 0 0 0
0 0 0 0 0 0 0 0 0 0 0 0 0 0 0 0 0 0 0 0 0 0 0 0 0 0 0 0 0 0 0 0 0 0 0
0 0 0 0 0 0 0 0 0 0 0 0 0 0 0 0 0 0 0 0 0 0 0 0 19 59 3 19 59 3 19 59
3 19 59 3 19 59 3 19 59 3 19 59 3 19 59 3 19 59 3 19 59 3 19 59 3 19
59 3 19 59 3 19 59 3 19 59 3 19 59 3 19 59 3 19 59 3 19 59 3 19 59 3
19 59 3 19 59 3 19 59 3 19 59 3 19 59 3 19 59 3 19 59 3 19 59 3 19 59
3 19 59 3 19 59 3 19 59 3 19 59 3 19 59 3 19 59 3 19 59 3 19 59 3 19
59 3 19 59 3 19 59 3 19 59 3 19 61 3 19 62 3 20 63 3 20 64 3 20 66 3
21 67 3 21 68 4 22 70 4 22 71 4 22 73 4 23 74 4 23 76 4 24 77 4 24 79
4 24 80 4 25 82 4 25 83 4 26 85 4 26 87 4 27 88 5 27 90 5 28 92 5 28
94 5 29 95 5 29 97 5 30 99 5 30 100 5 30 102 5 31 103 5 0 0 0 0 0 0 0
0 0 0 0 0 0 0 0 0 0 0 0 0 0 0 0 0 0 0 0 0 0 0 0 0 0 0 0 0 0 0 0 0 0 0
0 0 0 0 0 0 0 0 0 0 0 0 0 0 0 0 0 0 0 0 0 0 0 0 0 0 0 0 0 0 0 0 0 0 0
0 0 0 0 0 0 0 0 0 0 0 0 0 0 0 0 0 0 0 0 0 0 0 0 0 0 0 0 0 0 0 0 0 0 0
0 0 0 0 0 0 0 0 0 0 0 0 0 0 0 0 0 0 0 0 0 0 0 0 0 0 0 0 0 0 0 0 0 0 0
0 0 0 0 0 0 0 0 0
0 0 0 0 0 0 0 0 0 0 0 0 0 0 0 0 0 0 0 0 0 0 0 0 0 0 0 0 0 0 0 0 0 0 0
0 0 0 0 0 0 0 0 0 0 0 0 0 0 0 0 44 63 26 46 65 26 48 67 27 50 70 28 0
0 0 0 0 0 0 0 0 0 0 0 0 0 0 0 0 0 0 0 0 0 0 0 0 0 0 0 0 0 0 0 0 0 0 0
0 0 0 0 0 0 0 0 0 0 0 0 0 0 0 0 0 0 0 0 0 0 0 0 0 0 0 0 0 0 0 0 0 0 0
0 0 0 0 0 0 0 0 0 0 0 0 0 0 0 0 0 0 0 0 0 0 0 0 0 0 0 0 0 0 0 0 0 0 0
0 0 0 0 0 0 0 0 0 0 0 0 0 0 0 0 0 0 0 0 0 0 0 0 0 0 0 0 0 0 0 0 0 0 0
0 0 0 0 0 0 0 0 0 0 0 0 0 0 0 0 0 0 0 0 0 0 0 0 0 0 0 0 0 0 19 59 3 19
59 3 19 59 3 19 59 3 19 59 3 19 59 3 19 59 3 19 59 3 19 59 3 19 59 3
19 59 3 19 59 3 19 59 3 19 59 3 19 59 3 19 59 3 19 59 3 19 59 3 19 59
3 19 59 3 19 59 3 19 59 3 19 59 3 19 59 3 19 59 3 19 59 3 19 59 3 19
59 3 19 59 3 19 59 3 19 59 3 19 59 3 19 59 3 19 59 3 19 59 3 19 59 3
19 59 3 19 59 3 19 59 3 19 59 3 19 59 3 19 60 3 19 62 3 20 63 3 20 64
3 20 65 3 21 67 3 21 68 4 21 69 4 22 71 4 22 72 4 23 74 4 23 75 4 23
77 4 24 78 4 24 80 4 25 81 4 25 83 4 26 85 4 26 86 4 27 88 5 27 90 5
28 91 5 28 93 5 29 95 5 29 96 5 29 98 5 30 99 5 30 101 5 30 101 5 0 0
0 0 0 0 0 0 0 0 0 0 0 0 0 0 0 0 0 0 0 0 0 0 0 0 0 0 0 0 0 0 0 0 0 0 0
0 0 0 0 0 0 0 0 0 0 0 0 0 0 0 0 0 0 0 0 0 0 0 0 0 0 0 0 0 0 0 0 0 0 0
0 0 0 0 0 0 0 0 0 0 0 0 0 0 0 0 0 0 0 0 0 0 0 0 0 0 0 0 0 0 0 0 0 0 0
0 0 0 0 0 0 0 0 0 0 0 0 0 0 0 0 0 0 0 0 0 0 0 0 0 0 0 0 0 0 0 0 0 0 0
0 0 0 0 0 0 0 0 0 0 0 0 0 0
0 0 0 0 0 0 0 0 0 0 0 0 0 0 0 0 0 0 0 0 0 0 0 0 0 0 0 0 0 0 0 0 0 36
52 21 38 55 22 40 57 23 41 59 24 43 61 25 45 63 26 46 65 26 48 67 27
49 68 28 51 70 28 52 72 29 54 75 30 57 78 32 59 82 33 61 85 35 0 0 0 0
0 0 0 0 0 0 0 0 0 0 0 0 0 0 0 0 0 0 0 0 0 0 0 0 0 0 0 0 0 0 0 0 0 0 0
0 0 0 0 0 0 0 0 0 0 0 0 0 0 0 0 0 0 0 0 0 0 0 0 0 0 0 0 0 0 0 0 0 0 0
0 0 0 0 0 0 0 0 0 0 0 0 0 0 0 0 0 0 0 0 0 0 0 0 0 0 0 0 0 0 0 0 0 0 0
0 0 0 0 0 0 0 0 0 0 0 0 0 0 0 0 0 0 0 0 0 0 0 0 0 0 0 0 0 0 0 0 0 0 0
0 0 0 0 0 0 0 0 0 0 0 0 0 0 0 19 59 3 19 59 3 19 59 3 19 59 3 19 59 3
19 59 3 19 59 3 19 59 3 19 59 3 19 59 3 19 59 3 19 59 3 19 59 3 19 59
3 19 59 3 19 59 3 19 59 3 19 59 3 19 59 3 19 59 3 19 59 3 19 59 3 19
59 3 19 59 3 19 59 3 19 59 3 19 59 3 19 59 3 19 59 3 19 59 3 19 59 3
19 59 3 19 59 3 19 59 3 19 59 3 19 59 3 19 59 3 19 59 3 19 59 3 19 59
3 19 60 3 19 61 3 20 63 3 20 64 3 20 65 3 21 66 3 21 68 3 21 69 4 22
71 4 22 72 4 23 73 4 23 75 4 23 76 4 24 78 4 24 79 4 25 81 4 25 82 4
26 84 4 26 86 4 26 87 5 27 89 5 27 91 5 28 92 5 28 94 5 29 96 5 29 97
5 30 99 5 30 100 5 30 99 5 0 0 0 0 0 0 0 0 0 0 0 0 0 0 0 0 0 0 0 0 0 0
0 0 0 0 0 0 0 0 0 0 0 0 0 0 0 0 0 0 0 0 0 0 0 0 0 0 0 0 0 0 0 0 0 0 0
0 0 0 0 0 0 0 0 0 0 0 0 0 0 0 0 0 0 0 0 0 0 0 0 0 0 0 0 0 0 0 0 0 0 0
0 0 0 0 0 0 0 0 0 0 0 0 0 0 0 0 0 0 0 0 0 0 0 0 0 0 0 0 0 0 0 0 0 0 0
0 0 0 0 0 0 0 0 0 0 0 0 0 0 0 0 0 0 0 0 0 0 0 0 0 0 0 0 0
0 0 0 0 0 0 0 0 0 0 0 0 0 0 0 0 0 0 0 0 0 0 0 0 0 0 0 35 52 21 35 52
21 37 54 22 39 56 23 40 58 24 42 60 24 44 62 25 45 63 26 47 65 27 48
67 27 49 69 28 51 71 29 52 72 29 54 74 30 56 77 31 62 118 71 61 84 34
63 87 35 65 91 37 67 94 38 0 0 0 0 0 0 0 0 0 0 0 0 0 0 0 0 0 0 0 0 0 0
0 0 0 0 0 0 0 0 0 0 0 0 0 0 0 0 0 0 0 0 0 0 0 0 0 0 0 0 0 0 0 0 0 0 0
0 0 0 0 0 0 0 0 0 0 0 0 0 0 0 0 0 0 0 0 0 0 0 0 0 0 0 0 0 0 0 0 0 0 0
0 0 0 0 0 0 0 0 0 0 0 0 0 0 0 0 0 0 0 0 0 0 0 0 0 0 0 0 0 0 0 0 0 0 0
0 0 0 0 0 0 0 0 0 0 0 0 0 0 0 0 0 0 0 0 0 0 0 19 59 3 19 59 3 19 59 3
19 59 3 19 59 3 19 59 3 19 59 3 19 59 3 19 59 3 19 59 3 19 59 3 19 59
3 19 59 3 19 59 3 19 59 3 19 59 3 19 59 3 19 59 3 19 59 3 19 59 3 19
59 3 19 59 3 19 59 3 19 59 3 19 59 3 19 59 3 19 59 3 19 59 3 19 59 3
19 59 3 19 59 3 19 59 3 19 59 3 19 59 3 19 59 3 19 59 3 19 59 3 19 59
3 19 59 3 19 59 3 19 60 3 19 61 3 19 62 3 20 64 3 20 65 3 21 66 3 21
67 3 21 69 4 22 70 4 22 72 4 22 73 4 23 74 4 23 76 4 24 77 4 24 79 4
25 80 4 25 82 4 25 84 4 26 85 4 26 87 4 27 88 5 27 90 5 28 92 5 28 93
5 29 95 5 29 96 5 29 98 5 29 98 5 0 0 0 0 0 0 0 0 0 0 0 0 0 0 0 0 0 0
0 0 0 0 0 0 0 0 0 0 0 0 0 0 0 0 0 0 0 0 0 0 0 0 0 0 0 0 0 0 0 0 0 0 0
0 0 0 0 0 0 0 0 0 0 0 0 0 0 0 0 0 0 0 0 0 0 0 0 0 0 0 0 0 0 0 0 0 0 0
0 0 0 0 0 0 0 0 0 0 0 0 0 0 0 0 0 0 0 0 0 0 0 0 0 0 0 0 0 0 0 0 0 0 0
0 0 0 0 0 0 0 0 0 0 0 0 0 0 0 0 0 0 0 0 0 0 0 0 0 0 0 0 0 0 0 0 0 0 0
0
0 0 0 0 0 0 0 0 0 0 0 0 0 0 0 0 0 0 0 0 0 35 52 21 35 52 21 35 52 21
36 53 22 38 54 22 39 56 23 41 58 24 42 60 24 44 62 25 45 63 26 47 65
27 48 67 27 49 69 28 51 70 29 52 72 29 54 74 30 59 114 69 61 117 70 64
120 71 66 124 73 68 127 74 71 131 76 69 96 39 72 100 41 0 0 0 0 0 0 0
0 0 0 0 0 0 0 0 0 0 0 0 0 0 0 0 0 0 0 0 0 0 0 0 0 0 0 0 0 0 0 0 0 0 0
0 0 0 0 0 0 0 0 0 0 0 0 0 0 0 0 0 0 0 0 0 0 0 0 0 0 0 0 0 0 0 0 0 0 0
0 0 0 0 0 0 0 0 0 0 0 0 0 0 0 0 0 0 0 0 0 0 0 0 0 0 0 0 0 0 0 0 0 0 0
0 0 0 0 0 0 0 0 0 0 0 0 0 0 0 0 0 0 0 0 0 0 0 0 0 0 0 0 0 0 0 0 0 0 0
19 59 3 19 59 3 19 59 3 19 59 3 19 59 3 19 59 3 19 59 3 19 59 3 19 59
3 19 59 3 19 59 3 19 59 3 19 59 3 19 59 3 19 59 3 19 59 3 19 59 3 19
59 3 19 59 3 19 59 3 19 59 3 19 59 3 19 59 3 19 59 3 19 59 3 19 59 3
19 59 3 19 59 3 19 59 3 19 59 3 19 59 3 19 59 3 19 59 3 19 59 3 19 59
3 19 59 3 19 59 3 19 59 3 19 59 3 19 59 3 19 61 3 19 62 3 20 63 3 20
65 3 20 66 3 21 67 3 21 68 4 22 70 4 22 71 4 22 73 4 23 74 4 23 76 4
24 77 4 24 78 4 24 80 4 25 82 4 25 83 4 26 85 4 26 86 4 27 88 5 27 90
5 28 91 5 28 93 5 28 94 5 29 95 5 29 96 5 29 96 5 0 0 0 0 0 0 0 0 0 0
0 0 0 0 0 0 0 0 0 0 0 0 0 0 0 0 0 0 0 0 0 0 0 0 0 0 0 0 0 0 0 0 0 0 0
0 0 0 0 0 0 0 0 0 0 0 0 0 0 0 0 0 0 0 0 0 0 0 0 0 0 0 0 0 0 0 0 0 0 0
0 0 0 0 0 0 0 0 0 0 0 0 0 0 0 0 0 0 0 0 0 0 0 0 0 0 0 0 0 0 0 0 0 0 0
0 0 0 0 0 0 0 0 0 0 0 0 0 0 0 0 0 0 0 0 0 0 0 0 0 0 0 0 0 0 0 0 0 0 0
0 0 0 0 0 0 0 0 0
0 0 0 0 0 0 0 0 0 0 0 0 0 0 0 35 52 21 35 52 21 35 52 21 35 52 21 35
52 21 36 53 22 38 54 22 39 56 23 41 58 24 42 60 24 43 61 25 45 63 26
46 65 26 48 67 27 49 68 28 51 70 28 52 72 29 54 74 30 55 75 31 60 115
69 63 119 71 65 122 72 67 125 74 70 129 75 72 133 76 75 136 78 74 102
41 76 106 43 0 0 0 0 0 0 0 0 0 0 0 0 0 0 0 0 0 0 0 0 0 0 0 0 0 0 0 0 0
0 0 0 0 0 0 0 0 0 0 0 0 0 0 0 0 0 0 0 0 0 0 0 0 0 0 0 0 0 0 0 0 0 0 0
0 0 0 0 0 0 0 0 0 0 0 0 0 0 0 0 0 0 0 0 0 0 0 0 0 0 0 0 0 0 0 0 0 0 0
0 0 0 0 0 0 0 0 0 0 0 0 0 0 0 0 0 0 0 0 0 0 0 0 0 0 0 0 0 0 0 0 0 0 0
0 0 0 0 0 0 0 19 59 3 19 59 3 19 59 3 19 59 3 19 59 3 19 59 3 19 59 3
19 59 3 19 59 3 19 59 3 19 59 3 19 59 3 19 59 3 19 59 3 19 59 3 19 59
3 19 59 3 19 59 3 19 59 3 19 59 3 19 59 3 19 59 3 19 59 3 19 59 3 19
59 3 19 59 3 19 59 3 19 59 3 19 59 3 19 59 3 19 59 3 19 59 3 19 59 3
19 59 3 19 59 3 19 59 3 19 59 3 19 59 3 19 59 3 19 59 3 19 60 3 19 62
3 20 63 3 20 64 3 20 65 3 21 67 3 21 68 4 21 69 4 22 71 4 22 72 4 23
74 4 23 75 4 23 77 4 24 78 4 24 80 4 25 81 4 25 83 4 26 84 4 26 86 4
26 87 5 27 89 5 27 90 5 28 92 5 28 93 5 28 94 5 29 95 5 0 0 0 0 0 0 0
0 0 0 0 0 0 0 0 0 0 0 0 0 0 0 0 0 0 0 0 0 0 0 0 0 0 0 0 0 0 0 0 0 0 0
0 0 0 0 0 0 0 0 0 0 0 0 0 0 0 0 0 0 0 0 0 0 0 0 0 0 0 0 0 0 0 0 0 0 0
0 0 0 0 0 0 0 0 0 0 0 0 0 0 0 0 0 0 0 0 0 0 0 0 0 0 0 0 0 0 0 0 0 0 0
0 0 0 0 0 0 0 0 0 0 0 0 0 0 0 0 0 0 0 0 0 0 0 0 0 0 0 0 0 0 0 0 0 0 0
0 0 0 0 0 0 0 0 0 0 0 0 0 0 0
0 0 0 0 0 0 0 0 0 0 0 0 35 52 21 35 52 21 35 52 21 35 52 21 35 52 21
35 52 21 36 53 22 37 54 22 39 56 23 40 58 24 42 59 24 43 61 25 45 63
26 46 65 26 47 66 27 49 68 28 50 70 28 52 71 29 53 73 30 55 75 30 56
77 31 58 79 32 65 127 78 68 135 83 70 139 85 72 140 84 74 137 79 76
138 79 75 104 42 78 108 44 0 0 0 0 0 0 0 0 0 0 0 0 0 0 0 0 0 0 0 0 0 0
0 0 0 0 0 0 0 0 0 0 0 0 0 0 0 0 0 0 0 0 0 0 0 0 0 0 0 0 0 0 0 0 0 0 0
0 0 0 0 0 0 0 0 0 0 0 0 0 0 0 0 0 0 0 0 0 0 0 0 0 0 0 0 0 0 0 0 0 0 0
0 0 0 0 0 0 0 0 0 0 0 0 0 0 0 0 0 0 0 0 0 0 0 0 0 0 0 0 0 0 0 0 0 0 0
0 0 0 0 0 0 0 0 0 0 0 0 0 0 19 59 3 19 59 3 19 59 3 19 59 3 19 59 3 19
59 3 19 59 3 19 59 3 19 59 3 19 59 3 19 59 3 19 59 3 19 59 3 19 59 3
19 59 3 19 59 3 19 59 3 19 59 3 19 59 3 19 59 3 19 59 3 19 59 3 19 59
3 19 59 3 19 59 3 19 59 3 19 59 3 19 59 3 19 59 3 19 59 3 19 59 3 19
59 3 19 59 3 19 59 3 19 59 3 19 59 3 19 59 3 19 59 3 19 59 3 19 60 3
19 61 3 20 63 3 20 64 3 20 65 3 21 66 3 21 68 3 21 69 4 22 70 4 22 72
4 23 73 4 23 75 4 23 76 4 24 78 4 24 79 4 25 81 4 25 82 4 25 84 4 26
85 4 26 87 4 27 88 5 27 90 5 27 91 5 28 92 5 28 93 5 28 93 5 0 0 0 0 0
0 0 0 0 0 0 0 0 0 0 0 0 0 0 0 0 0 0 0 0 0 0 0 0 0 0 0 0 0 0 0 0 0 0 0
0 0 0 0 0 0 0 0 0 0 0 0 0 0 0 0 0 0 0 0 0 0 0 0 0 0 0 0 0 0 0 0 0 0 0
0 0 0 0 0 0 0 0 0 0 0 0 0 0 0 0 0 0 0 0 0 0 0 0 0 0 0 0 0 0 0 0 0 0 0
0 0 0 0 0 0 0 0 0 0 0 0 0 0 0 0 0 0 0 0 0 0 0 0 0 0 0 0 0 0 0 0 0 0 0
0 0 0 0 0 0 0 0 0 0 0 0 0 0 0 0 0
0 0 0 0 0 0 35 52 21 35 52 21 35 52 21 35 52 21 35 52 21 35 52 21 35
52 21 35 52 21 36 52 21 37 54 22 39 56 23 40 57 23 41 59 24 43 61 25
44 62 25 46 64 26 47 66 27 48 67 27 50 69 28 51 71 29 53 73 29 54 74
30 56 76 31 57 78 32 59 80 33 68 146 95 71 155 102 74 158 103 76 157
100 77 153 94 78 143 83 81 152 90 79 110 45 0 0 0 0 0 0 0 0 0 0 0 0 0
0 0 0 0 0 0 0 0 0 0 0 0 0 0 0 0 0 0 0 0 0 0 0 0 0 0 0 0 0 0 0 0 0 0 0
0 0 0 0 0 0 0 0 0 0 0 0 0 0 0 0 0 0 0 0 0 0 0 0 0 0 0 0 0 0 0 0 0 0 0
0 0 0 0 0 0 0 0 0 0 0 0 0 0 0 0 0 0 0 0 0 0 0 0 0 0 0 0 0 0 0 0 0 0 0
0 0 0 0 0 0 0 0 0 0 0 0 0 0 0 0 0 0 0 0 19 59 3 19 59 3 19 59 3 19 59
3 19 59 3 19 59 3 19 59 3 19 59 3 19 59 3 19 59 3 19 59 3 19 59 3 19
59 3 19 59 3 19 59 3 19 59 3 19 59 3 19 59 3 19 59 3 19 59 3 19 59 3
19 59 3 19 59 3 19 59 3 19 59 3 19 59 3 19 59 3 19 59 3 19 59 3 19 59
3 19 59 3 19 59 3 19 59 3 19 59 3 19 59 3 19 59 3 19 59 3 19 59 3 19
59 3 19 60 3 19 61 3 19 62 3 20 63 3 20 65 3 20 66 3 21 67 3 21 69 4
22 70 4 22 71 4 22 73 4 23 74 4 23 76 4 24 77 4 24 79 4 24 80 4 25 81
4 25 83 4 26 84 4 26 86 4 26 87 5 27 89 5 27 90 5 27 91 5 28 91 5 0 0
0 0 0 0 0 0 0 0 0 0 0 0 0 0 0 0 0 0 0 0 0 0 0 0 0 0 0 0 0 0 0 0 0 0 0
0 0 0 0 0 0 0 0 0 0 0 0 0 0 0 0 0 0 0 0 0 0 0 0 0 0 0 0 0 0 0 0 0 0 0
0 0 0 0 0 0 0 0 0 0 0 0 0 0 0 0 0 0 0 0 0 0 0 0 0 0 0 0 0 0 0 0 0 0 0
0 0 0 0 0 0 0 0 0 0 0 0 0 0 0 0 0 0 0 0 0 0 0 0 0 0 0 0 0 0 0 0 0 0 0
0 0 0 0 0 0 0 0 0 0 0 0 0 0 0 0 0 0 0 0 0 0 0
0 0 0 35 52 21 35 52 21 35 52 21 35 52 21 35 52 21 35 52 21 35 52 21
35 52 21 35 52 21 35 52 21 37 54 22 38 55 23 40 57 23 41 59 24 42 60
25 44 62 25 45 64 26 47 65 27 48 67 27 49 69 28 51 70 29 52 72 29 54
74 30 55 76 31 57 77 31 58 79 32 60 82 33 63 86 35 75 178 123 78 180
123 79 176 117 80 167 107 81 159 97 78 108 44 81 112 46 0 0 0 0 0 0 0
0 0 0 0 0 0 0 0 0 0 0 0 0 0 0 0 0 0 0 0 0 0 0 0 0 0 0 0 0 0 0 0 0 0 0
0 0 0 0 0 0 0 0 0 0 0 0 0 0 0 0 0 0 0 0 0 0 0 0 0 0 0 0 0 0 0 0 0 0 0
0 0 0 0 0 0 0 0 0 0 0 0 0 0 0 0 0 0 0 0 0 0 0 0 0 0 0 0 0 0 0 0 0 0 0
0 0 0 0 0 0 0 0 0 0 0 0 0 0 0 0 0 0 0 0 0 0 0 0 0 0 19 59 3 19 59 3 19
59 3 19 59 3 19 59 3 19 59 3 19 59 3 19 59 3 19 59 3 19 59 3 19 59 3
19 59 3 19 59 3 19 59 3 19 59 3 19 59 3 19 59 3 19 59 3 19 59 3 19 59
3 19 59 3 19 59 3 19 59 3 19 59 3 19 59 3 19 59 3 19 59 3 19 59 3 19
59 3 19 59 3 19 59 3 19 59 3 19 59 3 19 59 3 19 59 3 19 59 3 19 59 3
19 59 3 19 59 3 19 61 3 19 62 3 20 63 3 20 64 3 20 66 3 21 67 3 21 68
4 21 70 4 22 71 4 22 72 4 23 74 4 23 75 4 23 77 4 24 78 4 24 79 4 25
81 4 25 82 4 25 84 4 26 85 4 26 87 4 27 88 5 27 89 5 27 90 5 27 88 5 0
0 0 0 0 0 0 0 0 0 0 0 0 0 0 0 0 0 0 0 0 0 0 0 0 0 0 0 0 0 0 0 0 0 0 0
0 0 0 0 0 0 0 0 0 0 0 0 0 0 0 0 0 0 0 0 0 0 0 0 0 0 0 0 0 0 0 0 0 0 0
0 0 0 0 0 0 0 0 0 0 0 0 0 0 0 0 0 0 0 0 0 0 0 0 0 0 0 0 0 0 0 0 0 0 0
0 0 0 0 0 0 0 0 0 0 0 0 0 0 0 0 0 0 0 0 0 0 0 0 0 0 0 0 0 0 0 0 0 0 0
0 0 0 0 0 0 0 0 0 0 0 0 0 0 0 0 0 0 0 0 0 0 0 0
35 52 21 35 52 21 35 52 21 35 52 21 35 52 21 35 52 21 35 52 21 35 52
21 35 52 21 35 52 21 35 52 21 36 53 22 38 55 22 39 56 23 41 58 24 42
60 24 43 61 25 45 63 26 46 65 26 47 66 27 49 68 28 50 70 28 52 71 29
53 73 30 55 75 30 56 77 31 57 78 32 59 80 33 62 84 34 64 87 35 66 91
37 81 201 142 83 197 136 84 190 127 84 180 117 79 110 45 82 114 47 0 0
0 0 0 0 0 0 0 0 0 0 0 0 0 0 0 0 0 0 0 0 0 0 0 0 0 0 0 0 0 0 0 0 0 0 0
0 0 0 0 0 0 0 0 0 0 0 0 0 0 0 0 0 0 0 0 0 0 0 0 0 0 0 0 0 0 0 0 0 0 0
0 0 0 0 0 0 0 0 0 0 0 0 0 0 0 0 0 0 0 0 0 0 0 0 0 0 0 0 0 0 0 0 0 0 0
0 0 0 0 0 0 0 0 0 0 0 0 0 0 0 0 0 0 0 0 0 0 0 0 0 0 0 0 19 59 3 19 59
3 19 59 3 19 59 3 19 59 3 19 59 3 19 59 3 19 59 3 19 59 3 19 59 3 19
59 3 19 59 3 19 59 3 19 59 3 19 59 3 19 59 3 19 59 3 19 59 3 19 59 3
19 59 3 19 59 3 19 59 3 19 59 3 19 59 3 19 59 3 19 59 3 19 59 3 19 59
3 19 59 3 19 59 3 19 59 3 19 59 3 19 59 3 19 59 3 19 59 3 19 59 3 19
59 3 19 59 3 19 59 3 19 60 3 19 61 3 20 63 3 20 64 3 20 65 3 21 66 3
21 68 3 21 69 4 22 70 4 22 72 4 22 73 4 23 75 4 23 76 4 24 77 4 24 79
4 24 80 4 25 82 4 25 83 4 26 84 4 26 86 4 26 87 4 27 88 5 27 88 5 0 0
0 0 0 0 0 0 0 0 0 0 0 0 0 0 0 0 0 0 0 0 0 0 0 0 0 0 0 0 0 0 0 0 0 0 0
0 0 0 0 0 0 0 0 0 0 0 0 0 0 0 0 0 0 0 0 0 0 0 0 0 0 0 0 0 0 0 0 0 0 0
0 0 0 0 0 0 0 0 0 0 0 0 0 0 0 0 0 0 0 0 0 0 0 0 0 0 0 0 0 0 0 0 0 0 0
0 0 0 0 0 0 0 0 0 0 0 0 0 0 0 0 0 0 0 0 0 0 0 0 0 0 0 0 0 0 0 0 0 0 0
0 0 0 0 0 0 0 0 0 0 0 0 0 0 0 0 0 0 0 0 0 0 0 0 0 0
35 52 21 35 52 21 35 52 21 35 52 21 35 52 21 35 52 21 35 52 21 35 52
21 35 52 21 35 52 21 35 52 21 36 53 22 37 54 22 39 56 23 40 57 23 41
59 24 43 61 25 44 62 25 45 64 26 47 66 27 48 67 27 50 69 28 51 71 29
52 72 29 54 74 30 55 76 31 57 77 31 58 79 32 60 82 33 63 85 35 65 89
36 68 93 37 70 96 39 73 100 41 87 217 154 78 108 44 81 112 46 83 117
47 6 18 43 6 18 43 6 18 43 6 18 43 6 18 43 6 18 43 6 18 43 6 18 43 6
18 43 6 18 43 6 18 43 6 18 43 6 18 43 6 18 43 6 18 43 6 18 43 6 18 43
6 18 43 6 18 43 6 18 43 6 18 43 6 18 43 6 18 43 6 18 43 6 18 43 6 18
43 6 18 43 6 18 43 6 18 43 6 18 43 6 18 43 6 18 43 6 18 43 6 18 43 6
18 43 6 18 43 6 18 43 6 18 43 6 18 43 6 18 43 6 18 43 6 18 43 6 18 43
6 18 43 6 18 43 19 59 3 19 59 3 19 59 3 19 59 3 19 59 3 19 59 3 19 59
3 19 59 3 19 59 3 19 59 3 19 59 3 19 59 3 19 59 3 19 59 3 19 59 3 19
59 3 19 59 3 19 59 3 19 59 3 19 59 3 19 59 3 19 59 3 19 59 3 19 59 3
19 59 3 19 59 3 19 59 3 19 59 3 19 59 3 19 59 3 19 59 3 19 59 3 19 59
3 19 59 3 19 59 3 19 59 3 19 59 3 19 59 3 19 60 3 19 61 3 19 62 3 20
63 3 20 65 3 20 66 3 21 67 3 21 69 4 22 70 4 22 71 4 22 73 4 23 74 4
23 75 4 23 77 4 24 78 4 24 79 4 25 81 4 25 82 4 25 83 4 26 85 4 26 85
4 26 86 4 6 18 43 6 18 43 6 18 43 6 18 43 6 18 43 6 18 43 6 18 43 6 18
43 6 18 43 6 18 43 6 18 43 6 18 43 6 18 43 6 18 43 6 18 43 6 18 43 6
18 43 6 18 43 6 18 43 6 18 43 6 18 43 6 18 43 6 18 43 6 18 43 6 18 43
6 18 43 6 18 43 6 18 43 6 18 43 6 18 43 6 18 43 6 18 43 6 18 43 6 18
43 6 18 43 6 18 43 6 18 43 6 18 43 6 18 43 6 18 43 6 18 43 6 18 43 6
18 43 6 18 43 6 18 43 6 18 43 6 18 43 6 18 43 6 18 43 6 18 43 6 18 43
6 18 43 6 18 43 6 18 43 6 18 43 6 18 43 6 18 43
35 52 21 35 52 21 35 52 21 35 52 21 35 52 21 35 52 21 35 52 21 35 52
21 35 52 21 35 52 21 35 52 21 36 52 21 37 54 22 38 55 23 40 57 23 41
58 24 42 60 24 43 62 25 45 63 26 46 65 26 48 66 27 49 68 28 50 70 28
52 71 29 53 73 30 55 75 30 56 77 31 57 78 32 59 80 32 61 84 34 64 87
35 66 91 37 69 94 38 71 98 40 74 102 41 77 106 43 79 110 45 82 114 46
85 119 48 7 19 46 7 19 46 7 19 46 7 19 46 7 19 46 7 19 46 7 19 46 7 19
46 7 19 46 7 19 46 7 19 46 7 19 46 7 19 46 7 19 46 7 19 46 7 19 46 7
19 46 7 19 46 7 19 46 7 19 46 7 19 46 7 19 46 7 19 46 7 19 46 7 19 46
7 19 46 7 19 46 7 19 46 7 19 46 7 19 46 7 19 46 7 19 46 7 19 46 7 19
46 7 19 46 7 19 46 7 19 46 7 19 46 7 19 46 7 19 46 7 19 46 7 19 46 7
19 46 7 19 46 7 19 46 19 59 3 19 59 3 19 59 3 19 59 3 19 59 3 19 59 3
19 59 3 19 59 3 19 59 3 19 59 3 19 59 3 19 59 3 19 59 3 19 59 3 19 59
3 19 59 3 19 59 3 19 59 3 19 59 3 19 59 3 19 59 3 19 59 3 19 59 3 19
59 3 19 59 3 19 59 3 19 59 3 19 59 3 19 59 3 19 59 3 19 59 3 19 59 3
19 59 3 19 59 3 19 59 3 19 59 3 19 59 3 19 59 3 19 61 3 19 62 3 20 63
3 20 64 3 20 65 3 21 67 3 21 68 4 21 69 4 22 71 4 22 72 4 23 73 4 23
75 4 23 76 4 24 77 4 24 79 4 24 80 4 25 81 4 25 82 4 25 83 4 25 84 4 7
19 46 7 19 46 7 19 46 7 19 46 7 19 46 7 19 46 7 19 46 7 19 46 7 19 46
7 19 46 7 19 46 7 19 46 7 19 46 7 19 46 7 19 46 7 19 46 7 19 46 7 19
46 7 19 46 7 19 46 7 19 46 7 19 46 7 19 46 7 19 46 7 19 46 7 19 46 7
19 46 7 19 46 7 19 46 7 19 46 7 19 46 7 19 46 6 19 46 6 19 46 6 19 46
6 19 46 6 19 46 6 19 46 6 19 46 6 19 46 6 19 46 6 19 46 6 19 46 6 19
46 6 19 46 6 19 46 6 19 46 6 19 46 6 19 46 6 19 46 6 19 46 6 19 46 6
19 46 6 19 46 6 19 46 6 19 46 6 19 46 6 19 46
35 52 21 35 52 21 35 52 21 35 52 21 35 52 21 35 52 21 35 52 21 35 52
21 35 52 21 35 52 21 35 52 21 35 52 21 36 53 22 38 55 22 39 56 23 40
58 24 42 59 24 43 61 25 44 62 25 46 64 26 47 66 27 48 67 27 50 69 28
51 71 29 52 72 29 54 74 30 55 76 31 57 77 31 58 79 32 60 82 33 63 85
35 65 89 36 67 92 37 70 96 39 73 100 40 75 104 42 78 108 44 81 112 45
83 116 47 7 20 49 7 20 49 7 20 49 7 20 49 7 20 49 7 20 49 7 20 49 7 20
49 7 20 49 7 20 49 7 20 49 7 20 49 7 20 49 7 20 49 7 20 49 7 20 49 7
20 49 7 20 49 7 20 49 7 20 49 7 20 49 7 20 49 7 20 49 7 20 49 7 20 49
7 20 49 7 20 49 7 20 49 7 20 49 7 20 49 7 20 49 7 20 49 7 20 49 7 20
49 7 20 49 7 20 49 7 20 49 7 20 49 7 20 49 7 20 49 7 20 49 7 20 49 7
20 49 7 20 49 7 20 49 7 20 49 19 59 3 19 59 3 19 59 3 19 59 3 19 59 3
19 59 3 19 59 3 19 59 3 19 59 3 19 59 3 19 59 3 19 59 3 19 59 3 19 59
3 19 59 3 19 59 3 19 59 3 19 59 3 19 59 3 19 59 3 19 59 3 19 59 3 19
59 3 19 59 3 19 59 3 19 59 3 19 59 3 19 59 3 19 59 3 19 59 3 19 59 3
19 59 3 19 59 3 19 59 3 19 59 3 19 59 3 19 59 3 19 60 3 19 61 3 19 62
3 20 64 3 20 65 3 21 66 3 21 68 3 21 69 4 22 70 4 22 71 4 22 73 4 23
74 4 23 75 4 23 77 4 24 78 4 24 79 4 24 80 4 25 81 4 25 82 4 25 81 4 7
20 49 7 20 49 7 20 49 7 20 49 7 20 49 7 20 49 7 20 49 7 20 49 7 20 49
7 20 49 7 20 49 7 20 49 7 20 49 7 20 49 7 20 49 7 20 49 7 20 49 7 20
49 7 20 49 7 20 49 7 20 49 7 20 49 7 20 49 7 20 49 7 20 49 7 20 49 7
20 49 7 20 49 7 20 49 7 20 49 7 20 48 7 20 48 7 20 48 7 20 48 7 20 48
7 20 48 7 20 48 7 20 48 7 20 48 7 20 48 7 20 48 7 20 48 7 20 48 7 20
48 7 20 48 7 20 48 7 20 48 7 20 48 7 20 48 7 20 48 7 20 48 7 20 48 7
20 48 7 20 48 7 20 48 7 20 48 7 20 48 7 20 48
35 52 21 35 52 21 35 52 21 35 52 21 35 52 21 35 52 21 35 52 21 35 52
21 35 52 21 35 52 21 35 52 21 35 52 21 36 52 21 37 54 22 38 55 23 40
57 23 41 58 24 42 60 25 44 62 25 45 63 26 46 65 26 48 66 27 49 68 28
50 70 28 52 71 29 53 73 30 54 75 30 56 76 31 57 78 32 59 80 32 62 84
34 66 89 38 69 92 39 69 94 38 71 98 40 74 102 41 76 106 43 79 110 45
82 114 46 84 118 48 7 21 51 7 21 51 7 21 51 7 21 51 7 21 51 7 21 51 7
21 51 7 21 51 7 21 51 7 21 51 7 21 51 7 21 51 7 21 51 7 21 51 7 21 51
7 21 52 7 21 52 7 21 52 7 21 52 7 21 52 7 21 52 7 21 52 7 21 52 7 21
52 7 21 52 7 21 52 7 21 52 7 21 52 7 21 52 7 21 52 7 21 52 7 21 52 7
21 52 7 21 52 7 21 52 7 21 52 7 21 52 7 21 52 7 21 52 7 22 52 7 22 52
7 22 52 7 22 52 7 22 52 7 22 52 19 59 3 19 59 3 19 59 3 19 59 3 19 59
3 19 59 3 19 59 3 19 59 3 19 59 3 19 59 3 19 59 3 19 59 3 19 59 3 19
59 3 19 59 3 19 59 3 19 59 3 19 59 3 19 59 3 19 59 3 19 59 3 19 59 3
19 59 3 19 59 3 19 59 3 19 59 3 19 59 3 19 59 3 19 59 3 19 59 3 19 59
3 19 59 3 19 59 3 19 59 3 19 59 3 19 59 3 19 59 3 19 60 3 19 61 3 19
62 3 20 63 3 20 64 3 20 66 3 21 67 3 21 68 4 21 69 4 22 71 4 22 72 4
23 73 4 23 75 4 23 76 4 24 77 4 24 78 4 24 79 4 24 80 4 24 79 4 7 21
52 7 21 52 7 21 52 7 21 52 7 21 52 7 21 52 7 21 52 7 21 51 7 21 51 7
21 51 7 21 51 7 21 51 7 21 51 7 21 51 7 21 51 7 21 51 7 21 51 7 21 51
7 21 51 7 21 51 7 21 51 7 21 51 7 21 51 7 21 51 7 21 51 7 21 51 7 21
51 7 21 51 7 21 51 7 21 51 7 21 51 7 21 51 7 21 51 7 21 51 7 21 51 7
21 51 7 21 51 7 21 51 7 21 51 7 21 51 7 21 51 7 21 51 7 21 51 7 21 51
7 21 51 7 21 51 7 21 51 7 21 51 7 21 51 7 21 51 7 21 51 7 21 51 7 21
51 7 21 51 7 21 51 7 21 51 7 21 51 7 21 51 7 21 51
35 52 21 35 52 21 35 52 21 35 52 21 35 52 21 35 52 21 35 52 21 35 52
21 35 52 21 35 52 21 35 52 21 35 52 21 35 52 21 36 53 22 38 55 22 39
56 23 40 58 24 42 59 24 43 61 25 44 62 25 45 64 26 47 66 27 48 67 27
49 69 28 51 70 29 52 72 29 54 74 30 55 75 31 56 77 31 58 79 32 61 82
34 77 96 48 105 119 74 76 99 46 70 96 39 72 100 40 75 103 42 78 108 44
80 112 45 83 116 47 85 121 49 8 23 54 8 23 54 8 23 54 8 23 54 8 23 54
8 23 54 8 23 54 8 23 54 8 23 54 8 23 54 8 23 54 8 23 54 8 23 54 8 23
54 8 23 54 8 23 54 8 23 54 8 23 54 8 23 54 8 23 54 8 23 54 8 23 55 8
23 55 8 23 55 8 23 55 8 23 55 8 23 55 8 23 55 8 23 55 8 23 55 8 23 55
8 23 55 8 23 55 8 23 55 8 23 55 8 23 55 8 23 55 8 23 55 8 23 55 8 23
55 8 23 55 8 23 55 8 23 55 8 23 55 8 23 55 19 59 3 19 59 3 19 59 3 19
59 3 19 59 3 19 59 3 19 59 3 19 59 3 19 59 3 19 59 3 19 59 3 19 59 3
19 59 3 19 59 3 19 59 3 19 59 3 19 59 3 19 59 3 19 59 3 19 59 3 19 59
3 19 59 3 19 59 3 19 59 3 19 59 3 19 59 3 19 59 3 19 59 3 19 59 3 19
59 3 19 59 3 19 59 3 19 59 3 19 59 3 19 59 3 19 59 3 19 59 3 19 60 3
19 61 3 20 63 3 20 64 3 20 65 3 21 66 3 21 68 3 21 69 4 22 70 4 22 71
4 22 72 4 23 74 4 23 75 4 23 76 4 23 77 4 24 77 4 24 77 4 8 23 55 8 23
55 8 23 54 8 23 54 8 23 54 8 23 54 8 23 54 8 23 54 8 23 54 8 23 54 8
23 54 8 23 54 8 23 54 8 23 54 8 23 54 8 23 54 8 23 54 8 23 54 8 23 54
8 23 54 8 23 54 8 23 54 8 23 54 8 23 54 8 23 54 8 23 54 8 23 54 8 22
54 8 22 54 8 22 54 8 22 54 8 22 54 8 22 54 8 22 54 8 22 54 8 22 54 8
22 54 8 22 54 8 22 54 8 22 54 8 22 54 8 22 54 8 22 54 8 22 54 8 22 54
8 22 54 8 22 54 8 22 54 8 22 54 8 22 54 8 22 54 8 22 54 8 22 54 8 22
54 8 22 54 8 22 54 8 22 53 8 22 53 8 22 53 8 22 53
35 52 21 35 52 21 35 52 21 35 52 21 35 52 21 35 52 21 35 52 21 35 52
21 35 52 21 35 52 21 35 52 21 35 52 21 35 52 21 36 52 22 37 54 22 38
55 23 40 57 23 41 58 24 42 60 24 43 61 25 45 63 26 46 65 26 47 66 27
49 68 28 50 69 28 51 71 29 53 73 29 54 74 30 56 76 31 67 110 33 71 119
35 92 151 49 149 150 115 124 133 90 71 96 40 71 98 40 73 101 41 77 106
44 80 111 47 81 114 46 84 118 48 8 24 57 8 24 57 8 24 57 8 24 57 8 24
57 8 24 57 8 24 57 8 24 57 8 24 57 8 24 57 8 24 57 8 24 57 8 24 57 8
24 57 8 24 57 8 24 57 8 24 57 8 24 58 8 24 58 8 24 58 8 24 58 8 24 58
8 24 58 8 24 58 8 24 58 8 24 58 8 24 58 8 24 58 8 24 58 8 24 58 8 24
58 8 24 58 8 24 58 8 24 58 8 24 58 8 24 58 8 24 58 8 24 58 8 24 58 8
24 58 8 24 58 8 24 58 8 24 58 8 24 58 8 24 58 8 24 58 19 59 3 19 59 3
19 59 3 19 59 3 19 59 3 19 59 3 19 59 3 19 59 3 19 59 3 19 59 3 19 59
3 19 59 3 19 59 3 19 59 3 19 59 3 19 59 3 19 59 3 19 59 3 19 59 3 19
59 3 19 59 3 19 59 3 19 59 3 19 59 3 19 59 3 19 59 3 19 59 3 19 59 3
19 59 3 19 59 3 19 59 3 19 59 3 19 59 3 19 59 3 19 59 3 19 59 3 19 60
3 19 61 3 19 62 3 20 63 3 20 64 3 20 66 3 21 67 3 21 68 4 21 69 4 22
70 4 22 72 4 22 73 4 23 74 4 23 75 4 23 75 4 23 75 4 8 24 58 8 24 58 8
24 58 8 24 58 8 24 58 8 24 58 8 24 58 8 24 57 8 24 57 8 24 57 8 24 57
8 24 57 8 24 57 8 24 57 8 24 57 8 24 57 8 24 57 8 24 57 8 24 57 8 24
57 8 24 57 8 24 57 8 24 57 8 24 57 8 24 57 8 24 57 8 24 57 8 24 57 8
24 57 8 24 57 8 24 57 8 24 57 8 24 57 8 24 57 8 24 57 8 24 57 8 24 57
8 24 57 8 24 57 8 24 57 8 24 57 8 24 57 8 24 57 8 24 57 8 24 57 8 24
57 8 24 57 8 24 57 8 24 57 8 23 56 8 23 56 8 23 56 8 23 56 8 23 56 8
23 56 8 23 56 8 23 56 8 23 56 8 23 56 8 23 56 8 23 56
35 52 21 35 52 21 35 52 21 35 52 21 35 52 21 35 52 21 35 52 21 35 52
21 35 52 21 35 52 21 35 52 21 35 52 21 35 52 21 35 52 21 36 53 22 38
55 22 39 56 23 40 58 24 41 59 24 43 61 25 44 62 25 45 64 26 47 65 27
48 67 27 49 68 28 51 70 28 52 72 29 53 73 30 65 108 32 66 109 33 68
111 33 76 127 37 116 178 66 114 125 82 73 97 43 69 96 39 72 99 40 75
104 43 89 120 61 81 112 46 82 116 47 9 25 60 9 25 60 9 25 60 9 25 60 9
25 60 9 25 60 9 25 60 9 25 60 9 25 60 9 25 60 9 25 61 9 25 61 9 25 61
9 25 61 9 25 61 9 25 61 9 25 61 9 25 61 9 25 61 9 25 61 9 25 61 9 25
61 9 25 61 9 25 61 9 25 61 9 25 61 9 25 61 9 25 61 9 25 61 9 25 61 9
25 61 9 25 61 9 25 61 9 25 61 9 25 61 9 25 61 9 25 61 9 25 61 9 25 61
9 25 61 9 25 61 9 25 61 9 25 61 9 25 61 9 25 61 9 25 61 9 25 61 19 59
3 19 59 3 19 59 3 19 59 3 19 59 3 19 59 3 19 59 3 19 59 3 19 59 3 19
59 3 19 59 3 19 59 3 19 59 3 19 59 3 19 59 3 19 59 3 19 59 3 19 59 3
19 59 3 19 59 3 19 59 3 19 59 3 19 59 3 19 59 3 19 59 3 19 59 3 19 59
3 19 59 3 19 59 3 19 59 3 19 59 3 19 59 3 19 59 3 19 59 3 19 59 3 19
59 3 19 60 3 19 61 3 20 63 3 20 64 3 20 65 3 20 66 3 21 67 3 21 68 4
21 69 4 22 71 4 22 72 4 22 72 4 22 73 4 22 73 4 9 25 61 9 25 61 9 25
61 9 25 61 9 25 61 9 25 61 9 25 61 9 25 61 9 25 61 9 25 61 9 25 61 9
25 61 9 25 61 9 25 61 9 25 61 9 25 61 9 25 60 9 25 60 9 25 60 9 25 60
9 25 60 9 25 60 9 25 60 9 25 60 9 25 60 9 25 60 9 25 60 9 25 60 9 25
60 9 25 60 9 25 60 9 25 60 9 25 60 9 25 60 9 25 60 9 25 60 9 25 60 9
25 60 9 25 60 8 25 60 8 25 60 8 25 60 8 25 60 8 25 60 8 25 60 8 25 60
8 25 60 8 25 60 8 25 59 8 25 59 8 25 59 8 25 59 8 25 59 8 25 59 8 25
59 8 25 59 8 25 59 8 25 59 8 25 59 8 25 59 8 25 59 8 25 59
35 52 21 35 52 21 35 52 21 35 52 21 35 52 21 35 52 21 35 52 21 35 52
21 35 52 21 35 52 21 35 52 21 35 52 21 35 52 21 35 52 21 36 52 22 37
54 22 38 55 23 39 57 23 41 58 24 42 60 24 43 61 25 44 63 26 46 64 26
47 66 27 48 67 27 50 69 28 51 71 29 63 105 31 64 107 32 65 108 32 67
110 33 69 115 34 77 131 38 91 159 45 68 92 39 68 94 38 70 97 39 73 101
41 94 125 70 92 124 64 81 113 46 83 118 48 9 26 63 9 26 64 9 26 64 9
26 64 9 26 64 9 26 64 9 27 64 9 27 64 9 27 64 9 27 64 9 27 64 9 27 64
9 27 64 9 27 64 9 27 64 9 27 64 9 27 64 9 27 64 9 27 64 9 27 64 9 27
64 9 27 64 9 27 64 9 27 64 9 27 64 9 27 64 9 27 64 9 27 64 9 27 64 9
27 64 9 27 64 9 27 64 9 27 64 9 27 64 9 27 64 9 27 64 9 27 64 9 27 64
9 27 64 9 27 64 9 27 65 9 27 65 9 27 65 9 27 65 9 27 65 9 27 65 9 27
65 9 27 65 19 59 3 19 59 3 19 59 3 19 59 3 19 59 3 19 59 3 19 59 3 19
59 3 19 59 3 19 59 3 19 59 3 19 59 3 19 59 3 19 59 3 19 59 3 19 59 3
19 59 3 19 59 3 19 59 3 19 59 3 19 59 3 19 59 3 19 59 3 19 59 3 19 59
3 19 59 3 19 59 3 19 59 3 19 59 3 19 59 3 19 59 3 19 59 3 19 59 3 19
59 3 19 59 3 19 61 3 19 62 3 20 63 3 20 64 3 20 65 3 21 66 3 21 67 3
21 68 4 21 69 4 22 70 4 22 71 4 22 70 4 9 27 64 9 27 64 9 27 64 9 27
64 9 27 64 9 27 64 9 27 64 9 27 64 9 27 64 9 27 64 9 27 64 9 27 64 9
27 64 9 27 64 9 27 64 9 27 64 9 27 64 9 27 64 9 27 64 9 27 64 9 26 64
9 26 64 9 26 64 9 26 64 9 26 64 9 26 63 9 26 63 9 26 63 9 26 63 9 26
63 9 26 63 9 26 63 9 26 63 9 26 63 9 26 63 9 26 63 9 26 63 9 26 63 9
26 63 9 26 63 9 26 63 9 26 63 9 26 63 9 26 63 9 26 63 9 26 63 9 26 63
9 26 63 9 26 63 9 26 63 9 26 63 9 26 62 9 26 62 9 26 62 9 26 62 9 26
62 9 26 62 9 26 62 9 26 62 9 26 62 9 26 62 9 26 62 9 26 62
35 52 21 35 52 21 35 52 21 35 52 21 35 52 21 35 52 21 35 52 21 35 52
21 35 52 21 35 52 21 35 52 21 35 52 21 35 52 21 35 52 21 35 52 21 36
53 22 38 54 22 39 56 23 40 57 23 41 59 24 42 60 25 44 62 25 45 63 26
46 65 26 48 66 27 49 68 28 50 69 28 62 104 31 63 105 31 64 107 32 66
109 32 67 111 33 71 121 35 77 134 37 64 88 36 66 92 37 69 95 39 71 99
40 85 114 58 121 156 110 79 111 45 82 116 47 10 28 67 10 28 67 10 28
67 10 28 67 10 28 67 10 28 67 10 28 67 10 28 67 10 28 67 10 28 67 10
28 67 10 28 67 10 28 67 10 28 67 10 28 67 10 28 67 10 28 67 10 28 67
10 28 68 10 28 68 10 28 68 10 28 68 10 28 68 10 28 68 10 28 68 10 28
68 10 28 68 10 28 68 10 28 68 10 28 68 10 28 68 10 28 68 10 28 68 10
28 68 10 28 68 10 28 68 10 28 68 10 28 68 10 28 68 10 28 68 10 28 68
10 28 68 10 28 68 10 28 68 10 28 68 10 28 68 10 28 68 10 28 68 10 28
68 19 59 3 19 59 3 19 59 3 19 59 3 19 59 3 19 59 3 19 59 3 19 59 3 19
59 3 19 59 3 19 59 3 19 59 3 19 59 3 19 59 3 19 59 3 19 59 3 19 59 3
19 59 3 19 59 3 19 59 3 19 59 3 19 59 3 19 59 3 19 59 3 19 59 3 19 59
3 19 59 3 19 59 3 19 59 3 19 59 3 19 59 3 19 59 3 19 59 3 19 59 3 19
60 3 19 61 3 19 62 3 20 63 3 20 64 3 20 65 3 21 66 3 21 67 3 21 68 3
21 68 4 10 28 68 10 28 68 10 28 68 10 28 68 10 28 68 10 28 68 10 28 68
10 28 68 10 28 68 10 28 68 10 28 68 10 28 67 10 28 67 10 28 67 10 28
67 10 28 67 10 28 67 10 28 67 10 28 67 10 28 67 10 28 67 10 28 67 10
28 67 10 28 67 10 28 67 10 28 67 10 28 67 10 28 67 10 28 67 9 28 67 9
28 67 9 28 67 9 28 67 9 28 67 9 28 67 9 28 67 9 28 66 9 28 66 9 28 66
9 28 66 9 28 66 9 28 66 9 28 66 9 28 66 9 27 66 9 27 66 9 27 66 9 27
66 9 27 66 9 27 66 9 27 66 9 27 66 9 27 66 9 27 66 9 27 66 9 27 66 9
27 65 9 27 65 9 27 65 9 27 65 9 27 65 9 27 65 9 27 65 9 27 65 9 27 65
35 52 21 35 52 21 35 52 21 35 52 21 35 52 21 35 52 21 35 52 21 35 52
21 35 52 21 35 52 21 35 52 21 35 52 21 35 52 21 35 52 21 35 52 21 36
52 21 37 54 22 38 55 23 39 56 23 40 58 24 42 59 24 43 61 25 44 62 25
45 64 26 47 65 27 48 67 27 49 68 28 61 103 30 62 104 31 63 106 31 65
108 32 66 109 33 69 117 34 74 128 36 79 144 38 65 90 36 67 93 38 70 97
39 75 104 45 120 154 110 79 110 46 80 113 46 10 29 70 10 29 70 10 29
70 10 29 70 10 29 71 10 29 71 10 29 71 10 29 71 10 29 71 10 29 71 10
29 71 10 29 71 10 30 71 10 30 71 10 30 71 10 30 71 10 30 71 10 30 71
10 30 71 10 30 71 10 30 71 10 30 71 10 30 71 10 30 71 10 30 71 10 30
71 10 30 71 10 30 71 10 30 72 10 30 72 10 30 72 10 30 72 10 30 72 10
30 72 10 30 72 10 30 72 10 30 72 10 30 72 10 30 72 10 30 72 10 30 72
10 30 72 10 30 72 10 30 72 10 30 72 10 30 72 10 30 72 10 30 72 10 30
72 10 30 72 19 59 3 19 59 3 19 59 3 19 59 3 19 59 3 19 59 3 19 59 3 19
59 3 19 59 3 19 59 3 19 59 3 19 59 3 19 59 3 19 59 3 19 59 3 19 59 3
19 59 3 19 59 3 19 59 3 19 59 3 19 59 3 19 59 3 19 59 3 19 59 3 19 59
3 19 59 3 19 59 3 19 59 3 19 59 3 19 59 3 19 59 3 19 59 3 19 59 3 19
59 3 19 60 3 19 61 3 19 62 3 20 63 3 20 64 3 20 65 3 20 65 3 20 65 3
10 30 72 10 30 72 10 30 72 10 30 71 10 30 71 10 30 71 10 30 71 10 30
71 10 30 71 10 30 71 10 30 71 10 30 71 10 30 71 10 30 71 10 30 71 10
30 71 10 30 71 10 30 71 10 29 71 10 29 71 10 29 71 10 29 71 10 29 71
10 29 71 10 29 71 10 29 71 10 29 71 10 29 70 10 29 70 10 29 70 10 29
70 10 29 70 10 29 70 10 29 70 10 29 70 10 29 70 10 29 70 10 29 70 10
29 70 10 29 70 10 29 70 10 29 70 10 29 70 10 29 70 10 29 70 10 29 69
10 29 69 10 29 69 10 29 69 10 29 69 10 29 69 10 29 69 10 29 69 10 29
69 10 29 69 10 29 69 10 29 69 10 29 69 10 29 69 10 29 69 10 29 69 10
28 68 10 28 68 10 28 68 10 28 68 10 28 68
35 52 21 35 52 21 35 52 21 35 52 21 35 52 21 35 52 21 35 52 21 35 52
21 35 52 21 35 52 21 35 52 21 35 52 21 35 52 21 35 52 21 35 52 21 35
52 21 36 53 22 37 54 22 38 56 23 40 57 23 41 58 24 42 60 24 43 61 25
45 63 26 46 64 26 47 66 27 48 67 27 60 102 30 61 103 30 62 105 31 64
106 31 65 108 32 68 113 33 72 124 35 77 138 37 64 88 36 66 91 37 68 95
38 71 99 41 92 123 69 79 109 47 78 111 45 11 31 74 11 31 74 11 31 74
11 31 74 11 31 74 11 31 74 11 31 74 11 31 74 11 31 74 11 31 74 11 31
75 11 31 75 11 31 75 11 31 75 11 31 75 11 31 75 11 31 75 11 31 75 11
31 75 11 31 75 11 31 75 11 31 75 11 31 75 11 31 75 11 31 75 11 31 75
11 31 75 11 31 75 11 31 75 11 31 75 11 31 75 11 31 75 11 31 76 11 31
76 11 31 76 11 31 76 11 31 76 11 32 76 11 32 76 11 32 76 11 32 76 11
32 76 11 32 76 11 32 76 11 32 76 11 32 76 11 32 76 11 32 76 11 32 76
11 32 76 11 32 76 11 32 76 19 59 3 19 59 3 19 59 3 19 59 3 19 59 3 19
59 3 19 59 3 19 59 3 19 59 3 19 59 3 19 59 3 19 59 3 19 59 3 19 59 3
19 59 3 19 59 3 19 59 3 19 59 3 19 59 3 19 59 3 19 59 3 19 59 3 19 59
3 19 59 3 19 59 3 19 59 3 19 59 3 19 59 3 19 59 3 19 59 3 19 59 3 19
59 3 19 59 3 19 60 3 19 61 3 19 62 3 19 62 3 20 63 3 11 31 76 11 31 75
11 31 75 11 31 75 11 31 75 11 31 75 11 31 75 11 31 75 11 31 75 11 31
75 11 31 75 11 31 75 11 31 75 11 31 75 11 31 75 11 31 75 11 31 75 11
31 75 11 31 75 11 31 75 11 31 75 11 31 75 11 31 75 11 31 75 11 31 74
11 31 74 11 31 74 11 31 74 11 31 74 11 31 74 11 31 74 11 31 74 11 31
74 11 31 74 11 31 74 10 31 74 10 31 74 10 31 74 10 31 74 10 31 74 10
31 73 10 31 73 10 31 73 10 30 73 10 30 73 10 30 73 10 30 73 10 30 73
10 30 73 10 30 73 10 30 73 10 30 73 10 30 73 10 30 73 10 30 73 10 30
72 10 30 72 10 30 72 10 30 72 10 30 72 10 30 72 10 30 72 10 30 72 10
30 72 10 30 72 10 30 72 10 30 72 10 30 72
35 52 21 35 52 21 35 52 21 35 52 21 35 52 21 35 52 21 35 52 21 35 52
21 35 52 21 35 52 21 35 52 21 35 52 21 35 52 21 35 52 21 35 52 21 35
52 21 35 52 21 37 53 22 38 55 22 39 56 23 40 57 23 41 59 24 42 60 25
44 62 25 45 63 26 46 65 26 47 66 27 49 68 28 60 102 30 61 104 30 63
105 31 64 107 32 66 110 33 70 120 34 75 135 36 62 86 35 64 89 36 67 93
38 69 97 39 75 104 46 76 106 45 77 109 44 84 128 82 11 32 78 11 32 78
11 32 78 11 32 78 11 33 78 11 33 78 11 33 78 11 33 78 11 33 78 11 33
78 11 33 79 11 33 79 11 33 79 11 33 79 11 33 79 11 33 79 11 33 79 11
33 79 11 33 79 11 33 79 11 33 79 11 33 79 11 33 79 11 33 79 11 33 79
11 33 79 11 33 79 11 33 79 11 33 79 11 33 80 11 33 80 11 33 80 11 33
80 11 33 80 11 33 80 11 33 80 11 33 80 11 33 80 11 33 80 11 33 80 11
33 80 11 33 80 11 33 80 11 33 80 11 33 80 11 33 80 11 33 80 11 33 80
11 33 80 11 33 80 11 33 80 11 33 80 19 59 3 19 59 3 19 59 3 19 59 3 19
59 3 19 59 3 19 59 3 19 59 3 19 59 3 19 59 3 19 59 3 19 59 3 19 59 3
19 59 3 19 59 3 19 59 3 19 59 3 19 59 3 19 59 3 19 59 3 19 59 3 19 59
3 19 59 3 19 59 3 19 59 3 19 59 3 19 59 3 19 59 3 19 59 3 19 59 3 19
59 3 19 59 3 19 59 3 19 59 3 19 60 3 19 59 3 11 33 80 11 33 80 11 33
80 11 33 80 11 33 80 11 33 79 11 33 79 11 33 79 11 33 79 11 33 79 11
33 79 11 33 79 11 33 79 11 33 79 11 33 79 11 33 79 11 33 79 11 33 79
11 33 79 11 33 79 11 33 79 11 33 79 11 33 79 11 33 79 11 33 78 11 33
78 11 33 78 11 33 78 11 33 78 11 33 78 11 32 78 11 32 78 11 32 78 11
32 78 11 32 78 11 32 78 11 32 78 11 32 78 11 32 77 11 32 77 11 32 77
11 32 77 11 32 77 11 32 77 11 32 77 11 32 77 11 32 77 11 32 77 11 32
77 11 32 77 11 32 77 11 32 76 11 32 76 11 32 76 11 32 76 11 32 76 11
32 76 11 32 76 11 32 76 11 32 76 11 31 76 11 31 76 11 31 76 11 31 75
11 31 75 11 31 75 11 31 75 11 31 75 11 31 75
35 52 21 35 52 21 35 52 21 35 52 21 35 52 21 35 52 21 35 52 21 35 52
21 35 52 21 35 52 21 35 52 21 35 52 21 35 52 21 35 52 21 35 52 21 35
52 21 35 52 21 36 52 21 37 54 22 38 55 23 39 56 23 40 58 24 42 59 24
43 61 25 44 62 25 45 64 26 46 65 26 48 67 27 49 68 28 60 102 30 62 104
31 63 105 31 64 107 32 68 118 33 58 81 33 61 84 34 63 87 35 65 91 37
68 95 38 71 99 41 73 103 42 79 118 73 83 127 85 12 34 82 12 34 82 12
34 82 12 34 82 12 34 82 12 34 82 12 34 82 12 34 82 12 34 82 12 34 83
12 34 83 12 34 83 12 34 83 12 34 83 12 35 83 12 35 83 12 35 83 12 35
83 12 35 83 12 35 83 12 35 83 12 35 83 12 35 83 12 35 84 12 35 84 12
35 84 12 35 84 12 35 84 12 35 84 12 35 84 12 35 84 12 35 84 12 35 84
12 35 84 12 35 84 12 35 84 12 35 84 12 35 84 12 35 84 12 35 84 12 35
84 12 35 84 12 35 84 12 35 84 12 35 84 12 35 84 12 35 84 12 35 84 12
35 85 12 35 85 12 35 85 12 35 85 12 35 85 12 35 85 19 59 3 19 59 3 19
59 3 19 59 3 19 59 3 19 59 3 19 59 3 19 59 3 19 59 3 19 59 3 19 59 3
19 59 3 19 59 3 19 59 3 19 59 3 19 59 3 19 59 3 19 59 3 19 59 3 19 59
3 19 59 3 19 59 3 19 59 3 19 59 3 19 59 3 19 59 3 19 59 3 19 59 3 19
59 3 19 59 3 19 59 3 19 59 3 12 35 84 12 35 84 12 35 84 12 35 84 12 35
84 12 35 84 12 35 84 12 35 84 12 35 84 12 35 84 12 35 84 12 35 84 12
35 83 12 35 83 12 35 83 12 35 83 12 35 83 12 35 83 12 35 83 12 35 83
12 35 83 12 35 83 12 34 83 12 34 83 12 34 83 12 34 83 12 34 83 12 34
82 12 34 82 12 34 82 12 34 82 12 34 82 12 34 82 12 34 82 12 34 82 12
34 82 12 34 82 12 34 82 12 34 82 12 34 82 12 34 81 12 34 81 12 34 81
12 34 81 12 34 81 12 34 81 12 34 81 11 34 81 11 34 81 11 34 81 11 34
81 11 33 80 11 33 80 11 33 80 11 33 80 11 33 80 11 33 80 11 33 80 11
33 80 11 33 80 11 33 80 11 33 79 11 33 79 11 33 79 11 33 79 11 33 79
11 33 79 11 33 79 11 33 79 11 33 79 11 33 79
35 52 21 35 52 21 35 52 21 35 52 21 35 52 21 35 52 21 35 52 21 35 52
21 35 52 21 35 52 21 35 52 21 35 52 21 35 52 21 35 52 21 35 52 21 35
52 21 35 52 21 35 52 21 36 53 22 37 54 22 38 55 23 40 57 23 41 58 24
42 60 24 43 61 25 44 63 25 45 64 26 47 65 27 48 67 27 49 68 28 61 103
30 62 104 31 63 106 31 67 115 33 57 79 32 59 82 33 62 85 35 68 100 63
71 105 68 74 111 74 77 116 80 80 122 86 83 128 92 12 36 86 12 36 86 12
36 86 12 36 86 12 36 86 12 36 86 12 36 87 12 36 87 12 36 87 12 36 87
12 36 87 12 36 87 12 36 87 12 36 87 12 36 87 12 36 87 12 36 87 12 36
88 12 36 88 12 36 88 13 37 88 13 37 88 13 37 88 13 37 88 13 37 88 13
37 88 13 37 88 13 37 88 13 37 88 13 37 88 13 37 88 13 37 88 13 37 89
13 37 89 13 37 89 13 37 89 13 37 89 13 37 89 13 37 89 13 37 89 13 37
89 13 37 89 13 37 89 13 37 89 13 37 89 13 37 89 13 37 89 13 37 89 13
37 89 13 37 89 13 37 89 13 37 89 13 37 89 13 37 89 13 37 89 13 37 89
13 37 89 19 59 3 19 59 3 19 59 3 19 59 3 19 59 3 19 59 3 19 59 3 19 59
3 19 59 3 19 59 3 19 59 3 19 59 3 19 59 3 19 59 3 19 59 3 19 59 3 19
59 3 19 59 3 19 59 3 19 59 3 19 59 3 19 59 3 19 59 3 19 59 3 19 59 3
19 59 3 13 37 89 13 37 89 13 37 89 13 37 89 13 37 89 13 37 89 13 37 89
13 37 88 13 37 88 13 37 88 13 37 88 13 37 88 13 37 88 13 37 88 13 37
88 13 37 88 13 37 88 13 37 88 12 37 88 12 36 88 12 36 88 12 36 88 12
36 87 12 36 87 12 36 87 12 36 87 12 36 87 12 36 87 12 36 87 12 36 87
12 36 87 12 36 87 12 36 87 12 36 87 12 36 86 12 36 86 12 36 86 12 36
86 12 36 86 12 36 86 12 36 86 12 36 86 12 36 86 12 36 86 12 36 85 12
36 85 12 35 85 12 35 85 12 35 85 12 35 85 12 35 85 12 35 85 12 35 85
12 35 85 12 35 84 12 35 84 12 35 84 12 35 84 12 35 84 12 35 84 12 35
84 12 35 84 12 35 84 12 35 83 12 35 83 12 35 83 12 35 83 12 35 83 12
34 83 12 34 83 12 34 83 12 34 83 12 34 82 12 34 82
40 65 53 39 64 51 39 63 49 39 63 47 39 62 46 39 62 45 35 52 21 35 52
21 35 52 21 35 52 21 35 52 21 35 52 21 35 52 21 35 52 21 35 52 21 35
52 21 35 52 21 35 52 21 35 52 21 36 53 22 38 54 22 39 56 23 43 67 47
44 69 48 46 70 49 47 72 51 48 74 52 50 76 54 51 78 56 52 80 57 54 82
59 55 84 61 56 86 63 58 89 66 61 93 69 65 101 82 68 105 87 70 110 91
73 114 94 75 119 98 78 123 100 80 127 101 82 129 99 13 38 90 13 38 90
13 38 91 13 38 91 13 38 91 13 38 91 13 38 91 13 38 91 13 38 91 13 38
91 13 38 91 13 38 92 13 38 92 13 38 92 13 38 92 13 38 92 13 38 92 13
38 92 13 38 92 13 38 92 13 38 92 13 38 92 13 39 93 13 39 93 13 39 93
13 39 93 13 39 93 13 39 93 13 39 93 13 39 93 13 39 93 13 39 93 13 39
93 13 39 93 13 39 93 13 39 93 13 39 94 13 39 94 13 39 94 13 39 94 13
39 94 13 39 94 13 39 94 13 39 94 13 39 94 13 39 94 13 39 94 13 39 94
13 39 94 13 39 94 13 39 94 13 39 94 13 39 94 13 39 94 13 39 94 13 39
94 13 39 94 13 39 94 13 39 94 13 39 94 19 59 3 19 59 3 19 59 3 19 59 3
19 59 3 19 59 3 19 59 3 19 59 3 19 59 3 19 59 3 19 59 3 19 59 3 19 59
3 19 59 3 19 59 3 19 59 3 19 59 3 19 59 3 19 59 3 19 59 3 13 39 94 13
39 94 13 39 94 13 39 94 13 39 94 13 39 94 13 39 94 13 39 93 13 39 93
13 39 93 13 39 93 13 39 93 13 39 93 13 39 93 13 39 93 13 39 93 13 39
93 13 39 93 13 39 93 13 39 93 13 39 93 13 38 92 13 38 92 13 38 92 13
38 92 13 38 92 13 38 92 13 38 92 13 38 92 13 38 92 13 38 92 13 38 92
13 38 91 13 38 91 13 38 91 13 38 91 13 38 91 13 38 91 13 38 91 13 38
91 13 38 91 13 38 90 13 38 90 13 38 90 13 38 90 13 37 90 13 37 90 13
37 90 13 37 90 13 37 90 13 37 89 13 37 89 13 37 89 13 37 89 13 37 89
13 37 89 13 37 89 13 37 89 13 37 88 13 37 88 13 37 88 13 37 88 13 37
88 12 37 88 12 36 88 12 36 88 12 36 87 12 36 87 12 36 87 12 36 87 12
36 87 12 36 87 12 36 87 12 36 87 12 36 86 12 36 86 12 36 86
42 72 70 42 72 69 42 72 69 41 69 62 41 69 62 41 69 62 41 69 62 42 72
69 42 72 69 42 72 69 42 72 69 42 72 70 40 67 59 40 68 60 40 65 53 40
65 54 40 65 54 40 65 55 40 66 55 40 66 56 41 68 57 43 70 58 45 75 69
46 77 71 48 79 73 49 81 75 50 83 77 52 85 80 53 87 82 55 90 85 56 92
87 57 94 90 59 96 92 60 99 94 63 102 96 69 116 123 72 120 125 74 123
126 76 126 126 78 129 126 80 131 123 81 132 118 81 130 106 14 40 95 14
40 95 14 40 95 14 40 95 14 40 95 14 40 96 14 40 96 14 40 96 14 40 96
14 40 96 14 40 96 14 40 96 14 40 96 14 40 97 14 40 97 14 40 97 14 40
97 14 40 97 14 40 97 14 40 97 14 40 97 14 41 97 14 41 97 14 41 98 14
41 98 14 41 98 14 41 98 14 41 98 14 41 98 14 41 98 14 41 98 14 41 98
14 41 98 14 41 98 14 41 98 14 41 99 14 41 99 14 41 99 14 41 99 14 41
99 14 41 99 14 41 99 14 41 99 14 41 99 14 41 99 14 41 99 14 41 99 14
41 99 14 41 99 14 41 99 14 41 99 14 41 99 14 41 99 14 41 99 14 41 99
14 41 99 14 41 99 14 41 99 14 41 99 14 41 99 14 41 99 14 41 99 14 41
99 14 41 99 19 59 3 19 59 3 19 59 3 19 59 3 19 59 3 19 59 3 19 59 3 19
59 3 19 59 3 19 59 3 19 59 3 19 59 3 14 41 99 14 41 99 14 41 99 14 41
99 14 41 99 14 41 99 14 41 99 14 41 99 14 41 99 14 41 99 14 41 99 14
41 99 14 41 98 14 41 98 14 41 98 14 41 98 14 41 98 14 41 98 14 41 98
14 41 98 14 41 98 14 41 98 14 41 98 14 41 98 14 41 97 14 41 97 14 40
97 14 40 97 14 40 97 14 40 97 14 40 97 14 40 97 14 40 97 14 40 97 14
40 96 14 40 96 14 40 96 14 40 96 14 40 96 14 40 96 14 40 96 14 40 96
14 40 95 14 40 95 14 40 95 14 40 95 14 40 95 13 39 95 13 39 95 13 39
95 13 39 94 13 39 94 13 39 94 13 39 94 13 39 94 13 39 94 13 39 94 13
39 93 13 39 93 13 39 93 13 39 93 13 39 93 13 39 93 13 39 93 13 38 92
13 38 92 13 38 92 13 38 92 13 38 92 13 38 92 13 38 92 13 38 91 13 38
91 13 38 91 13 38 91 13 38 91 13 38 91 13 38 91 13 38 90 13 38 90 13
38 90
44 78 83 44 78 84 43 74 73 43 74 74 43 74 75 43 74 75 44 75 76 44 75
77 45 80 89 45 80 90 45 81 91 46 81 92 46 82 93 42 73 73 42 73 74 42
74 75 42 74 76 41 70 65 41 70 66 41 71 68 42 72 70 44 74 72 45 76 75
48 85 94 50 88 98 51 91 103 53 94 108 55 98 114 57 101 119 58 104 124
60 107 128 61 109 129 62 110 129 63 111 127 65 113 126 74 133 166 76
135 165 78 137 163 79 139 161 81 140 156 82 139 148 82 137 134 80 130
108 14 42 100 14 42 100 14 42 100 14 42 100 14 42 100 14 42 100 14 42
101 14 42 101 14 42 101 14 42 101 14 42 101 14 42 101 14 42 101 14 42
102 15 42 102 15 42 102 15 42 102 15 42 102 15 43 102 15 43 102 15 43
102 15 43 103 15 43 103 15 43 103 15 43 103 15 43 103 15 43 103 15 43
103 15 43 103 15 43 103 15 43 103 15 43 104 15 43 104 15 43 104 15 43
104 15 43 104 15 43 104 15 43 104 15 43 104 15 43 104 15 43 104 15 43
104 15 43 104 15 43 104 15 44 105 15 44 105 15 44 105 15 44 105 15 44
105 15 44 105 15 44 105 15 44 105 15 44 105 15 44 105 15 44 105 15 44
105 15 44 105 15 44 105 15 44 105 15 44 105 15 44 105 15 44 105 15 44
105 15 44 105 15 44 105 15 44 105 15 44 105 15 44 105 15 44 105 15 44
105 15 44 105 15 44 105 15 44 105 15 44 105 15 44 105 15 44 105 15 44
105 15 44 105 15 44 105 15 43 104 15 43 104 15 43 104 15 43 104 15 43
104 15 43 104 15 43 104 15 43 104 15 43 104 15 43 104 15 43 104 15 43
104 15 43 104 15 43 104 15 43 103 15 43 103 15 43 103 15 43 103 15 43
103 15 43 103 15 43 103 15 43 103 15 43 103 15 43 102 15 43 102 15 43
102 15 42 102 15 42 102 14 42 102 14 42 102 14 42 102 14 42 101 14 42
101 14 42 101 14 42 101 14 42 101 14 42 101 14 42 101 14 42 101 14 42
100 14 42 100 14 42 100 14 42 100 14 42 100 14 41 100 14 41 100 14 41
99 14 41 99 14 41 99 14 41 99 14 41 99 14 41 99 14 41 98 14 41 98 14
41 98 14 41 98 14 41 98 14 41 98 14 41 97 14 40 97 14 40 97 14 40 97
14 40 97 14 40 97 14 40 96 14 40 96 14 40 96 14 40 96 14 40 96 14 40
96 14 40 95 14 40 95 14 40 95 14 40 95 13 39 95 13 39 95 13 39 94 13
39 94
44 77 81 46 82 94 45 77 82 45 78 83 45 78 84 45 78 85 45 79 86 45 79
87 47 86 103 47 86 104 48 87 106 48 88 108 48 89 110 48 89 112 49 90
114 43 77 84 43 78 85 44 79 87 44 79 89 44 80 92 45 81 94 46 84 97 47
86 101 49 89 105 50 92 110 52 95 115 54 98 120 55 102 125 57 105 131
59 108 135 60 110 138 61 112 140 56 133 54 63 114 139 65 116 138 77
143 195 79 146 194 81 148 194 82 150 192 83 150 185 83 147 170 82 141
147 15 44 105 15 44 105 15 44 105 15 44 105 15 44 105 15 44 105 15 44
106 15 44 106 15 44 106 15 44 106 15 44 106 15 44 106 15 44 107 15 44
107 15 44 107 15 45 107 15 45 107 15 45 107 15 45 107 15 45 108 15 45
108 15 45 108 15 45 108 15 45 108 15 45 108 15 45 108 15 45 109 15 45
109 16 45 109 16 45 109 16 45 109 16 45 109 16 45 109 16 46 109 16 46
109 16 46 110 16 46 110 16 46 110 16 46 110 16 46 110 16 46 110 16 46
110 16 46 110 16 46 110 16 46 110 16 46 110 16 46 110 16 46 110 16 46
110 16 46 111 16 46 111 16 46 111 16 46 111 16 46 111 16 46 111 16 46
111 16 46 111 16 46 111 16 46 111 16 46 111 16 46 111 16 46 111 16 46
111 16 46 111 16 46 111 16 46 111 16 46 111 16 46 111 16 46 111 16 46
111 16 46 111 16 46 111 16 46 111 16 46 111 16 46 111 16 46 111 16 46
111 16 46 110 16 46 110 16 46 110 16 46 110 16 46 110 16 46 110 16 46
110 16 46 110 16 46 110 16 46 110 16 46 110 16 46 110 16 46 110 16 46
109 16 46 109 16 45 109 16 45 109 16 45 109 15 45 109 15 45 109 15 45
109 15 45 109 15 45 108 15 45 108 15 45 108 15 45 108 15 45 108 15 45
108 15 45 108 15 45 108 15 45 107 15 45 107 15 45 107 15 45 107 15 44
107 15 44 107 15 44 107 15 44 106 15 44 106 15 44 106 15 44 106 15 44
106 15 44 106 15 44 105 15 44 105 15 44 105 15 44 105 15 44 105 15 43
105 15 43 104 15 43 104 15 43 104 15 43 104 15 43 104 15 43 103 15 43
103 15 43 103 15 43 103 15 43 103 15 43 103 15 43 102 15 43 102 15 42
102 14 42 102 14 42 102 14 42 101 14 42 101 14 42 101 14 42 101 14 42
101 14 42 101 14 42 100 14 42 100 14 42 100 14 42 100 14 41 100 14 41
99 14 41 99 14 41 99 14 41 99 14 41 99
40 68 60 45 79 87 46 80 88 46 80 89 46 81 91 46 81 92 46 82 93 47 83
95 47 83 96 49 91 115 49 92 117 50 92 119 50 93 121 50 94 123 51 95
125 51 96 128 51 97 131 44 81 92 44 81 94 45 82 96 45 83 98 45 84 101
47 86 104 48 89 107 49 91 111 51 94 114 52 97 118 54 99 122 55 102 125
57 104 129 58 106 131 46 116 41 48 140 47 55 179 67 64 115 139 78 148
208 80 151 209 82 154 210 83 156 210 84 157 204 84 152 186 82 142 154
16 46 110 16 46 110 16 46 110 16 46 110 16 46 111 16 46 111 16 46 111
16 46 111 16 46 111 16 46 112 16 47 112 16 47 112 16 47 112 16 47 112
16 47 112 16 47 113 16 47 113 16 47 113 16 47 113 16 47 113 16 47 113
16 47 114 16 47 114 16 47 114 16 47 114 16 48 114 16 48 114 16 48 114
16 48 115 16 48 115 16 48 115 16 48 115 16 48 115 16 48 115 16 48 115
16 48 116 16 48 116 16 48 116 16 48 116 17 48 116 17 48 116 17 48 116
17 48 116 17 48 116 17 48 116 17 48 116 17 49 117 17 49 117 17 49 117
17 49 117 17 49 117 17 49 117 17 49 117 17 49 117 17 49 117 17 49 117
17 49 117 17 49 117 17 49 117 17 49 117 17 49 117 17 49 117 17 49 117
17 49 117 17 49 117 17 49 117 17 49 117 17 49 117 17 49 117 17 49 117
17 49 117 17 49 117 17 49 117 17 49 117 17 49 117 17 49 117 17 49 117
17 49 117 17 49 117 17 48 117 17 48 116 17 48 116 17 48 116 17 48 116
16 48 116 16 48 116 16 48 116 16 48 116 16 48 116 16 48 116 16 48 115
16 48 115 16 48 115 16 48 115 16 48 115 16 48 115 16 48 115 16 48 115
16 48 114 16 48 114 16 48 114 16 47 114 16 47 114 16 47 114 16 47 114
16 47 113 16 47 113 16 47 113 16 47 113 16 47 113 16 47 113 16 47 112
16 47 112 16 47 112 16 47 112 16 46 112 16 46 112 16 46 111 16 46 111
16 46 111 16 46 111 16 46 111 16 46 110 16 46 110 16 46 110 16 46 110
16 46 110 16 46 109 16 45 109 15 45 109 15 45 109 15 45 109 15 45 108
15 45 108 15 45 108 15 45 108 15 45 108 15 45 107 15 45 107 15 44 107
15 44 107 15 44 107 15 44 106 15 44 106 15 44 106 15 44 106 15 44 105
15 44 105 15 44 105 15 44 105 15 44 105 15 43 104 15 43 104 15 43 104
15 43 104 15 43 104 15 43 103 15 43 103
41 68 62 39 61 45 46 82 93 47 83 95 47 83 96 47 84 97 47 84 99 48 85
100 48 86 102 50 94 122 50 95 124 51 96 126 51 97 129 51 98 131 52 99
133 52 100 136 53 101 139 53 102 142 53 103 145 45 83 98 45 84 100 45
85 102 46 86 104 47 88 107 48 90 110 50 92 112 48 83 87 49 85 89 50 86
90 55 101 124 56 103 126 45 97 35 61 142 75 48 143 49 76 145 211 78
148 213 80 152 215 82 155 216 83 157 215 84 158 210 83 153 192 80 140
153 16 48 115 16 48 115 17 48 116 17 48 116 17 48 116 17 48 116 17 49
117 17 49 117 17 49 117 17 49 117 17 49 117 17 49 118 17 49 118 17 49
118 17 49 118 17 49 118 17 49 119 17 50 119 17 50 119 17 50 119 17 50
119 17 50 120 17 50 120 17 50 120 17 50 120 17 50 120 17 50 121 17 50
121 17 50 121 17 50 121 17 50 121 17 51 121 17 51 121 17 51 122 17 51
122 17 51 122 17 51 122 17 51 122 17 51 122 17 51 122 17 51 123 17 51
123 17 51 123 17 51 123 17 51 123 18 51 123 18 51 123 18 51 123 18 51
123 18 51 123 18 51 123 18 51 123 18 51 124 18 51 124 18 51 124 18 51
124 18 51 124 18 51 124 18 51 124 18 52 124 18 52 124 18 52 124 18 52
124 18 52 124 18 52 124 18 52 124 18 51 124 18 51 124 18 51 124 18 51
124 18 51 124 18 51 124 18 51 124 18 51 123 18 51 123 18 51 123 18 51
123 18 51 123 17 51 123 17 51 123 17 51 123 17 51 123 17 51 123 17 51
123 17 51 123 17 51 122 17 51 122 17 51 122 17 51 122 17 51 122 17 51
122 17 51 122 17 51 122 17 51 121 17 50 121 17 50 121 17 50 121 17 50
121 17 50 121 17 50 121 17 50 120 17 50 120 17 50 120 17 50 120 17 50
120 17 50 119 17 50 119 17 50 119 17 49 119 17 49 119 17 49 119 17 49
118 17 49 118 17 49 118 17 49 118 17 49 118 17 49 117 17 49 117 17 49
117 17 49 117 17 48 116 17 48 116 16 48 116 16 48 116 16 48 116 16 48
115 16 48 115 16 48 115 16 48 115 16 48 114 16 48 114 16 47 114 16 47
114 16 47 113 16 47 113 16 47 113 16 47 113 16 47 113 16 47 112 16 47
112 16 47 112 16 46 112 16 46 111 16 46 111 16 46 111 16 46 111 16 46
110 16 46 110 16 46 110 16 46 110 16 46 109 16 45 109 15 45 109 15 45
109 15 45 108 15 45 108 15 45 108 15 45 108
41 69 64 39 61 45 39 61 45 47 84 99 48 85 100 48 86 102 48 86 103 48
87 105 48 88 106 51 96 128 51 97 130 52 98 132 52 99 134 52 100 137 53
101 139 53 102 141 53 103 144 54 104 147 54 105 150 55 107 153 55 108
156 56 110 159 46 85 104 46 86 106 47 88 108 49 90 111 47 80 83 48 82
85 49 84 86 50 85 87 51 86 88 53 116 94 53 113 84 73 140 207 75 144
210 77 147 213 79 150 214 80 153 215 82 155 214 83 156 209 82 151 191
77 134 141 17 50 121 17 50 121 17 51 121 17 51 122 17 51 122 17 51 122
17 51 122 18 51 123 18 51 123 18 51 123 18 51 123 18 52 124 18 52 124
18 52 124 18 52 124 18 52 125 18 52 125 18 52 125 18 52 125 18 52 126
18 52 126 18 52 126 18 53 126 18 53 126 18 53 127 18 53 127 18 53 127
18 53 127 18 53 127 18 53 128 18 53 128 18 53 128 18 53 128 18 53 128
18 53 129 18 54 129 18 54 129 18 54 129 18 54 129 18 54 129 18 54 129
18 54 130 18 54 130 18 54 130 18 54 130 18 54 130 18 54 130 19 54 130
19 54 130 19 54 130 19 54 130 19 54 130 19 54 131 19 54 131 19 54 131
19 54 131 19 54 131 19 54 131 19 54 131 19 54 131 19 54 131 19 54 131
19 54 131 19 54 131 19 54 131 19 54 131 19 54 131 19 54 131 19 54 131
19 54 131 19 54 131 19 54 131 19 54 131 19 54 131 19 54 130 19 54 130
18 54 130 18 54 130 18 54 130 18 54 130 18 54 130 18 54 130 18 54 130
18 54 130 18 54 129 18 54 129 18 54 129 18 54 129 18 54 129 18 54 129
18 54 129 18 53 128 18 53 128 18 53 128 18 53 128 18 53 128 18 53 128
18 53 127 18 53 127 18 53 127 18 53 127 18 53 127 18 53 126 18 53 126
18 52 126 18 52 126 18 52 126 18 52 125 18 52 125 18 52 125 18 52 125
18 52 125 18 52 124 18 52 124 18 52 124 18 51 124 18 51 123 17 51 123
17 51 123 17 51 123 17 51 122 17 51 122 17 51 122 17 51 122 17 50 121
17 50 121 17 50 121 17 50 121 17 50 120 17 50 120 17 50 120 17 50 120
17 50 119 17 50 119 17 49 119 17 49 119 17 49 118 17 49 118 17 49 118
17 49 117 17 49 117 17 49 117 17 49 117 17 48 116 16 48 116 16 48 116
16 48 116 16 48 115 16 48 115 16 48 115 16 48 114 16 48 114 16 47 114
16 47 114 16 47 113 16 47 113 16 47 113 16 47 113
41 70 65 39 61 45 39 61 45 39 61 45 48 86 103 48 87 105 49 88 106 49
88 108 49 89 109 52 98 133 52 99 135 52 100 137 53 101 139 53 102 141
53 103 143 54 104 145 54 105 148 54 106 150 55 107 153 55 108 156 56
109 159 56 111 162 57 112 165 57 113 168 58 115 172 59 118 176 61 120
180 63 123 184 60 113 155 62 115 157 45 69 48 46 70 48 51 87 88 67 124
169 73 141 208 75 144 210 77 148 211 79 150 212 80 152 210 81 152 204
79 146 183 18 53 127 18 53 127 18 53 127 18 53 128 18 53 128 18 53 128
18 53 128 18 54 129 18 54 129 18 54 129 18 54 130 19 54 130 19 54 130
19 54 130 19 54 131 19 55 131 19 55 131 19 55 132 19 55 132 19 55 132
19 55 132 19 55 133 19 55 133 19 55 133 19 56 133 19 56 134 19 56 134
19 56 134 19 56 134 19 56 134 19 56 135 19 56 135 19 56 135 19 56 135
19 56 135 19 56 136 19 57 136 19 57 136 19 57 136 19 57 136 19 57 137
19 57 137 19 57 137 19 57 137 19 57 137 20 57 137 20 57 137 20 57 138
20 57 138 20 57 138 20 57 138 20 57 138 20 57 138 20 57 138 20 58 138
20 58 138 20 58 138 20 58 138 20 58 138 20 58 138 20 58 138 20 58 138
20 58 138 20 58 139 20 58 139 20 58 138 20 58 138 20 58 138 20 58 138
20 58 138 20 58 138 20 58 138 20 58 138 20 57 138 20 57 138 20 57 138
20 57 138 20 57 138 20 57 138 20 57 138 19 57 138 19 57 137 19 57 137
19 57 137 19 57 137 19 57 137 19 57 137 19 57 137 19 57 136 19 57 136
19 57 136 19 57 136 19 56 136 19 56 136 19 56 135 19 56 135 19 56 135
19 56 135 19 56 134 19 56 134 19 56 134 19 56 134 19 56 134 19 55 133
19 55 133 19 55 133 19 55 133 19 55 132 19 55 132 19 55 132 19 55 132
19 55 131 19 55 131 19 54 131 19 54 131 18 54 130 18 54 130 18 54 130
18 54 129 18 54 129 18 54 129 18 54 129 18 53 128 18 53 128 18 53 128
18 53 127 18 53 127 18 53 127 18 53 127 18 53 126 18 52 126 18 52 126
18 52 125 18 52 125 18 52 125 18 52 125 18 52 124 18 52 124 18 51 124
17 51 123 17 51 123 17 51 123 17 51 122 17 51 122 17 51 122 17 51 121
17 50 121 17 50 121 17 50 121 17 50 120 17 50 120 17 50 120 17 50 119
17 50 119 17 49 119 17 49 118 17 49 118 17 49 118 17 49 118
41 70 66 41 70 66 39 61 45 39 61 45 39 61 45 49 88 107 49 89 109 49 89
110 49 90 112 50 91 113 53 101 138 53 101 140 53 102 142 53 103 144 54
104 146 54 105 148 54 106 151 55 107 153 55 108 155 56 109 158 56 110
161 56 111 163 57 112 166 57 114 169 58 115 172 59 117 175 60 119 179
61 122 182 63 124 186 64 127 190 62 115 158 63 117 162 64 120 165 66
122 168 71 138 204 73 142 206 75 145 208 77 147 208 78 149 205 78 148
198 76 139 169 19 55 133 19 55 133 19 56 134 19 56 134 19 56 134 19 56
135 19 56 135 19 56 135 19 56 136 19 57 136 19 57 136 19 57 137 20 57
137 20 57 137 20 57 138 20 57 138 20 58 138 20 58 138 20 58 139 20 58
139 20 58 139 20 58 140 20 58 140 20 58 140 20 59 141 20 59 141 20 59
141 20 59 141 20 59 142 20 59 142 20 59 142 20 59 142 20 59 143 20 59
143 20 60 143 20 60 143 20 60 144 20 60 144 20 60 144 20 60 144 21 60
144 21 60 145 21 60 145 21 60 145 21 60 145 21 60 145 21 60 145 21 61
146 21 61 146 21 61 146 21 61 146 21 61 146 21 61 146 21 61 146 21 61
146 21 61 146 21 61 146 21 61 146 21 61 147 21 61 147 21 61 147 21 61
147 21 61 147 21 61 147 21 61 147 21 61 147 21 61 147 21 61 147 21 61
147 21 61 147 21 61 146 21 61 146 21 61 146 21 61 146 21 61 146 21 61
146 21 61 146 21 61 146 21 61 146 21 61 146 21 61 145 21 60 145 21 60
145 21 60 145 21 60 145 20 60 145 20 60 145 20 60 144 20 60 144 20 60
144 20 60 144 20 60 144 20 60 143 20 60 143 20 59 143 20 59 143 20 59
142 20 59 142 20 59 142 20 59 142 20 59 141 20 59 141 20 59 141 20 58
141 20 58 140 20 58 140 20 58 140 20 58 140 20 58 139 20 58 139 20 58
139 20 58 138 20 57 138 20 57 138 19 57 137 19 57 137 19 57 137 19 57
136 19 57 136 19 56 136 19 56 136 19 56 135 19 56 135 19 56 135 19 56
134 19 56 134 19 56 134 19 55 133 19 55 133 19 55 133 19 55 132 19 55
132 19 55 132 19 55 131 19 54 131 19 54 131 18 54 130 18 54 130 18 54
129 18 54 129 18 54 129 18 53 128 18 53 128 18 53 128 18 53 127 18 53
127 18 53 127 18 53 126 18 52 126 18 52 126 18 52 125 18 52 125 18 52
125 18 52 124 18 52 124 18 51 124 18 51 123 17 51 123 17 51 123
41 70 67 41 70 67 39 61 45 39 61 45 39 61 45 39 61 45 49 90 111 50 90
112 50 91 114 50 91 115 53 102 141 53 103 143 54 103 144 54 104 146 54
105 148 54 106 150 55 107 153 55 108 155 55 109 157 56 110 159 56 111
162 57 112 164 57 113 167 57 114 170 58 115 172 58 116 175 59 118 178
60 120 181 62 122 184 63 125 187 60 114 157 62 116 160 63 118 163 64
120 166 70 135 200 72 139 202 73 141 203 75 144 203 76 145 200 76 143
189 20 58 139 20 58 139 20 58 140 20 58 140 20 59 140 20 59 141 20 59
141 20 59 142 20 59 142 20 59 142 20 59 143 20 60 143 20 60 144 21 60
144 21 60 144 21 60 145 21 60 145 21 61 145 21 61 146 21 61 146 21 61
146 21 61 147 21 61 147 21 61 148 21 62 148 21 62 148 21 62 149 21 62
149 21 62 149 21 62 149 21 62 150 21 62 150 21 63 150 21 63 151 21 63
151 21 63 151 22 63 151 22 63 152 22 63 152 22 63 152 22 63 152 22 64
153 22 64 153 22 64 153 22 64 153 22 64 154 22 64 154 22 64 154 22 64
154 22 64 154 22 64 154 22 64 155 22 64 155 22 64 155 22 64 155 22 64
155 22 65 155 22 65 155 22 65 155 22 65 155 22 65 155 22 65 155 22 65
155 22 65 155 22 65 155 22 65 155 22 65 155 22 65 155 22 65 155 22 65
155 22 65 155 22 65 155 22 65 155 22 64 155 22 64 155 22 64 155 22 64
155 22 64 155 22 64 154 22 64 154 22 64 154 22 64 154 22 64 154 22 64
154 22 64 154 22 64 153 22 64 153 22 64 153 22 64 153 22 63 152 22 63
152 21 63 152 21 63 152 21 63 152 21 63 151 21 63 151 21 63 151 21 63
150 21 62 150 21 62 150 21 62 150 21 62 149 21 62 149 21 62 149 21 62
148 21 62 148 21 61 148 21 61 147 21 61 147 21 61 147 21 61 146 21 61
146 21 61 146 21 60 145 21 60 145 20 60 145 20 60 144 20 60 144 20 60
144 20 60 143 20 59 143 20 59 142 20 59 142 20 59 142 20 59 141 20 59
141 20 58 141 20 58 140 20 58 140 20 58 139 20 58 139 20 58 139 20 58
138 20 57 138 19 57 138 19 57 137 19 57 137 19 57 136 19 57 136 19 56
136 19 56 135 19 56 135 19 56 134 19 56 134 19 56 134 19 55 133 19 55
133 19 55 133 19 55 132 19 55 132 19 55 131 19 54 131 19 54 131 18 54
130 18 54 130 18 54 130 18 54 129 18 54 129 18 53 128 18 53 128
41 71 68 41 71 68 39 61 45 39 61 45 39 61 45 39 61 45 47 81 91 47 82
92 50 92 115 50 92 117 53 103 143 54 103 145 54 104 146 54 105 148 54
106 150 55 107 152 55 107 154 55 108 156 56 109 158 56 110 160 56 111
163 57 112 165 57 113 167 57 114 170 58 115 172 58 116 175 59 117 177
59 118 180 60 120 182 62 123 185 59 112 156 60 114 159 61 116 161 63
118 163 68 133 197 70 136 198 71 138 199 73 140 198 74 141 193 72 135
172 21 61 146 21 61 146 21 61 146 21 61 147 21 61 147 21 62 148 21 62
148 21 62 149 21 62 149 21 62 150 21 62 150 21 63 151 22 63 151 22 63
151 22 63 152 22 63 152 22 64 153 22 64 153 22 64 153 22 64 154 22 64
154 22 64 155 22 65 155 22 65 156 22 65 156 22 65 156 22 65 157 22 65
157 22 66 157 22 66 158 22 66 158 23 66 159 23 66 159 23 66 159 23 66
160 23 67 160 23 67 160 23 67 160 23 67 161 23 67 161 23 67 161 23 67
162 23 67 162 23 67 162 23 68 162 23 68 163 23 68 163 23 68 163 23 68
163 23 68 163 23 68 164 23 68 164 23 68 164 23 68 164 23 68 164 23 68
164 23 68 164 23 68 165 23 68 165 23 68 165 23 69 165 23 69 165 23 69
165 23 69 165 23 69 165 23 69 165 23 69 165 23 69 165 23 69 165 23 68
165 23 68 165 23 68 165 23 68 164 23 68 164 23 68 164 23 68 164 23 68
164 23 68 164 23 68 164 23 68 164 23 68 163 23 68 163 23 68 163 23 68
163 23 68 163 23 68 162 23 67 162 23 67 162 23 67 162 23 67 161 23 67
161 23 67 161 23 67 160 23 67 160 23 66 160 23 66 160 22 66 159 22 66
159 22 66 159 22 66 158 22 66 158 22 66 158 22 65 157 22 65 157 22 65
156 22 65 156 22 65 156 22 65 155 22 64 155 22 64 155 22 64 154 22 64
154 22 64 153 22 64 153 22 63 153 22 63 152 21 63 152 21 63 151 21 63
151 21 63 151 21 62 150 21 62 150 21 62 149 21 62 149 21 62 148 21 62
148 21 61 148 21 61 147 21 61 147 21 61 146 21 61 146 21 60 145 21 60
145 20 60 145 20 60 144 20 60 144 20 60 143 20 59 143 20 59 142 20 59
142 20 59 142 20 59 141 20 58 141 20 58 140 20 58 140 20 58 139 20 58
139 20 58 139 20 57 138 20 57 138 19 57 137 19 57 137 19 57 136 19 57
136 19 56 136 19 56 135 19 56 135 19 56 134 19 56 134 19 56 134
41 71 69 41 71 69 41 71 69 39 61 45 39 61 45 39 61 45 39 61 45 47 82
93 47 83 94 48 83 94 54 104 145 54 104 146 54 105 148 54 106 150 55
106 152 55 107 153 55 108 155 56 109 157 56 110 159 56 110 161 56 111
163 57 112 165 57 113 167 57 114 170 58 115 172 58 116 174 58 117 176
59 118 178 59 119 181 60 121 183 61 122 186 59 112 157 60 114 159 61
115 161 62 118 163 64 121 165 66 124 166 67 126 166 71 135 183 22 63
152 22 64 153 22 64 153 22 64 154 22 64 154 22 64 155 22 65 155 22 65
156 22 65 156 22 65 157 22 65 157 22 66 158 23 66 158 23 66 159 23 66
159 23 66 160 23 67 160 23 67 161 23 67 161 23 67 162 23 67 162 23 68
163 23 68 163 23 68 163 23 68 164 23 68 164 23 69 165 23 69 165 24 69
166 24 69 166 24 69 167 24 70 167 24 70 167 24 70 168 24 70 168 24 70
169 24 70 169 24 70 169 24 71 170 24 71 170 24 71 170 24 71 171 24 71
171 24 71 171 24 71 172 24 72 172 24 72 172 24 72 173 24 72 173 24 72
173 24 72 173 25 72 173 25 72 174 25 72 174 25 72 174 25 72 174 25 73
174 25 73 174 25 73 175 25 73 175 25 73 175 25 73 175 25 73 175 25 73
175 25 73 175 25 73 175 25 73 175 25 73 175 25 73 175 25 73 175 25 73
175 25 73 175 25 73 175 25 73 175 25 73 174 25 72 174 25 72 174 25 72
174 25 72 174 24 72 174 24 72 173 24 72 173 24 72 173 24 72 173 24 72
173 24 72 172 24 71 172 24 71 172 24 71 171 24 71 171 24 71 171 24 71
170 24 71 170 24 71 170 24 70 169 24 70 169 24 70 169 24 70 168 24 70
168 24 70 168 24 69 167 24 69 167 23 69 166 23 69 166 23 69 166 23 69
165 23 68 165 23 68 164 23 68 164 23 68 163 23 68 163 23 68 162 23 67
162 23 67 162 23 67 161 23 67 161 23 67 160 23 66 160 22 66 159 22 66
159 22 66 158 22 66 158 22 65 157 22 65 157 22 65 156 22 65 156 22 65
155 22 64 155 22 64 154 22 64 154 22 64 153 22 64 153 22 63 152 21 63
152 21 63 151 21 63 151 21 63 150 21 62 150 21 62 149 21 62 149 21 62
149 21 62 148 21 61 148 21 61 147 21 61 147 21 61 146 21 61 146 21 60
145 20 60 145 20 60 144 20 60 144 20 60 143 20 59 143 20 59 142 20 59
142 20 59 141 20 59 141 20 58 141 20 58 140 20 58 140 20 58 139
41 71 69 41 71 69 41 71 69 41 71 69 39 61 45 39 61 45 39 61 45 39 61
45 48 83 94 48 84 95 51 94 122 51 95 123 54 105 149 55 106 151 55 107
153 55 108 154 55 108 156 56 109 158 56 110 160 56 111 162 56 111 164
57 112 165 57 113 167 57 114 169 58 115 171 58 116 173 58 116 175 59
117 177 55 106 149 55 107 151 56 108 153 57 110 155 58 111 157 59 113
159 61 115 161 62 118 162 64 121 162 65 122 160 65 122 154 23 66 159
23 67 160 23 67 160 23 67 161 23 67 161 23 68 162 23 68 163 23 68 163
23 68 164 23 68 164 24 69 165 24 69 166 24 69 166 24 69 167 24 70 167
24 70 168 24 70 168 24 70 169 24 71 170 24 71 170 24 71 171 24 71 171
24 71 172 24 72 172 25 72 173 25 72 173 25 72 174 25 73 174 25 73 175
25 73 175 25 73 176 25 73 176 25 74 177 25 74 177 25 74 178 25 74 178
25 74 179 25 75 179 25 75 180 25 75 180 26 75 180 26 75 181 26 75 181
26 76 182 26 76 182 26 76 182 26 76 183 26 76 183 26 76 183 26 76 184
26 76 184 26 77 184 26 77 184 26 77 185 26 77 185 26 77 185 26 77 185
26 77 185 26 77 185 26 77 186 26 77 186 26 77 186 26 77 186 26 77 186
26 77 186 26 77 186 26 77 186 26 77 186 26 77 186 26 77 186 26 77 186
26 77 186 26 77 185 26 77 185 26 77 185 26 77 185 26 77 185 26 77 185
26 77 184 26 77 184 26 76 184 26 76 184 26 76 184 26 76 183 26 76 183
26 76 183 26 76 182 26 76 182 26 75 182 26 75 181 25 75 181 25 75 180
25 75 180 25 75 180 25 75 179 25 74 179 25 74 178 25 74 178 25 74 178
25 74 177 25 73 177 25 73 176 25 73 176 25 73 175 25 73 175 25 72 174
24 72 174 24 72 173 24 72 173 24 72 172 24 71 172 24 71 171 24 71 171
24 71 170 24 70 169 24 70 169 24 70 168 24 70 168 24 70 167 24 69 167
23 69 166 23 69 166 23 69 165 23 68 165 23 68 164 23 68 163 23 68 163
23 68 162 23 67 162 23 67 161 23 67 161 23 67 160 23 66 160 22 66 159
22 66 159 22 66 158 22 65 157 22 65 157 22 65 156 22 65 156 22 65 155
22 64 155 22 64 154 22 64 154 22 64 153 22 63 153 22 63 152 21 63 152
21 63 151 21 63 151 21 62 150 21 62 149 21 62 149 21 62 148 21 62 148
21 61 147 21 61 147 21 61 146 21 61 146 21 60 145 21 60 145
41 72 70 41 72 70 41 72 70 41 72 70 41 72 70 39 61 45 39 61 45 39 61
45 39 61 45 51 94 122 51 95 123 51 95 125 51 96 126 52 96 127 52 97
128 52 97 129 52 98 131 52 99 132 56 110 160 56 111 162 57 111 164 57
112 165 54 102 139 54 102 141 54 103 142 54 104 144 55 104 145 55 105
147 55 106 149 55 106 150 56 107 152 56 108 153 57 109 155 58 110 156
59 113 158 61 115 159 62 117 158 61 115 147 24 69 166 24 69 166 24 70
167 24 70 168 24 70 168 24 70 169 24 71 170 24 71 170 24 71 171 24 72
172 25 72 172 25 72 173 25 72 174 25 73 174 25 73 175 25 73 176 25 73
176 25 74 177 25 74 178 25 74 178 25 74 179 26 75 180 26 75 180 26 75
181 26 76 181 26 76 182 26 76 183 26 76 183 26 77 184 26 77 184 26 77
185 26 77 186 26 78 186 26 78 187 27 78 187 27 78 188 27 78 188 27 79
189 27 79 190 27 79 190 27 79 191 27 79 191 27 80 191 27 80 192 27 80
192 27 80 193 27 80 193 27 81 194 27 81 194 27 81 194 27 81 195 27 81
195 28 81 195 28 81 196 28 81 196 28 82 196 28 82 196 28 82 197 28 82
197 28 82 197 28 82 197 28 82 197 28 82 197 28 82 197 28 82 198 28 82
198 28 82 198 28 82 198 28 82 198 28 82 198 28 82 197 28 82 197 28 82
197 28 82 197 28 82 197 28 82 197 28 82 197 28 82 196 28 82 196 28 81
196 27 81 196 27 81 195 27 81 195 27 81 195 27 81 194 27 81 194 27 80
194 27 80 193 27 80 193 27 80 192 27 80 192 27 80 192 27 79 191 27 79
191 27 79 190 27 79 190 27 79 189 27 78 189 26 78 188 26 78 188 26 78
187 26 78 187 26 77 186 26 77 185 26 77 185 26 77 184 26 76 184 26 76
183 26 76 182 26 76 182 26 75 181 25 75 181 25 75 180 25 75 179 25 74
179 25 74 178 25 74 178 25 74 177 25 73 176 25 73 176 25 73 175 25 73
175 25 72 174 24 72 173 24 72 173 24 72 172 24 71 171 24 71 171 24 71
170 24 70 170 24 70 169 24 70 168 24 70 168 24 69 167 24 69 167 23 69
166 23 69 165 23 68 165 23 68 164 23 68 163 23 68 163 23 67 162 23 67
162 23 67 161 23 67 160 23 66 160 23 66 159 22 66 159 22 66 158 22 66
158 22 65 157 22 65 156 22 65 156 22 65 155 22 64 155 22 64 154 22 64
154 22 64 153 22 63 152 21 63 152 21 63 151 21 63 151
18 52 124 42 72 71 42 72 71 42 72 71 42 72 71 42 72 71 42 72 71 39 61
45 42 72 71 42 72 71 51 95 125 51 96 126 52 96 127 52 97 128 52 97 129
52 98 130 52 98 131 53 99 133 53 99 134 53 100 135 53 101 137 53 101
138 54 102 139 54 102 141 54 103 142 54 104 144 55 104 145 55 105 147
55 105 148 55 106 149 55 107 151 55 107 152 56 107 153 56 108 154 57
110 155 58 112 155 59 112 148 25 72 172 25 72 173 25 72 174 25 73 175
25 73 175 25 73 176 25 74 177 25 74 178 25 74 178 26 75 179 26 75 180
26 75 181 26 76 181 26 76 182 26 76 183 26 76 184 26 77 184 26 77 185
26 77 186 27 78 187 27 78 187 27 78 188 27 79 189 27 79 190 27 79 190
27 79 191 27 80 192 27 80 192 27 80 193 27 81 194 28 81 195 28 81 195
28 82 196 28 82 197 28 82 197 28 82 198 28 83 199 28 83 199 28 83 200
28 83 200 28 84 201 28 84 202 29 84 202 29 84 203 29 85 203 29 85 204
29 85 204 29 85 205 29 85 205 29 86 206 29 86 206 29 86 207 29 86 207
29 86 207 29 86 208 29 87 208 29 87 208 29 87 209 29 87 209 29 87 209
29 87 209 29 87 210 29 87 210 29 87 210 29 87 210 29 87 210 29 87 210
29 87 210 29 87 210 29 87 210 29 87 210 29 87 210 29 87 210 29 87 210
29 87 210 29 87 209 29 87 209 29 87 209 29 87 209 29 87 208 29 86 208
29 86 208 29 86 207 29 86 207 29 86 207 29 86 206 29 86 206 29 85 205
29 85 205 29 85 204 29 85 204 29 85 203 28 84 203 28 84 202 28 84 202
28 84 201 28 83 201 28 83 200 28 83 199 28 83 199 28 82 198 28 82 198
28 82 197 28 82 196 27 81 196 27 81 195 27 81 194 27 80 194 27 80 193
27 80 192 27 80 192 27 79 191 27 79 190 27 79 189 27 78 189 26 78 188
26 78 187 26 78 187 26 77 186 26 77 185 26 77 185 26 76 184 26 76 183
26 76 182 26 76 182 26 75 181 25 75 180 25 75 180 25 74 179 25 74 178
25 74 178 25 74 177 25 73 176 25 73 175 25 73 175 25 72 174 24 72 173
24 72 173 24 72 172 24 71 171 24 71 171 24 71 170 24 70 169 24 70 169
24 70 168 24 70 167 24 69 167 23 69 166 23 69 165 23 69 165 23 68 164
23 68 164 23 68 163 23 67 162 23 67 162 23 67 161 23 67 160 23 66 160
23 66 159 22 66 159 22 66 158 22 65 157 22 65 157
19 54 129 19 54 129 42 72 71 42 72 71 42 72 71 42 72 71 42 72 71 42 72
72 42 72 72 42 72 72 42 73 72 42 73 72 52 97 127 52 97 129 52 98 130
52 98 131 52 99 132 53 99 133 53 100 134 53 100 136 53 101 137 53 101
138 54 102 139 54 102 141 54 103 142 54 103 143 54 104 145 55 105 146
55 105 147 55 106 149 55 106 150 55 106 151 55 107 152 55 107 152 56
109 152 57 109 147 26 75 179 26 75 180 26 75 181 26 76 182 26 76 182
26 76 183 26 77 184 26 77 185 27 77 186 27 78 186 27 78 187 27 78 188
27 79 189 27 79 190 27 79 191 27 80 192 27 80 192 28 80 193 28 81 194
28 81 195 28 82 196 28 82 197 28 82 197 28 83 198 28 83 199 28 83 200
28 84 201 29 84 202 29 84 202 29 85 203 29 85 204 29 85 205 29 86 206
29 86 206 29 86 207 29 87 208 30 87 209 30 87 210 30 88 210 30 88 211
30 88 212 30 88 213 30 89 213 30 89 214 30 89 215 30 89 215 30 90 216
30 90 216 31 90 217 31 90 218 31 91 218 31 91 219 31 91 219 31 91 220
31 91 220 31 92 221 31 92 221 31 92 221 31 92 222 31 92 222 31 92 222
31 92 223 31 93 223 31 93 223 31 93 223 31 93 223 31 93 223 31 93 223
31 93 223 31 93 223 31 93 223 31 93 223 31 93 223 31 93 223 31 93 223
31 93 223 31 92 223 31 92 222 31 92 222 31 92 222 31 92 221 31 92 221
31 92 221 31 91 220 31 91 220 31 91 219 31 91 219 31 91 218 30 90 218
30 90 217 30 90 217 30 90 216 30 89 215 30 89 215 30 89 214 30 89 213
30 88 213 30 88 212 30 88 211 30 88 211 29 87 210 29 87 209 29 87 208
29 86 208 29 86 207 29 86 206 29 85 205 29 85 205 29 85 204 29 84 203
28 84 202 28 84 202 28 83 201 28 83 200 28 83 199 28 82 198 28 82 198
28 82 197 28 81 196 27 81 195 27 81 194 27 80 194 27 80 193 27 80 192
27 79 191 27 79 190 27 79 190 27 78 189 26 78 188 26 78 187 26 77 186
26 77 186 26 77 185 26 77 184 26 76 183 26 76 183 26 76 182 26 75 181
25 75 180 25 75 180 25 74 179 25 74 178 25 74 177 25 73 177 25 73 176
25 73 175 25 73 174 25 72 174 24 72 173 24 72 172 24 71 172 24 71 171
24 71 170 24 70 170 24 70 169 24 70 168 24 70 168 24 69 167 23 69 166
23 69 166 23 69 165 23 68 164 23 68 164 23 68 163
20 56 133 20 56 133 20 56 134 42 73 72 42 72 72 42 72 72 42 73 72 42
73 72 42 73 72 42 73 72 42 73 73 42 73 73 42 73 73 52 97 129 52 98 130
52 98 131 52 99 132 53 99 134 53 100 135 53 100 136 53 101 137 53 101
138 54 102 139 54 102 141 54 103 142 54 103 143 54 104 144 55 104 146
55 105 147 55 105 148 55 106 149 55 106 149 55 106 150 55 106 149 56
106 144 23 65 156 23 66 157 23 66 158 23 66 158 27 79 189 27 79 190 27
80 191 27 80 192 28 80 193 28 81 194 28 81 195 28 82 196 28 82 197 28
82 198 28 83 198 28 83 199 29 83 200 29 84 201 29 84 202 29 85 203 29
85 204 29 85 205 29 86 206 29 86 207 30 87 208 30 87 209 30 87 210 30
88 211 30 88 212 30 89 213 30 89 214 30 89 215 31 90 216 31 90 216 31
90 217 31 91 218 31 91 219 31 92 220 31 92 221 31 92 222 31 93 223 32
93 224 32 93 224 32 94 225 32 94 226 32 94 227 32 95 228 32 95 228 32
95 229 32 95 230 32 96 230 32 96 231 33 96 232 33 97 232 33 97 233 33
97 233 33 97 234 33 97 234 33 98 235 33 98 235 33 98 236 33 98 236 33
98 236 33 98 237 33 98 237 33 98 237 33 99 237 33 99 237 33 99 237 33
99 237 33 99 237 33 99 237 33 99 237 33 98 237 33 98 237 33 98 237 33
98 237 33 98 236 33 98 236 33 98 236 33 98 235 33 98 235 33 97 234 33
97 234 33 97 234 33 97 233 32 96 232 32 96 232 32 96 231 32 96 231 32
95 230 32 95 229 32 95 229 32 95 228 32 94 227 32 94 226 32 94 226 31
93 225 31 93 224 31 93 223 31 92 222 31 92 221 31 92 221 31 91 220 31
91 219 31 91 218 30 90 217 30 90 216 30 89 215 30 89 214 30 89 214 30
88 213 30 88 212 30 88 211 29 87 210 29 87 209 29 86 208 29 86 207 29
86 206 29 85 205 29 85 205 29 85 204 28 84 203 28 84 202 28 83 201 28
83 200 28 83 199 28 82 198 28 82 197 28 82 197 28 81 196 27 81 195 27
81 194 27 80 193 27 80 192 27 80 191 27 79 191 27 79 190 27 78 189 26
78 188 26 78 187 26 77 186 26 77 186 26 77 185 26 76 184 26 76 183 26
76 182 26 75 182 26 75 181 25 75 180 25 75 179 25 74 179 25 74 178 25
74 177 25 73 176 25 73 176 25 73 175 25 72 174 24 72 173 24 72 173 24
71 172 24 71 171 24 71 170 24 71 170 24 70 169
20 58 137 20 58 138 20 58 138 21 58 139 42 73 73 42 73 73 42 73 73 42
73 73 42 73 73 42 73 73 42 73 73 42 73 73 42 73 73 42 73 74 52 98 131
52 98 132 53 99 133 53 99 134 53 100 135 53 100 136 53 101 137 53 101
138 54 102 139 54 102 141 54 103 142 54 103 143 54 104 144 54 104 145
55 104 146 55 105 147 55 105 147 55 105 147 54 104 146 54 102 134 24
68 161 24 68 162 24 68 163 24 69 164 24 69 165 24 69 166 24 70 166 28
83 199 29 83 200 29 84 201 29 84 202 29 85 203 29 85 204 29 85 205 29
86 206 30 86 207 30 87 208 30 87 209 30 88 210 30 88 211 30 88 212 30
89 213 31 89 214 31 90 216 31 90 217 31 91 218 31 91 219 31 92 220 31
92 221 31 92 222 32 93 223 32 93 224 32 94 225 32 94 226 32 95 227 32
95 228 32 95 229 33 96 230 33 96 231 33 97 232 33 97 233 33 98 234 33
98 235 33 98 236 33 99 237 34 99 238 34 99 239 34 100 240 34 100 241
34 101 242 34 101 243 34 101 243 34 101 244 34 102 245 34 102 246 34
102 246 35 103 247 35 103 248 35 103 248 35 103 249 35 104 249 35 104
250 35 104 250 35 104 250 35 104 251 35 104 251 35 104 251 35 104 252
35 104 252 35 105 252 35 105 252 35 105 252 35 105 252 35 104 252 35
104 252 35 104 251 35 104 251 35 104 251 35 104 251 35 104 250 35 104
250 35 103 249 35 103 249 35 103 248 35 103 248 34 103 247 34 102 247
34 102 246 34 102 245 34 101 244 34 101 244 34 101 243 34 101 242 34
100 241 34 100 240 33 99 240 33 99 239 33 99 238 33 98 237 33 98 236
33 98 235 33 97 234 33 97 233 32 96 232 32 96 231 32 96 230 32 95 229
32 95 228 32 94 227 32 94 226 32 93 225 31 93 224 31 93 223 31 92 222
31 92 221 31 91 220 31 91 219 31 91 218 30 90 217 30 90 216 30 89 215
30 89 214 30 88 213 30 88 212 30 88 211 29 87 210 29 87 209 29 86 208
29 86 207 29 86 206 29 85 205 29 85 204 29 84 203 28 84 202 28 84 201
28 83 200 28 83 199 28 82 199 28 82 198 28 82 197 28 81 196 27 81 195
27 81 194 27 80 193 27 80 192 27 80 191 27 79 191 27 79 190 27 78 189
26 78 188 26 78 187 26 77 186 26 77 185 26 77 185 26 76 184 26 76 183
26 76 182 26 75 181 25 75 181 25 75 180 25 74 179 25 74 178 25 74 178
25 73 177 25 73 176 25 73 175
21 59 141 21 60 142 21 60 143 21 60 143 21 60 144 21 61 145 42 73 73
42 73 73 42 73 73 42 73 73 42 73 74 42 73 74 42 73 74 42 73 74 42 73
74 52 99 132 53 99 133 53 99 134 53 100 135 53 100 136 53 101 137 53
101 138 54 102 139 54 102 140 54 102 141 54 103 142 54 103 143 54 104
144 54 104 145 54 104 145 54 104 145 54 103 142 24 70 166 25 70 167 25
70 167 25 71 168 25 71 169 25 71 170 25 72 171 25 72 172 25 73 173 26
73 174 26 73 175 26 74 176 30 88 210 30 88 211 30 88 212 30 89 213 31
89 214 31 90 216 31 90 217 31 91 218 31 91 219 31 92 220 32 92 221 32
93 223 32 93 224 32 94 225 32 94 226 32 95 227 32 95 228 33 96 230 33
96 231 33 97 232 33 97 233 33 98 234 33 98 236 34 99 237 34 99 238 34
100 239 34 100 240 34 100 241 34 101 243 34 101 244 35 102 245 35 102
246 35 103 247 35 103 248 35 104 249 35 104 250 35 105 251 35 105 253
36 105 254 36 106 254 36 106 255 36 107 255 36 107 255 36 107 255 36
108 255 36 108 255 36 108 255 37 109 255 37 109 255 37 109 255 37 109
255 37 109 255 37 110 255 37 110 255 37 110 255 37 110 255 37 110 255
37 110 255 37 110 255 37 110 255 37 111 255 37 111 255 37 110 255 37
110 255 37 110 255 37 110 255 37 110 255 37 110 255 37 110 255 37 110
255 37 110 255 37 109 255 37 109 255 36 109 255 36 109 255 36 108 255
36 108 255 36 108 255 36 107 255 36 107 255 36 107 255 36 106 255 36
106 255 35 105 254 35 105 253 35 105 252 35 104 251 35 104 250 35 103
249 35 103 248 34 102 247 34 102 246 34 102 245 34 101 244 34 101 242
34 100 241 34 100 240 33 99 239 33 99 238 33 98 237 33 98 236 33 97
235 33 97 233 33 96 232 32 96 231 32 96 230 32 95 229 32 95 228 32 94
227 32 94 226 31 93 224 31 93 223 31 92 222 31 92 221 31 91 220 31 91
219 31 90 218 30 90 217 30 90 216 30 89 215 30 89 214 30 88 213 30 88
212 30 87 210 29 87 209 29 87 208 29 86 207 29 86 206 29 85 205 29 85
204 29 85 204 29 84 203 28 84 202 28 83 201 28 83 200 28 83 199 28 82
198 28 82 197 28 81 196 27 81 195 27 81 194 27 80 193 27 80 192 27 80
191 27 79 191 27 79 190 27 78 189 27 78 188 26 78 187 26 77 186 26 77
186 26 77 185 26 76 184 26 76 183 26 76 182 26 75 181
22 61 145 22 61 146 22 62 147 22 62 148 22 62 148 22 63 149 22 63 150
50 92 117 42 73 74 42 73 74 42 73 74 42 73 74 42 73 74 42 74 75 42 74
75 42 74 75 42 74 75 53 99 134 53 100 135 53 100 136 53 101 137 53 101
138 53 101 139 54 102 140 54 102 141 54 103 142 54 103 142 54 103 143
54 103 143 54 102 141 25 71 170 25 72 171 25 72 172 25 72 172 26 73
173 26 73 174 26 74 175 26 74 176 26 74 177 26 75 178 26 75 179 27 76
180 27 76 181 27 77 183 27 77 184 27 77 185 27 78 186 32 92 221 32 93
223 32 93 224 32 94 225 32 94 226 33 95 228 33 95 229 33 96 230 33 96
231 33 97 233 33 97 234 34 98 235 34 99 237 34 99 238 34 100 239 34
100 240 34 101 242 35 101 243 35 102 244 35 102 246 35 103 247 35 103
248 35 104 250 35 104 251 36 105 252 36 105 253 36 106 255 36 107 255
36 107 255 36 108 255 37 108 255 37 109 255 37 109 255 37 109 255 37
110 255 37 110 255 37 111 255 38 111 255 38 112 255 38 112 255 38 113
255 38 113 255 38 113 255 1 188 52 2 121 36 4 130 41 2 136 41 4 152 61
39 115 255 39 115 255 39 116 255 39 116 255 39 116 255 39 116 255 39
116 255 39 116 255 39 116 255 39 116 255 39 116 255 39 116 255 39 116
255 39 116 255 39 116 255 39 116 255 39 116 255 39 116 255 39 115 255
39 115 255 38 115 255 38 115 255 38 114 255 38 114 255 38 114 255 38
113 255 38 113 255 38 113 255 38 112 255 37 112 255 37 111 255 37 111
255 37 111 255 37 110 255 37 110 255 37 109 255 36 109 255 36 108 255
36 108 255 36 107 255 36 107 255 36 106 255 36 106 255 35 105 253 35
105 252 35 104 251 35 104 250 35 103 248 35 103 247 34 102 246 34 102
245 34 101 243 34 101 242 34 100 241 34 100 240 33 99 239 33 99 237 33
98 236 33 98 235 33 97 234 33 97 232 32 96 231 32 96 230 32 95 229 32
95 228 32 94 227 32 94 225 31 93 224 31 93 223 31 92 222 31 92 221 31
91 220 31 91 219 31 90 218 30 90 216 30 89 215 30 89 214 30 89 213 30
88 212 30 88 211 30 87 210 29 87 209 29 86 208 29 86 207 29 86 206 29
85 205 29 85 204 29 84 203 28 84 202 28 84 201 28 83 200 28 83 199 28
82 198 28 82 197 28 82 196 28 81 196 27 81 195 27 80 194 27 80 193 27
80 192 27 79 191 27 79 190 27 79 189 27 78 188 26 78 188
22 63 150 22 63 150 22 63 151 23 64 152 23 64 152 23 64 153 23 65 154
23 65 155 23 65 156 23 66 156 42 74 75 42 74 75 42 74 75 42 74 75 42
74 75 42 74 76 42 74 76 42 74 76 53 100 135 53 100 136 53 101 137 53
101 138 53 101 138 53 102 139 53 102 140 54 102 140 53 102 140 53 101
138 26 73 173 26 73 174 26 74 175 26 74 176 26 74 177 26 75 178 26 75
179 27 76 180 27 76 181 27 77 182 27 77 183 27 77 184 27 78 186 28 78
187 28 79 188 28 79 189 28 80 190 28 80 191 28 81 192 28 81 193 29 82
195 29 82 196 33 97 233 34 98 235 34 98 236 34 99 237 34 99 239 34 100
240 34 101 241 35 101 243 35 102 244 35 102 245 35 103 247 35 103 248
36 104 250 36 105 251 36 105 252 36 106 254 36 106 255 36 107 255 37
107 255 37 108 255 37 109 255 37 109 255 37 110 255 37 110 255 38 111
255 38 111 255 38 112 255 38 113 255 38 113 255 38 114 255 39 114 255
39 115 255 39 115 255 39 116 255 39 116 255 39 117 255 39 117 255 1
164 45 1 181 50 0 94 27 1 99 29 1 105 30 1 112 32 1 119 35 6 131 44 34
171 89 37 182 95 5 167 72 41 121 255 41 121 255 41 121 255 41 121 255
41 121 255 41 122 255 41 122 255 41 122 255 41 122 255 41 121 255 41
121 255 41 121 255 41 121 255 41 121 255 40 121 255 40 121 255 40 120
255 40 120 255 40 120 255 40 119 255 40 119 255 40 119 255 40 118 255
40 118 255 39 118 255 39 117 255 39 117 255 39 116 255 39 116 255 39
115 255 39 115 255 38 114 255 38 114 255 38 113 255 38 113 255 38 112
255 38 112 255 37 111 255 37 111 255 37 110 255 37 110 255 37 109 255
36 108 255 36 108 255 36 107 255 36 107 255 36 106 255 36 106 254 35
105 253 35 105 252 35 104 250 35 103 249 35 103 248 35 102 246 34 102
245 34 101 244 34 101 243 34 100 241 34 100 240 33 99 239 33 99 237 33
98 236 33 98 235 33 97 234 33 97 232 32 96 231 32 96 230 32 95 229 32
95 228 32 94 227 32 94 225 32 93 224 31 93 223 31 92 222 31 92 221 31
91 220 31 91 219 31 90 217 30 90 216 30 89 215 30 89 214 30 89 213 30
88 212 30 88 211 30 87 210 29 87 209 29 86 208 29 86 207 29 86 206 29
85 205 29 85 204 29 84 203 28 84 202 28 84 201 28 83 200 28 83 199 28
82 198 28 82 197 28 82 196 28 81 196 27 81 195 27 81 194
23 65 153 23 65 154 23 65 155 23 65 156 23 66 157 23 66 157 24 66 158
24 67 159 24 67 160 24 68 161 24 68 162 24 68 162 24 69 163 51 96 127
42 74 76 42 74 76 42 74 76 42 74 77 42 75 77 53 100 135 53 100 136 53
100 136 53 100 137 53 100 136 52 99 134 26 74 175 26 74 176 26 74 177
26 75 178 27 75 179 27 76 180 27 76 181 27 77 183 27 77 184 27 78 185
28 78 186 28 78 187 28 79 188 28 79 189 28 80 190 28 80 191 28 81 193
29 81 194 29 82 195 29 82 196 29 83 197 29 83 198 29 84 200 30 84 201
30 85 202 30 85 203 30 86 205 35 102 244 35 102 245 35 103 247 35 103
248 36 104 249 36 105 251 36 105 252 36 106 254 36 106 255 37 107 255
37 108 255 37 108 255 37 109 255 37 109 255 38 110 255 38 111 255 38
111 255 38 112 255 38 112 255 39 113 255 39 114 255 39 114 255 39 115
255 39 115 255 39 116 255 40 117 255 40 117 255 40 118 255 40 118 255
40 119 255 40 119 255 41 120 255 41 120 255 1 148 41 1 150 42 0 73 21
9 155 99 9 166 104 0 92 26 1 97 28 1 102 29 1 107 31 1 114 33 1 121 35
1 129 37 3 140 43 5 153 50 42 126 255 42 126 255 42 126 255 42 126 255
42 126 255 42 126 255 42 126 255 42 126 255 42 126 255 42 126 255 42
126 255 42 126 255 42 126 255 42 125 255 42 125 255 42 125 255 42 125
255 42 124 255 42 124 255 41 124 255 41 123 255 41 123 255 41 122 255
41 122 255 41 122 255 41 121 255 40 121 255 40 120 255 40 120 255 40
119 255 40 119 255 40 118 255 39 117 255 39 117 255 39 116 255 39 116
255 39 115 255 39 115 255 38 114 255 38 113 255 38 113 255 38 112 255
38 112 255 37 111 255 37 111 255 37 110 255 37 109 255 37 109 255 36
108 255 36 108 255 36 107 255 36 106 255 36 106 255 36 105 254 35 105
252 35 104 251 35 104 250 35 103 248 35 103 247 34 102 246 34 101 244
34 101 243 34 100 242 34 100 240 34 99 239 33 99 238 33 98 237 33 98
235 33 97 234 33 97 233 33 96 232 32 96 230 32 95 229 32 95 228 32 94
227 32 94 226 32 93 225 31 93 223 31 92 222 31 92 221 31 91 220 31 91
219 31 91 218 31 90 217 30 90 216 30 89 215 30 89 214 30 88 213 30 88
212 30 87 210 30 87 209 29 87 208 29 86 207 29 86 206 29 85 205 29 85
205 29 85 204 29 84 203 28 84 202 28 83 201 28 83 200
23 66 157 24 66 158 24 67 159 24 67 160 24 67 161 24 68 161 24 68 162
24 69 163 24 69 164 25 69 165 25 70 166 25 70 167 25 70 167 25 71 168
25 71 169 25 72 170 26 72 171 26 72 172 26 73 173 26 73 174 26 74 175
26 74 176 26 74 177 27 75 178 27 75 179 27 76 180 27 76 181 27 77 182
27 77 183 27 77 184 28 78 185 28 78 186 28 79 188 28 79 189 28 80 190
28 80 191 29 81 192 29 81 193 29 82 194 29 82 196 29 83 197 29 83 198
30 84 199 30 84 200 30 85 202 30 85 203 30 86 204 30 86 205 31 87 207
31 87 208 31 88 209 31 88 211 31 89 212 31 89 213 36 106 254 37 107
255 37 107 255 37 108 255 37 108 255 37 109 255 38 110 255 38 110 255
38 111 255 38 112 255 38 112 255 39 113 255 39 113 255 39 114 255 39
115 255 39 115 255 40 116 255 40 117 255 40 117 255 40 118 255 40 118
255 41 119 255 41 120 255 41 120 255 41 121 255 41 121 255 41 122 255
42 122 255 42 123 255 42 124 255 1 126 35 1 128 35 3 161 64 6 126 72 7
135 77 0 86 25 0 92 26 8 122 29 8 126 31 8 131 32 8 137 34 9 143 35 10
153 36 1 126 36 1 135 39 1 145 42 16 206 155 44 130 255 44 130 255 44
130 255 44 130 255 44 130 255 44 130 255 44 130 255 44 130 255 44 130
255 44 130 255 43 129 255 43 129 255 43 129 255 43 129 255 43 128 255
43 128 255 43 128 255 43 127 255 43 127 255 43 127 255 42 126 255 42
126 255 42 125 255 42 125 255 42 124 255 42 124 255 41 123 255 41 123
255 41 122 255 41 122 255 41 121 255 41 121 255 40 120 255 40 119 255
40 119 255 40 118 255 40 118 255 39 117 255 39 116 255 39 116 255 39
115 255 39 115 255 38 114 255 38 113 255 38 113 255 38 112 255 38 112
255 37 111 255 37 110 255 37 110 255 37 109 255 37 109 255 37 108 255
36 107 255 36 107 255 36 106 255 36 106 255 36 105 253 35 105 252 35
104 250 35 103 249 35 103 248 35 102 246 34 102 245 34 101 244 34 101
243 34 100 241 34 100 240 34 99 239 33 99 238 33 98 236 33 98 235 33
97 234 33 97 233 33 96 231 32 96 230 32 95 229 32 95 228 32 94 227 32
94 226 32 93 225 31 93 223 31 92 222 31 92 221 31 91 220 31 91 219 31
91 218 31 90 217 30 90 216 30 89 215 30 89 214 30 88 213 30 88 212 30
88 211 30 87 210 29 87 209 29 86 208 29 86 207 29 85 206
24 68 161 24 68 162 24 68 163 24 69 163 25 69 164 25 69 165 25 70 166
25 70 167 25 71 168 25 71 169 25 71 170 25 72 171 26 72 172 26 73 172
26 73 173 26 73 174 26 74 175 26 74 176 26 75 177 27 75 178 27 75 179
27 76 180 27 76 181 27 77 182 27 77 184 28 78 185 28 78 186 28 79 187
28 79 188 28 79 189 28 80 190 28 80 191 29 81 192 29 81 194 29 82 195
29 82 196 29 83 197 29 83 198 30 84 199 30 84 201 30 85 202 30 85 203
30 86 204 31 86 206 31 87 207 31 87 208 31 88 209 31 89 211 31 89 212
32 90 213 32 90 215 32 91 216 32 91 217 32 92 219 33 92 220 33 93 221
38 110 255 38 111 255 38 111 255 39 112 255 39 113 255 39 113 255 39
114 255 39 114 255 40 115 255 40 116 255 40 116 255 40 117 255 40 118
255 41 118 255 41 119 255 41 120 255 41 120 255 41 121 255 42 121 255
42 122 255 42 123 255 42 123 255 42 124 255 42 124 255 43 125 255 43
126 255 43 126 255 1 113 31 1 111 31 1 118 33 0 67 19 0 74 21 0 80 23
0 86 25 7 113 28 7 119 29 7 124 31 7 129 32 7 134 33 7 138 35 8 144 36
9 152 37 1 127 37 1 133 38 1 143 41 45 133 255 45 133 255 45 133 255
45 133 255 45 133 255 45 133 255 45 133 255 45 133 255 45 133 255 45
133 255 45 132 255 45 132 255 44 132 255 44 132 255 44 131 255 44 131
255 44 131 255 44 130 255 44 130 255 44 130 255 44 129 255 43 129 255
43 128 255 43 128 255 43 127 255 43 127 255 43 126 255 42 126 255 42
125 255 42 125 255 42 124 255 42 124 255 41 123 255 41 122 255 41 122
255 41 121 255 41 121 255 41 120 255 40 119 255 40 119 255 40 118 255
40 118 255 40 117 255 39 116 255 39 116 255 39 115 255 39 115 255 39
114 255 38 113 255 38 113 255 38 112 255 38 112 255 38 111 255 37 110
255 37 110 255 37 109 255 37 109 255 37 108 255 36 108 255 36 107 255
36 106 255 36 106 255 36 105 253 35 105 252 35 104 251 35 104 249 35
103 248 35 103 247 35 102 246 34 101 244 34 101 243 34 100 242 34 100
240 34 99 239 34 99 238 33 98 237 33 98 236 33 97 234 33 97 233 33 96
232 33 96 231 32 95 230 32 95 229 32 94 227 32 94 226 32 94 225 32 93
224 31 93 223 31 92 222 31 92 221 31 91 220 31 91 219 31 90 218 31 90
217 30 90 215 30 89 214 30 89 213 30 88 212 30 88 211
25 69 164 25 70 165 25 70 166 25 70 167 25 71 168 25 71 169 25 71 170
26 72 171 26 72 172 26 73 172 26 73 173 26 73 174 26 74 175 26 74 176
27 75 177 27 75 178 27 75 179 27 76 180 27 76 181 27 77 182 27 77 183
28 78 184 28 78 186 28 78 187 28 79 188 28 79 189 28 80 190 29 80 191
29 81 192 29 81 193 29 82 194 29 82 196 29 83 197 30 83 198 30 84 199
30 84 200 30 85 202 30 85 203 30 86 204 31 86 205 31 87 206 31 87 208
31 88 209 31 88 210 31 89 212 32 89 213 32 90 214 32 91 215 32 91 217
32 92 218 33 92 219 33 93 221 33 93 222 33 94 223 33 94 225 34 95 226
34 96 228 34 96 229 39 114 255 40 115 255 40 115 255 40 116 255 40 116
255 40 117 255 41 118 255 41 118 255 41 119 255 41 120 255 41 120 255
42 121 255 42 122 255 42 122 255 42 123 255 42 123 255 43 124 255 43
125 255 43 125 255 43 126 255 43 126 255 43 127 255 44 128 255 44 128
255 1 103 29 1 102 28 1 101 28 0 60 17 0 67 19 0 74 21 0 80 23 0 86 25
7 113 27 7 118 29 7 123 30 7 128 32 7 133 33 7 137 34 7 141 36 7 145
37 1 126 36 1 129 37 1 131 38 1 142 41 46 135 255 46 135 255 46 135
255 46 135 255 46 135 255 46 135 255 46 135 255 46 135 255 46 135 255
46 135 255 45 134 255 45 134 255 45 134 255 45 134 255 45 133 255 45
133 255 45 133 255 45 132 255 45 132 255 44 132 255 44 131 255 44 131
255 44 130 255 44 130 255 44 129 255 44 129 255 43 128 255 43 128 255
43 127 255 43 127 255 43 126 255 42 126 255 42 125 255 42 124 255 42
124 255 42 123 255 41 123 255 41 122 255 41 121 255 41 121 255 41 120
255 41 120 255 40 119 255 40 118 255 40 118 255 40 117 255 40 117 255
39 116 255 39 115 255 39 115 255 39 114 255 39 114 255 38 113 255 38
113 255 38 112 255 38 111 255 38 111 255 37 110 255 37 110 255 37 109
255 37 108 255 37 108 255 36 107 255 36 107 255 36 106 255 36 106 254
36 105 253 35 105 252 35 104 250 35 104 249 35 103 248 35 103 247 35
102 245 34 101 244 34 101 243 34 100 242 34 100 241 34 99 239 34 99
238 33 98 237 33 98 236 33 97 235 33 97 233 33 97 232 33 96 231 32 96
230 32 95 229 32 95 228 32 94 227 32 94 226 32 93 224 32 93 223 31 92
222 31 92 221 31 91 220 31 91 219 31 91 218 31 90 217
25 71 168 25 71 169 25 71 170 26 72 170 26 72 171 26 72 172 26 73 173
26 73 174 26 74 175 26 74 176 27 74 177 27 75 178 27 75 179 27 76 180
27 76 181 27 77 182 27 77 183 28 77 184 28 78 185 28 78 186 28 79 187
28 79 188 28 80 189 29 80 190 29 81 192 29 81 193 29 82 194 29 82 195
29 82 196 30 83 197 30 83 198 30 84 200 30 84 201 30 85 202 30 85 203
31 86 204 31 86 206 31 87 207 31 88 208 31 88 209 31 89 211 32 89 212
32 90 213 32 90 214 32 91 216 32 91 217 33 92 218 33 92 220 33 93 221
33 93 222 33 94 224 34 95 225 34 95 226 34 96 228 34 96 229 34 97 230
34 97 232 35 98 233 35 99 234 35 99 236 41 117 255 41 118 255 41 119
255 41 119 255 41 120 255 42 121 255 42 121 255 42 122 255 42 123 255
43 123 255 43 124 255 43 124 255 43 125 255 43 126 255 43 126 255 44
127 255 44 127 255 44 128 255 44 128 255 44 129 255 44 130 255 8 116
78 1 93 26 30 133 42 29 130 41 0 60 17 0 66 19 0 73 21 0 79 23 0 85 24
0 90 26 7 117 28 7 122 30 7 127 31 7 131 33 7 136 34 7 140 35 7 144 36
1 125 36 1 128 37 1 130 38 1 131 38 1 142 41 47 137 255 47 137 255 47
137 255 46 137 255 46 137 255 46 137 255 46 136 255 46 136 255 46 136
255 46 136 255 46 136 255 46 136 255 46 135 255 46 135 255 46 135 255
46 134 255 45 134 255 45 134 255 45 133 255 45 133 255 45 133 255 45
132 255 45 132 255 44 131 255 44 131 255 44 130 255 44 130 255 44 129
255 44 129 255 43 128 255 43 128 255 43 127 255 43 127 255 43 126 255
43 125 255 42 125 255 42 124 255 42 124 255 42 123 255 42 123 255 41
122 255 41 121 255 41 121 255 41 120 255 41 120 255 40 119 255 40 118
255 40 118 255 40 117 255 40 117 255 39 116 255 39 116 255 39 115 255
39 114 255 39 114 255 38 113 255 38 113 255 38 112 255 38 112 255 38
111 255 37 110 255 37 110 255 37 109 255 37 109 255 37 108 255 37 108
255 36 107 255 36 107 255 36 106 255 36 105 254 36 105 253 35 104 251
35 104 250 35 103 249 35 103 248 35 102 246 35 102 245 34 101 244 34
101 243 34 100 241 34 100 240 34 99 239 34 99 238 33 98 237 33 98 236
33 97 234 33 97 233 33 97 232 33 96 231 32 96 230 32 95 229 32 95 228
32 94 227 32 94 226 32 93 225 32 93 223 31 92 222
26 72 171 26 72 172 26 73 173 26 73 174 26 73 175 26 74 175 27 74 176
27 75 177 27 75 178 27 75 179 27 76 180 27 76 181 27 77 182 28 77 183
28 78 184 28 78 185 28 78 186 28 79 187 28 79 188 29 80 190 29 80 191
29 81 192 29 81 193 29 82 194 29 82 195 29 83 196 30 83 197 30 84 198
30 84 200 30 85 201 30 85 202 31 86 203 31 86 204 31 87 206 31 87 207
31 88 208 31 88 209 32 89 211 32 89 212 32 90 213 32 90 214 32 91 216
33 91 217 33 92 218 33 92 219 33 93 221 33 93 222 33 94 223 34 95 225
34 95 226 34 96 227 34 96 229 34 97 230 35 97 231 35 98 233 35 98 234
35 99 235 35 100 237 36 100 238 36 101 239 36 101 241 36 102 242 42
121 255 42 121 255 42 122 255 43 123 255 43 123 255 43 124 255 43 124
255 43 125 255 44 126 255 44 126 255 44 127 255 44 127 255 44 128 255
44 129 255 45 129 255 45 130 255 45 130 255 45 131 255 45 131 255 0 84
23 23 117 37 30 132 37 21 108 34 0 59 17 0 65 19 0 71 20 0 77 22 0 83
24 0 88 25 0 94 27 7 120 29 7 125 31 7 130 32 7 134 34 9 139 37 11 146
42 1 124 36 1 127 37 1 129 37 1 130 38 1 131 38 47 138 255 47 138 255
47 138 255 47 138 255 47 138 255 47 138 255 47 138 255 47 137 255 47
137 255 47 137 255 47 137 255 47 137 255 47 136 255 46 136 255 46 136
255 46 136 255 46 135 255 46 135 255 46 135 255 46 134 255 46 134 255
45 133 255 45 133 255 45 133 255 45 132 255 45 132 255 45 131 255 45
131 255 44 130 255 44 130 255 44 129 255 44 129 255 44 128 255 43 128
255 43 127 255 43 127 255 43 126 255 43 126 255 43 125 255 42 124 255
42 124 255 42 123 255 42 123 255 42 122 255 41 122 255 41 121 255 41
120 255 41 120 255 41 119 255 40 119 255 40 118 255 40 118 255 40 117
255 40 117 255 39 116 255 39 115 255 39 115 255 39 114 255 39 114 255
38 113 255 38 113 255 38 112 255 38 112 255 38 111 255 38 110 255 37
110 255 37 109 255 37 109 255 37 108 255 37 108 255 36 107 255 36 107
255 36 106 255 36 106 254 36 105 253 36 105 252 35 104 251 35 104 249
35 103 248 35 103 247 35 102 246 35 102 245 34 101 243 34 101 242 34
100 241 34 100 240 34 99 239 34 99 238 33 98 236 33 98 235 33 97 234
33 97 233 33 96 232 33 96 231 32 95 230 32 95 229 32 95 228
26 73 174 26 74 175 26 74 176 27 74 177 27 75 177 27 75 178 27 76 179
27 76 180 27 76 181 27 77 182 28 77 183 28 78 184 28 78 185 28 78 186
28 79 187 28 79 188 29 80 189 29 80 191 29 81 192 29 81 193 29 82 194
29 82 195 30 83 196 30 83 197 30 83 198 30 84 199 30 84 201 30 85 202
31 85 203 31 86 204 31 86 205 31 87 206 31 87 208 31 88 209 32 88 210
32 89 211 32 90 213 32 90 214 32 91 215 33 91 216 33 92 218 33 92 219
33 93 220 33 93 221 34 94 223 34 94 224 34 95 225 34 95 227 34 96 228
34 96 229 35 97 230 35 98 232 35 98 233 35 99 234 35 99 236 36 100 237
36 100 238 36 101 240 36 101 241 36 102 242 36 102 243 37 103 245 37
104 246 43 123 255 43 124 255 43 124 255 43 125 255 44 126 255 44 126
255 44 127 255 44 127 255 44 128 255 45 128 255 45 129 255 45 130 255
45 130 255 45 131 255 45 131 255 46 132 255 46 132 255 15 119 123 0 74
21 30 129 97 18 97 30 0 71 20 0 57 16 0 64 18 0 70 20 0 76 22 0 81 23
0 87 25 0 92 26 0 97 28 1 102 29 1 106 31 1 111 32 7 121 42 50 169 102
12 134 51 1 125 36 1 127 37 1 129 37 1 129 37 7 152 85 48 139 255 48
139 255 48 139 255 48 139 255 47 138 255 47 138 255 47 138 255 47 138
255 47 138 255 47 138 255 47 138 255 47 137 255 47 137 255 47 137 255
47 137 255 47 136 255 46 136 255 46 136 255 46 135 255 46 135 255 46
135 255 46 134 255 46 134 255 46 133 255 45 133 255 45 132 255 45 132
255 45 132 255 45 131 255 45 131 255 44 130 255 44 130 255 44 129 255
44 129 255 44 128 255 44 128 255 43 127 255 43 127 255 43 126 255 43
126 255 43 125 255 42 124 255 42 124 255 42 123 255 42 123 255 42 122
255 41 122 255 41 121 255 41 121 255 41 120 255 41 120 255 41 119 255
40 118 255 40 118 255 40 117 255 40 117 255 40 116 255 39 116 255 39
115 255 39 115 255 39 114 255 39 114 255 38 113 255 38 113 255 38 112
255 38 111 255 38 111 255 38 110 255 37 110 255 37 109 255 37 109 255
37 108 255 37 108 255 36 107 255 36 107 255 36 106 255 36 106 254 36
105 253 36 105 252 35 104 251 35 104 250 35 103 249 35 103 247 35 102
246 35 102 245 34 101 244 34 101 243 34 100 242 34 100 240 34 99 239
34 99 238 34 99 237 33 98 236 33 98 235 33 97 234 33 97 233
27 74 176 27 75 177 27 75 178 27 76 179 27 76 180 27 76 181 28 77 182
28 77 183 28 78 184 28 78 185 28 78 186 28 79 187 28 79 188 29 80 189
29 80 190 29 81 191 29 81 192 29 81 193 29 82 194 30 82 196 30 83 197
30 83 198 30 84 199 30 84 200 30 85 201 31 85 202 31 86 203 31 86 205
31 87 206 31 87 207 31 88 208 32 88 209 32 89 210 32 89 212 32 90 213
32 90 214 33 91 215 33 91 217 33 92 218 33 92 219 33 93 220 33 93 222
34 94 223 34 94 224 34 95 225 34 96 227 34 96 228 35 97 229 35 97 231
35 98 232 35 98 233 35 99 234 36 99 236 36 100 237 36 100 238 36 101
239 36 101 241 36 102 242 37 102 243 37 103 244 37 103 246 37 104 247
37 105 248 38 105 249 44 125 255 44 126 255 44 126 255 44 127 255 44
127 255 45 128 255 45 129 255 45 129 255 45 130 255 45 130 255 46 131
255 46 131 255 46 132 255 46 132 255 46 133 255 46 133 255 7 86 65 0
65 18 23 109 84 13 82 25 0 51 15 0 55 16 0 62 18 0 68 19 0 73 21 0 79
23 0 84 24 0 89 26 0 94 27 1 99 29 1 104 30 1 108 31 3 115 35 36 152
82 22 141 63 1 123 36 1 125 36 1 127 37 1 128 37 4 136 60 48 139 255
48 139 255 48 139 255 48 139 255 48 139 255 48 139 255 48 139 255 48
139 255 48 139 255 48 138 255 48 138 255 47 138 255 47 138 255 47 138
255 47 137 255 47 137 255 47 137 255 47 136 255 47 136 255 47 136 255
46 135 255 46 135 255 46 135 255 46 134 255 46 134 255 46 133 255 46
133 255 45 133 255 45 132 255 45 132 255 45 131 255 45 131 255 45 130
255 44 130 255 44 129 255 44 129 255 44 128 255 44 128 255 44 127 255
43 127 255 43 126 255 43 126 255 43 125 255 43 125 255 42 124 255 42
124 255 42 123 255 42 123 255 42 122 255 42 122 255 41 121 255 41 121
255 41 120 255 41 120 255 41 119 255 40 119 255 40 118 255 40 118 255
40 117 255 40 116 255 40 116 255 39 115 255 39 115 255 39 114 255 39
114 255 39 113 255 38 113 255 38 112 255 38 112 255 38 111 255 38 111
255 38 110 255 37 110 255 37 109 255 37 109 255 37 108 255 37 108 255
37 107 255 36 107 255 36 106 255 36 106 255 36 105 253 36 105 252 36
104 251 35 104 250 35 103 249 35 103 248 35 102 246 35 102 245 35 101
244 34 101 243 34 101 242 34 100 241 34 100 240 34 99 239 34 99 238
12 39 95 27 76 180 27 76 181 28 77 182 28 77 183 28 77 184 28 78 185
28 78 186 28 79 187 28 79 188 29 79 189 29 80 190 29 80 191 29 81 192
29 81 193 29 82 194 30 82 195 30 83 196 30 83 197 30 83 198 30 84 199
30 84 200 31 85 201 31 85 203 31 86 204 31 86 205 31 87 206 31 87 207
32 88 208 32 88 209 32 89 211 32 89 212 32 90 213 32 90 214 33 91 215
33 91 217 33 92 218 33 92 219 33 93 220 34 93 221 34 94 223 34 94 224
34 95 225 34 95 226 35 96 228 35 97 229 35 97 230 35 98 231 35 98 233
35 99 234 36 99 235 36 100 236 36 100 238 36 101 239 36 101 240 37 102
241 37 102 243 37 103 244 37 103 245 37 104 246 37 104 247 38 105 249
38 105 250 38 106 251 38 106 252 44 127 255 45 127 255 45 128 255 45
129 255 45 129 255 45 130 255 46 130 255 46 131 255 46 131 255 46 132
255 46 132 255 46 133 255 46 133 255 47 134 255 47 134 255 7 77 64 0
56 16 19 91 64 0 54 15 0 51 15 0 53 15 0 59 17 0 65 19 0 71 20 0 77 22
0 82 23 0 87 25 0 92 26 0 97 28 1 101 29 1 105 30 1 110 32 3 116 36 3
119 37 1 120 35 1 123 35 1 125 36 1 126 36 7 142 78 48 140 255 48 140
255 48 140 255 48 140 255 48 139 255 48 139 255 48 139 255 48 139 255
48 139 255 48 139 255 48 139 255 48 138 255 48 138 255 48 138 255 47
138 255 47 138 255 47 137 255 47 137 255 47 137 255 47 136 255 47 136
255 47 136 255 47 135 255 46 135 255 46 135 255 46 134 255 46 134 255
46 133 255 46 133 255 46 133 255 45 132 255 45 132 255 45 131 255 45
131 255 45 130 255 45 130 255 44 130 255 44 129 255 44 129 255 44 128
255 44 128 255 44 127 255 43 127 255 43 126 255 43 126 255 43 125 255
43 125 255 42 124 255 42 124 255 42 123 255 42 123 255 42 122 255 42
122 255 41 121 255 41 121 255 41 120 255 41 120 255 41 119 255 41 119
255 40 118 255 40 118 255 40 117 255 40 117 255 40 116 255 39 116 255
39 115 255 39 115 255 39 114 255 39 114 255 39 113 255 38 113 255 38
112 255 38 112 255 38 111 255 38 111 255 38 110 255 37 110 255 37 109
255 37 109 255 37 108 255 37 108 255 37 107 255 36 107 255 36 106 255
36 106 255 36 105 253 36 105 252 36 104 251 35 104 250 35 103 249 35
103 248 35 103 247 35 102 246 35 102 244 34 101 243 34 101 242
12 39 96 12 39 96 12 39 96 12 40 97 12 40 97 12 40 97 12 40 98 12 40
98 29 80 189 29 80 190 29 80 191 29 81 192 29 81 193 29 82 194 30 82
195 30 83 196 30 83 197 30 84 198 30 84 199 30 84 200 31 85 201 31 85
202 31 86 204 31 86 205 31 87 206 31 87 207 32 88 208 32 88 209 32 89
210 32 89 212 32 90 213 33 90 214 33 91 215 33 91 216 33 92 217 33 92
219 33 93 220 34 93 221 34 94 222 34 94 223 34 95 225 34 95 226 35 96
227 35 96 228 35 97 230 35 97 231 35 98 232 35 98 233 36 99 234 36 99
236 36 100 237 36 100 238 36 101 239 37 101 240 37 102 242 37 102 243
37 103 244 37 103 245 37 104 246 38 104 247 38 105 249 38 105 250 38
106 251 38 106 252 38 107 253 45 128 255 45 128 255 45 129 255 45 129
255 46 130 255 46 130 255 46 131 255 46 131 255 46 132 255 46 132 255
47 133 255 47 133 255 47 134 255 47 134 255 47 135 255 10 79 81 0 51
15 0 51 15 0 51 15 0 51 15 0 51 15 0 57 16 0 63 18 0 68 20 0 74 21 0
79 23 0 84 24 0 89 26 0 94 27 1 98 28 1 103 29 1 107 31 1 110 32 1 114
33 1 117 34 1 120 34 1 122 35 1 123 35 12 157 119 49 140 255 49 140
255 49 140 255 49 140 255 48 140 255 48 140 255 48 140 255 48 139 255
48 139 255 48 139 255 48 139 255 48 139 255 48 139 255 48 138 255 48
138 255 48 138 255 48 138 255 47 137 255 47 137 255 47 137 255 47 137
255 47 136 255 47 136 255 47 136 255 47 135 255 46 135 255 46 135 255
46 134 255 46 134 255 46 133 255 46 133 255 46 133 255 45 132 255 45
132 255 45 131 255 45 131 255 45 130 255 45 130 255 45 130 255 44 129
255 44 129 255 44 128 255 44 128 255 44 127 255 44 127 255 43 126 255
43 126 255 43 125 255 43 125 255 43 125 255 42 124 255 42 124 255 42
123 255 42 123 255 42 122 255 42 122 255 41 121 255 41 121 255 41 120
255 41 120 255 41 119 255 41 119 255 40 118 255 40 118 255 40 117 255
40 117 255 40 116 255 40 116 255 39 115 255 39 115 255 39 114 255 39
114 255 39 113 255 39 113 255 38 112 255 38 112 255 38 111 255 38 111
255 38 110 255 37 110 255 37 110 255 37 109 255 37 109 255 37 108 255
37 108 255 36 107 255 36 107 255 36 106 255 36 106 254 36 105 253 36
105 252 36 104 251 35 104 250 21 70 173 21 70 172 21 70 171
12 39 96 12 39 96 12 39 96 12 40 97 12 40 97 12 40 97 12 40 98 12 40
98 12 40 98 12 40 99 12 41 99 12 41 100 12 41 100 30 83 196 30 83 197
30 84 198 30 84 199 30 84 200 31 85 201 31 85 202 31 86 203 31 86 204
31 87 205 31 87 207 32 88 208 32 88 209 32 89 210 32 89 211 32 90 212
33 90 213 33 91 214 33 91 216 33 91 217 33 92 218 33 92 219 34 93 220
34 93 221 34 94 223 34 94 224 34 95 225 35 95 226 35 96 227 35 96 229
35 97 230 35 97 231 35 98 232 36 98 233 36 99 235 36 99 236 36 100 237
36 100 238 37 101 239 37 101 240 37 102 242 37 102 243 37 103 244 37
103 245 38 104 246 38 104 247 38 105 248 38 105 249 38 106 250 38 106
252 39 107 253 39 107 254 45 129 255 45 129 255 46 130 255 46 130 255
46 131 255 46 131 255 46 132 255 46 132 255 47 133 255 47 133 255 47
133 255 47 134 255 47 134 255 47 135 255 47 135 255 12 85 95 4 64 45 3
60 36 0 51 15 0 51 15 0 51 15 0 54 15 0 60 17 0 66 19 0 71 20 0 76 22
0 81 23 0 86 25 0 91 26 0 95 27 1 99 29 1 103 30 1 107 31 1 111 32 1
114 33 1 116 34 4 128 57 8 143 91 16 164 143 18 160 152 49 140 255 49
140 255 49 140 255 49 140 255 49 140 255 49 140 255 49 140 255 48 139
255 48 139 255 48 139 255 48 139 255 48 139 255 48 139 255 48 138 255
48 138 255 48 138 255 48 138 255 48 137 255 48 137 255 47 137 255 47
137 255 47 136 255 47 136 255 47 136 255 47 135 255 47 135 255 47 135
255 46 134 255 46 134 255 46 134 255 46 133 255 46 133 255 46 132 255
46 132 255 45 132 255 45 131 255 45 131 255 45 130 255 45 130 255 45
130 255 44 129 255 44 129 255 44 128 255 44 128 255 44 127 255 44 127
255 43 127 255 43 126 255 43 126 255 43 125 255 43 125 255 43 124 255
42 124 255 42 123 255 42 123 255 42 122 255 42 122 255 42 122 255 41
121 255 41 121 255 41 120 255 41 120 255 41 119 255 41 119 255 40 118
255 40 118 255 40 117 255 40 117 255 40 116 255 40 116 255 39 115 255
39 115 255 39 115 255 23 76 186 23 75 186 23 75 185 23 75 185 23 75
184 23 75 183 23 74 183 23 74 182 22 74 182 22 74 181 22 73 181 22 73
180 22 73 179 22 73 179 22 72 178 22 72 178 22 72 177 22 72 177 22 72
176 22 71 175 22 71 175 22 71 174
12 39 96 12 39 96 12 39 96 12 39 97 12 40 97 12 40 97 12 40 98 12 40
98 12 40 98 12 40 99 12 40 99 12 41 99 12 41 100 12 41 100 13 41 100
13 41 101 31 85 201 31 85 202 31 86 203 31 86 204 31 87 205 31 87 206
32 87 207 32 88 208 32 88 209 32 89 210 32 89 211 32 90 213 33 90 214
33 91 215 33 91 216 33 92 217 33 92 218 34 93 219 34 93 220 34 94 222
34 94 223 34 95 224 34 95 225 35 96 226 35 96 227 35 96 229 35 97 230
35 97 231 36 98 232 36 98 233 36 99 234 36 99 235 36 100 237 36 100
238 37 101 239 37 101 240 37 102 241 37 102 242 37 103 243 37 103 244
38 104 245 38 104 247 38 105 248 38 105 249 38 105 250 38 106 251 39
106 252 39 107 253 39 107 254 46 129 255 46 130 255 46 130 255 46 131
255 46 131 255 46 132 255 47 132 255 47 132 255 47 133 255 47 133 255
47 134 255 47 134 255 47 135 255 48 135 255 48 135 255 14 88 101 12 84
92 4 65 48 2 58 30 6 67 52 3 60 35 0 51 15 0 57 16 0 63 18 0 68 19 0
73 21 0 78 22 0 83 24 0 88 25 0 92 26 0 96 28 1 100 29 1 104 30 4 117
54 6 128 76 9 139 98 9 144 104 9 145 105 17 163 149 49 140 255 49 140
255 49 140 255 49 140 255 49 140 255 49 140 255 49 140 255 49 140 255
49 139 255 49 139 255 48 139 255 48 139 255 48 139 255 48 139 255 48
138 255 48 138 255 48 138 255 48 138 255 48 138 255 48 137 255 48 137
255 47 137 255 47 137 255 47 136 255 47 136 255 47 136 255 47 135 255
47 135 255 47 135 255 46 134 255 46 134 255 46 134 255 46 133 255 46
133 255 46 133 255 46 132 255 46 132 255 45 132 255 45 131 255 45 131
255 45 130 255 45 130 255 45 130 255 44 129 255 44 129 255 44 128 255
44 128 255 44 128 255 44 127 255 44 127 255 43 126 255 43 126 255 43
125 255 43 125 255 43 125 255 43 124 255 42 124 255 42 123 255 42 123
255 24 79 195 24 79 194 24 79 194 24 79 194 24 78 193 24 78 193 24 78
192 24 78 192 24 78 191 24 78 191 23 77 191 23 77 190 23 77 190 23 77
189 23 77 189 23 76 188 23 76 188 23 76 187 23 76 187 23 76 186 23 75
186 23 75 185 23 75 185 23 75 184 23 75 184 23 74 183 23 74 182 23 74
182 22 74 181 22 74 181 22 73 180 22 73 180 22 73 179 22 73 179 22 72
178 22 72 177 22 72 177
12 39 96 12 39 96 12 39 96 12 39 96 12 40 97 12 40 97 12 40 97 12 40
98 12 40 98 12 40 98 12 40 99 12 40 99 12 41 99 12 41 100 12 41 100 13
41 100 13 41 101 13 41 101 31 86 204 31 87 205 32 87 206 32 88 207 32
88 208 32 88 209 32 89 211 32 89 212 33 90 213 33 90 214 33 91 215 33
91 216 33 92 217 33 92 218 34 93 219 34 93 220 34 94 221 34 94 223 34
94 224 34 95 225 35 95 226 35 96 227 35 96 228 35 97 229 35 97 230 36
98 232 36 98 233 36 99 234 36 99 235 36 100 236 36 100 237 37 101 238
37 101 239 37 102 240 37 102 241 37 102 242 37 103 243 38 103 245 38
104 246 38 104 247 38 105 248 38 105 249 38 105 250 38 106 251 39 106
252 39 107 252 39 107 253 46 129 255 46 130 255 46 130 255 46 131 255
46 131 255 47 132 255 47 132 255 47 133 255 47 133 255 47 133 255 47
134 255 47 134 255 48 135 255 48 135 255 48 135 255 14 89 104 13 87 99
15 93 114 14 91 109 14 89 105 13 87 100 12 85 95 12 86 92 6 78 63 6 83
63 6 88 65 6 93 67 6 99 70 7 105 75 7 111 80 8 117 87 9 123 94 9 128
99 9 133 102 9 136 103 9 138 103 9 140 103 9 140 103 9 139 102 49 140
255 49 140 255 49 140 255 49 140 255 49 140 255 49 140 255 49 140 255
49 139 255 49 139 255 49 139 255 49 139 255 49 139 255 48 139 255 48
139 255 48 138 255 48 138 255 48 138 255 48 138 255 48 138 255 48 137
255 48 137 255 48 137 255 48 137 255 47 136 255 47 136 255 47 136 255
47 136 255 47 135 255 47 135 255 47 135 255 47 134 255 46 134 255 46
134 255 46 133 255 46 133 255 46 133 255 46 132 255 46 132 255 46 132
255 45 131 255 45 131 255 45 131 255 45 130 255 45 130 255 45 130 255
44 129 255 24 81 199 24 81 199 24 81 199 24 81 199 24 81 198 24 81 198
24 80 198 24 80 198 24 80 197 24 80 197 24 80 197 24 80 197 24 80 196
24 80 196 24 79 196 24 79 195 24 79 195 24 79 195 24 79 194 24 79 194
24 79 193 24 78 193 24 78 193 24 78 192 24 78 192 24 78 191 24 78 191
24 77 191 23 77 190 23 77 190 23 77 189 23 77 189 23 77 188 23 76 188
23 76 187 23 76 187 23 76 186 23 76 186 23 75 185 23 75 185 23 75 184
23 75 184 23 74 183 23 74 183 23 74 182 22 74 182 22 74 181 22 73 181
22 73 180 22 73 179
12 39 95 12 39 96 12 39 96 12 39 96 12 39 97 12 40 97 12 40 97 12 40
97 12 40 98 12 40 98 12 40 98 12 40 99 12 40 99 12 41 99 12 41 100 12
41 100 13 41 100 13 41 101 13 41 101 32 87 206 32 88 207 32 88 208 32
88 209 32 89 210 32 89 211 33 90 213 33 90 214 33 91 215 33 91 216 33
92 217 33 92 218 34 92 219 34 93 220 34 93 221 34 94 222 34 94 223 34
95 224 35 95 225 35 96 226 35 96 228 35 97 229 35 97 230 36 98 231 36
98 232 36 98 233 36 99 234 36 99 235 36 100 236 37 100 237 37 101 238
37 101 239 37 102 240 37 102 241 37 102 242 37 103 243 38 103 244 38
104 245 38 104 246 38 105 247 38 105 248 38 105 249 39 106 250 39 106
251 39 106 252 46 129 255 46 130 255 46 130 255 46 130 255 46 131 255
46 131 255 47 132 255 47 132 255 47 133 255 47 133 255 47 133 255 47
134 255 47 134 255 48 135 255 48 135 255 48 135 255 14 89 105 14 88
101 16 96 120 16 95 118 15 94 116 15 93 115 15 93 113 15 92 113 7 79
73 7 84 75 6 83 59 8 95 79 8 100 82 8 106 85 8 110 88 9 115 90 9 120
93 9 124 95 9 127 97 9 130 98 9 133 99 9 135 100 9 135 100 9 134 100
49 140 255 49 140 255 49 140 255 49 139 255 49 139 255 49 139 255 49
139 255 49 139 255 49 139 255 49 139 255 49 139 255 49 139 255 48 139
255 48 139 255 48 138 255 48 138 255 48 138 255 48 138 255 48 138 255
48 137 255 48 137 255 48 137 255 48 137 255 48 137 255 47 136 255 47
136 255 47 136 255 47 136 255 47 135 255 47 135 255 47 135 255 47 134
255 46 134 255 46 134 255 46 133 255 25 81 200 25 81 200 25 81 200 25
81 200 25 81 200 25 81 200 25 81 200 25 81 200 25 81 200 25 81 200 25
81 200 25 81 200 25 81 199 25 81 199 25 81 199 24 81 199 24 81 199 24
81 199 24 81 198 24 81 198 24 80 198 24 80 198 24 80 198 24 80 197 24
80 197 24 80 197 24 80 197 24 80 196 24 80 196 24 79 196 24 79 195 24
79 195 24 79 195 24 79 194 24 79 194 24 79 194 24 79 193 24 78 193 24
78 192 24 78 192 24 78 192 24 78 191 24 78 191 24 77 190 23 77 190 23
77 189 23 77 189 23 77 189 23 76 188 23 76 188 23 76 187 23 76 187 23
76 186 23 75 186 23 75 185 23 75 185 23 75 184 23 75 184 23 74 183 23
74 182 23 74 182
12 39 95 12 39 95 12 39 96 12 39 96 12 39 96 12 39 97 12 40 97 12 40
97 12 40 97 12 40 98 12 40 98 12 40 98 12 40 99 12 40 99 12 41 99 12
41 100 12 41 100 12 41 100 32 87 206 32 88 207 32 88 208 32 88 209 32
89 210 32 89 211 33 90 212 33 90 213 33 91 214 33 91 215 33 91 216 33
92 217 34 92 218 34 93 219 34 93 220 34 94 221 34 94 222 34 94 224 35
95 225 35 95 226 35 96 227 35 96 228 35 97 229 35 97 230 36 98 231 36
98 232 36 98 233 36 99 234 36 99 235 36 100 236 37 100 237 37 101 238
37 101 239 37 101 240 37 102 241 37 102 242 37 103 243 38 103 244 38
103 245 38 104 246 38 104 247 38 105 247 38 105 248 38 105 249 45 128
255 39 106 251 39 106 252 39 107 252 39 107 253 39 107 254 39 108 255
39 108 255 40 108 255 40 109 255 40 109 255 40 109 255 40 109 255 40
110 255 40 110 255 40 110 255 40 110 255 48 135 255 14 90 106 14 89
103 16 97 123 16 96 122 16 96 121 16 95 120 16 95 119 5 67 54 5 68 54
6 74 56 6 79 59 6 84 61 6 89 63 6 94 65 8 107 87 8 111 89 9 115 91 9
119 93 9 122 94 9 125 96 9 128 97 9 129 97 9 130 98 18 148 146 49 139
255 49 139 255 49 139 255 49 139 255 49 139 255 49 139 255 49 139 255
49 139 255 49 139 255 49 139 255 49 139 255 49 139 255 48 138 255 48
138 255 48 138 255 48 138 255 48 138 255 48 138 255 48 137 255 48 137
255 48 137 255 48 137 255 48 137 255 48 136 255 47 136 255 47 136 255
24 81 199 24 81 199 24 81 199 25 81 200 25 81 200 25 81 200 25 81 200
25 81 200 25 81 200 25 81 200 25 81 200 25 81 200 25 81 200 25 81 200
25 81 200 25 81 200 25 81 200 25 81 200 25 81 200 25 81 200 25 81 200
25 81 200 25 81 200 25 81 200 25 81 200 25 81 199 25 81 199 25 81 199
25 81 199 24 81 199 24 81 199 24 81 198 24 81 198 24 80 198 24 80 198
24 80 198 24 80 197 24 80 197 24 80 197 24 80 197 24 80 196 24 80 196
24 80 196 24 79 195 24 79 195 24 79 195 24 79 194 24 79 194 24 79 194
24 79 193 24 78 193 24 78 193 24 78 192 24 78 192 24 78 191 24 78 191
24 77 191 24 77 190 23 77 190 23 77 189 23 77 189 23 77 188 23 76 188
23 76 187 23 76 187 23 76 186 23 76 186 23 75 185 23 75 185 23 75 184
12 39 95 12 39 95 12 39 95 12 39 96 12 39 96 12 39 96 12 39 97 12 40
97 12 40 97 12 40 97 12 40 98 12 40 98 12 40 98 12 40 98 12 40 99 12
40 99 12 41 99 32 87 206 32 87 207 32 88 208 32 88 209 32 89 210 32 89
211 33 89 212 33 90 213 33 90 214 33 91 215 33 91 216 33 92 217 34 92
218 34 92 219 34 93 220 34 93 221 34 94 222 34 94 223 35 95 224 35 95
225 35 95 226 35 96 227 35 96 228 35 97 229 35 97 230 36 98 231 36 98
232 36 98 233 36 99 233 36 99 234 36 100 235 37 100 236 37 100 237 37
101 238 37 101 239 37 102 240 37 102 241 37 102 242 38 103 243 38 103
244 38 103 245 38 104 245 38 104 246 38 105 247 38 105 248 39 105 249
39 106 250 39 106 250 39 106 251 39 107 252 39 107 253 39 107 253 39
107 254 39 108 255 40 108 255 40 108 255 40 108 255 40 109 255 40 109
255 40 109 255 40 109 255 40 110 255 40 110 255 40 110 255 14 89 103
14 88 102 17 97 124 16 97 123 14 88 101 14 88 101 5 67 54 5 68 54 6 70
55 6 75 57 6 80 59 6 85 61 6 89 63 6 94 64 6 98 66 8 111 89 9 114 91 9
117 92 9 120 93 9 122 94 9 124 95 9 123 95 18 139 144 49 139 255 49
139 255 49 139 255 49 139 255 49 139 255 49 139 255 49 138 255 49 138
255 49 138 255 49 138 255 48 138 255 48 138 255 48 138 255 48 138 255
48 138 255 48 138 255 48 138 255 48 137 255 48 137 255 24 80 197 24 80
197 24 80 197 24 80 198 24 80 198 24 80 198 24 81 198 24 81 198 24 81
199 24 81 199 24 81 199 24 81 199 24 81 199 25 81 199 25 81 199 25 81
200 25 81 200 25 81 200 25 81 200 25 81 200 25 81 200 25 81 200 25 81
200 25 81 200 25 81 200 25 81 200 25 81 200 25 81 200 25 81 200 25 81
200 25 81 200 25 81 200 25 81 200 25 81 200 25 81 200 25 81 200 25 81
200 25 81 199 25 81 199 25 81 199 25 81 199 25 81 199 25 81 199 24 81
198 24 81 198 24 80 198 24 80 198 24 80 198 24 80 197 24 80 197 24 80
197 24 80 197 24 80 196 24 80 196 24 80 196 24 79 195 24 79 195 24 79
195 24 79 194 24 79 194 24 79 194 24 79 193 24 78 193 24 78 193 24 78
192 24 78 192 24 78 191 24 78 191 24 77 190 24 77 190 23 77 190 23 77
189 23 77 189 23 76 188 23 76 188 23 76 187 23 76 187
12 39 95 12 39 95 12 39 95 12 39 95 12 39 96 12 39 96 12 39 96 12 39
96 12 40 97 12 40 97 12 40 97 12 40 97 12 40 98 12 40 98 12 40 98 31
86 204 32 87 205 32 87 206 32 88 207 32 88 208 32 88 209 32 89 210 33
89 211 33 90 212 33 90 213 33 90 214 33 91 215 33 91 216 33 92 217 34
92 218 34 92 219 34 93 219 34 93 220 34 94 221 34 94 222 35 94 223 35
95 224 35 95 225 35 96 226 35 96 227 35 97 228 35 97 229 36 97 230 36
98 231 36 98 232 36 99 233 36 99 234 36 99 235 36 100 236 37 100 236
37 100 237 37 101 238 37 101 239 37 102 240 37 102 241 37 102 242 38
103 243 38 103 243 38 103 244 38 104 245 38 104 246 38 104 246 38 105
247 38 105 248 39 105 249 39 106 249 39 106 250 39 106 251 39 106 251
39 107 252 39 107 253 39 107 253 39 107 254 39 108 254 40 108 255 40
108 255 40 108 255 40 108 255 40 109 255 40 109 255 40 109 255 14 89
104 14 89 102 14 88 101 14 88 102 14 88 102 14 88 102 14 88 102 5 68
55 6 68 55 6 71 56 6 76 58 6 80 60 6 85 61 6 89 63 6 93 64 6 97 65 6
100 67 9 112 90 9 115 91 9 117 92 9 118 93 9 116 93 49 138 255 49 138
255 49 138 255 49 138 255 49 138 255 49 138 255 49 138 255 49 138 255
48 138 255 48 138 255 48 138 255 48 138 255 48 138 255 24 79 194 24 79
194 24 79 194 24 79 195 24 79 195 24 79 195 24 79 196 24 80 196 24 80
196 24 80 196 24 80 197 24 80 197 24 80 197 24 80 197 24 80 198 24 80
198 24 80 198 24 81 198 24 81 198 24 81 199 24 81 199 24 81 199 25 81
199 25 81 199 25 81 199 25 81 200 25 81 200 25 81 200 25 81 200 25 81
200 25 81 200 25 81 200 25 81 200 25 81 200 25 81 200 25 81 200 25 81
200 25 81 200 25 81 200 25 81 200 25 81 200 25 81 200 25 81 200 25 81
200 25 81 200 25 81 200 25 81 200 25 81 200 25 81 200 25 81 200 25 81
199 25 81 199 25 81 199 25 81 199 25 81 199 25 81 199 25 81 198 24 81
198 24 80 198 24 80 198 24 80 198 24 80 197 24 80 197 24 80 197 24 80
196 24 80 196 24 80 196 24 79 195 24 79 195 24 79 195 24 79 194 24 79
194 24 79 194 24 79 193 24 78 193 24 78 192 24 78 192 24 78 192 24 78
191 24 77 191 24 77 190 24 77 190 23 77 189 23 77 189
12 39 94 12 39 95 12 39 95 12 39 95 12 39 95 12 39 96 12 39 96 12 39
96 12 39 96 12 39 96 12 40 97 12 40 97 31 85 202 31 86 203 31 86 204
32 86 205 32 87 205 32 87 206 32 88 207 32 88 208 32 88 209 32 89 210
33 89 211 33 90 212 33 90 213 33 90 214 33 91 215 33 91 215 33 92 216
34 92 217 34 92 218 34 93 219 34 93 220 34 94 221 34 94 222 35 94 223
35 95 224 35 95 225 35 95 226 35 96 227 35 96 227 35 97 228 36 97 229
36 97 230 36 98 231 36 98 232 36 99 233 36 99 234 36 99 234 37 100 235
37 100 236 37 100 237 37 101 238 37 101 239 44 124 255 44 124 255 37
102 241 38 102 242 38 103 243 38 103 243 38 103 244 38 104 245 38 104
245 38 104 246 38 104 247 38 105 247 39 105 248 39 105 249 39 106 249
39 106 250 39 106 250 39 106 251 39 106 251 39 107 252 39 107 252 39
107 253 39 107 253 39 107 254 39 108 254 40 108 254 40 108 255 40 108
255 5 67 53 2 58 30 2 58 30 5 67 54 5 67 54 5 68 54 5 68 55 6 68 55 6
68 55 6 71 56 6 76 58 6 80 60 6 84 61 6 88 62 6 92 63 6 95 65 6 98 65
9 109 89 9 110 90 9 110 90 18 125 139 48 137 255 48 137 255 48 137 255
48 137 255 48 137 255 48 137 255 48 137 255 23 77 190 23 78 191 24 78
191 24 78 192 24 78 192 24 78 192 24 78 193 24 78 193 24 79 193 24 79
194 24 79 194 24 79 194 24 79 195 24 79 195 24 79 195 24 79 196 24 80
196 24 80 196 24 80 196 24 80 197 24 80 197 24 80 197 24 80 197 24 80
198 24 80 198 24 81 198 24 81 198 24 81 199 24 81 199 25 81 199 25 81
199 25 81 199 25 81 199 25 81 200 25 81 200 25 81 200 25 81 200 25 81
200 25 81 200 25 81 200 25 81 200 25 81 201 25 81 201 25 82 201 25 82
201 25 82 201 25 82 201 25 82 201 25 82 201 25 82 201 25 82 201 25 82
201 25 82 201 25 81 201 25 81 201 25 81 200 25 81 200 25 81 200 25 81
200 25 81 200 25 81 200 25 81 200 25 81 200 25 81 199 25 81 199 25 81
199 25 81 199 25 81 199 25 81 198 25 81 198 24 80 198 24 80 198 24 80
197 24 80 197 24 80 197 24 80 196 24 80 196 24 80 196 24 79 195 24 79
195 24 79 195 24 79 194 24 79 194 24 79 194 24 78 193 24 78 193 24 78
192 24 78 192 24 78 191 24 78 191
12 38 94 12 39 94 12 39 94 12 39 95 12 39 95 12 39 95 12 39 95 12 39
96 12 39 96 31 84 200 31 85 200 31 85 201 31 85 202 31 86 203 31 86
204 32 87 205 32 87 205 32 87 206 32 88 207 32 88 208 32 88 209 32 89
210 33 89 211 33 90 212 33 90 212 33 90 213 33 91 214 33 91 215 33 91
216 34 92 217 34 92 218 34 93 219 34 93 220 34 93 220 34 94 221 34 94
222 35 94 223 35 95 224 35 95 225 35 95 226 35 96 226 35 96 227 35 97
228 36 97 229 36 97 230 36 98 231 36 98 232 36 98 232 36 99 233 36 99
234 43 122 255 43 122 255 44 122 255 44 123 255 44 123 255 44 124 255
44 124 255 44 125 255 37 102 241 38 102 241 38 103 242 38 103 243 38
103 243 38 103 244 38 104 245 38 104 245 38 104 246 38 104 246 38 105
247 39 105 248 39 105 248 39 105 249 39 105 249 39 106 250 39 106 250
39 106 250 39 106 251 39 106 251 39 106 251 39 107 252 39 107 252 14
46 111 5 67 54 2 58 30 2 58 30 2 58 30 5 68 54 5 68 54 6 68 55 6 68 55
6 68 55 6 68 55 6 71 56 6 75 58 6 79 59 6 83 60 6 86 62 6 89 63 6 91
63 6 93 64 9 103 88 9 101 87 23 76 186 23 76 186 48 136 255 23 76 187
23 76 188 23 76 188 23 77 189 23 77 189 23 77 189 23 77 190 23 77 190
23 77 191 24 78 191 24 78 191 24 78 192 24 78 192 24 78 192 24 78 193
24 78 193 24 79 193 24 79 194 24 79 194 24 79 194 24 79 195 24 79 195
24 79 195 24 80 196 24 80 196 24 80 196 24 80 197 24 80 197 24 80 197
24 80 197 24 80 198 24 80 198 24 81 198 24 81 198 24 81 199 25 81 199
25 81 199 25 81 199 25 81 199 25 81 200 25 81 200 25 81 200 25 81 200
25 81 200 25 81 200 25 81 201 25 82 201 25 82 201 25 82 201 25 82 201
25 82 201 25 82 201 25 82 201 25 82 201 25 82 201 25 82 201 25 82 201
25 82 201 25 82 201 25 82 201 25 82 201 25 82 201 25 82 201 25 82 201
25 82 201 25 82 201 25 82 201 25 82 201 25 81 201 25 81 200 25 81 200
25 81 200 25 81 200 25 81 200 25 81 199 25 81 199 25 81 199 25 81 199
25 81 199 25 81 198 25 80 198 24 80 198 24 80 197 24 80 197 24 80 197
24 80 196 24 80 196 24 80 196 24 79 195 24 79 195 24 79 195 24 79 194
24 79 194 24 79 193 24 78 193
12 38 94 12 38 94 12 38 94 12 39 94 12 39 94 30 83 196 30 83 197 31 84
198 31 84 199 31 84 200 31 85 200 31 85 201 31 85 202 31 86 203 31 86
204 32 86 205 32 87 205 32 87 206 32 88 207 32 88 208 32 88 209 32 89
210 33 89 210 33 89 211 33 90 212 33 90 213 33 90 214 33 91 215 33 91
215 34 92 216 34 92 217 34 92 218 34 93 219 34 93 220 34 93 220 34 94
221 34 94 222 35 94 223 35 95 224 35 95 225 35 95 225 35 96 226 35 96
227 35 96 228 36 97 229 42 119 255 42 119 255 43 120 255 43 120 255 43
121 255 43 121 255 43 122 255 43 122 255 44 122 255 44 123 255 44 123
255 44 124 255 44 124 255 44 125 255 44 125 255 45 125 255 37 102 241
38 102 241 38 102 242 38 103 242 38 103 243 38 103 244 38 103 244 38
104 245 38 104 245 38 104 246 38 104 246 38 104 246 38 105 247 39 105
247 39 105 248 39 105 248 39 105 248 39 105 249 14 45 109 14 45 110 14
45 110 6 18 42 2 58 30 2 58 30 2 58 30 2 58 30 5 68 55 6 68 55 6 68 55
6 68 55 6 68 55 6 68 56 6 69 56 6 73 57 6 77 59 6 80 60 6 83 60 6 84
61 6 85 61 6 84 61 23 75 185 23 75 185 23 75 185 23 76 186 23 76 186
23 76 187 23 76 187 23 76 188 23 76 188 23 77 188 23 77 189 23 77 189
23 77 190 23 77 190 23 77 190 24 78 191 24 78 191 24 78 192 24 78 192
24 78 192 24 78 193 24 78 193 24 79 193 24 79 194 24 79 194 24 79 194
24 79 195 24 79 195 24 79 195 24 80 196 24 80 196 24 80 196 24 80 197
24 80 197 24 80 197 24 80 197 24 80 198 24 80 198 24 81 198 24 81 199
25 81 199 25 81 199 25 81 199 25 81 199 25 81 200 25 81 200 25 81 200
25 81 200 25 81 200 25 81 201 25 82 201 25 82 201 25 82 201 25 82 201
25 82 201 25 82 201 25 82 201 25 82 202 25 82 202 25 82 202 25 82 202
25 82 202 25 82 202 25 82 202 25 82 202 25 82 202 25 82 202 25 82 202
25 82 202 25 82 202 25 82 202 25 82 202 25 82 201 25 82 201 25 82 201
25 82 201 25 82 201 25 82 201 25 82 201 25 81 201 25 81 200 25 81 200
25 81 200 25 81 200 25 81 199 25 81 199 25 81 199 25 81 199 25 81 198
25 80 198 25 80 198 24 80 197 24 80 197 24 80 197 24 80 196 24 80 196
24 79 196 24 79 195 24 79 195
30 81 193 30 82 193 30 82 194 30 82 195 30 83 196 30 83 196 30 83 197
31 84 198 31 84 199 31 84 199 31 85 200 31 85 201 31 85 202 31 86 203
31 86 203 32 86 204 32 87 205 32 87 206 32 87 207 32 88 207 32 88 208
32 88 209 33 89 210 33 89 211 33 89 211 33 90 212 33 90 213 33 91 214
33 91 215 33 91 215 34 92 216 34 92 217 34 92 218 34 93 219 34 93 219
34 93 220 34 94 221 34 94 222 35 94 223 41 116 255 41 116 255 42 117
255 42 117 255 42 118 255 42 118 255 42 119 255 42 119 255 42 119 255
43 120 255 43 120 255 43 121 255 43 121 255 43 122 255 43 122 255 44
122 255 44 123 255 44 123 255 44 124 255 44 124 255 44 124 255 44 125
255 44 125 255 45 125 255 45 126 255 45 126 255 38 102 241 38 102 241
38 102 242 38 103 242 38 103 243 38 103 243 38 103 243 38 103 244 38
103 244 38 104 245 38 104 245 38 104 245 38 104 246 13 44 108 6 18 42
6 18 42 6 18 42 6 18 42 6 18 42 2 58 30 2 58 30 2 58 30 2 58 30 2 58
30 6 68 55 6 68 55 6 68 55 6 68 55 6 68 56 6 68 56 6 70 56 6 73 57 6
75 58 6 76 58 6 74 58 15 47 116 15 47 116 23 75 184 23 75 184 23 75
185 23 75 185 23 75 186 23 76 186 23 76 187 23 76 187 23 76 187 23 76
188 23 77 188 23 77 189 23 77 189 23 77 190 23 77 190 23 77 190 24 77
191 24 78 191 24 78 191 24 78 192 24 78 192 24 78 193 24 78 193 24 79
193 24 79 194 24 79 194 24 79 194 24 79 195 24 79 195 24 79 195 24 80
196 24 80 196 24 80 196 24 80 197 24 80 197 24 80 197 24 80 198 24 80
198 24 81 198 25 81 198 25 81 199 25 81 199 25 81 199 25 81 199 25 81
200 25 81 200 25 81 200 25 81 200 25 81 201 25 82 201 25 82 201 25 82
201 25 82 201 25 82 201 25 82 202 25 82 202 25 82 202 25 82 202 25 82
202 25 82 202 25 82 202 25 82 202 25 82 202 25 82 202 25 82 202 25 82
202 25 82 202 25 82 202 25 82 202 25 82 202 25 82 202 25 82 202 25 82
202 25 82 202 25 82 202 25 82 202 25 82 202 25 82 202 25 82 202 25 82
201 25 82 201 25 82 201 25 82 201 25 82 201 25 81 200 25 81 200 25 81
200 25 81 200 25 81 199 25 81 199 25 81 199 25 81 199 25 81 198 25 80
198 25 80 198 24 80 197 24 80 197 24 80 196
30 81 193 30 82 193 30 82 194 30 82 195 30 83 195 30 83 196 30 83 197
31 84 198 31 84 198 31 84 199 31 85 200 31 85 201 31 85 202 31 86 202
31 86 203 32 86 204 32 87 205 32 87 205 32 87 206 32 88 207 32 88 208
32 88 208 32 89 209 33 89 210 33 89 211 33 90 211 33 90 212 33 90 213
33 90 214 33 91 215 33 91 215 34 91 216 40 113 255 40 113 255 40 114
255 41 114 255 41 114 255 41 115 255 41 115 255 41 116 255 41 116 255
41 116 255 42 117 255 42 117 255 42 118 255 42 118 255 42 119 255 42
119 255 42 119 255 43 120 255 43 120 255 43 121 255 43 121 255 43 121
255 43 122 255 43 122 255 44 122 255 44 123 255 44 123 255 44 124 255
44 124 255 44 124 255 44 125 255 44 125 255 45 125 255 45 126 255 45
126 255 45 126 255 45 127 255 45 127 255 45 127 255 45 128 255 38 102
241 38 102 241 38 102 242 38 103 242 38 103 242 31 77 179 31 77 179 6
18 42 6 18 42 6 18 42 6 18 42 6 18 42 6 18 42 6 18 42 6 18 42 2 58 30
2 58 30 2 58 30 2 58 30 2 58 30 2 58 30 6 68 56 6 68 56 6 68 56 6 68
56 15 47 115 15 47 116 15 47 116 15 48 117 15 48 117 15 48 117 23 75
184 23 75 184 23 75 184 23 75 185 23 75 185 23 75 186 23 76 186 23 76
187 23 76 187 23 76 187 23 76 188 23 77 188 23 77 189 23 77 189 23 77
189 23 77 190 24 77 190 24 77 191 24 78 191 24 78 191 24 78 192 24 78
192 24 78 193 24 78 193 24 79 193 24 79 194 24 79 194 24 79 194 24 79
195 24 79 195 24 79 196 24 80 196 24 80 196 24 80 197 24 80 197 24 80
197 24 80 197 24 80 198 24 80 198 25 81 198 25 81 199 25 81 199 25 81
199 25 81 199 25 81 200 25 81 200 25 81 200 25 81 200 25 82 201 25 82
201 25 82 201 25 82 201 25 82 201 25 82 202 25 82 202 25 82 202 25 82
202 25 82 202 25 82 202 25 82 202 25 82 203 25 82 203 25 82 203 25 82
203 25 82 203 25 82 203 25 82 203 25 82 203 25 82 203 25 82 203 25 82
203 25 82 203 25 82 203 25 82 203 25 82 203 25 82 203 25 82 203 25 82
203 25 82 202 25 82 202 25 82 202 25 82 202 25 82 202 25 82 202 25 82
201 25 82 201 25 82 201 25 82 201 25 81 200 25 81 200 25 81 200 25 81
200 25 81 199 25 81 199 25 81 199 25 81 198 25 80 198
30 81 192 30 82 193 30 82 194 30 82 195 30 83 195 30 83 196 30 83 197
31 84 197 31 84 198 31 84 199 31 84 200 31 85 200 31 85 201 31 85 202
31 86 203 31 86 203 32 86 204 32 87 205 32 87 205 32 87 206 32 88 207
32 88 208 32 88 208 32 89 209 39 109 255 39 110 255 39 110 255 39 110
255 39 111 255 40 111 255 40 112 255 40 112 255 40 112 255 40 113 255
40 113 255 40 114 255 41 114 255 41 114 255 41 115 255 41 115 255 41
116 255 41 116 255 41 116 255 42 117 255 42 117 255 42 118 255 42 118
255 42 118 255 42 119 255 42 119 255 43 120 255 43 120 255 43 120 255
43 121 255 43 121 255 43 121 255 43 122 255 43 122 255 44 122 255 44
123 255 44 123 255 44 123 255 44 124 255 44 124 255 44 124 255 44 125
255 45 125 255 45 125 255 45 126 255 45 126 255 45 126 255 45 127 255
45 127 255 45 127 255 45 127 255 38 103 242 38 103 243 39 103 243 39
103 244 39 103 244 14 45 109 14 45 110 14 45 110 14 45 110 14 45 111
14 45 111 15 46 112 15 46 112 15 46 112 15 46 113 15 46 113 15 46 114
15 47 114 15 47 114 15 47 115 15 47 115 15 47 116 15 47 116 15 47 116
15 48 117 15 48 117 15 48 118 15 48 118 15 48 118 23 74 183 23 75 184
23 75 184 23 75 184 23 75 185 23 75 185 23 75 186 23 76 186 23 76 187
23 76 187 23 76 187 23 76 188 23 77 188 23 77 189 23 77 189 23 77 190
23 77 190 24 77 190 24 78 191 24 78 191 24 78 192 24 78 192 24 78 192
24 78 193 24 78 193 24 79 193 24 79 194 24 79 194 24 79 195 24 79 195
24 79 195 24 79 196 24 80 196 24 80 196 24 80 197 24 80 197 24 80 197
24 80 198 24 80 198 25 81 198 25 81 199 25 81 199 25 81 199 25 81 199
25 81 200 25 81 200 25 81 200 25 81 201 25 82 201 25 82 201 25 82 201
25 82 201 25 82 202 25 82 202 25 82 202 25 82 202 25 82 202 25 82 203
25 82 203 25 82 203 25 82 203 25 82 203 25 83 203 25 83 203 25 83 203
25 83 203 25 83 203 25 83 203 25 83 204 25 83 204 25 83 204 25 83 204
25 83 204 25 83 204 25 83 203 25 83 203 25 83 203 25 83 203 25 83 203
25 82 203 25 82 203 25 82 203 25 82 203 25 82 202 25 82 202 25 82 202
25 82 202 25 82 202 25 82 201 25 82 201 25 82 201 25 82 201 25 81 200
25 81 200 25 81 200 25 81 199
30 81 192 30 82 193 30 82 194 30 82 194 30 82 195 30 83 196 30 83 196
31 83 197 31 84 198 31 84 198 31 84 199 31 85 200 31 85 200 31 85 201
37 105 250 37 105 251 38 106 252 38 106 253 38 107 254 38 107 255 38
107 255 38 108 255 38 108 255 39 109 255 39 109 255 39 109 255 39 110
255 39 110 255 39 111 255 39 111 255 40 111 255 40 112 255 40 112 255
40 112 255 40 113 255 40 113 255 40 114 255 41 114 255 41 114 255 41
115 255 41 115 255 41 116 255 41 116 255 41 116 255 42 117 255 42 117
255 42 117 255 42 118 255 42 118 255 42 119 255 42 119 255 42 119 255
43 120 255 43 120 255 43 120 255 43 121 255 43 121 255 43 121 255 43
122 255 43 122 255 44 122 255 44 123 255 44 123 255 44 123 255 44 124
255 44 124 255 44 124 255 44 125 255 44 125 255 44 125 255 45 125 255
45 126 255 45 126 255 45 126 255 38 102 241 38 102 241 38 102 242 38
102 242 38 103 243 38 103 243 38 103 244 39 103 244 14 45 111 14 45
111 14 45 111 15 46 112 15 46 112 15 46 113 15 46 113 15 46 113 15 46
114 15 47 114 15 47 115 15 47 115 15 47 115 15 47 116 15 47 116 15 48
117 15 48 117 15 48 117 15 48 118 15 48 118 15 48 119 15 49 119 23 74
182 23 74 183 23 74 183 23 75 184 23 75 184 23 75 184 23 75 185 23 75
185 23 75 186 23 76 186 23 76 187 23 76 187 23 76 187 23 76 188 23 77
188 23 77 189 23 77 189 23 77 190 23 77 190 24 77 190 24 78 191 24 78
191 24 78 192 24 78 192 24 78 192 24 78 193 24 78 193 24 79 194 24 79
194 24 79 194 24 79 195 24 79 195 24 79 195 24 80 196 24 80 196 24 80
196 24 80 197 24 80 197 24 80 198 24 80 198 25 81 198 25 81 198 25 81
199 25 81 199 25 81 199 25 81 200 25 81 200 25 81 200 25 81 201 25 82
201 25 82 201 25 82 201 25 82 202 25 82 202 25 82 202 25 82 202 25 82
202 25 82 203 25 82 203 25 82 203 25 82 203 25 83 203 25 83 203 25 83
203 25 83 204 25 83 204 25 83 204 25 83 204 25 83 204 25 83 204 25 83
204 25 83 204 25 83 204 25 83 204 25 83 204 25 83 204 25 83 204 25 83
204 25 83 204 25 83 204 25 83 204 25 83 204 25 83 203 25 83 203 25 83
203 25 82 203 25 82 203 25 82 203 25 82 202 25 82 202 25 82 202 25 82
202 25 82 201 25 82 201 25 82 201 25 82 201
30 81 192 30 81 193 36 101 240 36 101 241 36 101 241 36 102 242 36 102
243 36 102 244 36 103 245 37 103 246 37 103 247 37 104 248 37 104 248
37 105 249 37 105 250 37 105 251 38 106 252 38 106 253 38 106 254 38
107 255 38 107 255 38 108 255 38 108 255 38 108 255 39 109 255 39 109
255 39 109 255 39 110 255 39 110 255 39 111 255 39 111 255 40 111 255
40 112 255 40 112 255 40 112 255 40 113 255 40 113 255 40 114 255 41
114 255 41 114 255 41 115 255 41 115 255 41 115 255 41 116 255 41 116
255 41 116 255 42 117 255 42 117 255 42 118 255 42 118 255 42 118 255
42 119 255 42 119 255 42 119 255 43 120 255 43 120 255 43 120 255 43
121 255 43 121 255 43 121 255 43 122 255 43 122 255 43 122 255 44 122
255 44 123 255 44 123 255 44 123 255 44 124 255 44 124 255 44 124 255
44 124 255 44 125 255 38 101 238 38 101 239 38 101 239 38 102 240 38
102 240 38 102 241 38 102 241 38 102 242 38 103 242 14 45 111 14 45
111 14 46 112 15 46 112 15 46 112 15 46 113 15 46 113 15 46 113 15 46
114 15 47 114 15 47 115 15 47 115 15 47 115 15 47 116 15 47 116 15 48
117 15 48 117 15 48 117 15 48 118 15 48 118 15 48 119 15 49 119 15 49
120 22 74 181 23 74 182 23 74 182 23 74 183 23 74 183 23 75 184 23 75
184 23 75 184 23 75 185 23 75 185 23 76 186 23 76 186 23 76 187 23 76
187 23 76 188 23 76 188 23 77 188 23 77 189 23 77 189 23 77 190 24 77
190 24 77 190 24 78 191 24 78 191 24 78 192 24 78 192 24 78 192 24 78
193 24 79 193 24 79 194 24 79 194 24 79 194 24 79 195 24 79 195 24 79
196 24 80 196 24 80 196 24 80 197 24 80 197 24 80 197 24 80 198 25 80
198 25 81 198 25 81 199 25 81 199 25 81 199 25 81 200 25 81 200 25 81
200 25 81 200 25 82 201 25 82 201 25 82 201 25 82 202 25 82 202 25 82
202 25 82 202 25 82 202 25 82 203 25 82 203 25 82 203 25 83 203 25 83
203 25 83 204 25 83 204 25 83 204 25 83 204 25 83 204 25 83 204 25 83
204 25 83 204 25 83 204 25 83 204 25 83 204 25 83 204 25 83 204 25 83
204 25 83 204 25 83 204 25 83 204 25 83 204 25 83 204 25 83 204 25 83
204 25 83 204 25 83 204 25 83 204 25 83 203 25 83 203 25 82 203 25 82
203 25 82 203 25 82 202 25 82 202 25 82 202 25 82 202
35 100 238 35 100 239 36 101 240 36 101 241 36 101 241 36 102 242 36
102 243 36 102 244 36 103 245 37 103 246 37 103 246 37 104 247 37 104
248 37 104 249 37 105 250 37 105 251 37 105 252 38 106 252 38 106 253
38 107 254 38 107 255 38 107 255 38 108 255 38 108 255 38 108 255 39
109 255 39 109 255 39 109 255 39 110 255 39 110 255 39 111 255 39 111
255 40 111 255 40 112 255 40 112 255 40 112 255 40 113 255 40 113 255
40 113 255 40 114 255 41 114 255 41 114 255 41 115 255 41 115 255 41
115 255 41 116 255 41 116 255 41 117 255 42 117 255 42 117 255 42 118
255 42 118 255 42 118 255 42 118 255 42 119 255 42 119 255 42 119 255
43 120 255 43 120 255 43 120 255 43 121 255 43 121 255 43 121 255 43
122 255 43 122 255 43 122 255 43 122 255 44 123 255 44 123 255 44 123
255 44 123 255 37 100 237 37 100 237 38 101 238 38 101 238 38 101 239
38 101 239 14 45 110 14 45 110 14 45 110 14 45 111 14 45 111 15 46 112
15 46 112 15 46 112 15 46 113 15 46 113 15 46 113 15 46 114 15 47 114
15 47 115 15 47 115 15 47 115 15 47 116 15 47 116 15 48 117 15 48 117
15 48 117 15 48 118 15 48 118 15 48 119 15 49 119 15 49 120 16 49 120
22 73 181 22 74 181 22 74 181 23 74 182 23 74 182 23 74 183 23 74 183
23 75 184 23 75 184 23 75 185 23 75 185 23 75 185 23 76 186 23 76 186
23 76 187 23 76 187 23 76 188 23 76 188 23 77 188 23 77 189 23 77 189
23 77 190 24 77 190 24 77 191 24 78 191 24 78 191 24 78 192 24 78 192
24 78 193 24 78 193 24 79 193 24 79 194 24 79 194 24 79 195 24 79 195
24 79 195 24 80 196 24 80 196 24 80 196 24 80 197 24 80 197 24 80 198
25 80 198 25 81 198 25 81 199 25 81 199 25 81 199 25 81 199 25 81 200
25 81 200 25 81 200 25 82 201 25 82 201 25 82 201 25 82 201 25 82 202
25 82 202 25 82 202 25 82 202 25 82 203 25 82 203 25 82 203 25 83 203
25 83 203 25 83 204 25 83 204 25 83 204 25 83 204 25 83 204 25 83 204
25 83 204 25 83 204 25 83 205 25 83 205 25 83 205 25 83 205 25 83 205
25 83 205 25 83 205 25 83 205 25 83 205 25 83 205 25 83 205 25 83 204
25 83 204 25 83 204 25 83 204 25 83 204 25 83 204 25 83 204 25 83 204
25 83 203 25 83 203 25 82 203 25 82 203 25 82 203
35 100 238 35 100 239 36 100 240 36 101 240 36 101 241 36 101 242 36
102 243 36 102 244 36 102 244 36 103 245 37 103 246 37 104 247 37 104
248 37 104 249 37 105 249 37 105 250 37 105 251 37 106 252 38 106 253
38 106 253 38 107 254 38 107 255 38 107 255 38 108 255 38 108 255 38
108 255 39 109 255 39 109 255 39 109 255 39 110 255 39 110 255 39 110
255 39 111 255 40 111 255 40 112 255 40 112 255 40 112 255 40 113 255
40 113 255 40 113 255 40 114 255 40 114 255 41 114 255 41 115 255 41
115 255 41 115 255 41 116 255 41 116 255 41 116 255 41 116 255 42 117
255 42 117 255 42 117 255 42 118 255 42 118 255 42 118 255 42 119 255
42 119 255 42 119 255 42 119 255 43 120 255 43 120 255 43 120 255 43
121 255 43 121 255 43 121 255 43 121 255 43 122 255 43 122 255 43 122
255 37 99 235 37 100 235 37 100 236 37 100 236 14 45 109 14 45 109 14
45 110 14 45 110 14 45 110 14 45 111 14 45 111 15 46 112 15 46 112 15
46 112 15 46 113 15 46 113 15 46 113 15 46 114 15 47 114 15 47 115 15
47 115 15 47 115 15 47 116 15 47 116 15 48 117 15 48 117 15 48 117 15
48 118 15 48 118 15 48 119 15 49 119 15 49 120 16 49 120 22 73 179 22
73 180 22 73 180 22 73 181 22 74 181 22 74 182 23 74 182 23 74 182 23
74 183 23 75 183 23 75 184 23 75 184 23 75 185 23 75 185 23 75 186 23
76 186 23 76 186 23 76 187 23 76 187 23 76 188 23 76 188 23 77 189 23
77 189 23 77 189 24 77 190 24 77 190 24 77 191 24 78 191 24 78 191 24
78 192 24 78 192 24 78 193 24 78 193 24 79 193 24 79 194 24 79 194 24
79 195 24 79 195 24 79 195 24 80 196 24 80 196 24 80 197 24 80 197 24
80 197 24 80 198 25 80 198 25 81 198 25 81 199 25 81 199 25 81 199 25
81 200 25 81 200 25 81 200 25 81 201 25 82 201 25 82 201 25 82 201 25
82 202 25 82 202 25 82 202 25 82 202 25 82 203 25 82 203 25 82 203 25
83 203 25 83 203 25 83 204 25 83 204 25 83 204 25 83 204 25 83 204 25
83 204 25 83 204 25 83 205 25 83 205 25 83 205 25 83 205 25 83 205 25
83 205 25 83 205 25 83 205 25 83 205 25 83 205 25 83 205 25 83 205 25
83 205 25 83 205 25 83 205 25 83 205 25 83 204 25 83 204 25 83 204 25
83 204 25 83 204 25 83 204 25 83 203 25 83 203
35 100 238 35 100 239 36 100 239 36 101 240 36 101 241 36 101 242 36
102 242 36 102 243 36 102 244 36 103 245 37 103 246 37 103 246 37 104
247 37 104 248 37 104 249 37 105 250 37 105 250 37 105 251 38 106 252
38 106 253 38 106 254 38 107 254 38 107 255 38 107 255 38 108 255 38
108 255 38 108 255 39 109 255 39 109 255 39 109 255 39 110 255 39 110
255 39 110 255 39 111 255 39 111 255 40 111 255 40 112 255 40 112 255
40 112 255 40 113 255 40 113 255 40 113 255 40 114 255 40 114 255 41
114 255 41 115 255 41 115 255 41 115 255 41 115 255 41 116 255 41 116
255 41 116 255 41 117 255 42 117 255 42 117 255 42 118 255 42 118 255
42 118 255 42 118 255 42 119 255 42 119 255 42 119 255 42 119 255 43
120 255 43 120 255 43 120 255 43 120 255 43 121 255 43 121 255 43 121
255 37 99 233 14 44 108 14 44 109 14 45 109 14 45 109 14 45 110 14 45
110 14 45 110 14 45 111 14 45 111 14 46 112 15 46 112 15 46 112 15 46
113 15 46 113 15 46 113 15 46 114 15 47 114 15 47 115 15 47 115 15 47
115 15 47 116 15 47 116 15 48 117 15 48 117 15 48 117 15 48 118 15 48
118 15 48 119 15 49 119 15 49 119 16 49 120 16 49 120 22 73 179 22 73
179 22 73 179 22 73 180 22 73 180 22 73 181 22 74 181 23 74 182 23 74
182 23 74 183 23 74 183 23 75 183 23 75 184 23 75 184 23 75 185 23 75
185 23 75 186 23 76 186 23 76 186 23 76 187 23 76 187 23 76 188 23 76
188 23 77 189 23 77 189 23 77 189 24 77 190 24 77 190 24 77 191 24 78
191 24 78 192 24 78 192 24 78 192 24 78 193 24 78 193 24 79 194 24 79
194 24 79 194 24 79 195 24 79 195 24 79 196 24 80 196 24 80 196 24 80
197 24 80 197 24 80 197 25 80 198 25 80 198 25 81 198 25 81 199 25 81
199 25 81 199 25 81 200 25 81 200 25 81 200 25 81 201 25 82 201 25 82
201 25 82 201 25 82 202 25 82 202 25 82 202 25 82 202 25 82 203 25 82
203 25 83 203 25 83 203 25 83 204 25 83 204 25 83 204 25 83 204 25 83
204 25 83 204 25 83 204 25 83 205 25 83 205 25 83 205 25 83 205 25 83
205 25 83 205 25 83 205 25 83 205 25 83 205 25 83 205 25 83 205 25 83
205 25 83 205 25 83 205 25 83 205 25 83 205 25 83 205 25 83 204 25 83
204 25 83 204 25 83 204 25 83 204 25 83 204
35 100 238 35 100 238 36 100 239 36 101 240 36 101 241 36 101 241 36
101 242 36 102 243 36 102 244 36 102 244 36 103 245 37 103 246 37 103
247 37 104 247 37 104 248 37 104 249 37 105 250 37 105 250 37 105 251
38 106 252 38 106 253 38 106 254 38 107 254 38 107 255 38 107 255 38
108 255 38 108 255 38 108 255 39 109 255 39 109 255 39 109 255 39 110
255 39 110 255 39 110 255 39 110 255 39 111 255 39 111 255 40 111 255
40 112 255 40 112 255 40 112 255 40 113 255 40 113 255 40 113 255 40
114 255 40 114 255 41 114 255 41 114 255 41 115 255 41 115 255 41 115
255 41 116 255 41 116 255 41 116 255 41 116 255 41 117 255 42 117 255
42 117 255 42 118 255 42 118 255 42 118 255 42 118 255 42 119 255 42
119 255 42 119 255 42 119 255 42 120 255 42 120 255 20 66 163 14 44
108 14 44 108 14 44 109 14 45 109 14 45 109 14 45 110 14 45 110 14 45
110 14 45 111 14 45 111 14 46 111 15 46 112 15 46 112 15 46 113 15 46
113 15 46 113 15 46 114 15 47 114 15 47 114 15 47 115 15 47 115 15 47
116 15 47 116 15 48 116 15 48 117 15 48 117 15 48 118 15 48 118 15 48
118 15 48 119 15 49 119 15 49 120 16 49 120 22 72 177 22 72 178 22 72
178 22 73 179 22 73 179 22 73 180 22 73 180 22 73 180 22 74 181 22 74
181 23 74 182 23 74 182 23 74 183 23 74 183 23 75 183 23 75 184 23 75
184 23 75 185 23 75 185 23 75 186 23 76 186 23 76 187 23 76 187 23 76
187 23 76 188 23 76 188 23 77 189 23 77 189 23 77 189 24 77 190 24 77
190 24 78 191 24 78 191 24 78 192 24 78 192 24 78 192 24 78 193 24 79
193 24 79 194 24 79 194 24 79 194 24 79 195 24 79 195 24 79 196 24 80
196 24 80 196 24 80 197 24 80 197 24 80 197 25 80 198 25 80 198 25 81
198 25 81 199 25 81 199 25 81 199 25 81 200 25 81 200 25 81 200 25 82
201 25 82 201 25 82 201 25 82 201 25 82 202 25 82 202 25 82 202 25 82
202 25 82 203 25 82 203 25 83 203 25 83 203 25 83 204 25 83 204 25 83
204 25 83 204 25 83 204 25 83 204 25 83 204 25 83 205 25 83 205 25 83
205 25 83 205 25 83 205 25 83 205 25 83 205 25 83 205 25 83 205 25 83
205 25 83 205 25 83 205 25 83 205 25 83 205 25 83 205 25 83 205 25 83
205 25 83 204 25 83 204 25 83 204 25 83 204
35 99 237 35 100 238 35 100 239 36 100 239 36 101 240 36 101 241 36
101 242 36 102 242 36 102 243 36 102 244 36 103 245 36 103 245 37 103
246 37 103 247 37 104 247 37 104 248 37 104 249 37 105 250 37 105 250
37 105 251 37 106 252 38 106 253 38 106 253 38 107 254 38 107 255 38
107 255 38 107 255 38 108 255 38 108 255 38 108 255 39 109 255 39 109
255 39 109 255 39 110 255 39 110 255 39 110 255 39 111 255 39 111 255
39 111 255 40 111 255 40 112 255 40 112 255 40 112 255 40 113 255 40
113 255 40 113 255 40 113 255 40 114 255 40 114 255 41 114 255 41 115
255 41 115 255 41 115 255 41 115 255 41 116 255 41 116 255 41 116 255
41 116 255 41 117 255 41 117 255 42 117 255 42 117 255 42 118 255 42
118 255 42 118 255 42 118 255 20 66 162 20 66 162 20 66 162 14 44 108
14 44 109 14 44 109 14 45 109 14 45 110 14 45 110 14 45 110 14 45 111
14 45 111 14 45 111 15 46 112 15 46 112 15 46 112 15 46 113 15 46 113
15 46 114 15 47 114 15 47 114 15 47 115 15 47 115 15 47 115 15 47 116
15 47 116 15 48 117 15 48 117 15 48 117 15 48 118 15 48 118 15 48 119
15 49 119 15 49 119 16 49 120 22 72 176 22 72 177 22 72 177 22 72 177
22 72 178 22 72 178 22 73 179 22 73 179 22 73 180 22 73 180 22 73 180
22 74 181 23 74 181 23 74 182 23 74 182 23 74 183 23 74 183 23 75 184
23 75 184 23 75 184 23 75 185 23 75 185 23 75 186 23 76 186 23 76 187
23 76 187 23 76 187 23 76 188 23 77 188 23 77 189 23 77 189 24 77 190
24 77 190 24 77 190 24 78 191 24 78 191 24 78 192 24 78 192 24 78 192
24 78 193 24 79 193 24 79 194 24 79 194 24 79 194 24 79 195 24 79 195
24 79 196 24 80 196 24 80 196 24 80 197 24 80 197 24 80 197 25 80 198
25 80 198 25 81 198 25 81 199 25 81 199 25 81 199 25 81 200 25 81 200
25 81 200 25 81 201 25 82 201 25 82 201 25 82 201 25 82 202 25 82 202
25 82 202 25 82 202 25 82 203 25 82 203 25 82 203 25 83 203 25 83 203
25 83 204 25 83 204 25 83 204 25 83 204 25 83 204 25 83 204 25 83 204
25 83 205 25 83 205 25 83 205 25 83 205 25 83 205 25 83 205 25 83 205
25 83 205 25 83 205 25 83 205 25 83 205 25 83 205 25 83 205 25 83 205
25 83 205 25 83 204 25 83 204 25 83 204
35 99 237 35 100 238 35 100 238 36 100 239 36 100 240 36 101 240 36
101 241 36 101 242 36 102 243 36 102 243 36 102 244 36 103 245 36 103
245 37 103 246 37 103 247 37 104 247 37 104 248 37 104 249 37 105 250
37 105 250 37 105 251 37 106 252 38 106 252 38 106 253 38 106 254 38
107 255 38 107 255 38 107 255 38 108 255 38 108 255 38 108 255 39 108
255 39 109 255 39 109 255 39 109 255 39 110 255 39 110 255 39 110 255
39 110 255 39 111 255 39 111 255 40 111 255 40 112 255 40 112 255 40
112 255 40 112 255 40 113 255 40 113 255 40 113 255 40 114 255 40 114
255 40 114 255 41 114 255 41 115 255 41 115 255 41 115 255 41 115 255
41 116 255 41 116 255 41 116 255 41 116 255 41 117 255 41 117 255 20
65 160 20 65 160 20 65 161 20 66 161 20 66 161 14 44 108 14 44 109 14
44 109 14 45 109 14 45 110 14 45 110 14 45 110 14 45 111 14 45 111 14
45 111 15 46 112 15 46 112 15 46 112 15 46 113 15 46 113 15 46 113 15
46 114 15 47 114 15 47 115 15 47 115 15 47 115 15 47 116 15 47 116 15
48 116 15 48 117 15 48 117 15 48 118 15 48 118 15 48 118 15 48 119 15
49 119 15 49 120 22 71 175 22 71 175 22 71 176 22 72 176 22 72 177 22
72 177 22 72 178 22 72 178 22 73 178 22 73 179 22 73 179 22 73 180 22
73 180 22 73 181 22 74 181 23 74 181 23 74 182 23 74 182 23 74 183 23
74 183 23 75 184 23 75 184 23 75 184 23 75 185 23 75 185 23 75 186 23
76 186 23 76 187 23 76 187 23 76 187 23 76 188 23 77 188 23 77 189 23
77 189 24 77 190 24 77 190 24 77 190 24 78 191 24 78 191 24 78 192 24
78 192 24 78 192 24 78 193 24 78 193 24 79 194 24 79 194 24 79 194 24
79 195 24 79 195 24 79 195 24 80 196 24 80 196 24 80 197 24 80 197 24
80 197 25 80 198 25 80 198 25 81 198 25 81 199 25 81 199 25 81 199 25
81 200 25 81 200 25 81 200 25 81 200 25 82 201 25 82 201 25 82 201 25
82 202 25 82 202 25 82 202 25 82 202 25 82 202 25 82 203 25 82 203 25
82 203 25 83 203 25 83 203 25 83 204 25 83 204 25 83 204 25 83 204 25
83 204 25 83 204 25 83 204 25 83 204 25 83 204 25 83 205 25 83 205 25
83 205 25 83 205 25 83 205 25 83 205 25 83 205 25 83 205 25 83 205 25
83 204 25 83 204 25 83 204 25 83 204
