P3
50 25
255
0 0 0 0 0 0 0 0 0 0 0 0 0 0 0 0 0 0 0 0 0 0 0 0 0 0 0 0 0 0 0 0 0 5 0
1 5 0 1 5 0 1 5 0 1 5 0 1 5 0 1 5 0 1 5 0 1 5 0 1 5 0 1 5 0 1 7 1 2 9
1 2 11 1 3 12 1 4 9 1 3 15 0 2 0 0 0 0 0 0 0 0 0 0 0 0 0 0 0 0 0 0 0 0
0 0 0 0 0 0 0 0 0 0 0 0 0 0 0 0 0 0 0 0 0 0 0 0 0 0 0 0 0 0 0 0 0 0 0
0 0 0 0 0 0 0 0 0 0 0
0 0 0 0 0 0 0 0 0 0 0 0 0 0 0 0 0 0 0 0 0 0 0 0 0 0 0 0 0 0 5 0 1 5 0
1 5 0 1 5 0 1 5 0 1 5 0 1 5 0 1 5 0 1 5 0 1 5 0 1 5 0 1 6 0 1 6 0 1 7
0 1 5 0 1 5 0 1 5 0 1 5 0 1 18 0 2 0 0 0 0 0 0 0 0 0 0 0 0 0 0 0 0 0 0
0 0 0 0 0 0 0 0 0 0 0 0 0 0 0 0 0 0 0 0 0 0 0 0 0 0 0 0 0 0 0 0 0 0 0
0 0 0 0 0 0 0 0 0 0
0 0 0 0 0 0 0 0 0 0 0 0 0 0 0 0 0 0 0 0 0 0 0 0 0 0 0 5 0 1 5 0 1 5 0
1 5 0 1 5 0 1 5 0 1 5 0 1 5 0 1 5 0 1 5 0 1 5 0 1 5 0 1 7 0 1 13 1 3
17 2 4 5 0 1 5 0 1 5 0 1 5 0 1 7 0 1 97 7 11 0 0 0 0 0 0 0 0 0 0 0 0 0
0 0 0 0 0 0 0 0 0 0 0 0 0 0 0 0 0 0 0 0 0 0 0 0 0 0 0 0 0 0 0 0 0 0 0
0 0 0 0 0 0 0 0 0 0 0 0
0 0 0 0 0 0 0 0 0 0 0 0 0 0 0 0 0 0 0 0 0 0 0 0 0 0 0 5 0 1 5 0 1 5 0
1 5 0 1 5 0 1 5 0 1 5 0 1 5 0 1 5 0 1 5 0 1 5 0 1 5 0 1 5 0 1 7 0 1 5
0 1 5 0 1 5 0 1 5 0 1 5 0 1 5 0 1 11 0 2 0 0 0 0 0 0 0 0 0 0 0 0 0 0 0
0 0 0 0 0 0 0 0 0 0 0 0 0 0 0 0 0 0 0 0 0 0 0 0 0 0 0 0 0 0 0 0 0 0 0
0 0 0 0 0 0 0 0 0 0
0 0 0 0 0 0 0 0 0 0 0 0 0 0 0 0 0 0 0 0 0 0 0 0 5 0 1 5 0 1 5 0 1 5 0
1 5 0 1 5 0 1 5 0 1 5 0 1 5 0 1 5 0 1 5 0 1 5 0 1 5 0 1 5 0 1 5 0 1 5
0 1 5 0 1 5 0 1 5 0 1 5 0 1 5 0 1 5 0 1 19 0 3 0 0 0 0 0 0 0 0 0 0 0 0
0 0 0 0 0 0 0 0 0 0 0 0 0 0 0 0 0 0 0 0 0 0 0 0 0 0 0 0 0 0 0 0 0 0 0
0 0 0 0 0 0 0 0 0 0
0 0 0 0 0 0 0 0 0 0 0 0 0 0 0 0 0 0 0 0 0 0 0 0 5 0 1 5 0 1 5 0 1 5 0
1 5 0 1 5 0 1 5 0 1 5 0 1 5 0 1 5 0 1 5 0 1 5 0 1 5 0 1 5 0 1 5 0 1 5
0 1 5 0 1 5 0 1 5 0 1 5 0 1 5 0 1 5 0 1 9 0 1 0 0 0 0 0 0 0 0 0 0 0 0
0 0 0 0 0 0 0 0 0 0 0 0 0 0 0 0 0 0 0 0 0 0 0 0 0 0 0 0 0 0 0 0 0 0 0
0 0 0 0 0 0 0 0 0 0
6 0 1 6 0 1 6 0 1 6 0 1 6 0 1 6 0 1 6 0 1 6 0 1 6 0 1 6 0 1 6 0 1 6 0
1 6 0 1 6 0 1 6 0 1 6 0 1 6 0 1 6 0 1 6 0 1 6 0 1 6 0 1 6 0 1 6 0 1 6
0 1 6 0 1 6 0 1 6 0 1 6 0 1 6 0 1 6 0 1 6 0 1 23 1 3 7 1 2 7 1 2 7 1 2
7 1 2 7 1 2 7 1 2 7 1 2 7 1 2 7 1 2 7 1 2 7 1 2 7 1 2 7 1 2 7 1 2 7 1
2 7 1 2 7 1 2 7 1 2
6 0 1 6 0 1 6 0 1 6 0 1 6 0 1 6 0 1 6 0 1 6 0 1 6 0 1 6 0 1 6 0 1 7 0
1 7 0 1 7 0 1 7 0 1 7 0 1 7 0 1 7 0 1 7 0 1 7 0 1 7 0 1 7 0 1 7 0 1 7
0 1 7 0 1 7 0 1 7 0 1 7 0 1 7 0 1 7 0 1 7 0 1 15 0 2 11 1 2 11 1 2 11
1 2 11 1 2 11 1 2 11 1 2 10 1 2 10 1 2 10 1 2 10 1 2 10 1 2 10 1 2 10
1 2 10 1 2 10 1 2 10 1 2 10 1 2 10 1 2
12 1 3 12 1 3 12 1 3 12 1 3 12 1 3 12 1 3 13 1 3 6 0 1 6 0 1 6 0 1 6 0
1 8 0 1 8 0 1 8 0 1 8 0 1 8 0 1 8 0 1 8 0 1 8 0 1 8 0 1 8 0 1 8 0 1 8
0 1 8 0 1 8 0 1 8 0 1 8 0 1 8 0 1 8 0 1 8 0 1 8 0 1 11 0 2 15 1 3 15 1
3 15 1 3 15 1 3 14 1 3 14 1 3 14 1 3 14 1 3 14 1 3 14 1 3 13 1 3 13 1
3 13 1 3 13 1 3 13 1 3 13 1 3 12 1 3 12 1 3
14 1 3 14 1 3 15 1 3 15 1 3 15 1 3 15 1 3 15 1 3 8 0 1 8 0 1 8 0 1 8 0
1 8 0 1 8 0 1 8 0 1 8 0 1 9 0 1 9 0 2 9 0 2 9 0 2 9 0 2 9 0 2 9 0 2 9
0 2 9 0 2 9 0 2 9 0 2 9 0 2 9 0 2 9 0 2 9 0 2 9 0 2 9 0 2 20 2 4 20 2
4 19 2 4 19 2 4 19 2 4 19 2 4 18 2 4 18 2 4 18 1 4 18 1 4 17 1 4 17 1
4 17 1 4 16 1 4 16 1 4 16 1 3 16 1 3 15 1 3
17 1 4 17 1 4 17 1 4 17 1 4 18 1 4 18 2 4 18 2 4 9 0 2 9 0 2 9 0 2 9 0
2 9 0 2 9 0 2 9 0 2 9 0 2 9 0 2 9 0 2 10 0 2 10 0 2 10 1 2 10 1 2 10 1
2 10 1 2 10 1 2 10 1 2 10 1 2 10 1 2 10 1 2 10 1 2 10 1 2 10 1 2 10 1
2 26 2 6 25 2 6 25 2 6 25 2 5 24 2 5 24 2 5 24 2 5 23 2 5 23 2 5 22 2
5 22 2 5 21 2 5 21 2 5 20 2 4 20 2 4 20 2 4 19 2 4 19 2 4
19 2 4 19 2 4 20 2 4 20 2 4 20 2 4 21 2 5 21 2 5 22 2 5 9 0 2 9 0 2 10
0 2 10 1 2 10 1 2 10 1 2 10 1 2 10 1 2 10 1 2 10 1 2 11 1 2 11 1 2 11
1 2 11 1 2 11 1 2 11 1 2 11 1 2 11 1 2 11 1 2 11 1 2 12 1 2 12 1 2 11
1 2 11 1 2 44 5 12 40 5 11 38 5 10 37 5 10 37 5 10 37 5 10 38 5 10 41
5 11 45 6 12 27 2 6 27 2 6 26 2 6 25 2 6 25 2 5 24 2 5 24 2 5 23 2 5
23 2 5
21 2 5 22 2 5 22 2 5 23 2 5 23 2 5 24 2 5 24 2 5 25 2 5 10 1 2 10 1 2
10 1 2 10 1 2 11 1 2 11 1 2 11 1 2 11 1 2 11 1 2 11 1 2 11 1 2 12 1 2
12 1 2 12 1 2 12 1 2 12 1 2 12 1 2 13 1 2 13 1 2 13 1 2 13 1 2 13 1 2
38 5 10 32 4 9 31 4 8 29 4 8 28 3 7 28 3 7 28 3 7 27 3 7 28 3 7 29 4 8
31 4 8 34 4 9 40 5 11 31 3 7 30 3 7 30 2 6 29 2 6 28 2 6 27 2 6 27 2 6
23 2 5 24 2 5 24 2 5 25 2 5 25 2 6 26 2 6 27 2 6 27 2 6 11 1 2 11 1 2
11 1 2 11 1 2 11 1 2 11 1 2 11 1 2 12 1 2 12 1 2 12 1 2 12 1 2 13 1 2
13 1 2 13 1 2 13 1 3 13 1 3 14 1 3 14 1 3 14 1 3 14 1 3 14 1 3 30 4 8
27 3 7 29 3 8 28 3 7 28 3 7 28 3 7 28 3 7 28 3 7 28 3 7 28 3 7 28 3 7
28 3 7 28 3 7 28 3 7 32 4 8 36 3 8 35 3 8 34 3 7 33 3 7 32 3 7 31 3 7
25 2 6 26 2 6 26 2 6 27 2 6 27 2 6 28 2 6 29 2 6 29 2 6 30 3 7 11 1 2
11 1 2 11 1 2 12 1 2 12 1 2 12 1 2 12 1 2 12 1 2 13 1 2 13 1 2 13 1 3
13 1 3 14 1 3 14 1 3 14 1 3 14 1 3 15 1 3 15 1 3 15 1 3 24 3 6 24 3 6
27 3 7 29 3 8 28 3 8 28 3 8 28 3 7 28 3 7 28 3 7 28 3 7 28 3 7 28 3 7
28 3 7 28 3 7 28 3 7 28 3 7 28 3 7 39 3 9 38 3 8 37 3 8 36 3 8 35 3 8
27 2 6 27 2 6 28 2 6 29 2 6 29 2 6 30 2 7 31 3 7 31 3 7 32 3 7 12 1 2
12 1 2 12 1 2 12 1 2 12 1 2 12 1 2 13 1 2 13 1 2 13 1 3 13 1 3 14 1 3
14 1 3 14 1 3 14 1 3 15 1 3 15 1 3 15 1 3 15 1 3 27 3 7 24 3 6 26 3 6
31 4 8 29 3 8 29 3 8 29 3 8 28 3 7 28 3 7 28 3 7 28 3 7 28 3 8 28 3 7
28 3 7 28 3 7 28 3 7 28 3 7 28 3 7 28 3 7 42 4 9 41 3 9 40 3 9 39 3 8
28 2 6 29 2 6 30 2 6 30 3 7 31 3 7 31 3 7 32 3 7 33 3 7 34 3 7 35 3 8
12 1 2 12 1 2 12 1 2 13 1 2 13 1 2 13 1 2 13 1 3 13 1 3 14 1 3 14 1 3
14 1 3 14 1 3 15 1 3 15 1 3 15 1 3 15 1 3 16 1 3 27 3 7 24 3 6 28 3 7
29 3 8 29 3 8 29 3 8 29 3 8 29 3 8 29 3 8 28 3 8 28 3 8 28 3 7 28 3 7
28 3 7 28 3 7 28 3 7 28 3 7 28 3 7 28 3 7 28 3 7 44 4 10 43 4 9 42 3 9
30 2 6 30 3 7 31 3 7 31 3 7 32 3 7 33 3 7 33 3 7 34 3 7 35 3 8 36 3 8
37 3 8 12 1 2 13 1 2 13 1 2 13 1 2 13 1 3 13 1 3 14 1 3 14 1 3 14 1 3
14 1 3 15 1 3 15 1 3 15 1 3 15 1 3 15 1 3 16 1 3 27 3 7 27 3 7 29 3 8
29 3 8 29 3 8 29 3 8 29 3 8 29 3 8 29 3 8 29 3 8 29 3 8 28 3 8 28 3 7
28 3 7 28 3 7 28 3 7 28 3 7 28 3 7 28 3 7 28 3 7 32 4 8 46 4 10 45 4
10
31 3 7 31 3 7 32 3 7 32 3 7 33 3 7 34 3 7 34 3 8 35 3 8 36 3 8 37 3 8
37 3 8 38 3 8 13 1 2 13 1 2 13 1 3 13 1 3 14 1 3 14 1 3 14 1 3 14 1 3
14 1 3 15 1 3 15 1 3 15 1 3 15 1 3 15 1 3 28 3 7 27 3 7 29 3 8 29 3 8
28 3 8 28 3 8 28 3 8 28 3 7 28 3 8 28 3 8 28 3 8 28 3 8 28 3 8 28 3 8
28 3 7 28 3 7 28 3 7 28 3 7 29 3 8 28 3 8 28 3 8 30 4 8 48 4 10 47 4
10
32 3 7 32 3 7 33 3 7 33 3 7 34 3 7 35 3 8 35 3 8 36 3 8 37 3 8 37 3 8
38 3 8 39 3 9 40 3 9 13 1 2 13 1 3 13 1 3 14 1 3 14 1 3 14 1 3 14 1 3
14 1 3 14 1 3 15 1 3 15 1 3 15 1 3 15 1 3 30 4 8 30 4 8 30 4 8 28 3 7
28 3 7 28 3 7 28 3 7 28 3 7 28 3 7 28 3 8 28 3 8 28 3 7 28 3 7 28 3 7
28 3 7 28 3 8 28 3 7 28 3 7 29 3 8 29 3 8 28 3 8 30 4 8 49 4 11 48 4
10
32 3 7 33 3 7 33 3 7 34 3 7 35 3 8 35 3 8 36 3 8 36 3 8 37 3 8 38 3 8
38 3 8 39 3 9 40 3 9 41 3 9 41 3 9 13 1 3 14 1 3 14 1 3 14 1 3 14 1 3
14 1 3 14 1 3 15 1 3 15 1 3 15 1 3 50 4 11 30 4 8 33 4 8 31 4 8 30 4 8
28 3 7 28 3 7 28 3 7 28 3 7 28 3 7 28 3 7 28 3 7 28 3 7 28 3 7 28 3 7
28 3 7 28 3 7 28 3 7 28 3 7 28 3 7 29 3 8 29 3 8 30 4 8 33 4 9 49 4 11
33 3 7 33 3 7 34 3 7 35 3 8 6 0 1 6 0 1 6 0 1 6 0 1 6 0 1 6 0 1 6 0 1
6 0 1 6 0 1 6 0 1 6 0 1 6 0 1 6 0 1 44 4 10 44 4 10 45 4 10 46 4 10 46
4 10 47 4 10 48 4 10 49 4 11 49 4 11 34 4 9 29 3 8 29 3 8 29 3 8 30 4
8 29 3 8 28 3 7 28 3 7 28 3 7 28 3 7 28 3 7 28 3 7 28 3 7 28 3 7 28 3
7 28 3 7 28 3 7 28 3 7 28 3 7 28 3 8 29 4 8 31 4 8 33 4 9 49 4 11
6 0 1 6 0 1 6 0 1 6 0 1 6 0 1 6 0 1 6 0 1 6 0 1 6 0 1 6 0 1 6 0 1 6 0
1 6 0 1 6 0 1 6 0 1 6 0 1 6 0 1 6 0 1 6 0 1 6 0 1 45 4 10 46 4 10 46 4
10 47 4 10 48 4 10 48 4 11 49 4 11 29 3 8 29 3 8 29 3 8 29 3 8 29 3 8
29 3 8 29 3 8 28 3 7 28 3 7 28 3 7 28 3 7 28 3 7 28 3 7 28 3 7 28 3 7
28 3 7 28 3 7 28 3 7 29 4 8 31 4 8 32 4 8 33 4 9 49 4 11
6 0 1 6 0 1 6 0 1 6 0 1 6 0 1 6 0 1 6 0 1 6 0 1 6 0 1 6 0 1 6 0 1 6 0
1 6 0 1 6 0 1 6 0 1 6 0 1 6 0 1 6 0 1 6 0 1 6 0 1 6 0 1 6 0 1 46 4 10
46 4 10 47 4 10 47 4 10 48 4 10 29 3 8 29 3 8 29 3 8 29 3 8 29 3 8 29
3 8 29 3 8 30 4 8 30 4 8 29 4 8 29 3 8 28 3 7 28 3 7 28 3 7 28 3 7 29
3 8 29 4 8 30 4 8 31 4 8 32 4 8 32 4 8 34 4 9 49 4 11
6 0 1 6 0 1 6 0 1 6 0 1 6 0 1 6 0 1 6 0 1 6 0 1 6 0 1 6 0 1 6 0 1 6 0
1 6 0 1 6 0 1 6 0 1 6 0 1 6 0 1 6 0 1 6 0 1 6 0 1 6 0 1 6 0 1 6 0 1 46
4 10 46 4 10 47 4 10 47 4 10 29 3 8 29 3 8 29 3 8 29 3 8 29 3 8 29 3 8
29 3 8 31 4 8 31 4 8 31 4 8 31 4 8 30 4 8 30 4 8 30 4 8 31 4 8 30 4 8
31 4 8 31 4 8 32 4 8 32 4 8 33 4 8 34 4 9 48 4 11
