P3
400 200
255
0 0 0 0 0 0 0 0 0 0 0 0 0 0 0 0 0 0 0 0 0 0 0 0 0 0 0 0 0 0 0 0 0 0 0
0 0 0 0 0 0 0 0 0 0 0 0 0 0 0 0 0 0 0 0 0 0 0 0 0 0 0 0 0 0 0 0 0 0 0
0 0 0 0 0 0 0 0 0 0 0 0 0 0 0 0 0 0 0 0 0 0 0 0 0 0 0 0 0 0 0 0 0 0 0
0 0 0 0 0 0 0 0 0 0 0 0 0 0 0 0 0 0 0 0 0 0 0 0 0 0 0 0 0 0 0 0 0 0 0
0 0 0 0 0 0 0 0 0 0 0 0 0 0 0 0 0 0 0 0 0 0 0 0 0 0 0 0 0 0 0 0 0 0 0
0 0 0 0 0 0 0 0 0 0 0 0 0 0 0 0 0 0 0 0 0 0 0 0 0 0 0 0 0 0 0 0 0 0 0
0 0 0 0 0 0 0 0 0 0 0 0 0 0 0 0 0 0 0 0 0 0 0 0 0 0 0 0 0 0 0 0 0 0 0
0 0 0 0 0 0 0 0 0 0 0 0 0 0 0 0 0 0 0 0 0 0 0 0 0 0 0 0 0 0 0 0 0 0 0
0 0 0 0 0 0 0 0 0 0 0 0 0 0 0 0 0 0 0 0 0 0 0 0 0 0 0 0 0 0 0 0 0 0 0
0 0 0 0 0 0 0 0 0 0 0 0 0 0 0 0 0 0 0 0 0 0 0 0 0 0 0 0 0 0 0 0 0 0 0
0 0 0 0 0 0 0 0 0 0 0 0 0 0 0 0 0 0 0 0 0 0 0 0 0 0 0 0 0 0 0 0 0 0 2
0 12 1 0 7 1 0 6 1 0 6 1 0 6 1 0 6 1 0 6 1 0 6 1 0 6 1 0 6 1 0 6 1 0 6
1 0 6 1 0 6 1 0 6 1 0 6 1 0 6 1 0 6 1 0 6 1 0 6 1 0 6 1 0 6 1 0 6 1 0
6 1 0 6 1 0 6 1 0 6 1 0 6 1 0 6 1 0 6 1 0 6 1 0 6 1 0 6 1 0 6 1 0 6 1
0 6 1 0 6 1 0 6 1 0 6 1 0 6 1 0 6 1 0 6 1 0 6 1 0 6 1 0 6 1 0 6 1 0 6
1 0 6 1 0 6 1 0 6 1 0 6 1 0 6 1 0 6 1 0 6 1 0 6 1 0 8 1 0 10 1 0 12 2
0 14 2 0 16 2 0 18 2 0 20 2 0 23 2 0 25 2 0 27 3 0 30 3 0 33 3 0 36 3
0 39 3 0 43 4 0 48 0 0 0 0 0 0 0 0 0 0 0 0 0 0 0 0 0 0 0 0 0 0 0 0 0 0
0 0 0 0 0 0 0 0 0 0 0 0 0 0 0 0 0 0 0 0 0 0 0 0 0 0 0 0 0 0 0 0 0 0 0
0 0 0 0 0 3 7 15 4 9 19 4 9 19 4 9 19 4 9 18 4 9 17 4 8 16 4 8 14 3 7
13 3 7 11 3 6 9 3 6 8 3 5 8 3 5 8 3 5 10 3 5 11 3 5 12 3 6 12 3 6 11 0
0 0 0 0 0 0 0 0 0 0 0 0 0 0 0 0 0 0 0 0 0 0 0 0 0 0 0 0 0 0 0 0 0 0 0
0 0 0 0 0 0 0 0 0 0 0 0 0 0 0 0 0 0 0 0 0 0 0 0 0 0 0 0 0 0 0 0 0 0 0
0 0 0 0 0 0 0 0 0 0 0 0 0 0 0 0 0 0 0 0 0 0 0 0 0 0 0 0 0 0 0 0 0 0 0
0 0 0 0 0 0 0 0 0 0 0 0 0 0 0 0 0 0 0 0 0 0 0 0 0 0 0 0 0 0 0 0 0 0 0
0 0 0 0 0 0 0 0 0 0 0 0 0 0 0 0 0 0 0 0 0 0 0 0 0 0 0 0 0 0 0 0 0 0 0
0 0 0 0 0 0 0 0 0 0 0 0 0 0 0 0 0 0 0 0 0 0 0 0 0 0 0 0 0 0 0 0 0 0 0
0 0 0 0 0 0 0 0 0 0 0 0 0 0 0 0 0 0 0 0 0 0 0 0 0 0 0 0 0 0 0 0 0 0 0
0 0 0 0 0 0 0 0 0 0 0 0 0 0 0 0 0 0 0 0 0 0 0 0 0 0 0 0 0 0 0 0 0 0 0
0 0 0 0 0 0 0 0 0 0 0 0 0 0 0 0 0 0 0 0 0 0 0 0 0 0 0 0 0 0 0 0 0 0 0
0 0 0 0 0 0 0 0 0 0 0 0 0 0 0 0 0 0 0 0 0 0 0 0 0 0 0 0 0 0 0 0 0 0 0
0 0 0 0 0 0 0 0 0 0 0 0 0 0 0 0 0 0 0 0 0 0 0 0 0 0 0 0 0 0 0 0 0 0 0
0 0 0 0 0 0 0 0 0 0 0 0 0 0 0 0 0 0 0 0 0 0 0 0 0 0 0 0 0 0 0 0 0 0 0
0 0 0 0 0 0 0 0 0 0 0 0 0 0 0 0 0 0 0 0 0 0 0 0 0 0 0 0 0 0 0 0 0 0 0
0 0 0 0 0 0 0 0 0 0 0 0 0 0 0 0 0 0 0 0 0 0 0 0
0 0 0 0 0 0 0 0 0 0 0 0 0 0 0 0 0 0 0 0 0 0 0 0 0 0 0 0 0 0 0 0 0 0 0
0 0 0 0 0 0 0 0 0 0 0 0 0 0 0 0 0 0 0 0 0 0 0 0 0 0 0 0 0 0 0 0 0 0 0
0 0 0 0 0 0 0 0 0 0 0 0 0 0 0 0 0 0 0 0 0 0 0 0 0 0 0 0 0 0 0 0 0 0 0
0 0 0 0 0 0 0 0 0 0 0 0 0 0 0 0 0 0 0 0 0 0 0 0 0 0 0 0 0 0 0 0 0 0 0
0 0 0 0 0 0 0 0 0 0 0 0 0 0 0 0 0 0 0 0 0 0 0 0 0 0 0 0 0 0 0 0 0 0 0
0 0 0 0 0 0 0 0 0 0 0 0 0 0 0 0 0 0 0 0 0 0 0 0 0 0 0 0 0 0 0 0 0 0 0
0 0 0 0 0 0 0 0 0 0 0 0 0 0 0 0 0 0 0 0 0 0 0 0 0 0 0 0 0 0 0 0 0 0 0
0 0 0 0 0 0 0 0 0 0 0 0 0 0 0 0 0 0 0 0 0 0 0 0 0 0 0 0 0 0 0 0 0 0 0
0 0 0 0 0 0 0 0 0 0 0 0 0 0 0 0 0 0 0 0 0 0 0 0 0 0 0 0 0 0 0 0 0 0 0
0 0 0 0 0 0 0 0 0 0 0 0 0 0 0 0 0 0 0 0 0 0 0 0 0 0 0 0 0 0 0 0 0 0 0
0 0 0 0 0 0 0 0 0 0 0 0 0 0 0 0 0 0 0 0 0 0 0 0 0 0 0 0 0 0 0 0 0 0 2
0 10 1 0 6 1 0 6 1 0 6 1 0 6 1 0 6 1 0 6 1 0 6 1 0 6 1 0 6 1 0 6 1 0 6
1 0 6 1 0 6 1 0 6 1 0 6 1 0 6 1 0 6 1 0 6 1 0 6 1 0 6 1 0 6 1 0 6 1 0
6 1 0 6 1 0 6 1 0 6 1 0 6 1 0 6 1 0 6 1 0 6 1 0 6 1 0 6 1 0 6 1 0 6 1
0 6 1 0 6 1 0 6 1 0 6 1 0 6 1 0 6 1 0 6 1 0 6 1 0 6 1 0 6 1 0 6 1 0 6
1 0 6 1 0 6 1 0 6 1 0 6 1 0 6 1 0 6 1 0 6 1 0 6 1 0 8 1 0 10 1 0 12 2
0 14 2 0 16 2 0 18 2 0 20 2 0 22 2 0 25 2 0 27 2 0 30 3 0 32 3 0 35 3
0 39 3 0 42 3 0 46 4 0 52 0 0 0 0 0 0 0 0 0 0 0 0 0 0 0 0 0 0 0 0 0 0
0 0 0 0 0 0 0 0 0 0 0 0 0 0 0 0 0 0 0 0 0 0 0 0 0 0 0 0 0 0 0 0 0 0 0
4 8 20 4 10 23 4 10 24 4 11 24 4 10 23 4 10 23 4 10 22 4 10 20 4 9 19
4 9 17 4 8 16 4 8 15 3 7 15 3 7 15 3 6 15 3 5 15 3 5 14 3 5 16 3 5 17
3 5 18 3 5 18 3 6 18 3 6 17 0 0 0 0 0 0 0 0 0 0 0 0 0 0 0 0 0 0 0 0 0
0 0 0 0 0 0 0 0 0 0 0 0 0 0 0 0 0 0 0 0 0 0 0 0 0 0 0 0 0 0 0 0 0 0 0
0 0 0 0 0 0 0 0 0 0 0 0 0 0 0 0 0 0 0 0 0 0 0 0 0 0 0 0 0 0 0 0 0 0 0
0 0 0 0 0 0 0 0 0 0 0 0 0 0 0 0 0 0 0 0 0 0 0 0 0 0 0 0 0 0 0 0 0 0 0
0 0 0 0 0 0 0 0 0 0 0 0 0 0 0 0 0 0 0 0 0 0 0 0 0 0 0 0 0 0 0 0 0 0 0
0 0 0 0 0 0 0 0 0 0 0 0 0 0 0 0 0 0 0 0 0 0 0 0 0 0 0 0 0 0 0 0 0 0 0
0 0 0 0 0 0 0 0 0 0 0 0 0 0 0 0 0 0 0 0 0 0 0 0 0 0 0 0 0 0 0 0 0 0 0
0 0 0 0 0 0 0 0 0 0 0 0 0 0 0 0 0 0 0 0 0 0 0 0 0 0 0 0 0 0 0 0 0 0 0
0 0 0 0 0 0 0 0 0 0 0 0 0 0 0 0 0 0 0 0 0 0 0 0 0 0 0 0 0 0 0 0 0 0 0
0 0 0 0 0 0 0 0 0 0 0 0 0 0 0 0 0 0 0 0 0 0 0 0 0 0 0 0 0 0 0 0 0 0 0
0 0 0 0 0 0 0 0 0 0 0 0 0 0 0 0 0 0 0 0 0 0 0 0 0 0 0 0 0 0 0 0 0 0 0
0 0 0 0 0 0 0 0 0 0 0 0 0 0 0 0 0 0 0 0 0 0 0 0 0 0 0 0 0 0 0 0 0 0 0
0 0 0 0 0 0 0 0 0 0 0 0 0 0 0 0 0 0 0 0 0 0 0 0 0 0 0 0 0 0 0 0 0 0 0
0 0 0 0 0 0 0 0 0 0 0 0 0 0 0 0 0 0 0 0 0 0 0 0 0 0 0 0 0 0 0 0 0
0 0 0 0 0 0 0 0 0 0 0 0 0 0 0 0 0 0 0 0 0 0 0 0 0 0 0 0 0 0 0 0 0 0 0
0 0 0 0 0 0 0 0 0 0 0 0 0 0 0 0 0 0 0 0 0 0 0 0 0 0 0 0 0 0 0 0 0 0 0
0 0 0 0 0 0 0 0 0 0 0 0 0 0 0 0 0 0 0 0 0 0 0 0 0 0 0 0 0 0 0 0 0 0 0
0 0 0 0 0 0 0 0 0 0 0 0 0 0 0 0 0 0 0 0 0 0 0 0 0 0 0 0 0 0 0 0 0 0 0
0 0 0 0 0 0 0 0 0 0 0 0 0 0 0 0 0 0 0 0 0 0 0 0 0 0 0 0 0 0 0 0 0 0 0
0 0 0 0 0 0 0 0 0 0 0 0 0 0 0 0 0 0 0 0 0 0 0 0 0 0 0 0 0 0 0 0 0 0 0
0 0 0 0 0 0 0 0 0 0 0 0 0 0 0 0 0 0 0 0 0 0 0 0 0 0 0 0 0 0 0 0 0 0 0
0 0 0 0 0 0 0 0 0 0 0 0 0 0 0 0 0 0 0 0 0 0 0 0 0 0 0 0 0 0 0 0 0 0 0
0 0 0 0 0 0 0 0 0 0 0 0 0 0 0 0 0 0 0 0 0 0 0 0 0 0 0 0 0 0 0 0 0 0 0
0 0 0 0 0 0 0 0 0 0 0 0 0 0 0 0 0 0 0 0 0 0 0 0 0 0 0 0 0 0 0 0 0 0 0
0 0 0 0 0 0 0 0 0 0 0 0 0 0 0 0 0 0 0 0 0 0 0 0 0 0 0 0 0 0 0 2 0 14 1
0 9 1 0 6 1 0 6 1 0 6 1 0 6 1 0 6 1 0 6 1 0 6 1 0 6 1 0 6 1 0 6 1 0 6
1 0 6 1 0 6 1 0 6 1 0 6 1 0 6 1 0 6 1 0 6 1 0 6 1 0 6 1 0 6 1 0 6 1 0
6 1 0 6 1 0 6 1 0 6 1 0 6 1 0 6 1 0 6 1 0 6 1 0 6 1 0 6 1 0 6 1 0 6 1
0 6 1 0 6 1 0 6 1 0 6 1 0 6 1 0 6 1 0 6 1 0 6 1 0 6 1 0 6 1 0 6 1 0 6
1 0 6 1 0 6 1 0 6 1 0 6 1 0 6 1 0 6 1 0 6 1 0 6 1 0 8 1 0 9 1 0 11 2 0
13 2 0 15 2 0 17 2 0 20 2 0 22 2 0 24 2 0 27 2 0 29 3 0 32 3 0 35 3 0
38 3 0 41 3 0 45 4 0 50 0 0 0 0 0 0 0 0 0 0 0 0 0 0 0 0 0 0 0 0 0 0 0
0 0 0 0 0 0 0 0 0 0 0 0 0 0 0 0 0 0 0 0 0 0 0 0 0 0 0 0 0 0 0 5 11 27
5 12 28 5 12 28 5 12 28 5 12 28 5 11 27 5 11 26 4 11 24 4 10 23 4 10
21 4 10 20 4 9 20 4 9 20 4 8 21 3 7 21 3 7 21 3 6 21 3 5 20 3 5 20 3 5
21 3 5 22 3 5 23 3 5 24 3 5 24 3 6 23 4 6 20 0 0 0 0 0 0 0 0 0 0 0 0 0
0 0 0 0 0 0 0 0 0 0 0 0 0 0 0 0 0 0 0 0 0 0 0 0 0 0 0 0 0 0 0 0 0 0 0
0 0 0 0 0 0 0 0 0 0 0 0 0 0 0 0 0 0 0 0 0 0 0 0 0 0 0 0 0 0 0 0 0 0 0
0 0 0 0 0 0 0 0 0 0 0 0 0 0 0 0 0 0 0 0 0 0 0 0 0 0 0 0 0 0 0 0 0 0 0
0 0 0 0 0 0 0 0 0 0 0 0 0 0 0 0 0 0 0 0 0 0 0 0 0 0 0 0 0 0 0 0 0 0 0
0 0 0 0 0 0 0 0 0 0 0 0 0 0 0 0 0 0 0 0 0 0 0 0 0 0 0 0 0 0 0 0 0 0 0
0 0 0 0 0 0 0 0 0 0 0 0 0 0 0 0 0 0 0 0 0 0 0 0 0 0 0 0 0 0 0 0 0 0 0
0 0 0 0 0 0 0 0 0 0 0 0 0 0 0 0 0 0 0 0 0 0 0 0 0 0 0 0 0 0 0 0 0 0 0
0 0 0 0 0 0 0 0 0 0 0 0 0 0 0 0 0 0 0 0 0 0 0 0 0 0 0 0 0 0 0 0 0 0 0
0 0 0 0 0 0 0 0 0 0 0 0 0 0 0 0 0 0 0 0 0 0 0 0 0 0 0 0 0 0 0 0 0 0 0
0 0 0 0 0 0 0 0 0 0 0 0 0 0 0 0 0 0 0 0 0 0 0 0 0 0 0 0 0 0 0 0 0 0 0
0 0 0 0 0 0 0 0 0 0 0 0 0 0 0 0 0 0 0 0 0 0 0 0 0 0 0 0 0 0 0 0 0 0 0
0 0 0 0 0 0 0 0 0 0 0 0 0 0 0 0 0 0 0 0 0 0 0 0 0 0 0 0 0 0 0 0 0 0 0
0 0 0 0 0 0 0 0 0 0 0 0 0 0 0 0 0 0 0 0 0 0 0 0 0 0 0 0 0 0 0 0 0 0 0
0 0 0 0 0 0 0 0 0 0 0 0 0 0 0 0 0 0 0 0 0 0 0 0 0 0 0 0 0 0 0 0 0 0 0
0 0 0 0 0 0 0 0 0 0 0 0 0 0 0 0 0 0 0 0 0 0 0 0 0 0 0 0 0 0 0 0 0 0 0
0 0 0 0 0 0 0 0 0 0 0 0 0 0 0 0 0 0 0 0 0 0 0 0 0 0 0 0 0 0 0 0 0 0 0
0 0 0 0 0 0 0 0 0 0 0 0 0 0 0 0 0 0 0 0 0 0 0 0 0 0 0 0 0 0 0 0 0 0 0
0 0 0 0 0 0 0 0 0 0 0 0 0 0 0 0 0 0 0 0 0 0 0 0 0 0 0 0 0 0 0 0 0 0 0
0 0 0 0 0 0 0 0 0 0 0 0 0 0 0 0 0 0 0 0 0 0 0 0 0 0 0 0 0 0 0 0 0 0 0
0 0 0 0 0 0 0 0 0 0 0 0 0 0 0 0 0 0 0 0 0 0 0 0 0 0 0 0 0 0 0 0 0 0 0
0 0 0 0 0 0 0 0 0 0 0 0 0 0 0 0 0 0 0 0 0 0 0 0 0 0 0 0 0 0 0 0 0 0 0
0 0 0 0 0 0 0 0 0 0 0 0 0 0 0 0 0 0 0 0 0 0 0 0 0 0 0 0 0 0 0 0 0 0 0
0 0 0 0 0 0 0 0 0 0 0 0 0 0 0 0 0 0 0 0 0 0 0 0 0 0 0 0 0 0 0 0 0 0 0
0 0 0 0 0 0 0 0 0 0 0 0 0 0 0 0 0 0 0 0 0 0 0 0 0 0 0 0 0 0 0 2 0 12 1
0 8 1 0 6 1 0 6 1 0 6 1 0 6 1 0 6 1 0 6 1 0 6 1 0 6 1 0 6 1 0 6 1 0 6
1 0 6 1 0 6 1 0 6 1 0 6 1 0 6 1 0 6 1 0 6 1 0 6 1 0 6 1 0 6 1 0 6 1 0
6 1 0 6 1 0 6 1 0 6 1 0 6 1 0 6 1 0 6 1 0 6 1 0 6 1 0 6 1 0 6 1 0 6 1
0 6 1 0 6 1 0 6 1 0 6 1 0 6 1 0 6 1 0 6 1 0 6 1 0 6 1 0 6 1 0 6 1 0 6
1 0 6 1 0 6 1 0 6 1 0 6 1 0 6 1 0 6 1 0 6 1 0 6 1 0 7 1 0 9 1 0 11 2 0
13 2 0 15 2 0 17 2 0 19 2 0 22 2 0 24 2 0 26 2 0 29 3 0 32 3 0 34 3 0
37 3 0 41 3 0 44 4 0 49 4 0 54 0 0 0 0 0 0 0 0 0 0 0 0 0 0 0 0 0 0 0 0
0 0 0 0 0 0 0 0 0 0 0 0 0 0 0 0 0 0 0 0 0 0 0 0 0 4 10 27 5 12 31 5 13
32 5 13 32 5 13 32 5 13 31 5 13 31 5 12 29 5 12 28 5 12 27 4 11 25 4
11 24 4 10 24 4 10 25 4 9 25 4 9 26 4 8 26 4 7 26 3 7 26 3 6 26 3 5 25
3 5 25 3 5 26 3 5 27 3 5 28 3 5 29 3 5 29 3 6 28 4 6 25 0 0 0 0 0 0 0
0 0 0 0 0 0 0 0 0 0 0 0 0 0 0 0 0 0 0 0 0 0 0 0 0 0 0 0 0 0 0 0 0 0 0
0 0 0 0 0 0 0 0 0 0 0 0 0 0 0 0 0 0 0 0 0 0 0 0 0 0 0 0 0 0 0 0 0 0 0
0 0 0 0 0 0 0 0 0 0 0 0 0 0 0 0 0 0 0 0 0 0 0 0 0 0 0 0 0 0 0 0 0 0 0
0 0 0 0 0 0 0 0 0 0 0 0 0 0 0 0 0 0 0 0 0 0 0 0 0 0 0 0 0 0 0 0 0 0 0
0 0 0 0 0 0 0 0 0 0 0 0 0 0 0 0 0 0 0 0 0 0 0 0 0 0 0 0 0 0 0 0 0 0 0
0 0 0 0 0 0 0 0 0 0 0 0 0 0 0 0 0 0 0 0 0 0 0 0 0 0 0 0 0 0 0 0 0 0 0
0 0 0 0 0 0 0 0 0 0 0 0 0 0 0 0 0 0 0 0 0 0 0 0 0 0 0 0 0 0 0 0 0 0 0
0 0 0 0 0 0 0 0 0 0 0 0 0 0 0 0 0 0 0 0 0 0 0 0 0 0 0 0 0 0 0 0 0 0 0
0 0 0 0 0 0 0 0 0 0 0 0 0 0 0 0 0 0 0 0 0 0 0 0 0 0 0 0 0 0 0 0 0 0 0
0 0 0 0 0 0 0 0 0 0 0 0 0 0 0 0 0 0 0 0 0 0 0 0 0 0 0 0 0 0 0 0 0 0 0
0 0 0 0 0 0 0 0 0 0 0 0 0 0 0 0 0 0 0 0 0 0 0 0 0 0 0 0 0 0 0 0 0 0 0
0 0 0 0 0 0 0 0 0 0 0 0 0 0 0 0 0 0 0 0 0 0 0 0 0 0 0 0 0 0 0 0 0 0 0
0 0 0 0 0 0 0 0 0 0 0 0 0 0 0 0 0 0 0 0 0 0 0 0 0 0 0 0 0 0 0 0 0 0 0
0 0 0
0 0 0 0 0 0 0 0 0 0 0 0 0 0 0 0 0 0 0 0 0 0 0 0 0 0 0 0 0 0 0 0 0 0 0
0 0 0 0 0 0 0 0 0 0 0 0 0 0 0 0 0 0 0 0 0 0 0 0 0 0 0 0 0 0 0 0 0 0 0
0 0 0 0 0 0 0 0 0 0 0 0 0 0 0 0 0 0 0 0 0 0 0 0 0 0 0 0 0 0 0 0 0 0 0
0 0 0 0 0 0 0 0 0 0 0 0 0 0 0 0 0 0 0 0 0 0 0 0 0 0 0 0 0 0 0 0 0 0 0
0 0 0 0 0 0 0 0 0 0 0 0 0 0 0 0 0 0 0 0 0 0 0 0 0 0 0 0 0 0 0 0 0 0 0
0 0 0 0 0 0 0 0 0 0 0 0 0 0 0 0 0 0 0 0 0 0 0 0 0 0 0 0 0 0 0 0 0 0 0
0 0 0 0 0 0 0 0 0 0 0 0 0 0 0 0 0 0 0 0 0 0 0 0 0 0 0 0 0 0 0 0 0 0 0
0 0 0 0 0 0 0 0 0 0 0 0 0 0 0 0 0 0 0 0 0 0 0 0 0 0 0 0 0 0 0 0 0 0 0
0 0 0 0 0 0 0 0 0 0 0 0 0 0 0 0 0 0 0 0 0 0 0 0 0 0 0 0 0 0 0 0 0 0 0
0 0 0 0 0 0 0 0 0 0 0 0 0 0 0 0 0 0 0 0 0 0 0 0 0 0 0 0 0 0 0 0 0 0 0
0 0 0 0 0 0 0 0 0 0 0 0 0 0 0 0 0 0 0 0 0 0 0 0 0 0 0 0 3 1 18 2 0 11
1 0 7 1 0 6 1 0 6 1 0 6 1 0 6 1 0 6 1 0 6 1 0 6 1 0 6 1 0 6 1 0 6 1 0
6 1 0 6 1 0 6 1 0 6 1 0 6 1 0 6 1 0 6 1 0 6 1 0 6 1 0 6 1 0 6 1 0 6 1
0 6 1 0 6 1 0 6 1 0 6 1 0 6 1 0 6 1 0 6 1 0 6 1 0 6 1 0 6 1 0 6 1 0 6
1 0 6 1 0 6 1 0 6 1 0 6 1 0 6 1 0 6 1 0 6 1 0 6 1 0 6 1 0 6 1 0 6 1 0
6 1 0 6 1 0 6 1 0 6 1 0 6 1 0 6 1 0 6 1 0 6 1 0 6 1 0 7 1 0 9 1 0 11 1
0 13 2 0 15 2 0 17 2 0 19 2 0 21 2 0 24 2 0 26 2 0 29 3 0 31 3 0 34 3
0 37 3 0 40 3 0 44 4 0 48 4 0 53 0 0 0 0 0 0 0 0 0 0 0 0 0 0 0 0 0 0 0
0 0 0 0 0 0 0 0 0 0 0 0 0 0 0 0 0 0 0 0 0 0 0 4 11 31 5 13 34 5 14 35
5 14 36 5 14 35 5 14 35 5 14 34 5 13 33 5 13 32 5 13 30 5 12 29 5 12
27 4 11 28 4 11 29 4 10 29 4 10 30 4 9 30 4 9 31 4 8 31 4 7 31 3 7 30
3 6 29 3 5 28 3 4 29 3 5 31 3 5 32 3 5 33 3 5 33 3 5 33 3 5 33 4 6 30
0 0 0 0 0 0 0 0 0 0 0 0 0 0 0 0 0 0 0 0 0 0 0 0 0 0 0 0 0 0 0 0 0 0 0
0 0 0 0 0 0 0 0 0 0 0 0 0 0 0 0 0 0 0 0 0 0 0 0 0 0 0 0 0 0 0 0 0 0 0
0 0 0 0 0 0 0 0 0 0 0 0 0 0 0 0 0 0 0 0 0 0 0 0 0 0 0 0 0 0 0 0 0 0 0
0 0 0 0 0 0 0 0 0 0 0 0 0 0 0 0 0 0 0 0 0 0 0 0 0 0 0 0 0 0 0 0 0 0 0
0 0 0 0 0 0 0 0 0 0 0 0 0 0 0 0 0 0 0 0 0 0 0 0 0 0 0 0 0 0 0 0 0 0 0
0 0 0 0 0 0 0 0 0 0 0 0 0 0 0 0 0 0 0 0 0 0 0 0 0 0 0 0 0 0 0 0 0 0 0
0 0 0 0 0 0 0 0 0 0 0 0 0 0 0 0 0 0 0 0 0 0 0 0 0 0 0 0 0 0 0 0 0 0 0
0 0 0 0 0 0 0 0 0 0 0 0 0 0 0 0 0 0 0 0 0 0 0 0 0 0 0 0 0 0 0 0 0 0 0
0 0 0 0 0 0 0 0 0 0 0 0 0 0 0 0 0 0 0 0 0 0 0 0 0 0 0 0 0 0 0 0 0 0 0
0 0 0 0 0 0 0 0 0 0 0 0 0 0 0 0 0 0 0 0 0 0 0 0 0 0 0 0 0 0 0 0 0 0 0
0 0 0 0 0 0 0 0 0 0 0 0 0 0 0 0 0 0 0 0 0 0 0 0 0 0 0 0 0 0 0 0 0 0 0
0 0 0 0 0 0 0 0 0 0 0 0 0 0 0 0 0 0 0 0 0 0 0 0 0 0 0 0 0 0 0 0 0 0 0
0 0 0 0 0 0 0 0 0 0 0 0 0 0 0 0 0 0 0 0 0 0 0 0 0 0 0 0 0 0 0 0 0 0 0
0 0 0 0 0 0 0
0 0 0 0 0 0 0 0 0 0 0 0 0 0 0 0 0 0 0 0 0 0 0 0 0 0 0 0 0 0 0 0 0 0 0
0 0 0 0 0 0 0 0 0 0 0 0 0 0 0 0 0 0 0 0 0 0 0 0 0 0 0 0 0 0 0 0 0 0 0
0 0 0 0 0 0 0 0 0 0 0 0 0 0 0 0 0 0 0 0 0 0 0 0 0 0 0 0 0 0 0 0 0 0 0
0 0 0 0 0 0 0 0 0 0 0 0 0 0 0 0 0 0 0 0 0 0 0 0 0 0 0 0 0 0 0 0 0 0 0
0 0 0 0 0 0 0 0 0 0 0 0 0 0 0 0 0 0 0 0 0 0 0 0 0 0 0 0 0 0 0 0 0 0 0
0 0 0 0 0 0 0 0 0 0 0 0 0 0 0 0 0 0 0 0 0 0 0 0 0 0 0 0 0 0 0 0 0 0 0
0 0 0 0 0 0 0 0 0 0 0 0 0 0 0 0 0 0 0 0 0 0 0 0 0 0 0 0 0 0 0 0 0 0 0
0 0 0 0 0 0 0 0 0 0 0 0 0 0 0 0 0 0 0 0 0 0 0 0 0 0 0 0 0 0 0 0 0 0 0
0 0 0 0 0 0 0 0 0 0 0 0 0 0 0 0 0 0 0 0 0 0 0 0 0 0 0 0 0 0 0 0 0 0 0
0 0 0 0 0 0 0 0 0 0 0 0 0 0 0 0 0 0 0 0 0 0 0 0 0 0 0 0 0 0 0 0 0 0 0
0 0 0 0 0 0 0 0 0 0 0 0 0 0 0 0 0 0 0 0 0 0 0 0 0 0 0 0 2 1 15 2 0 10
1 0 6 1 0 6 1 0 6 1 0 6 1 0 6 1 0 6 1 0 6 1 0 6 1 0 6 1 0 6 1 0 6 1 0
6 1 0 6 1 0 6 1 0 6 1 0 6 1 0 6 1 0 6 1 0 6 1 0 6 1 0 6 1 0 6 1 0 6 1
0 6 1 0 6 1 0 6 1 0 6 1 0 6 1 0 6 1 0 6 1 0 6 1 0 6 1 0 6 1 0 6 1 0 6
1 0 6 1 0 6 1 0 6 1 0 6 1 0 6 1 0 6 1 0 6 1 0 6 1 0 6 1 0 6 1 0 6 1 0
6 1 0 6 1 0 6 1 0 6 1 0 6 1 0 6 1 0 6 1 0 6 1 0 6 1 0 7 1 0 9 1 0 11 1
0 13 2 0 15 2 0 17 2 0 19 2 0 21 2 0 23 2 0 26 2 0 28 3 0 31 3 0 34 3
0 37 3 0 40 3 0 43 3 0 47 4 0 51 4 0 58 0 0 0 0 0 0 0 0 0 0 0 0 0 0 0
0 0 0 0 0 0 0 0 0 0 0 0 0 0 0 0 0 0 0 0 0 5 12 34 5 14 37 6 15 38 6 15
39 6 15 39 6 15 38 5 15 37 5 14 36 5 14 35 5 14 34 5 13 32 5 13 31 5
12 31 5 12 32 5 11 33 4 11 33 4 10 34 4 10 34 4 9 35 4 8 35 4 8 35 3 7
34 3 6 34 3 6 33 3 5 32 3 4 33 3 4 35 3 5 36 3 5 37 3 5 38 3 5 38 3 5
36 4 6 34 0 0 0 0 0 0 0 0 0 0 0 0 0 0 0 0 0 0 0 0 0 0 0 0 0 0 0 0 0 0
0 0 0 0 0 0 0 0 0 0 0 0 0 0 0 0 0 0 0 0 0 0 0 0 0 0 0 0 0 0 0 0 0 0 0
0 0 0 0 0 0 0 0 0 0 0 0 0 0 0 0 0 0 0 0 0 0 0 0 0 0 0 0 0 0 0 0 0 0 0
0 0 0 0 0 0 0 0 0 0 0 0 0 0 0 0 0 0 0 0 0 0 0 0 0 0 0 0 0 0 0 0 0 0 0
0 0 0 0 0 0 0 0 0 0 0 0 0 0 0 0 0 0 0 0 0 0 0 0 0 0 0 0 0 0 0 0 0 0 0
0 0 0 0 0 0 0 0 0 0 0 0 0 0 0 0 0 0 0 0 0 0 0 0 0 0 0 0 0 0 0 0 0 0 0
0 0 0 0 0 0 0 0 0 0 0 0 0 0 0 0 0 0 0 0 0 0 0 0 0 0 0 0 0 0 0 0 0 0 0
0 0 0 0 0 0 0 0 0 0 0 0 0 0 0 0 0 0 0 0 0 0 0 0 0 0 0 0 0 0 0 0 0 0 0
0 0 0 0 0 0 0 0 0 0 0 0 0 0 0 0 0 0 0 0 0 0 0 0 0 0 0 0 0 0 0 0 0 0 0
0 0 0 0 0 0 0 0 0 0 0 0 0 0 0 0 0 0 0 0 0 0 0 0 0 0 0 0 0 0 0 0 0 0 0
0 0 0 0 0 0 0 0 0 0 0 0 0 0 0 0 0 0 0 0 0 0 0 0 0 0 0 0 0 0 0 0 0 0 0
0 0 0 0 0 0 0 0 0 0 0 0 0 0 0 0 0 0 0 0 0 0 0 0 0 0 0 0 0 0 0 0 0 0 0
0 0 0 0 0 0 0 0 0 0 0 0 0 0 0 0 0 0 0 0 0 0 0 0 0 0 0 0 0 0 0 0 0 0 0
0 0 0 0 0 0 0 0 0
0 0 0 0 0 0 0 0 0 0 0 0 0 0 0 0 0 0 0 0 0 0 0 0 0 0 0 0 0 0 0 0 0 0 0
0 0 0 0 0 0 0 0 0 0 0 0 0 0 0 0 0 0 0 0 0 0 0 0 0 0 0 0 0 0 0 0 0 0 0
0 0 0 0 0 0 0 0 0 0 0 0 0 0 0 0 0 0 0 0 0 0 0 0 0 0 0 0 0 0 0 0 0 0 0
0 0 0 0 0 0 0 0 0 0 0 0 0 0 0 0 0 0 0 0 0 0 0 0 0 0 0 0 0 0 0 0 0 0 0
0 0 0 0 0 0 0 0 0 0 0 0 0 0 0 0 0 0 0 0 0 0 0 0 0 0 0 0 0 0 0 0 0 0 0
0 0 0 0 0 0 0 0 0 0 0 0 0 0 0 0 0 0 0 0 0 0 0 0 0 0 0 0 0 0 0 0 0 0 0
0 0 0 0 0 0 0 0 0 0 0 0 0 0 0 0 0 0 0 0 0 0 0 0 0 0 0 0 0 0 0 0 0 0 0
0 0 0 0 0 0 0 0 0 0 0 0 0 0 0 0 0 0 0 0 0 0 0 0 0 0 0 0 0 0 0 0 0 0 0
0 0 0 0 0 0 0 0 0 0 0 0 0 0 0 0 0 0 0 0 0 0 0 0 0 0 0 0 0 0 0 0 0 0 0
0 0 0 0 0 0 0 0 0 0 0 0 0 0 0 0 0 0 0 0 0 0 0 0 0 0 0 0 0 0 0 0 0 0 0
0 0 0 0 0 0 0 0 0 0 0 0 0 0 0 0 0 0 0 0 0 0 0 0 0 0 0 0 2 0 13 1 0 9 1
0 6 1 0 6 1 0 6 1 0 6 1 0 6 1 0 6 1 0 6 1 0 6 1 0 6 1 0 6 1 0 6 1 0 6
1 0 6 1 0 6 1 0 6 1 0 6 1 0 6 1 0 6 1 0 6 1 0 6 1 0 6 1 0 6 1 0 6 1 0
6 1 0 6 1 0 6 1 0 6 1 0 6 1 0 6 1 0 6 1 0 6 1 0 6 1 0 6 1 0 6 1 0 6 1
0 6 1 0 6 1 0 6 1 0 6 1 0 6 1 0 6 1 0 6 1 0 6 1 0 6 1 0 6 1 0 6 1 0 6
1 0 6 1 0 6 1 0 6 1 0 6 1 0 6 1 0 6 1 0 6 1 0 6 1 0 7 1 0 9 1 0 11 1 0
13 2 0 15 2 0 17 2 0 19 2 0 21 2 0 23 2 0 26 2 0 28 3 0 31 3 0 33 3 0
36 3 0 39 3 0 43 3 0 46 4 0 50 4 0 56 0 0 0 0 0 0 0 0 0 0 0 0 0 0 0 0
0 0 0 0 0 0 0 0 0 0 0 0 0 0 0 0 0 5 13 36 6 15 40 6 15 41 6 16 41 6 16
41 6 16 41 6 16 40 6 15 39 5 15 38 5 15 37 5 14 35 5 14 34 5 13 33 5
13 35 5 12 35 5 12 36 5 11 37 4 11 38 4 10 38 4 9 38 4 9 39 4 8 38 3 7
38 3 7 38 3 6 37 3 5 36 3 5 36 3 4 38 3 4 39 3 5 41 3 5 41 3 5 42 3 5
41 3 5 40 4 6 37 0 0 0 0 0 0 0 0 0 0 0 0 0 0 0 0 0 0 0 0 0 0 0 0 0 0 0
0 0 0 0 0 0 0 0 0 0 0 0 0 0 0 0 0 0 0 0 0 0 0 0 0 0 0 0 0 0 0 0 0 0 0
0 0 0 0 0 0 0 0 0 0 0 0 0 0 0 0 0 0 0 0 0 0 0 0 0 0 0 0 0 0 0 0 0 0 0
0 0 0 0 0 0 0 0 0 0 0 0 0 0 0 0 0 0 0 0 0 0 0 0 0 0 0 0 0 0 0 0 0 0 0
0 0 0 0 0 0 0 0 0 0 0 0 0 0 0 0 0 0 0 0 0 0 0 0 0 0 0 0 0 0 0 0 0 0 0
0 0 0 0 0 0 0 0 0 0 0 0 0 0 0 0 0 0 0 0 0 0 0 0 0 0 0 0 0 0 0 0 0 0 0
0 0 0 0 0 0 0 0 0 0 0 0 0 0 0 0 0 0 0 0 0 0 0 0 0 0 0 0 0 0 0 0 0 0 0
0 0 0 0 0 0 0 0 0 0 0 0 0 0 0 0 0 0 0 0 0 0 0 0 0 0 0 0 0 0 0 0 0 0 0
0 0 0 0 0 0 0 0 0 0 0 0 0 0 0 0 0 0 0 0 0 0 0 0 0 0 0 0 0 0 0 0 0 0 0
0 0 0 0 0 0 0 0 0 0 0 0 0 0 0 0 0 0 0 0 0 0 0 0 0 0 0 0 0 0 0 0 0 0 0
0 0 0 0 0 0 0 0 0 0 0 0 0 0 0 0 0 0 0 0 0 0 0 0 0 0 0 0 0 0 0 0 0 0 0
0 0 0 0 0 0 0 0 0 0 0 0 0 0 0 0 0 0 0 0 0 0 0 0 0 0 0 0 0 0 0 0 0 0 0
0 0 0 0 0 0 0 0 0 0 0 0 0 0 0 0 0 0 0 0 0 0 0 0 0 0 0 0 0 0 0 0 0 0 0
0 0 0 0 0 0 0 0 0
0 0 0 0 0 0 0 0 0 0 0 0 0 0 0 0 0 0 0 0 0 0 0 0 0 0 0 0 0 0 0 0 0 0 0
0 0 0 0 0 0 0 0 0 0 0 0 0 0 0 0 0 0 0 0 0 0 0 0 0 0 0 0 0 0 0 0 0 0 0
0 0 0 0 0 0 0 0 0 0 0 0 0 0 0 0 0 0 0 0 0 0 0 0 0 0 0 0 0 0 0 0 0 0 0
0 0 0 0 0 0 0 0 0 0 0 0 0 0 0 0 0 0 0 0 0 0 0 0 0 0 0 0 0 0 0 0 0 0 0
0 0 0 0 0 0 0 0 0 0 0 0 0 0 0 0 0 0 0 0 0 0 0 0 0 0 0 0 0 0 0 0 0 0 0
0 0 0 0 0 0 0 0 0 0 0 0 0 0 0 0 0 0 0 0 0 0 0 0 0 0 0 0 0 0 0 0 0 0 0
0 0 0 0 0 0 0 0 0 0 0 0 0 0 0 0 0 0 0 0 0 0 0 0 0 0 0 0 0 0 0 0 0 0 0
0 0 0 0 0 0 0 0 0 0 0 0 0 0 0 0 0 0 0 0 0 0 0 0 0 0 0 0 0 0 0 0 0 0 0
0 0 0 0 0 0 0 0 0 0 0 0 0 0 0 0 0 0 0 0 0 0 0 0 0 0 0 0 0 0 0 0 0 0 0
0 0 0 0 0 0 0 0 0 0 0 0 0 0 0 0 0 0 0 0 0 0 0 0 0 0 0 0 0 0 0 0 0 0 0
0 0 0 0 0 0 0 0 0 0 0 0 0 0 0 0 0 0 0 0 0 0 0 0 0 3 1 22 2 0 12 1 0 8
1 0 6 1 0 6 1 0 6 1 0 6 1 0 6 1 0 6 1 0 6 1 0 6 1 0 6 1 0 6 1 0 6 1 0
6 1 0 6 1 0 6 1 0 6 1 0 6 1 0 6 1 0 6 1 0 6 1 0 6 1 0 6 1 0 6 1 0 6 1
0 6 1 0 6 1 0 6 1 0 6 1 0 6 1 0 6 1 0 6 1 0 6 1 0 6 1 0 6 1 0 6 1 0 6
1 0 6 1 0 6 1 0 6 1 0 6 1 0 6 1 0 6 1 0 6 1 0 6 1 0 6 1 0 6 1 0 6 1 0
6 1 0 6 1 0 6 1 0 6 1 0 6 1 0 6 1 0 6 1 0 6 1 0 6 1 0 7 1 0 9 1 0 11 1
0 12 2 0 14 2 0 16 2 0 19 2 0 21 2 0 23 2 0 25 2 0 28 3 0 30 3 0 33 3
0 36 3 0 39 3 0 42 3 0 46 4 0 50 4 0 54 4 0 62 0 0 0 0 0 0 0 0 0 0 0 0
0 0 0 0 0 0 0 0 0 0 0 0 0 0 0 5 13 38 6 15 42 6 16 43 6 16 44 6 17 44
6 17 44 6 16 43 6 16 42 6 16 41 6 16 40 5 15 39 5 15 37 5 14 36 5 14
37 5 13 38 5 13 39 5 12 40 5 12 40 5 11 41 4 11 41 4 10 42 4 9 42 4 9
42 3 8 41 3 7 41 3 6 41 3 6 40 3 5 39 3 4 40 3 4 42 3 4 43 3 5 45 3 5
45 3 5 45 3 5 45 3 5 43 4 6 38 0 0 0 0 0 0 0 0 0 0 0 0 0 0 0 0 0 0 0 0
0 0 0 0 0 0 0 0 0 0 0 0 0 0 0 0 0 0 0 0 0 0 0 0 0 0 0 0 0 0 0 0 0 0 0
0 0 0 0 0 0 0 0 0 0 0 0 0 0 0 0 0 0 0 0 0 0 0 0 0 0 0 0 0 0 0 0 0 0 0
0 0 0 0 0 0 0 0 0 0 0 0 0 0 0 0 0 0 0 0 0 0 0 0 0 0 0 0 0 0 0 0 0 0 0
0 0 0 0 0 0 0 0 0 0 0 0 0 0 0 0 0 0 0 0 0 0 0 0 0 0 0 0 0 0 0 0 0 0 0
0 0 0 0 0 0 0 0 0 0 0 0 0 0 0 0 0 0 0 0 0 0 0 0 0 0 0 0 0 0 0 0 0 0 0
0 0 0 0 0 0 0 0 0 0 0 0 0 0 0 0 0 0 0 0 0 0 0 0 0 0 0 0 0 0 0 0 0 0 0
0 0 0 0 0 0 0 0 0 0 0 0 0 0 0 0 0 0 0 0 0 0 0 0 0 0 0 0 0 0 0 0 0 0 0
0 0 0 0 0 0 0 0 0 0 0 0 0 0 0 0 0 0 0 0 0 0 0 0 0 0 0 0 0 0 0 0 0 0 0
0 0 0 0 0 0 0 0 0 0 0 0 0 0 0 0 0 0 0 0 0 0 0 0 0 0 0 0 0 0 0 0 0 0 0
0 0 0 0 0 0 0 0 0 0 0 0 0 0 0 0 0 0 0 0 0 0 0 0 0 0 0 0 0 0 0 0 0 0 0
0 0 0 0 0 0 0 0 0 0 0 0 0 0 0 0 0 0 0 0 0 0 0 0 0 0 0 0 0 0 0 0 0 0 0
0 0 0 0 0 0 0 0 0 0 0 0 0 0 0 0 0 0 0 0 0 0 0 0 0 0 0 0 0 0 0 0 0 0 0
0 0 0 0 0 0 0 0 0 0 0 0 0
0 0 0 0 0 0 0 0 0 0 0 0 0 0 0 0 0 0 0 0 0 0 0 0 0 0 0 0 0 0 0 0 0 0 0
0 0 0 0 0 0 0 0 0 0 0 0 0 0 0 0 0 0 0 0 0 0 0 0 0 0 0 0 0 0 0 0 0 0 0
0 0 0 0 0 0 0 0 0 0 0 0 0 0 0 0 0 0 0 0 0 0 0 0 0 0 0 0 0 0 0 0 0 0 0
0 0 0 0 0 0 0 0 0 0 0 0 0 0 0 0 0 0 0 0 0 0 0 0 0 0 0 0 0 0 0 0 0 0 0
0 0 0 0 0 0 0 0 0 0 0 0 0 0 0 0 0 0 0 0 0 0 0 0 0 0 0 0 0 0 0 0 0 0 0
0 0 0 0 0 0 0 0 0 0 0 0 0 0 0 0 0 0 0 0 0 0 0 0 0 0 0 0 0 0 0 0 0 0 0
0 0 0 0 0 0 0 0 0 0 0 0 0 0 0 0 0 0 0 0 0 0 0 0 0 0 0 0 0 0 0 0 0 0 0
0 0 0 0 0 0 0 0 0 0 0 0 0 0 0 0 0 0 0 0 0 0 0 0 0 0 0 0 0 0 0 0 0 0 0
0 0 0 0 0 0 0 0 0 0 0 0 0 0 0 0 0 0 0 0 0 0 0 0 0 0 0 0 0 0 0 0 0 0 0
0 0 0 0 0 0 0 0 0 0 0 0 0 0 0 0 0 0 0 0 0 0 0 0 0 0 0 0 0 0 0 0 0 0 0
0 0 0 0 0 0 0 0 0 0 0 0 0 0 0 0 0 0 0 0 0 0 0 0 0 3 1 18 2 0 11 1 0 7
1 0 6 1 0 6 1 0 6 1 0 6 1 0 6 1 0 6 1 0 6 1 0 6 1 0 6 1 0 6 1 0 6 1 0
6 1 0 6 1 0 6 1 0 6 1 0 6 1 0 6 1 0 6 1 0 6 1 0 6 1 0 6 1 0 6 1 0 6 1
0 6 1 0 6 1 0 6 1 0 6 1 0 6 1 0 6 1 0 6 1 0 6 1 0 6 1 0 6 1 0 6 1 0 6
1 0 6 1 0 6 1 0 6 1 0 6 1 0 6 1 0 6 1 0 6 1 0 6 1 0 6 1 0 6 1 0 6 1 0
6 1 0 6 1 0 6 1 0 6 1 0 6 1 0 6 1 0 6 1 0 6 1 0 6 1 0 7 1 0 8 1 0 10 1
0 12 2 0 14 2 0 16 2 0 18 2 0 21 2 0 23 2 0 25 2 0 28 3 0 30 3 0 33 3
0 36 3 0 39 3 0 42 3 0 45 4 0 49 4 0 54 4 0 60 0 0 0 0 0 0 0 0 0 0 0 0
0 0 0 0 0 0 0 0 0 0 0 0 5 13 38 6 16 44 6 17 45 6 17 46 6 17 46 6 17
46 6 17 46 6 17 45 6 17 44 6 17 43 6 16 41 6 16 40 5 15 38 5 15 39 5
14 40 5 14 41 5 13 42 5 13 43 5 12 43 5 12 44 4 11 44 4 10 45 4 10 45
4 9 45 4 8 45 3 7 45 3 7 44 3 6 44 3 5 43 3 4 43 3 4 44 3 4 46 3 4 47
3 4 48 3 5 49 3 5 48 3 5 47 3 5 45 4 6 37 0 0 0 0 0 0 0 0 0 0 0 0 0 0
0 0 0 0 0 0 0 0 0 0 0 0 0 0 0 0 0 0 0 0 0 0 0 0 0 0 0 0 0 0 0 0 0 0 0
0 0 0 0 0 0 0 0 0 0 0 0 0 0 0 0 0 0 0 0 0 0 0 0 0 0 0 0 0 0 0 0 0 0 0
0 0 0 0 0 0 0 0 0 0 0 0 0 0 0 0 0 0 0 0 0 0 0 0 0 0 0 0 0 0 0 0 0 0 0
0 0 0 0 0 0 0 0 0 0 0 0 0 0 0 0 0 0 0 0 0 0 0 0 0 0 0 0 0 0 0 0 0 0 0
0 0 0 0 0 0 0 0 0 0 0 0 0 0 0 0 0 0 0 0 0 0 0 0 0 0 0 0 0 0 0 0 0 0 0
0 0 0 0 0 0 0 0 0 0 0 0 0 0 0 0 0 0 0 0 0 0 0 0 0 0 0 0 0 0 0 0 0 0 0
0 0 0 0 0 0 0 0 0 0 0 0 0 0 0 0 0 0 0 0 0 0 0 0 0 0 0 0 0 0 0 0 0 0 0
0 0 0 0 0 0 0 0 0 0 0 0 0 0 0 0 0 0 0 0 0 0 0 0 0 0 0 0 0 0 0 0 0 0 0
0 0 0 0 0 0 0 0 0 0 0 0 0 0 0 0 0 0 0 0 0 0 0 0 0 0 0 0 0 0 0 0 0 0 0
0 0 0 0 0 0 0 0 0 0 0 0 0 0 0 0 0 0 0 0 0 0 0 0 0 0 0 0 0 0 0 0 0 0 0
0 0 0 0 0 0 0 0 0 0 0 0 0 0 0 0 0 0 0 0 0 0 0 0 0 0 0 0 0 0 0 0 0 0 0
0 0 0 0 0 0 0 0 0 0 0 0 0 0 0 0 0 0 0 0 0 0 0 0 0 0 0 0 0 0 0 0 0 0 0
0 0 0 0 0 0 0 0 0 0 0 0 0 0 0 0
0 0 0 0 0 0 0 0 0 0 0 0 0 0 0 0 0 0 0 0 0 0 0 0 0 0 0 0 0 0 0 0 0 0 0
0 0 0 0 0 0 0 0 0 0 0 0 0 0 0 0 0 0 0 0 0 0 0 0 0 0 0 0 0 0 0 0 0 0 0
0 0 0 0 0 0 0 0 0 0 0 0 0 0 0 0 0 0 0 0 0 0 0 0 0 0 0 0 0 0 0 0 0 0 0
0 0 0 0 0 0 0 0 0 0 0 0 0 0 0 0 0 0 0 0 0 0 0 0 0 0 0 0 0 0 0 0 0 0 0
0 0 0 0 0 0 0 0 0 0 0 0 0 0 0 0 0 0 0 0 0 0 0 0 0 0 0 0 0 0 0 0 0 0 0
0 0 0 0 0 0 0 0 0 0 0 0 0 0 0 0 0 0 0 0 0 0 0 0 0 0 0 0 0 0 0 0 0 0 0
0 0 0 0 0 0 0 0 0 0 0 0 0 0 0 0 0 0 0 0 0 0 0 0 0 0 0 0 0 0 0 0 0 0 0
0 0 0 0 0 0 0 0 0 0 0 0 0 0 0 0 0 0 0 0 0 0 0 0 0 0 0 0 0 0 0 0 0 0 0
0 0 0 0 0 0 0 0 0 0 0 0 0 0 0 0 0 0 0 0 0 0 0 0 0 0 0 0 0 0 0 0 0 0 0
0 0 0 0 0 0 0 0 0 0 0 0 0 0 0 0 0 0 0 0 0 0 0 0 0 0 0 0 0 0 0 0 0 0 0
0 0 0 0 0 0 0 0 0 0 0 0 0 0 0 0 0 0 0 0 0 0 0 0 0 2 1 16 2 0 11 1 0 7
1 0 6 1 0 6 1 0 6 1 0 6 1 0 6 1 0 6 1 0 6 1 0 6 1 0 6 1 0 6 1 0 6 1 0
6 1 0 6 1 0 6 1 0 6 1 0 6 1 0 6 1 0 6 1 0 6 1 0 6 1 0 6 1 0 6 1 0 6 1
0 6 1 0 6 1 0 6 1 0 6 1 0 6 1 0 6 1 0 6 1 0 6 1 0 6 1 0 6 1 0 6 1 0 6
1 0 6 1 0 6 1 0 6 1 0 6 1 0 6 1 0 6 1 0 6 1 0 6 1 0 6 1 0 6 1 0 6 1 0
6 1 0 6 1 0 6 1 0 6 1 0 6 1 0 6 1 0 6 1 0 6 1 0 6 1 0 7 1 0 8 1 0 10 1
0 12 2 0 14 2 0 16 2 0 18 2 0 20 2 0 23 2 0 25 2 0 27 2 0 30 3 0 33 3
0 35 3 0 38 3 0 41 3 0 45 4 0 49 4 0 53 4 0 58 0 0 0 0 0 0 0 0 0 0 0 0
0 0 0 0 0 0 0 0 0 0 0 0 6 16 45 6 17 47 6 18 48 6 18 49 6 18 48 6 18
48 6 18 47 6 18 46 6 17 45 6 17 44 6 17 43 6 16 41 6 16 40 5 15 42 5
15 43 5 14 44 5 14 45 5 13 46 5 12 46 5 12 47 5 11 47 4 11 48 4 10 48
4 9 48 4 8 48 4 8 48 3 7 47 3 6 47 3 5 46 3 5 46 3 4 47 3 4 48 3 4 50
3 4 50 3 4 52 3 5 52 3 5 51 3 5 50 4 5 46 0 0 0 0 0 0 0 0 0 0 0 0 0 0
0 0 0 0 0 0 0 0 0 0 0 0 0 0 0 0 0 0 0 0 0 0 0 0 0 0 0 0 0 0 0 0 0 0 0
0 0 0 0 0 0 0 0 0 0 0 0 0 0 0 0 0 0 0 0 0 0 0 0 0 0 0 0 0 0 0 0 0 0 0
0 0 0 0 0 0 0 0 0 0 0 0 0 0 0 0 0 0 0 0 0 0 0 0 0 0 0 0 0 0 0 0 0 0 0
0 0 0 0 0 0 0 0 0 0 0 0 0 0 0 0 0 0 0 0 0 0 0 0 0 0 0 0 0 0 0 0 0 0 0
0 0 0 0 0 0 0 0 0 0 0 0 0 0 0 0 0 0 0 0 0 0 0 0 0 0 0 0 0 0 0 0 0 0 0
0 0 0 0 0 0 0 0 0 0 0 0 0 0 0 0 0 0 0 0 0 0 0 0 0 0 0 0 0 0 0 0 0 0 0
0 0 0 0 0 0 0 0 0 0 0 0 0 0 0 0 0 0 0 0 0 0 0 0 0 0 0 0 0 0 0 0 0 0 0
0 0 0 0 0 0 0 0 0 0 0 0 0 0 0 0 0 0 0 0 0 0 0 0 0 0 0 0 0 0 0 0 0 0 0
0 0 0 0 0 0 0 0 0 0 0 0 0 0 0 0 0 0 0 0 0 0 0 0 0 0 0 0 0 0 0 0 0 0 0
0 0 0 0 0 0 0 0 0 0 0 0 0 0 0 0 0 0 0 0 0 0 0 0 0 0 0 0 0 0 0 0 0 0 0
0 0 0 0 0 0 0 0 0 0 0 0 0 0 0 0 0 0 0 0 0 0 0 0 0 0 0 0 0 0 0 0 0 0 0
0 0 0 0 0 0 0 0 0 0 0 0 0 0 0 0 0 0 0 0 0 0 0 0 0 0 0 0 0 0 0 0 0 0 0
0 0 0 0 0 0 0 0 0 0 0 0 0 0 0 0
0 0 0 0 0 0 0 0 0 0 0 0 0 0 0 0 0 0 0 0 0 0 0 0 0 0 0 0 0 0 0 0 0 0 0
0 0 0 0 0 0 0 0 0 0 0 0 0 0 0 0 0 0 0 0 0 0 0 0 0 0 0 0 0 0 0 0 0 0 0
0 0 0 0 0 0 0 0 0 0 0 0 0 0 0 0 0 0 0 0 0 0 0 0 0 0 0 0 0 0 0 0 0 0 0
0 0 0 0 0 0 0 0 0 0 0 0 0 0 0 0 0 0 0 0 0 0 0 0 0 0 0 0 0 0 0 0 0 0 0
0 0 0 0 0 0 0 0 0 0 0 0 0 0 0 0 0 0 0 0 0 0 0 0 0 0 0 0 0 0 0 0 0 0 0
0 0 0 0 0 0 0 0 0 0 0 0 0 0 0 0 0 0 0 0 0 0 0 0 0 0 0 0 0 0 0 0 0 0 0
0 0 0 0 0 0 0 0 0 0 0 0 0 0 0 0 0 0 0 0 0 0 0 0 0 0 0 0 0 0 0 0 0 0 0
0 0 0 0 0 0 0 0 0 0 0 0 0 0 0 0 0 0 0 0 0 0 0 0 0 0 0 0 0 0 0 0 0 0 0
0 0 0 0 0 0 0 0 0 0 0 0 0 0 0 0 0 0 0 0 0 0 0 0 0 0 0 0 0 0 0 0 0 0 0
0 0 0 0 0 0 0 0 0 0 0 0 0 0 0 0 0 0 0 0 0 0 0 0 0 0 0 0 0 0 0 0 0 0 0
0 0 0 0 0 0 0 0 0 0 0 0 0 0 0 0 0 0 0 0 0 0 0 0 0 2 1 15 2 0 10 1 0 7
1 0 6 1 0 6 1 0 6 1 0 6 1 0 6 1 0 6 1 0 6 1 0 6 1 0 6 1 0 6 1 0 6 1 0
6 1 0 6 1 0 6 1 0 6 1 0 6 1 0 6 1 0 6 1 0 6 1 0 6 1 0 6 1 0 6 1 0 6 1
0 6 1 0 6 1 0 6 1 0 6 1 0 6 1 0 6 1 0 6 1 0 6 1 0 6 1 0 6 1 0 6 1 0 6
1 0 6 1 0 6 1 0 6 1 0 6 1 0 6 1 0 6 1 0 6 1 0 6 1 0 6 1 0 6 1 0 6 1 0
6 1 0 6 1 0 6 1 0 6 1 0 6 1 0 6 1 0 6 1 0 6 1 0 6 1 0 6 1 0 8 1 0 10 1
0 12 2 0 14 2 0 16 2 0 18 2 0 20 2 0 23 2 0 25 2 0 27 2 0 30 3 0 32 3
0 35 3 0 38 3 0 41 3 0 44 4 0 48 4 0 52 4 0 57 5 0 65 0 0 0 0 0 0 0 0
0 0 0 0 0 0 0 0 0 0 6 16 45 6 17 48 6 18 50 6 17 50 6 17 50 6 19 50 6
18 50 6 18 49 6 18 48 6 18 47 6 17 45 6 17 44 6 17 42 6 16 43 6 16 44
5 15 45 5 15 46 5 14 47 5 13 48 5 13 49 5 12 49 5 11 50 4 11 50 4 10
51 4 9 51 4 9 50 4 8 50 3 7 50 3 6 50 3 6 49 3 5 49 3 4 49 3 4 51 3 4
52 3 4 53 3 4 54 3 4 55 3 5 55 3 5 54 3 5 51 4 6 45 0 0 0 0 0 0 0 0 0
0 0 0 0 0 0 0 0 0 0 0 0 0 0 0 0 0 0 0 0 0 0 0 0 0 0 0 0 0 0 0 0 0 0 0
0 0 0 0 0 0 0 0 0 0 0 0 0 0 0 0 0 0 0 0 0 0 0 0 0 0 0 0 0 0 0 0 0 0 0
0 0 0 0 0 0 0 0 0 0 0 0 0 0 0 0 0 0 0 0 0 0 0 0 0 0 0 0 0 0 0 0 0 0 0
0 0 0 0 0 0 0 0 0 0 0 0 0 0 0 0 0 0 0 0 0 0 0 0 0 0 0 0 0 0 0 0 0 0 0
0 0 0 0 0 0 0 0 0 0 0 0 0 0 0 0 0 0 0 0 0 0 0 0 0 0 0 0 0 0 0 0 0 0 0
0 0 0 0 0 0 0 0 0 0 0 0 0 0 0 0 0 0 0 0 0 0 0 0 0 0 0 0 0 0 0 0 0 0 0
0 0 0 0 0 0 0 0 0 0 0 0 0 0 0 0 0 0 0 0 0 0 0 0 0 0 0 0 0 0 0 0 0 0 0
0 0 0 0 0 0 0 0 0 0 0 0 0 0 0 0 0 0 0 0 0 0 0 0 0 0 0 0 0 0 0 0 0 0 0
0 0 0 0 0 0 0 0 0 0 0 0 0 0 0 0 0 0 0 0 0 0 0 0 0 0 0 0 0 0 0 0 0 0 0
0 0 0 0 0 0 0 0 0 0 0 0 0 0 0 0 0 0 0 0 0 0 0 0 0 0 0 0 0 0 0 0 0 0 0
0 0 0 0 0 0 0 0 0 0 0 0 0 0 0 0 0 0 0 0 0 0 0 0 0 0 0 0 0 0 0 0 0 0 0
0 0 0 0 0 0 0 0 0 0 0 0 0 0 0 0 0 0 0 0 0 0 0 0 0 0 0 0 0 0 0 0 0 0 0
0 0 0 0 0 0 0 0 0 0 0 0 0 0 0 0 0 0
0 0 0 0 0 0 0 0 0 0 0 0 0 0 0 0 0 0 0 0 0 0 0 0 0 0 0 0 0 0 0 0 0 0 0
0 0 0 0 0 0 0 0 0 0 0 0 0 0 0 0 0 0 0 0 0 0 0 0 0 0 0 0 0 0 0 0 0 0 0
0 0 0 0 0 0 0 0 0 0 0 0 0 0 0 0 0 0 0 0 0 0 0 0 0 0 0 0 0 0 0 0 0 0 0
0 0 0 0 0 0 0 0 0 0 0 0 0 0 0 0 0 0 0 0 0 0 0 0 0 0 0 0 0 0 0 0 0 0 0
0 0 0 0 0 0 0 0 0 0 0 0 0 0 0 0 0 0 0 0 0 0 0 0 0 0 0 0 0 0 0 0 0 0 0
0 0 0 0 0 0 0 0 0 0 0 0 0 0 0 0 0 0 0 0 0 0 0 0 0 0 0 0 0 0 0 0 0 0 0
0 0 0 0 0 0 0 0 0 0 0 0 0 0 0 0 0 0 0 0 0 0 0 0 0 0 0 0 0 0 0 0 0 0 0
0 0 0 0 0 0 0 0 0 0 0 0 0 0 0 0 0 0 0 0 0 0 0 0 0 0 0 0 0 0 0 0 0 0 0
0 0 0 0 0 0 0 0 0 0 0 0 0 0 0 0 0 0 0 0 0 0 0 0 0 0 0 0 0 0 0 0 0 0 0
0 0 0 0 0 0 0 0 0 0 0 0 0 0 0 0 0 0 0 0 0 0 0 0 0 0 0 0 0 0 0 0 0 0 0
0 0 0 0 0 0 0 0 0 0 0 0 0 0 0 0 0 0 0 0 0 0 0 0 0 2 1 14 2 0 10 1 0 6
1 0 6 1 0 6 1 0 6 1 0 6 1 0 6 1 0 6 1 0 6 1 0 6 1 0 6 1 0 6 1 0 6 1 0
6 1 0 6 1 0 6 1 0 6 1 0 6 1 0 6 1 0 6 1 0 6 1 0 6 1 0 6 1 0 6 1 0 6 1
0 6 1 0 6 1 0 6 1 0 6 1 0 6 1 0 6 1 0 6 1 0 6 1 0 6 1 0 6 1 0 6 1 0 6
1 0 6 1 0 6 1 0 6 1 0 6 1 0 6 1 0 6 1 0 6 1 0 6 1 0 6 1 0 6 1 0 6 1 0
6 1 0 6 1 0 6 1 0 6 1 0 6 1 0 6 1 0 6 1 0 6 1 0 6 1 0 6 1 0 8 1 0 10 1
0 12 2 0 14 2 0 16 2 0 18 2 0 20 2 0 22 2 0 25 2 0 27 2 0 30 3 0 32 3
0 35 3 0 38 3 0 41 3 0 44 4 0 48 4 0 52 4 0 56 4 0 63 0 0 0 0 0 0 0 0
0 0 0 0 0 0 0 6 15 42 6 17 49 6 17 51 6 17 52 6 18 52 6 18 52 6 18 52
6 19 51 6 19 50 6 18 49 6 18 48 6 18 47 6 17 45 6 17 44 6 16 46 6 16
47 6 15 48 5 15 49 5 14 50 5 14 51 5 13 51 5 12 52 5 12 52 5 11 53 4
10 53 4 10 53 4 9 53 4 8 53 3 7 53 3 7 53 3 6 52 3 5 51 3 4 52 3 4 53
3 4 54 3 4 56 3 4 56 3 4 57 3 4 58 3 4 57 3 5 55 3 5 51 0 0 0 0 0 0 0
0 0 0 0 0 0 0 0 0 0 0 0 0 0 0 0 0 0 0 0 0 0 0 0 0 0 0 0 0 0 0 0 0 0 0
0 0 0 0 0 0 0 0 0 0 0 0 0 0 0 0 0 0 0 0 0 0 0 0 0 0 0 0 0 0 0 0 0 0 0
0 0 0 0 0 0 0 0 0 0 0 0 0 0 0 0 0 0 0 0 0 0 0 0 0 0 0 0 0 0 0 0 0 0 0
0 0 0 0 0 0 0 0 0 0 0 0 0 0 0 0 0 0 0 0 0 0 0 0 0 0 0 0 0 0 0 0 0 0 0
0 0 0 0 0 0 0 0 0 0 0 0 0 0 0 0 0 0 0 0 0 0 0 0 0 0 0 0 0 0 0 0 0 0 0
0 0 0 0 0 0 0 0 0 0 0 0 0 0 0 0 0 0 0 0 0 0 0 0 0 0 0 0 0 0 0 0 0 0 0
0 0 0 0 0 0 0 0 0 0 0 0 0 0 0 0 0 0 0 0 0 0 0 0 0 0 0 0 0 0 0 0 0 0 0
0 0 0 0 0 0 0 0 0 0 0 0 0 0 0 0 0 0 0 0 0 0 0 0 0 0 0 0 0 0 0 0 0 0 0
0 0 0 0 0 0 0 0 0 0 0 0 0 0 0 0 0 0 0 0 0 0 0 0 0 0 0 0 0 0 0 0 0 0 0
0 0 0 0 0 0 0 0 0 0 0 0 0 0 0 0 0 0 0 0 0 0 0 0 0 0 0 0 0 0 0 0 0 0 0
0 0 0 0 0 0 0 0 0 0 0 0 0 0 0 0 0 0 0 0 0 0 0 0 0 0 0 0 0 0 0 0 0 0 0
0 0 0 0 0 0 0 0 0 0 0 0 0 0 0 0 0 0 0 0 0 0 0 0 0 0 0 0 0 0 0 0 0 0 0
0 0 0 0 0 0 0 0 0 0 0 0 0 0 0 0 0 0 0 0
0 0 0 0 0 0 0 0 0 0 0 0 0 0 0 0 0 0 0 0 0 0 0 0 0 0 0 0 0 0 0 0 0 0 0
0 0 0 0 0 0 0 0 0 0 0 0 0 0 0 0 0 0 0 0 0 0 0 0 0 0 0 0 0 0 0 0 0 0 0
0 0 0 0 0 0 0 0 0 0 0 0 0 0 0 0 0 0 0 0 0 0 0 0 0 0 0 0 0 0 0 0 0 0 0
0 0 0 0 0 0 0 0 0 0 0 0 0 0 0 0 0 0 0 0 0 0 0 0 0 0 0 0 0 0 0 0 0 0 0
0 0 0 0 0 0 0 0 0 0 0 0 0 0 0 0 0 0 0 0 0 0 0 0 0 0 0 0 0 0 0 0 0 0 0
0 0 0 0 0 0 0 0 0 0 0 0 0 0 0 0 0 0 0 0 0 0 0 0 0 0 0 0 0 0 0 0 0 0 0
0 0 0 0 0 0 0 0 0 0 0 0 0 0 0 0 0 0 0 0 0 0 0 0 0 0 0 0 0 0 0 0 0 0 0
0 0 0 0 0 0 0 0 0 0 0 0 0 0 0 0 0 0 0 0 0 0 0 0 0 0 0 0 0 0 0 0 0 0 0
0 0 0 0 0 0 0 0 0 0 0 0 0 0 0 0 0 0 0 0 0 0 0 0 0 0 0 0 0 0 0 0 0 0 0
0 0 0 0 0 0 0 0 0 0 0 0 0 0 0 0 0 0 0 0 0 0 0 0 0 0 0 0 0 0 0 0 0 0 0
0 0 0 0 0 0 0 0 0 0 0 0 0 0 0 0 0 0 0 0 0 0 0 0 0 2 1 14 2 0 9 1 0 6 1
0 6 1 0 6 1 0 6 1 0 6 1 0 6 1 0 6 1 0 6 1 0 6 1 0 6 1 0 6 1 0 6 1 0 6
1 0 6 1 0 6 1 0 6 1 0 6 1 0 6 1 0 6 1 0 6 1 0 6 1 0 6 1 0 6 1 0 6 1 0
6 1 0 6 1 0 6 1 0 6 1 0 6 1 0 6 1 0 6 1 0 6 1 0 6 1 0 6 1 0 6 1 0 6 1
0 6 1 0 6 1 0 6 1 0 6 1 0 6 1 0 6 1 0 6 1 0 6 1 0 6 1 0 6 1 0 6 1 0 6
1 0 6 1 0 6 1 0 6 1 0 6 1 0 6 1 0 6 1 0 6 1 0 6 1 0 6 1 0 8 1 0 10 1 0
12 2 0 14 2 0 16 2 0 18 2 0 20 2 0 22 2 0 25 2 0 27 2 0 29 3 0 32 3 0
35 3 0 38 3 0 41 3 0 44 4 0 47 4 0 51 4 0 56 4 0 62 0 0 0 0 0 0 0 0 0
0 0 0 0 0 0 6 17 48 6 17 52 6 18 53 6 18 54 6 18 54 6 18 54 6 18 53 7
19 52 6 19 51 6 19 50 6 19 49 6 18 48 6 18 46 6 17 46 6 17 48 6 16 49
6 16 50 5 15 51 5 14 52 5 14 53 5 13 53 5 13 54 5 12 55 5 11 55 4 11
55 4 10 56 4 9 56 4 8 55 4 8 55 3 7 55 3 6 55 3 5 54 3 4 54 3 4 55 3 4
56 3 4 58 3 4 59 3 4 59 3 4 60 3 4 60 3 4 59 3 5 56 4 5 49 0 0 0 0 0 0
0 0 0 0 0 0 0 0 0 0 0 0 0 0 0 0 0 0 0 0 0 0 0 0 0 0 0 0 0 0 0 0 0 0 0
0 0 0 0 0 0 0 0 0 0 0 0 0 0 0 0 0 0 0 0 0 0 0 0 0 0 0 0 0 0 0 0 0 0 0
0 0 0 0 0 0 0 0 0 0 0 0 0 0 0 0 0 0 0 0 0 0 0 0 0 0 0 0 0 0 0 0 0 0 0
0 0 0 0 0 0 0 0 0 0 0 0 0 0 0 0 0 0 0 0 0 0 0 0 0 0 0 0 0 0 0 0 0 0 0
0 0 0 0 0 0 0 0 0 0 0 0 0 0 0 0 0 0 0 0 0 0 0 0 0 0 0 0 0 0 0 0 0 0 0
0 0 0 0 0 0 0 0 0 0 0 0 0 0 0 0 0 0 0 0 0 0 0 0 0 0 0 0 0 0 0 0 0 0 0
0 0 0 0 0 0 0 0 0 0 0 0 0 0 0 0 0 0 0 0 0 0 0 0 0 0 0 0 0 0 0 0 0 0 0
0 0 0 0 0 0 0 0 0 0 0 0 0 0 0 0 0 0 0 0 0 0 0 0 0 0 0 0 0 0 0 0 0 0 0
0 0 0 0 0 0 0 0 0 0 0 0 0 0 0 0 0 0 0 0 0 0 0 0 0 0 0 0 0 0 0 0 0 0 0
0 0 0 0 0 0 0 0 0 0 0 0 0 0 0 0 0 0 0 0 0 0 0 0 0 0 0 0 0 0 0 0 0 0 0
0 0 0 0 0 0 0 0 0 0 0 0 0 0 0 0 0 0 0 0 0 0 0 0 0 0 0 0 0 0 0 0 0 0 0
0 0 0 0 0 0 0 0 0 0 0 0 0 0 0 0 0 0 0 0 0 0 0 0 0 0 0 0 0 0 0 0 0 0 0
0 0 0 0 0 0 0 0 0 0 0 0 0 0 0 0 0 0
0 0 0 0 0 0 0 0 0 0 0 0 0 0 0 0 0 0 0 0 0 0 0 0 0 0 0 0 0 0 0 0 0 0 0
0 0 0 0 0 0 0 0 0 0 0 0 0 0 0 0 0 0 0 0 0 0 0 0 0 0 0 0 0 0 0 0 0 0 0
0 0 0 0 0 0 0 0 0 0 0 0 0 0 0 0 0 0 0 0 0 0 0 0 0 0 0 0 0 0 0 0 0 0 0
0 0 0 0 0 0 0 0 0 0 0 0 0 0 0 0 0 0 0 0 0 0 0 0 0 0 0 0 0 0 0 0 0 0 0
0 0 0 0 0 0 0 0 0 0 0 0 0 0 0 0 0 0 0 0 0 0 0 0 0 0 0 0 0 0 0 0 0 0 0
0 0 0 0 0 0 0 0 0 0 0 0 0 0 0 0 0 0 0 0 0 0 0 0 0 0 0 0 0 0 0 0 0 0 0
0 0 0 0 0 0 0 0 0 0 0 0 0 0 0 0 0 0 0 0 0 0 0 0 0 0 0 0 0 0 0 0 0 0 0
0 0 0 0 0 0 0 0 0 0 0 0 0 0 0 0 0 0 0 0 0 0 0 0 0 0 0 0 0 0 0 0 0 0 0
0 0 0 0 0 0 0 0 0 0 0 0 0 0 0 0 0 0 0 0 0 0 0 0 0 0 0 0 0 0 0 0 0 0 0
0 0 0 0 0 0 0 0 0 0 0 0 0 0 0 0 0 0 0 0 0 0 0 0 0 0 0 0 0 0 0 0 0 0 0
0 0 0 0 0 0 0 0 0 0 0 0 0 0 0 0 0 0 0 0 0 0 3 1 21 2 1 14 1 0 9 1 0 6
1 0 6 1 0 6 1 0 6 1 0 6 1 0 6 1 0 6 1 0 6 1 0 6 1 0 6 1 0 6 1 0 6 1 0
6 1 0 6 1 0 6 1 0 6 1 0 6 1 0 6 1 0 6 1 0 6 1 0 6 1 0 6 1 0 6 1 0 6 1
0 6 1 0 6 1 0 6 1 0 6 1 0 6 1 0 6 1 0 6 1 0 6 1 0 6 1 0 6 1 0 6 1 0 6
1 0 6 1 0 6 1 0 6 1 0 6 1 0 6 1 0 6 1 0 6 1 0 6 1 0 6 1 0 6 1 0 6 1 0
6 1 0 6 1 0 6 1 0 6 1 0 6 1 0 6 1 0 6 1 0 6 1 0 6 1 0 6 1 0 8 1 0 10 1
0 12 2 0 14 2 0 16 2 0 18 2 0 20 2 0 22 2 0 25 2 0 27 2 0 29 3 0 32 3
0 35 3 0 37 3 0 40 3 0 44 4 0 47 4 0 51 4 0 55 4 0 61 0 0 0 0 0 0 0 0
0 0 0 0 6 15 45 6 18 52 6 18 54 6 18 55 6 19 55 6 19 55 6 19 55 6 19
54 7 20 54 7 19 52 6 19 51 6 19 50 6 18 48 6 18 47 6 17 49 6 17 50 6
16 51 6 16 52 5 15 53 5 15 54 5 14 55 5 13 55 5 13 56 5 12 57 5 11 57
4 11 57 4 10 58 4 9 58 4 8 58 4 8 57 3 7 57 3 6 57 3 5 56 3 4 56 3 4
57 3 4 58 3 4 60 3 4 61 3 4 62 3 4 63 3 4 62 3 4 62 3 4 59 3 5 55 0 0
0 0 0 0 0 0 0 0 0 0 0 0 0 0 0 0 0 0 0 0 0 0 0 0 0 0 0 0 0 0 0 0 0 0 0
0 0 0 0 0 0 0 0 0 0 0 0 0 0 0 0 0 0 0 0 0 0 0 0 0 0 0 0 0 0 0 0 0 0 0
0 0 0 0 0 0 0 0 0 0 0 0 0 0 0 0 0 0 0 0 0 0 0 0 0 0 0 0 0 0 0 0 0 0 0
0 0 0 0 0 0 0 0 0 0 0 0 0 0 0 0 0 0 0 0 0 0 0 0 0 0 0 0 0 0 0 0 0 0 0
0 0 0 0 0 0 0 0 0 0 0 0 0 0 0 0 0 0 0 0 0 0 0 0 0 0 0 0 0 0 0 0 0 0 0
0 0 0 0 0 0 0 0 0 0 0 0 0 0 0 0 0 0 0 0 0 0 0 0 0 0 0 0 0 0 0 0 0 0 0
0 0 0 0 0 0 0 0 0 0 0 0 0 0 0 0 0 0 0 0 0 0 0 0 0 0 0 0 0 0 0 0 0 0 0
0 0 0 0 0 0 0 0 0 0 0 0 0 0 0 0 0 0 0 0 0 0 0 0 0 0 0 0 0 0 0 0 0 0 0
0 0 0 0 0 0 0 0 0 0 0 0 0 0 0 0 0 0 0 0 0 0 0 0 0 0 0 0 0 0 0 0 0 0 0
0 0 0 0 0 0 0 0 0 0 0 0 0 0 0 0 0 0 0 0 0 0 0 0 0 0 0 0 0 0 0 0 0 0 0
0 0 0 0 0 0 0 0 0 0 0 0 0 0 0 0 0 0 0 0 0 0 0 0 0 0 0 0 0 0 0 0 0 0 0
0 0 0 0 0 0 0 0 0 0 0 0 0 0 0 0 0 0 0 0 0 0 0 0 0 0 0 0 0 0 0 0 0 0 0
0 0 0 0 0 0 0 0 0 0 0 0 0 0 0 0 0 0 0 0 0 0
0 0 0 0 0 0 0 0 0 0 0 0 0 0 0 0 0 0 0 0 0 0 0 0 0 0 0 0 0 0 0 0 0 0 0
0 0 0 0 0 0 0 0 0 0 0 0 0 0 0 0 0 0 0 0 0 0 0 0 0 0 0 0 0 0 0 0 0 0 0
0 0 0 0 0 0 0 0 0 0 0 0 0 0 0 0 0 0 0 0 0 0 0 0 0 0 0 0 0 0 0 0 0 0 0
0 0 0 0 0 0 0 0 0 0 0 0 0 0 0 0 0 0 0 0 0 0 0 0 0 0 0 0 0 0 0 0 0 0 0
0 0 0 0 0 0 0 0 0 0 0 0 0 0 0 0 0 0 0 0 0 0 0 0 0 0 0 0 0 0 0 0 0 0 0
0 0 0 0 0 0 0 0 0 0 0 0 0 0 0 0 0 0 0 0 0 0 0 0 0 0 0 0 0 0 0 0 0 0 0
0 0 0 0 0 0 0 0 0 0 0 0 0 0 0 0 0 0 0 0 0 0 0 0 0 0 0 0 0 0 0 0 0 0 0
0 0 0 0 0 0 0 0 0 0 0 0 0 0 0 0 0 0 0 0 0 0 0 0 0 0 0 0 0 0 0 0 0 0 0
0 0 0 0 0 0 0 0 0 0 0 0 0 0 0 0 0 0 0 0 0 0 0 0 0 0 0 0 0 0 0 0 0 0 0
0 0 0 0 0 0 0 0 0 0 0 0 0 0 0 0 0 0 0 0 0 0 0 0 0 0 0 0 0 0 0 0 0 0 0
0 0 0 0 0 0 0 0 0 0 0 0 0 0 0 0 0 0 0 0 0 0 3 1 20 2 1 14 1 0 9 1 0 6
1 0 6 1 0 6 1 0 6 1 0 6 1 0 6 1 0 6 1 0 6 1 0 6 1 0 6 1 0 6 1 0 6 1 0
6 1 0 6 1 0 6 1 0 6 1 0 6 1 0 6 1 0 6 1 0 6 1 0 6 1 0 6 1 0 6 1 0 6 1
0 6 1 0 6 1 0 6 1 0 6 1 0 6 1 0 6 1 0 6 1 0 6 1 0 6 1 0 6 1 0 6 1 0 6
1 0 6 1 0 6 1 0 6 1 0 6 1 0 6 1 0 6 1 0 6 1 0 6 1 0 6 1 0 6 1 0 6 1 0
6 1 0 6 1 0 6 1 0 6 1 0 6 1 0 6 1 0 6 1 0 6 1 0 6 1 0 6 1 0 8 1 0 10 1
0 12 2 0 14 2 0 16 2 0 18 2 0 20 2 0 22 2 0 24 2 0 27 2 0 29 3 0 32 3
0 35 3 0 37 3 0 40 3 0 43 3 0 47 4 0 51 4 0 55 4 0 60 5 0 69 0 0 0 0 0
0 0 0 0 6 17 50 6 17 54 6 18 56 6 19 57 6 19 57 6 19 57 6 19 56 6 19
55 6 19 54 7 20 53 6 19 52 6 19 51 6 19 49 6 18 49 6 18 50 6 17 52 6
17 53 6 16 54 6 15 55 5 15 56 5 14 57 5 14 57 5 13 58 5 12 58 5 11 59
4 11 59 4 10 60 4 9 60 4 9 60 4 8 60 3 7 59 3 6 59 3 5 59 3 5 58 3 4
59 3 3 60 3 3 62 3 4 63 3 4 64 3 4 64 3 4 65 3 4 64 3 4 62 3 5 59 0 0
0 0 0 0 0 0 0 0 0 0 0 0 0 0 0 0 0 0 0 0 0 0 0 0 0 0 0 0 0 0 0 0 0 0 0
0 0 0 0 0 0 0 0 0 0 0 0 0 0 0 0 0 0 0 0 0 0 0 0 0 0 0 0 0 0 0 0 0 0 0
0 0 0 0 0 0 0 0 0 0 0 0 0 0 0 0 0 0 0 0 0 0 0 0 0 0 0 0 0 0 0 0 0 0 0
0 0 0 0 0 0 0 0 0 0 0 0 0 0 0 0 0 0 0 0 0 0 0 0 0 0 0 0 0 0 0 0 0 0 0
0 0 0 0 0 0 0 0 0 0 0 0 0 0 0 0 0 0 0 0 0 0 0 0 0 0 0 0 0 0 0 0 0 0 0
0 0 0 0 0 0 0 0 0 0 0 0 0 0 0 0 0 0 0 0 0 0 0 0 0 0 0 0 0 0 0 0 0 0 0
0 0 0 0 0 0 0 0 0 0 0 0 0 0 0 0 0 0 0 0 0 0 0 0 0 0 0 0 0 0 0 0 0 0 0
0 0 0 0 0 0 0 0 0 0 0 0 0 0 0 0 0 0 0 0 0 0 0 0 0 0 0 0 0 0 0 0 0 0 0
0 0 0 0 0 0 0 0 0 0 0 0 0 0 0 0 0 0 0 0 0 0 0 0 0 0 0 0 0 0 0 0 0 0 0
0 0 0 0 0 0 0 0 0 0 0 0 0 0 0 0 0 0 0 0 0 0 0 0 0 0 0 0 0 0 0 0 0 0 0
0 0 0 0 0 0 0 0 0 0 0 0 0 0 0 0 0 0 0 0 0 0 0 0 0 0 0 0 0 0 0 0 0 0 0
0 0 0 0 0 0 0 0 0 0 0 0 0 0 0 0 0 0 0 0 0 0 0 0 0 0 0 0 0 0 0 0 0 0 0
0 0 0 0 0 0 0 0 0 0 0 0 0 0 0 0 0 0 0 0 0 0
0 0 0 0 0 0 0 0 0 0 0 0 0 0 0 0 0 0 0 0 0 0 0 0 0 0 0 0 0 0 0 0 0 0 0
0 0 0 0 0 0 0 0 0 0 0 0 0 0 0 0 0 0 0 0 0 0 0 0 0 0 0 0 0 0 0 0 0 0 0
0 0 0 0 0 0 0 0 0 0 0 0 0 0 0 0 0 0 0 0 0 0 0 0 0 0 0 0 0 0 0 0 0 0 0
0 0 0 0 0 0 0 0 0 0 0 0 0 0 0 0 0 0 0 0 0 0 0 0 0 0 0 0 0 0 0 0 0 0 0
0 0 0 0 0 0 0 0 0 0 0 0 0 0 0 0 0 0 0 0 0 0 0 0 0 0 0 0 0 0 0 0 0 0 0
0 0 0 0 0 0 0 0 0 0 0 0 0 0 0 0 0 0 0 0 0 0 0 0 0 0 0 0 0 0 0 0 0 0 0
0 0 0 0 0 0 0 0 0 0 0 0 0 0 0 0 0 0 0 0 0 0 0 0 0 0 0 0 0 0 0 0 0 0 0
0 0 0 0 0 0 0 0 0 0 0 0 0 0 0 0 0 0 0 0 0 0 0 0 0 0 0 0 0 0 0 0 0 0 0
0 0 0 0 0 0 0 0 0 0 0 0 0 0 0 0 0 0 0 0 0 0 0 0 0 0 0 0 0 0 0 0 0 0 0
0 0 0 0 0 0 0 0 0 0 0 0 0 0 0 0 0 0 0 0 0 0 0 0 0 0 0 0 0 0 0 0 0 0 0
0 0 0 0 0 0 0 0 0 0 0 0 0 0 0 0 0 0 0 0 0 0 3 1 20 2 1 14 1 0 9 1 0 6
1 0 6 1 0 6 1 0 6 1 0 6 1 0 6 1 0 6 1 0 6 1 0 6 1 0 6 1 0 6 1 0 6 1 0
6 1 0 6 1 0 6 1 0 6 1 0 6 1 0 6 1 0 6 1 0 6 1 0 6 1 0 6 1 0 6 1 0 6 1
0 6 1 0 6 1 0 6 1 0 6 1 0 6 1 0 6 1 0 6 1 0 6 1 0 6 1 0 6 1 0 6 1 0 6
1 0 6 1 0 6 1 0 6 1 0 6 1 0 6 1 0 6 1 0 6 1 0 6 1 0 6 1 0 6 1 0 6 1 0
6 1 0 6 1 0 6 1 0 6 1 0 6 1 0 6 1 0 6 1 0 6 1 0 6 1 0 6 1 0 8 1 0 10 1
0 12 2 0 14 2 0 16 2 0 18 2 0 20 2 0 22 2 0 24 2 0 27 2 0 29 3 0 32 3
0 34 3 0 37 3 0 40 3 0 43 3 0 47 4 0 50 4 0 55 4 0 60 5 0 67 0 0 0 0 0
0 0 0 0 6 17 53 6 17 56 6 19 57 6 19 58 6 20 58 6 20 58 6 20 57 6 20
56 6 19 55 7 20 54 7 20 53 6 19 51 6 19 50 6 18 51 6 18 52 6 17 53 6
17 54 6 16 56 6 16 56 5 15 57 5 14 58 5 14 59 5 13 60 5 12 60 5 12 61
4 11 61 4 10 61 4 9 62 4 9 62 4 8 62 3 7 61 3 6 61 3 5 61 3 5 60 3 4
61 3 3 62 3 3 63 3 3 65 3 3 66 3 4 66 3 4 67 3 4 66 3 4 65 3 4 62 3 5
55 0 0 0 0 0 0 0 0 0 0 0 0 0 0 0 0 0 0 0 0 0 0 0 0 0 0 0 0 0 0 0 0 0 0
0 0 0 0 0 0 0 0 0 0 0 0 0 0 0 0 0 0 0 0 0 0 0 0 0 0 0 0 0 0 0 0 0 0 0
0 0 0 0 0 0 0 0 0 0 0 0 0 0 0 0 0 0 0 0 0 0 0 0 0 0 0 0 0 0 0 0 0 0 0
0 0 0 0 0 0 0 0 0 0 0 0 0 0 0 0 0 0 0 0 0 0 0 0 0 0 0 0 0 0 0 0 0 0 0
0 0 0 0 0 0 0 0 0 0 0 0 0 0 0 0 0 0 0 0 0 0 0 0 0 0 0 0 0 0 0 0 0 0 0
0 0 0 0 0 0 0 0 0 0 0 0 0 0 0 0 0 0 0 0 0 0 0 0 0 0 0 0 0 0 0 0 0 0 0
0 0 0 0 0 0 0 0 0 0 0 0 0 0 0 0 0 0 0 0 0 0 0 0 0 0 0 0 0 0 0 0 0 0 0
0 0 0 0 0 0 0 0 0 0 0 0 0 0 0 0 0 0 0 0 0 0 0 0 0 0 0 0 0 0 0 0 0 0 0
0 0 0 0 0 0 0 0 0 0 0 0 0 0 0 0 0 0 0 0 0 0 0 0 0 0 0 0 0 0 0 0 0 0 0
0 0 0 0 0 0 0 0 0 0 0 0 0 0 0 0 0 0 0 0 0 0 0 0 0 0 0 0 0 0 0 0 0 0 0
0 0 0 0 0 0 0 0 0 0 0 0 0 0 0 0 0 0 0 0 0 0 0 0 0 0 0 0 0 0 0 0 0 0 0
0 0 0 0 0 0 0 0 0 0 0 0 0 0 0 0 0 0 0 0 0 0 0 0 0 0 0 0 0 0 0 0 0 0 0
0 0 0 0 0 0 0 0 0 0 0 0 0 0 0 0 0 0 0 0 0 0
0 0 0 0 0 0 0 0 0 0 0 0 0 0 0 0 0 0 0 0 0 0 0 0 0 0 0 0 0 0 0 0 0 0 0
0 0 0 0 0 0 0 0 0 0 0 0 0 0 0 0 0 0 0 0 0 0 0 0 0 0 0 0 0 0 0 0 0 0 0
0 0 0 0 0 0 0 0 0 0 0 0 0 0 0 0 0 0 0 0 0 0 0 0 0 0 0 0 0 0 0 0 0 0 0
0 0 0 0 0 0 0 0 0 0 0 0 0 0 0 0 0 0 0 0 0 0 0 0 0 0 0 0 0 0 0 0 0 0 0
0 0 0 0 0 0 0 0 0 0 0 0 0 0 0 0 0 0 0 0 0 0 0 0 0 0 0 0 0 0 0 0 0 0 0
0 0 0 0 0 0 0 0 0 0 0 0 0 0 0 0 0 0 0 0 0 0 0 0 0 0 0 0 0 0 0 0 0 0 0
0 0 0 0 0 0 0 0 0 0 0 0 0 0 0 0 0 0 0 0 0 0 0 0 0 0 0 0 0 0 0 0 0 0 0
0 0 0 0 0 0 0 0 0 0 0 0 0 0 0 0 0 0 0 0 0 0 0 0 0 0 0 0 0 0 0 0 0 0 0
0 0 0 0 0 0 0 0 0 0 0 0 0 0 0 0 0 0 0 0 0 0 0 0 0 0 0 0 0 0 0 0 0 0 0
0 0 0 0 0 0 0 0 0 0 0 0 0 0 0 0 0 0 0 0 0 0 0 0 0 0 0 0 0 0 0 0 0 0 0
0 0 0 0 0 0 0 0 0 0 0 0 0 0 0 0 0 0 0 0 0 0 3 1 21 2 1 15 1 0 9 1 0 6
1 0 6 1 0 6 1 0 6 1 0 6 1 0 6 1 0 6 1 0 6 1 0 6 1 0 6 1 0 6 1 0 6 1 0
6 1 0 6 1 0 6 1 0 6 1 0 6 1 0 6 1 0 6 1 0 6 1 0 6 1 0 6 1 0 6 1 0 6 1
0 6 1 0 6 1 0 6 1 0 6 1 0 6 1 0 6 1 0 6 1 0 6 1 0 6 1 0 6 1 0 6 1 0 6
1 0 6 1 0 6 1 0 6 1 0 6 1 0 6 1 0 6 1 0 6 1 0 6 1 0 6 1 0 6 1 0 6 1 0
6 1 0 6 1 0 6 1 0 6 1 0 6 1 0 6 1 0 6 1 0 6 1 0 6 1 0 6 1 0 8 1 0 10 1
0 12 2 0 14 2 0 16 2 0 18 2 0 20 2 0 22 2 0 24 2 0 27 2 0 29 3 0 32 3
0 34 3 0 37 3 0 40 3 0 43 3 0 47 4 0 50 4 0 54 4 0 59 5 0 66 0 0 0 0 0
0 6 17 50 6 17 55 6 18 57 6 19 59 6 20 59 6 20 59 6 20 59 6 20 58 6 20
57 6 20 56 7 20 55 7 20 54 6 19 52 6 19 51 6 18 52 6 18 54 6 17 55 6
17 56 6 16 57 6 16 58 5 15 59 5 14 60 5 14 60 5 13 61 5 12 62 5 12 62
4 11 63 4 10 63 4 9 63 4 9 63 4 8 63 3 7 63 3 6 63 3 5 62 3 5 62 3 4
62 3 3 64 2 3 65 3 3 66 3 3 67 3 3 68 3 3 69 3 4 68 3 4 67 3 4 64 3 4
59 0 0 0 0 0 0 0 0 0 0 0 0 0 0 0 0 0 0 0 0 0 0 0 0 0 0 0 0 0 0 0 0 0 0
0 0 0 0 0 0 0 0 0 0 0 0 0 0 0 0 0 0 0 0 0 0 0 0 0 0 0 0 0 0 0 0 0 0 0
0 0 0 0 0 0 0 0 0 0 0 0 0 0 0 0 0 0 0 0 0 0 0 0 0 0 0 0 0 0 0 0 0 0 0
0 0 0 0 0 0 0 0 0 0 0 0 0 0 0 0 0 0 0 0 0 0 0 0 0 0 0 0 0 0 0 0 0 0 0
0 0 0 0 0 0 0 0 0 0 0 0 0 0 0 0 0 0 0 0 0 0 0 0 0 0 0 0 0 0 0 0 0 0 0
0 0 0 0 0 0 0 0 0 0 0 0 0 0 0 0 0 0 0 0 0 0 0 0 0 0 0 0 0 0 0 0 0 0 0
0 0 0 0 0 0 0 0 0 0 0 0 0 0 0 0 0 0 0 0 0 0 0 0 0 0 0 0 0 0 0 0 0 0 0
0 0 0 0 0 0 0 0 0 0 0 0 0 0 0 0 0 0 0 0 0 0 0 0 0 0 0 0 0 0 0 0 0 0 0
0 0 0 0 0 0 0 0 0 0 0 0 0 0 0 0 0 0 0 0 0 0 0 0 0 0 0 0 0 0 0 0 0 0 0
0 0 0 0 0 0 0 0 0 0 0 0 0 0 0 0 0 0 0 0 0 0 0 0 0 0 0 0 0 0 0 0 0 0 0
0 0 0 0 0 0 0 0 0 0 0 0 0 0 0 0 0 0 0 0 0 0 0 0 0 0 0 0 0 0 0 0 0 0 0
0 0 0 0 0 0 0 0 0 0 0 0 0 0 0 0 0 0 0 0 0 0 0 0 0 0 0 0 0 0 0 0 0 0 0
0 0 0 0 0 0 0 0 0 0 0 0 0 0 0 0 0 0 0 0 0 0
0 0 0 0 0 0 0 0 0 0 0 0 0 0 0 0 0 0 0 0 0 0 0 0 0 0 0 0 0 0 0 0 0 0 0
0 0 0 0 0 0 0 0 0 0 0 0 0 0 0 0 0 0 0 0 0 0 0 0 0 0 0 0 0 0 0 0 0 0 0
0 0 0 0 0 0 0 0 0 0 0 0 0 0 0 0 0 0 0 0 0 0 0 0 0 0 0 0 0 0 0 0 0 0 0
0 0 0 0 0 0 0 0 0 0 0 0 0 0 0 0 0 0 0 0 0 0 0 0 0 0 0 0 0 0 0 0 0 0 0
0 0 0 0 0 0 0 0 0 0 0 0 0 0 0 0 0 0 0 0 0 0 0 0 0 0 0 0 0 0 0 0 0 0 0
0 0 0 0 0 0 0 0 0 0 0 0 0 0 0 0 0 0 0 0 0 0 0 0 0 0 0 0 0 0 0 0 0 0 0
0 0 0 0 0 0 0 0 0 0 0 0 0 0 0 0 0 0 0 0 0 0 0 0 0 0 0 0 0 0 0 0 0 0 0
0 0 0 0 0 0 0 0 0 0 0 0 0 0 0 0 0 0 0 0 0 0 0 0 0 0 0 0 0 0 0 0 0 0 0
0 0 0 0 0 0 0 0 0 0 0 0 0 0 0 0 0 0 0 0 0 0 0 0 0 0 0 0 0 0 0 0 0 0 0
0 0 0 0 0 0 0 0 0 0 0 0 0 0 0 0 0 0 0 0 0 0 0 0 0 0 0 0 0 0 0 0 0 0 0
0 0 0 0 0 0 0 0 0 0 0 0 0 0 0 0 0 0 0 0 0 0 4 2 24 3 2 16 1 0 8 1 0 6
1 0 6 1 0 6 1 0 6 1 0 6 1 0 6 1 0 6 1 0 6 1 0 6 1 0 6 1 0 6 1 0 6 1 0
6 1 0 6 1 0 6 1 0 6 1 0 6 1 0 6 1 0 6 1 0 6 1 0 6 1 0 6 1 0 6 1 0 6 1
0 6 1 0 6 1 0 6 1 0 6 1 0 6 1 0 6 1 0 6 1 0 6 1 0 6 1 0 6 1 0 6 1 0 6
1 0 6 1 0 6 1 0 6 1 0 6 1 0 6 1 0 6 1 0 6 1 0 6 1 0 6 1 0 6 1 0 6 1 0
6 1 0 6 1 0 6 1 0 6 1 0 6 1 0 6 1 0 6 1 0 6 1 0 6 1 0 6 1 0 8 1 0 10 1
0 12 2 0 14 2 0 16 2 0 18 2 0 20 2 0 22 2 0 24 2 0 27 2 0 29 3 0 32 3
0 34 3 0 37 3 0 40 3 0 43 3 0 47 4 0 50 4 0 54 4 0 59 5 0 65 0 0 0 0 0
0 6 18 53 6 18 57 6 19 59 6 20 60 6 20 60 7 20 60 7 20 59 7 20 59 6 20
58 6 20 57 7 20 55 7 20 54 6 20 53 6 19 52 6 19 54 6 18 55 6 18 56 6
17 57 6 16 58 6 16 59 5 15 60 5 14 61 5 14 62 5 13 62 5 12 63 5 12 63
4 11 64 4 10 64 4 9 65 4 9 65 4 8 65 4 7 65 3 6 64 3 5 64 3 5 64 3 4
64 3 3 65 2 3 66 2 3 68 3 3 69 3 3 70 3 3 71 3 3 70 3 3 69 3 4 67 3 4
62 0 0 0 0 0 0 0 0 0 0 0 0 0 0 0 0 0 0 0 0 0 0 0 0 0 0 0 0 0 0 0 0 0 0
0 0 0 0 0 0 0 0 0 0 0 0 0 0 0 0 0 0 0 0 0 0 0 0 0 0 0 0 0 0 0 0 0 0 0
0 0 0 0 0 0 0 0 0 0 0 0 0 0 0 0 0 0 0 0 0 0 0 0 0 0 0 0 0 0 0 0 0 0 0
0 0 0 0 0 0 0 0 0 0 0 0 0 0 0 0 0 0 0 0 0 0 0 0 0 0 0 0 0 0 0 0 0 0 0
0 0 0 0 0 0 0 0 0 0 0 0 0 0 0 0 0 0 0 0 0 0 0 0 0 0 0 0 0 0 0 0 0 0 0
0 0 0 0 0 0 0 0 0 0 0 0 0 0 0 0 0 0 0 0 0 0 0 0 0 0 0 0 0 0 0 0 0 0 0
0 0 0 0 0 0 0 0 0 0 0 0 0 0 0 0 0 0 0 0 0 0 0 0 0 0 0 0 0 0 0 0 0 0 0
0 0 0 0 0 0 0 0 0 0 0 0 0 0 0 0 0 0 0 0 0 0 0 0 0 0 0 0 0 0 0 0 0 0 0
0 0 0 0 0 0 0 0 0 0 0 0 0 0 0 0 0 0 0 0 0 0 0 0 0 0 0 0 0 0 0 0 0 0 0
0 0 0 0 0 0 0 0 0 0 0 0 0 0 0 0 0 0 0 0 0 0 0 0 0 0 0 0 0 0 0 0 0 0 0
0 0 0 0 0 0 0 0 0 0 0 0 0 0 0 0 0 0 0 0 0 0 0 0 0 0 0 0 0 0 0 0 0 0 0
0 0 0 0 0 0 0 0 0 0 0 0 0 0 0 0 0 0 0 0 0 0 0 0 0 0 0 0 0 0 0 0 0 0 0
0 0 0 0 0 0 0 0 0 0 0 0 0 0 0 0 0 0 0 0 0 0
0 0 0 0 0 0 0 0 0 0 0 0 0 0 0 0 0 0 0 0 0 0 0 0 0 0 0 0 0 0 0 0 0 0 0
0 0 0 0 0 0 0 0 0 0 0 0 0 0 0 0 0 0 0 0 0 0 0 0 0 0 0 0 0 0 0 0 0 0 0
0 0 0 0 0 0 0 0 0 0 0 0 0 0 0 0 0 0 0 0 0 0 0 0 0 0 0 0 0 0 0 0 0 0 0
0 0 0 0 0 0 0 0 0 0 0 0 0 0 0 0 0 0 0 0 0 0 0 0 0 0 0 0 0 0 0 0 0 0 0
0 0 0 0 0 0 0 0 0 0 0 0 0 0 0 0 0 0 0 0 0 0 0 0 0 0 0 0 0 0 0 0 0 0 0
0 0 0 0 0 0 0 0 0 0 0 0 0 0 0 0 0 0 0 0 0 0 0 0 0 0 0 0 0 0 0 0 0 0 0
0 0 0 0 0 0 0 0 0 0 0 0 0 0 0 0 0 0 0 0 0 0 0 0 0 0 0 0 0 0 0 0 0 0 0
0 0 0 0 0 0 0 0 0 0 0 0 0 0 0 0 0 0 0 0 0 0 0 0 0 0 0 0 0 0 0 0 0 0 0
0 0 0 0 0 0 0 0 0 0 0 0 0 0 0 0 0 0 0 0 0 0 0 0 0 0 0 0 0 0 0 0 0 0 0
0 0 0 0 0 0 0 0 0 0 0 0 0 0 0 0 0 0 0 0 0 0 0 0 0 0 0 0 0 0 0 0 0 0 0
0 0 0 0 0 0 0 0 0 0 0 0 0 0 0 0 0 0 0 0 0 0 5 4 28 3 2 18 1 0 9 1 0 6
1 0 6 1 0 6 1 0 6 1 0 6 1 0 6 1 0 6 1 0 6 1 0 6 1 0 6 1 0 6 1 0 6 1 0
6 1 0 6 1 0 6 1 0 6 1 0 6 1 0 6 1 0 6 1 0 6 1 0 6 1 0 6 1 0 6 1 0 6 1
0 6 1 0 6 1 0 6 1 0 6 1 0 6 1 0 6 1 0 6 1 0 6 1 0 6 1 0 6 1 0 6 1 0 6
1 0 6 1 0 6 1 0 6 1 0 6 1 0 6 1 0 6 1 0 6 1 0 6 1 0 6 1 0 6 1 0 6 1 0
6 1 0 6 1 0 6 1 0 6 1 0 6 1 0 6 1 0 6 1 0 6 1 0 6 1 0 6 1 0 8 1 0 10 1
0 12 2 0 14 2 0 16 2 0 18 2 0 20 2 0 22 2 0 24 2 0 27 2 0 29 3 0 32 3
0 34 3 0 37 3 0 40 3 0 43 3 0 47 4 0 50 4 0 54 4 0 59 5 0 65 0 0 0 0 0
0 6 18 55 6 18 58 6 19 60 6 20 61 7 21 61 7 21 61 7 21 60 7 21 59 7 20
58 6 20 57 7 20 56 6 20 55 6 20 53 6 19 53 6 19 55 6 18 56 6 18 57 6
17 58 6 16 60 6 16 60 5 15 61 5 14 62 5 14 63 5 13 64 5 12 64 5 12 65
4 11 65 4 10 65 4 9 66 4 9 66 4 8 66 3 7 66 3 6 66 3 5 65 3 5 65 3 4
65 2 3 66 2 3 68 2 3 69 2 3 70 2 3 71 3 3 72 3 3 72 3 3 71 3 3 69 3 4
64 0 0 0 0 0 0 0 0 0 0 0 0 0 0 0 0 0 0 0 0 0 0 0 0 0 0 0 0 0 0 0 0 0 0
0 0 0 0 0 0 0 0 0 0 0 0 0 0 0 0 0 0 0 0 0 0 0 0 0 0 0 0 0 0 0 0 0 0 0
0 0 0 0 0 0 0 0 0 0 0 0 0 0 0 0 0 0 0 0 0 0 0 0 0 0 0 0 0 0 0 0 0 0 0
0 0 0 0 0 0 0 0 0 0 0 0 0 0 0 0 0 0 0 0 0 0 0 0 0 0 0 0 0 0 0 0 0 0 0
0 0 0 0 0 0 0 0 0 0 0 0 0 0 0 0 0 0 0 0 0 0 0 0 0 0 0 0 0 0 0 0 0 0 0
0 0 0 0 0 0 0 0 0 0 0 0 0 0 0 0 0 0 0 0 0 0 0 0 0 0 0 0 0 0 0 0 0 0 0
0 0 0 0 0 0 0 0 0 0 0 0 0 0 0 0 0 0 0 0 0 0 0 0 0 0 0 0 0 0 0 0 0 0 0
0 0 0 0 0 0 0 0 0 0 0 0 0 0 0 0 0 0 0 0 0 0 0 0 0 0 0 0 0 0 0 0 0 0 0
0 0 0 0 0 0 0 0 0 0 0 0 0 0 0 0 0 0 0 0 0 0 0 0 0 0 0 0 0 0 0 0 0 0 0
0 0 0 0 0 0 0 0 0 0 0 0 0 0 0 0 0 0 0 0 0 0 0 0 0 0 0 0 0 0 0 0 0 0 0
0 0 0 0 0 0 0 0 0 0 0 0 0 0 0 0 0 0 0 0 0 0 0 0 0 0 0 0 0 0 0 0 0 0 0
0 0 0 0 0 0 0 0 0 0 0 0 0 0 0 0 0 0 0 0 0 0 0 0 0 0 0 0 0 0 0 0 0 0 0
0 0 0 0 0 0 0 0 0 0 0 0 0 0 0 0 0 0 0 0 0 0
0 0 0 0 0 0 0 0 0 0 0 0 0 0 0 0 0 0 0 0 0 0 0 0 0 0 0 0 0 0 0 0 0 0 0
0 0 0 0 0 0 0 0 0 0 0 0 0 0 0 0 0 0 0 0 0 0 0 0 0 0 0 0 0 0 0 0 0 0 0
0 0 0 0 0 0 0 0 0 0 0 0 0 0 0 0 0 0 0 0 0 0 0 0 0 0 0 0 0 0 0 0 0 0 0
0 0 0 0 0 0 0 0 0 0 0 0 0 0 0 0 0 0 0 0 0 0 0 0 0 0 0 0 0 0 0 0 0 0 0
0 0 0 0 0 0 0 0 0 0 0 0 0 0 0 0 0 0 0 0 0 0 0 0 0 0 0 0 0 0 0 0 0 0 0
0 0 0 0 0 0 0 0 0 0 0 0 0 0 0 0 0 0 0 0 0 0 0 0 0 0 0 0 0 0 0 0 0 0 0
0 0 0 0 0 0 0 0 0 0 0 0 0 0 0 0 0 0 0 0 0 0 0 0 0 0 0 0 0 0 0 0 0 0 0
0 0 0 0 0 0 0 0 0 0 0 0 0 0 0 0 0 0 0 0 0 0 0 0 0 0 0 0 0 0 0 0 0 0 0
0 0 0 0 0 0 0 0 0 0 0 0 0 0 0 0 0 0 0 0 0 0 0 0 0 0 0 0 0 0 0 0 0 0 0
0 0 0 0 0 0 0 0 0 0 0 0 0 0 0 0 0 0 0 0 0 0 0 0 0 0 0 0 0 0 0 0 0 0 0
0 0 0 0 0 0 0 0 0 0 0 0 0 0 0 0 0 0 0 0 0 0 5 4 31 3 3 20 1 0 9 1 0 6
1 0 6 1 0 6 1 0 6 1 0 6 1 0 6 1 0 6 1 0 6 1 0 6 1 0 6 1 0 6 1 0 6 1 0
6 1 0 6 1 0 6 1 0 6 1 0 6 1 0 6 1 0 6 1 0 6 1 0 6 1 0 6 1 0 6 1 0 6 1
0 6 1 0 6 1 0 6 1 0 6 1 0 6 1 0 6 1 0 6 1 0 6 1 0 6 1 0 6 1 0 6 1 0 6
1 0 6 1 0 6 1 0 6 1 0 6 1 0 6 1 0 6 1 0 6 1 0 6 1 0 6 1 0 6 1 0 6 1 0
6 1 0 6 1 0 6 1 0 6 1 0 6 1 0 6 1 0 6 1 0 6 1 0 6 1 0 6 1 0 8 1 0 10 1
0 12 2 0 14 2 0 16 2 0 18 2 0 20 2 0 22 2 0 24 2 0 27 2 0 29 3 0 32 3
0 34 3 0 37 3 0 40 3 0 44 4 0 47 4 0 50 4 0 54 4 0 59 5 0 64 0 0 0 5
16 49 6 17 56 6 19 59 6 20 61 7 21 61 7 21 61 7 21 61 7 21 61 7 21 60
7 21 59 6 20 58 7 20 56 6 20 55 6 20 53 6 19 54 6 19 56 6 18 57 6 18
58 6 17 59 6 16 61 5 16 61 5 15 62 5 14 63 5 14 64 5 13 65 5 12 65 5
12 66 4 11 66 4 10 67 4 9 67 4 9 67 4 8 67 3 7 67 3 6 67 3 5 67 3 5 66
3 4 66 2 3 68 2 3 69 2 3 70 2 3 72 2 3 73 2 3 73 2 3 73 3 3 72 3 3 70
3 3 66 3 4 54 0 0 0 0 0 0 0 0 0 0 0 0 0 0 0 0 0 0 0 0 0 0 0 0 0 0 0 0
0 0 0 0 0 0 0 0 0 0 0 0 0 0 0 0 0 0 0 0 0 0 0 0 0 0 0 0 0 0 0 0 0 0 0
0 0 0 0 0 0 0 0 0 0 0 0 0 0 0 0 0 0 0 0 0 0 0 0 0 0 0 0 0 0 0 0 0 0 0
0 0 0 0 0 0 0 0 0 0 0 0 0 0 0 0 0 0 0 0 0 0 0 0 0 0 0 0 0 0 0 0 0 0 0
0 0 0 0 0 0 0 0 0 0 0 0 0 0 0 0 0 0 0 0 0 0 0 0 0 0 0 0 0 0 0 0 0 0 0
0 0 0 0 0 0 0 0 0 0 0 0 0 0 0 0 0 0 0 0 0 0 0 0 0 0 0 0 0 0 0 0 0 0 0
0 0 0 0 0 0 0 0 0 0 0 0 0 0 0 0 0 0 0 0 0 0 0 0 0 0 0 0 0 0 0 0 0 0 0
0 0 0 0 0 0 0 0 0 0 0 0 0 0 0 0 0 0 0 0 0 0 0 0 0 0 0 0 0 0 0 0 0 0 0
0 0 0 0 0 0 0 0 0 0 0 0 0 0 0 0 0 0 0 0 0 0 0 0 0 0 0 0 0 0 0 0 0 0 0
0 0 0 0 0 0 0 0 0 0 0 0 0 0 0 0 0 0 0 0 0 0 0 0 0 0 0 0 0 0 0 0 0 0 0
0 0 0 0 0 0 0 0 0 0 0 0 0 0 0 0 0 0 0 0 0 0 0 0 0 0 0 0 0 0 0 0 0 0 0
0 0 0 0 0 0 0 0 0 0 0 0 0 0 0 0 0 0 0 0 0 0 0 0 0 0 0 0 0 0 0 0 0 0 0
0 0 0 0 0 0 0 0 0 0 0 0 0 0 0 0 0 0 0 0 0 0 0 0 0
0 0 0 0 0 0 0 0 0 0 0 0 0 0 0 0 0 0 0 0 0 0 0 0 0 0 0 0 0 0 0 0 0 0 0
0 0 0 0 0 0 0 0 0 0 0 0 0 0 0 0 0 0 0 0 0 0 0 0 0 0 0 0 0 0 0 0 0 0 0
0 0 0 0 0 0 0 0 0 0 0 0 0 0 0 0 0 0 0 0 0 0 0 0 0 0 0 0 0 0 0 0 0 0 0
0 0 0 0 0 0 0 0 0 0 0 0 0 0 0 0 0 0 0 0 0 0 0 0 0 0 0 0 0 0 0 0 0 0 0
0 0 0 0 0 0 0 0 0 0 0 0 0 0 0 0 0 0 0 0 0 0 0 0 0 0 0 0 0 0 0 0 0 0 0
0 0 0 0 0 0 0 0 0 0 0 0 0 0 0 0 0 0 0 0 0 0 0 0 0 0 0 0 0 0 0 0 0 0 0
0 0 0 0 0 0 0 0 0 0 0 0 0 0 0 0 0 0 0 0 0 0 0 0 0 0 0 0 0 0 0 0 0 0 0
0 0 0 0 0 0 0 0 0 0 0 0 0 0 0 0 0 0 0 0 0 0 0 0 0 0 0 0 0 0 0 0 0 0 0
0 0 0 0 0 0 0 0 0 0 0 0 0 0 0 0 0 0 0 0 0 0 0 0 0 0 0 0 0 0 0 0 0 0 0
0 0 0 0 0 0 0 0 0 0 0 0 0 0 0 0 0 0 0 0 0 0 0 0 0 0 0 0 0 0 0 0 0 0 0
0 0 0 0 0 0 0 0 0 0 0 0 0 0 0 0 0 0 0 0 0 0 5 4 30 4 4 24 1 0 9 1 0 6
1 0 6 1 0 6 1 0 6 1 0 6 1 0 6 1 0 6 1 0 6 1 0 6 1 0 6 1 0 6 1 0 6 1 0
6 1 0 6 1 0 6 1 0 6 1 0 6 1 0 6 1 0 6 1 0 6 1 0 6 1 0 6 1 0 6 1 0 6 1
0 6 1 0 6 1 0 6 1 0 6 1 0 6 1 0 6 1 0 6 1 0 6 1 0 6 1 0 6 1 0 6 1 0 6
1 0 6 1 0 6 1 0 6 1 0 6 1 0 6 1 0 6 1 0 6 1 0 6 1 0 6 1 0 6 1 0 6 1 0
6 1 0 6 1 0 6 1 0 6 1 0 6 1 0 6 1 0 6 1 0 6 1 0 6 1 0 6 1 0 8 1 0 10 1
0 12 2 0 14 2 0 16 2 0 18 2 0 20 2 0 22 2 0 24 2 0 27 2 0 29 3 0 32 3
0 34 3 0 37 3 0 41 4 0 48 4 0 50 4 0 50 4 0 54 4 0 59 5 0 64 0 0 0 5
16 52 6 18 57 6 19 60 6 20 61 7 21 62 7 21 62 7 21 62 7 21 61 7 21 60
7 21 59 6 20 58 7 20 57 6 20 55 6 20 54 6 19 55 6 19 57 6 18 58 6 18
59 6 17 60 6 16 61 5 16 62 5 15 63 5 14 64 5 14 65 5 13 65 5 12 66 4
12 67 4 11 67 4 10 67 4 9 68 4 9 68 4 8 68 3 7 68 3 6 68 3 5 68 3 4 67
3 4 67 2 3 69 2 3 70 2 2 72 2 3 73 2 3 74 2 3 74 2 3 74 2 3 74 2 3 72
2 3 68 2 3 58 0 0 0 0 0 0 0 0 0 0 0 0 0 0 0 0 0 0 0 0 0 0 0 0 0 0 0 0
0 0 0 0 0 0 0 0 0 0 0 0 0 0 0 0 0 0 0 0 0 0 0 0 0 0 0 0 0 0 0 0 0 0 0
0 0 0 0 0 0 0 0 0 0 0 0 0 0 0 0 0 0 0 0 0 0 0 0 0 0 0 0 0 0 0 0 0 0 0
0 0 0 0 0 0 0 0 0 0 0 0 0 0 0 0 0 0 0 0 0 0 0 0 0 0 0 0 0 0 0 0 0 0 0
0 0 0 0 0 0 0 0 0 0 0 0 0 0 0 0 0 0 0 0 0 0 0 0 0 0 0 0 0 0 0 0 0 0 0
0 0 0 0 0 0 0 0 0 0 0 0 0 0 0 0 0 0 0 0 0 0 0 0 0 0 0 0 0 0 0 0 0 0 0
0 0 0 0 0 0 0 0 0 0 0 0 0 0 0 0 0 0 0 0 0 0 0 0 0 0 0 0 0 0 0 0 0 0 0
0 0 0 0 0 0 0 0 0 0 0 0 0 0 0 0 0 0 0 0 0 0 0 0 0 0 0 0 0 0 0 0 0 0 0
0 0 0 0 0 0 0 0 0 0 0 0 0 0 0 0 0 0 0 0 0 0 0 0 0 0 0 0 0 0 0 0 0 0 0
0 0 0 0 0 0 0 0 0 0 0 0 0 0 0 0 0 0 0 0 0 0 0 0 0 0 0 0 0 0 0 0 0 0 0
0 0 0 0 0 0 0 0 0 0 0 0 0 0 0 0 0 0 0 0 0 0 0 0 0 0 0 0 0 0 0 0 0 0 0
0 0 0 0 0 0 0 0 0 0 0 0 0 0 0 0 0 0 0 0 0 0 0 0 0 0 0 0 0 0 0 0 0 0 0
0 0 0 0 0 0 0 0 0 0 0 0 0 0 0 0 0 0 0 0 0 0 0 0 0
0 0 0 0 0 0 0 0 0 0 0 0 0 0 0 0 0 0 0 0 0 0 0 0 0 0 0 0 0 0 0 0 0 0 0
0 0 0 0 0 0 0 0 0 0 0 0 0 0 0 0 0 0 0 0 0 0 0 0 0 0 0 0 0 0 0 0 0 0 0
0 0 0 0 0 0 0 0 0 0 0 0 0 0 0 0 0 0 0 0 0 0 0 0 0 0 0 0 0 0 0 0 0 0 0
0 0 0 0 0 0 0 0 0 0 0 0 0 0 0 0 0 0 0 0 0 0 0 0 0 0 0 0 0 0 0 0 0 0 0
0 0 0 0 0 0 0 0 0 0 0 0 0 0 0 0 0 0 0 0 0 0 0 0 0 0 0 0 0 0 0 0 0 0 0
0 0 0 0 0 0 0 0 0 0 0 0 0 0 0 0 0 0 0 0 0 0 0 0 0 0 0 0 0 0 0 0 0 0 0
0 0 0 0 0 0 0 0 0 0 0 0 0 0 0 0 0 0 0 0 0 0 0 0 0 0 0 0 0 0 0 0 0 0 0
0 0 0 0 0 0 0 0 0 0 0 0 0 0 0 0 0 0 0 0 0 0 0 0 0 0 0 0 0 0 0 0 0 0 0
0 0 0 0 0 0 0 0 0 0 0 0 0 0 0 0 0 0 0 0 0 0 0 0 0 0 0 0 0 0 0 0 0 0 0
0 0 0 0 0 0 0 0 0 0 0 0 0 0 0 0 0 0 0 0 0 0 0 0 0 0 0 0 0 0 0 0 0 0 0
0 0 0 0 0 0 0 0 0 0 0 0 0 0 0 0 0 0 0 0 0 0 4 3 26 5 6 31 1 0 9 1 0 6
1 0 6 1 0 6 1 0 6 1 0 6 1 0 6 1 0 6 1 0 6 1 0 6 1 0 6 1 0 6 1 0 6 1 0
6 1 0 6 1 0 6 1 0 6 1 0 6 1 0 6 1 0 6 1 0 6 1 0 6 1 0 6 1 0 6 1 0 6 1
0 6 1 0 6 1 0 6 1 0 6 1 0 6 1 0 6 1 0 6 1 0 6 1 0 6 1 0 6 1 0 6 1 0 6
1 0 6 1 0 6 1 0 6 1 0 6 1 0 6 1 0 6 1 0 6 1 0 6 1 0 6 1 0 6 1 0 6 1 0
6 1 0 6 1 0 6 1 0 6 1 0 6 1 0 6 1 0 6 1 0 6 1 0 6 1 0 6 1 0 8 1 0 10 1
0 12 2 0 14 2 0 16 2 0 18 2 0 20 2 0 22 2 0 24 2 0 27 2 0 29 3 0 32 3
0 34 3 0 37 3 0 42 4 0 55 4 0 58 4 0 51 4 0 54 4 0 59 5 0 64 0 0 0 6
17 53 6 18 58 6 19 61 6 20 62 7 21 62 7 21 62 7 21 62 7 21 61 7 21 60
7 21 59 6 21 58 7 21 58 7 21 57 6 20 55 6 19 56 6 19 57 6 18 59 6 17
60 6 17 61 6 16 62 5 16 63 5 15 64 5 14 65 5 14 65 5 13 66 5 12 67 4
11 67 4 11 68 4 10 68 4 9 69 4 8 69 4 8 69 3 7 69 3 6 69 3 5 69 3 4 68
2 3 68 2 3 70 2 2 71 2 2 72 2 2 74 2 2 75 2 2 75 2 2 75 2 2 75 2 3 73
2 3 69 2 3 60 0 0 0 0 0 0 0 0 0 0 0 0 0 0 0 0 0 0 0 0 0 0 0 0 0 0 0 0
0 0 0 0 0 0 0 0 0 0 0 0 0 0 0 0 0 0 0 0 0 0 0 0 0 0 0 0 0 0 0 0 0 0 0
0 0 0 0 0 0 0 0 0 0 0 0 0 0 0 0 0 0 0 0 0 0 0 0 0 0 0 0 0 0 0 0 0 0 0
0 0 0 0 0 0 0 0 0 0 0 0 0 0 0 0 0 0 0 0 0 0 0 0 0 0 0 0 0 0 0 0 0 0 0
0 0 0 0 0 0 0 0 0 0 0 0 0 0 0 0 0 0 0 0 0 0 0 0 0 0 0 0 0 0 0 0 0 0 0
0 0 0 0 0 0 0 0 0 0 0 0 0 0 0 0 0 0 0 0 0 0 0 0 0 0 0 0 0 0 0 0 0 0 0
0 0 0 0 0 0 0 0 0 0 0 0 0 0 0 0 0 0 0 0 0 0 0 0 0 0 0 0 0 0 0 0 0 0 0
0 0 0 0 0 0 0 0 0 0 0 0 0 0 0 0 0 0 0 0 0 0 0 0 0 0 0 0 0 0 0 0 0 0 0
0 0 0 0 0 0 0 0 0 0 0 0 0 0 0 0 0 0 0 0 0 0 0 0 0 0 0 0 0 0 0 0 0 0 0
0 0 0 0 0 0 0 0 0 0 0 0 0 0 0 0 0 0 0 0 0 0 0 0 0 0 0 0 0 0 0 0 0 0 0
0 0 0 0 0 0 0 0 0 0 0 0 0 0 0 0 0 0 0 0 0 0 0 0 0 0 0 0 0 0 0 0 0 0 0
0 0 0 0 0 0 0 0 0 0 0 0 0 0 0 0 0 0 0 0 0 0 0 0 0 0 0 0 0 0 0 0 0 0 0
0 0 0 0 0 0 0 0 0 0 0 0 0 0 0 0 0 0 0 0 0 0 0 0 0
0 0 0 0 0 0 0 0 0 0 0 0 0 0 0 0 0 0 0 0 0 0 0 0 0 0 0 0 0 0 0 0 0 0 0
0 0 0 0 0 0 0 0 0 0 0 0 0 0 0 0 0 0 0 0 0 0 0 0 0 0 0 0 0 0 0 0 0 0 0
0 0 0 0 0 0 0 0 0 0 0 0 0 0 0 0 0 0 0 0 0 0 0 0 0 0 0 0 0 0 0 0 0 0 0
0 0 0 0 0 0 0 0 0 0 0 0 0 0 0 0 0 0 0 0 0 0 0 0 0 0 0 0 0 0 0 0 0 0 0
0 0 0 0 0 0 0 0 0 0 0 0 0 0 0 0 0 0 0 0 0 0 0 0 0 0 0 0 0 0 0 0 0 0 0
0 0 0 0 0 0 0 0 0 0 0 0 0 0 0 0 0 0 0 0 0 0 0 0 0 0 0 0 0 0 0 0 0 0 0
0 0 0 0 0 0 0 0 0 0 0 0 0 0 0 0 0 0 0 0 0 0 0 0 0 0 0 0 0 0 0 0 0 0 0
0 0 0 0 0 0 0 0 0 0 0 0 0 0 0 0 0 0 0 0 0 0 0 0 0 0 0 0 0 0 0 0 0 0 0
0 0 0 0 0 0 0 0 0 0 0 0 0 0 0 0 0 0 0 0 0 0 0 0 0 0 0 0 0 0 0 0 0 0 0
0 0 0 0 0 0 0 0 0 0 0 0 0 0 0 0 0 0 0 0 0 0 0 0 0 0 0 0 0 0 0 0 0 0 0
0 0 0 0 0 0 0 0 0 0 0 0 0 0 0 0 0 0 0 0 0 0 3 1 23 7 9 40 2 0 9 1 0 6
1 0 6 1 0 6 1 0 6 1 0 6 1 0 6 1 0 6 1 0 6 1 0 6 1 0 6 1 0 6 1 0 6 1 0
6 1 0 6 1 0 6 1 0 6 1 0 6 1 0 6 1 0 6 1 0 6 1 0 6 1 0 6 1 0 6 1 0 6 1
0 6 1 0 6 1 0 6 1 0 6 1 0 6 1 0 6 1 0 6 1 0 6 1 0 6 1 0 6 1 0 6 1 0 6
1 0 6 1 0 6 1 0 6 1 0 6 1 0 6 1 0 6 1 0 6 1 0 6 1 0 6 1 0 6 1 0 6 1 0
6 1 0 6 1 0 6 1 0 6 1 0 6 1 0 6 1 0 6 1 0 6 1 0 6 1 0 6 1 0 8 1 0 10 1
0 12 2 0 14 2 0 16 2 0 18 2 0 20 2 0 22 2 0 24 2 0 27 2 0 29 3 0 32 3
0 34 3 0 37 3 0 44 5 1 70 6 1 72 4 0 52 4 0 54 4 0 59 5 0 64 0 0 0 5
17 54 6 19 59 6 20 61 6 20 62 7 21 63 7 21 62 7 21 62 7 21 61 7 21 61
7 21 59 7 21 60 9 24 68 9 24 68 8 22 58 7 21 58 6 19 58 6 18 59 6 17
60 6 17 62 5 16 63 5 15 64 5 15 64 5 14 65 5 13 66 5 13 67 5 12 67 4
11 68 4 11 68 4 10 69 4 9 69 4 8 69 3 7 70 3 7 70 3 6 70 3 5 70 3 4 70
2 3 69 2 3 70 2 2 72 2 2 73 2 2 75 2 2 76 2 2 76 2 2 76 2 2 75 2 2 74
2 2 70 2 2 61 0 0 0 0 0 0 0 0 0 0 0 0 0 0 0 0 0 0 0 0 0 0 0 0 0 0 0 0
0 0 0 0 0 0 0 0 0 0 0 0 0 0 0 0 0 0 0 0 0 0 0 0 0 0 0 0 0 0 0 0 0 0 0
0 0 0 0 0 0 0 0 0 0 0 0 0 0 0 0 0 0 0 0 0 0 0 0 0 0 0 0 0 0 0 0 0 0 0
0 0 0 0 0 0 0 0 0 0 0 0 0 0 0 0 0 0 0 0 0 0 0 0 0 0 0 0 0 0 0 0 0 0 0
0 0 0 0 0 0 0 0 0 0 0 0 0 0 0 0 0 0 0 0 0 0 0 0 0 0 0 0 0 0 0 0 0 0 0
0 0 0 0 0 0 0 0 0 0 0 0 0 0 0 0 0 0 0 0 0 0 0 0 0 0 0 0 0 0 0 0 0 0 0
0 0 0 0 0 0 0 0 0 0 0 0 0 0 0 0 0 0 0 0 0 0 0 0 0 0 0 0 0 0 0 0 0 0 0
0 0 0 0 0 0 0 0 0 0 0 0 0 0 0 0 0 0 0 0 0 0 0 0 0 0 0 0 0 0 0 0 0 0 0
0 0 0 0 0 0 0 0 0 0 0 0 0 0 0 0 0 0 0 0 0 0 0 0 0 0 0 0 0 0 0 0 0 0 0
0 0 0 0 0 0 0 0 0 0 0 0 0 0 0 0 0 0 0 0 0 0 0 0 0 0 0 0 0 0 0 0 0 0 0
0 0 0 0 0 0 0 0 0 0 0 0 0 0 0 0 0 0 0 0 0 0 0 0 0 0 0 0 0 0 0 0 0 0 0
0 0 0 0 0 0 0 0 0 0 0 0 0 0 0 0 0 0 0 0 0 0 0 0 0 0 0 0 0 0 0 0 0 0 0
0 0 0 0 0 0 0 0 0 0 0 0 0 0 0 0 0 0 0 0 0 0 0 0 0
0 0 0 0 0 0 0 0 0 0 0 0 0 0 0 0 0 0 0 0 0 0 0 0 0 0 0 0 0 0 0 0 0 0 0
0 0 0 0 0 0 0 0 0 0 0 0 0 0 0 0 0 0 0 0 0 0 0 0 0 0 0 0 0 0 0 0 0 0 0
0 0 0 0 0 0 0 0 0 0 0 0 0 0 0 0 0 0 0 0 0 0 0 0 0 0 0 0 0 0 0 0 0 0 0
0 0 0 0 0 0 0 0 0 0 0 0 0 0 0 0 0 0 0 0 0 0 0 0 0 0 0 0 0 0 0 0 0 0 0
0 0 0 0 0 0 0 0 0 0 0 0 0 0 0 0 0 0 0 0 0 0 0 0 0 0 0 0 0 0 0 0 0 0 0
0 0 0 0 0 0 0 0 0 0 0 0 0 0 0 0 0 0 0 0 0 0 0 0 0 0 0 0 0 0 0 0 0 0 0
0 0 0 0 0 0 0 0 0 0 0 0 0 0 0 0 0 0 0 0 0 0 0 0 0 0 0 0 0 0 0 0 0 0 0
0 0 0 0 0 0 0 0 0 0 0 0 0 0 0 0 0 0 0 0 0 0 0 0 0 0 0 0 0 0 0 0 0 0 0
0 0 0 0 0 0 0 0 0 0 0 0 0 0 0 0 0 0 0 0 0 0 0 0 0 0 0 0 0 0 0 0 0 0 0
0 0 0 0 0 0 0 0 0 0 0 0 0 0 0 0 0 0 0 0 0 0 0 0 0 0 0 0 0 0 0 0 0 0 0
0 0 0 0 0 0 0 0 0 0 0 0 0 0 0 0 0 0 0 0 0 0 3 1 22 9 13 51 2 0 10 1 0
6 1 0 6 1 0 6 1 0 6 1 0 6 1 0 6 1 0 6 1 0 6 1 0 6 1 0 6 1 0 6 1 0 6 1
0 6 1 0 6 1 0 6 1 0 6 1 0 6 1 0 6 1 0 6 1 0 6 1 0 6 1 0 6 1 0 6 1 0 6
1 0 6 1 0 6 1 0 6 1 0 6 1 0 6 1 0 6 1 0 6 1 0 6 1 0 6 1 0 6 1 0 6 1 0
6 1 0 6 1 0 6 1 0 6 1 0 6 1 0 6 1 0 6 1 0 6 1 0 6 1 0 6 1 0 6 1 0 6 1
0 6 1 0 6 1 0 6 1 0 6 1 0 6 1 0 6 1 0 6 1 0 6 1 0 6 1 0 6 1 0 8 1 0 10
1 0 12 2 0 14 2 0 16 2 0 18 2 0 20 2 0 22 2 0 24 2 0 27 2 0 29 3 0 32
3 0 34 3 0 37 4 0 47 7 1 92 7 1 94 4 0 53 4 0 54 4 0 59 5 0 64 0 0 0 5
17 55 6 19 59 6 20 61 6 20 62 6 21 63 7 21 63 7 21 62 7 21 61 7 21 61
6 21 60 8 23 66 14 33 98 14 34 95 14 32 67 15 33 63 8 22 60 6 18 60 6
17 61 5 17 62 5 15 63 5 14 64 4 14 64 4 13 65 4 12 66 4 12 67 4 11 67
4 10 68 3 9 68 3 9 69 3 8 69 3 7 69 3 6 70 3 6 70 3 6 70 3 5 73 3 4 78
3 3 74 2 2 71 2 2 72 2 2 74 2 2 75 2 2 76 2 2 77 2 2 77 2 2 76 2 2 74
2 2 70 2 2 61 0 0 0 0 0 0 0 0 0 0 0 0 0 0 0 0 0 0 0 0 0 0 0 0 0 0 0 0
0 0 0 0 0 0 0 0 0 0 0 0 0 0 0 0 0 0 0 0 0 0 0 0 0 0 0 0 0 0 0 0 0 0 0
0 0 0 0 0 0 0 0 0 0 0 0 0 0 0 0 0 0 0 0 0 0 0 0 0 0 0 0 0 0 0 0 0 0 0
0 0 0 0 0 0 0 0 0 0 0 0 0 0 0 0 0 0 0 0 0 0 0 0 0 0 0 0 0 0 0 0 0 0 0
0 0 0 0 0 0 0 0 0 0 0 0 0 0 0 0 0 0 0 0 0 0 0 0 0 0 0 0 0 0 0 0 0 0 0
0 0 0 0 0 0 0 0 0 0 0 0 0 0 0 0 0 0 0 0 0 0 0 0 0 0 0 0 0 0 0 0 0 0 0
0 0 0 0 0 0 0 0 0 0 0 0 0 0 0 0 0 0 0 0 0 0 0 0 0 0 0 0 0 0 0 0 0 0 0
0 0 0 0 0 0 0 0 0 0 0 0 0 0 0 0 0 0 0 0 0 0 0 0 0 0 0 0 0 0 0 0 0 0 0
0 0 0 0 0 0 0 0 0 0 0 0 0 0 0 0 0 0 0 0 0 0 0 0 0 0 0 0 0 0 0 0 0 0 0
0 0 0 0 0 0 0 0 0 0 0 0 0 0 0 0 0 0 0 0 0 0 0 0 0 0 0 0 0 0 0 0 0 0 0
0 0 0 0 0 0 0 0 0 0 0 0 0 0 0 0 0 0 0 0 0 0 0 0 0 0 0 0 0 0 0 0 0 0 0
0 0 0 0 0 0 0 0 0 0 0 0 0 0 0 0 0 0 0 0 0 0 0 0 0 0 0 0 0 0 0 0 0 0 0
0 0 0 0 0 0 0 0 0 0 0 0 0 0 0 0 0 0 0 0 0 0 0 0 0
0 0 0 0 0 0 0 0 0 0 0 0 0 0 0 0 0 0 0 0 0 0 0 0 0 0 0 0 0 0 0 0 0 0 0
0 0 0 0 0 0 0 0 0 0 0 0 0 0 0 0 0 0 0 0 0 0 0 0 0 0 0 0 0 0 0 0 0 0 0
0 0 0 0 0 0 0 0 0 0 0 0 0 0 0 0 0 0 0 0 0 0 0 0 0 0 0 0 0 0 0 0 0 0 0
0 0 0 0 0 0 0 0 0 0 0 0 0 0 0 0 0 0 0 0 0 0 0 0 0 0 0 0 0 0 0 0 0 0 0
0 0 0 0 0 0 0 0 0 0 0 0 0 0 0 0 0 0 0 0 0 0 0 0 0 0 0 0 0 0 0 0 0 0 0
0 0 0 0 0 0 0 0 0 0 0 0 0 0 0 0 0 0 0 0 0 0 0 0 0 0 0 0 0 0 0 0 0 0 0
0 0 0 0 0 0 0 0 0 0 0 0 0 0 0 0 0 0 0 0 0 0 0 0 0 0 0 0 0 0 0 0 0 0 0
0 0 0 0 0 0 0 0 0 0 0 0 0 0 0 0 0 0 0 0 0 0 0 0 0 0 0 0 0 0 0 0 0 0 0
0 0 0 0 0 0 0 0 0 0 0 0 0 0 0 0 0 0 0 0 0 0 0 0 0 0 0 0 0 0 0 0 0 0 0
0 0 0 0 0 0 0 0 0 0 0 0 0 0 0 0 0 0 0 0 0 0 0 0 0 0 0 0 0 0 0 0 0 0 0
0 0 0 0 0 0 0 0 0 0 0 0 0 0 0 0 0 0 0 0 0 0 0 0 0 11 16 61 2 0 10 1 0
7 1 0 6 1 0 6 1 0 6 1 0 6 1 0 6 1 0 6 1 0 6 1 0 6 1 0 6 1 0 6 1 0 6 1
0 6 1 0 6 1 0 6 1 0 6 1 0 6 1 0 6 1 0 6 1 0 6 1 0 6 1 0 6 1 0 6 1 0 6
1 0 6 1 0 6 1 0 6 1 0 6 1 0 6 1 0 6 1 0 6 1 0 6 1 0 6 1 0 6 1 0 6 1 0
6 1 0 6 1 0 6 1 0 6 1 0 6 1 0 6 1 0 6 1 0 6 1 0 6 1 0 6 1 0 6 1 0 6 1
0 6 1 0 6 1 0 6 1 0 6 1 0 6 1 0 6 1 0 6 1 0 6 1 0 6 1 0 6 1 0 8 1 0 10
1 0 12 2 0 14 2 0 16 2 0 18 2 0 20 2 0 22 2 0 25 2 0 27 2 0 29 3 0 32
3 0 35 3 0 38 4 0 51 9 1 116 9 1 115 4 0 55 4 0 54 4 0 59 5 0 64 0 0 0
5 16 54 5 18 59 6 19 61 6 19 62 6 20 62 6 20 62 6 20 62 6 20 61 6 20
60 6 20 59 8 23 70 17 38 114 18 39 108 23 45 74 25 48 69 10 25 61 5 17
60 5 16 61 5 16 62 5 15 63 5 14 64 4 14 65 4 13 66 4 12 66 4 12 67 4
11 68 4 10 68 3 9 69 3 9 69 3 8 70 3 7 70 3 6 70 3 5 70 2 4 72 4 4 90
6 4 118 3 2 90 2 1 72 1 1 72 1 1 74 1 1 75 1 1 76 1 1 77 1 1 77 1 1 76
1 1 74 1 1 70 1 1 59 0 0 0 0 0 0 0 0 0 0 0 0 0 0 0 0 0 0 0 0 0 0 0 0 0
0 0 0 0 0 0 0 0 0 0 0 0 0 0 0 0 0 0 0 0 0 0 0 0 0 0 0 0 0 0 0 0 0 0 0
0 0 0 0 0 0 0 0 0 0 0 0 0 0 0 0 0 0 0 0 0 0 0 0 0 0 0 0 0 0 0 0 0 0 0
0 0 0 0 0 0 0 0 0 0 0 0 0 0 0 0 0 0 0 0 0 0 0 0 0 0 0 0 0 0 0 0 0 0 0
0 0 0 0 0 0 0 0 0 0 0 0 0 0 0 0 0 0 0 0 0 0 0 0 0 0 0 0 0 0 0 0 0 0 0
0 0 0 0 0 0 0 0 0 0 0 0 0 0 0 0 0 0 0 0 0 0 0 0 0 0 0 0 0 0 0 0 0 0 0
0 0 0 0 0 0 0 0 0 0 0 0 0 0 0 0 0 0 0 0 0 0 0 0 0 0 0 0 0 0 0 0 0 0 0
0 0 0 0 0 0 0 0 0 0 0 0 0 0 0 0 0 0 0 0 0 0 0 0 0 0 0 0 0 0 0 0 0 0 0
0 0 0 0 0 0 0 0 0 0 0 0 0 0 0 0 0 0 0 0 0 0 0 0 0 0 0 0 0 0 0 0 0 0 0
0 0 0 0 0 0 0 0 0 0 0 0 0 0 0 0 0 0 0 0 0 0 0 0 0 0 0 0 0 0 0 0 0 0 0
0 0 0 0 0 0 0 0 0 0 0 0 0 0 0 0 0 0 0 0 0 0 0 0 0 0 0 0 0 0 0 0 0 0 0
0 0 0 0 0 0 0 0 0 0 0 0 0 0 0 0 0 0 0 0 0 0 0 0 0 0 0 0 0 0 0 0 0 0 0
0 0 0 0 0 0 0 0 0 0 0 0 0 0 0 0 0 0 0 0 0 0 0 0 0 0 0 0
0 0 0 0 0 0 0 0 0 0 0 0 0 0 0 0 0 0 0 0 0 0 0 0 0 0 0 0 0 0 0 0 0 0 0
0 0 0 0 0 0 0 0 0 0 0 0 0 0 0 0 0 0 0 0 0 0 0 0 0 0 0 0 0 0 0 0 0 0 0
0 0 0 0 0 0 0 0 0 0 0 0 0 0 0 0 0 0 0 0 0 0 0 0 0 0 0 0 0 0 0 0 0 0 0
0 0 0 0 0 0 0 0 0 0 0 0 0 0 0 0 0 0 0 0 0 0 0 0 0 0 0 0 0 0 0 0 0 0 0
0 0 0 0 0 0 0 0 0 0 0 0 0 0 0 0 0 0 0 0 0 0 0 0 0 0 0 0 0 0 0 0 0 0 0
0 0 0 0 0 0 0 0 0 0 0 0 0 0 0 0 0 0 0 0 0 0 0 0 0 0 0 0 0 0 0 0 0 0 0
0 0 0 0 0 0 0 0 0 0 0 0 0 0 0 0 0 0 0 0 0 0 0 0 0 0 0 0 0 0 0 0 0 0 0
0 0 0 0 0 0 0 0 0 0 0 0 0 0 0 0 0 0 0 0 0 0 0 0 0 0 0 0 0 0 0 0 0 0 0
0 0 0 0 0 0 0 0 0 0 0 0 0 0 0 0 0 0 0 0 0 0 0 0 0 0 0 0 0 0 0 0 0 0 0
0 0 0 0 0 0 0 0 0 0 0 0 0 0 0 0 0 0 0 0 0 0 0 0 0 0 0 0 0 0 0 0 0 0 0
0 0 0 0 0 0 0 0 0 0 0 0 0 0 0 0 0 0 0 0 0 0 0 0 0 11 16 63 2 0 11 1 0
7 1 0 6 1 0 6 1 0 6 1 0 6 1 0 6 1 0 6 1 0 6 1 0 6 1 0 6 1 0 6 1 0 6 1
0 6 1 0 6 1 0 6 1 0 6 1 0 6 1 0 6 1 0 6 1 0 6 1 0 6 1 0 6 1 0 6 1 0 6
1 0 6 1 0 6 1 0 6 1 0 6 1 0 6 1 0 6 1 0 6 1 0 6 1 0 6 1 0 6 1 0 6 1 0
6 1 0 6 1 0 6 1 0 6 1 0 6 1 0 6 1 0 6 1 0 6 1 0 6 1 0 6 1 0 6 1 0 6 1
0 6 1 0 6 1 0 6 1 0 6 1 0 6 1 0 6 1 0 6 1 0 6 1 0 6 1 0 6 1 0 8 1 0 10
1 0 12 2 0 14 2 0 16 2 0 18 2 0 20 2 0 22 2 0 25 2 0 27 2 0 29 3 0 32
3 0 35 3 0 38 4 0 54 10 2 132 10 2 125 4 0 55 4 0 55 4 0 59 5 0 65 0 0
0 5 16 54 5 18 59 6 19 61 6 19 62 6 20 62 6 20 62 6 20 62 6 20 61 6 20
60 6 20 59 7 22 65 12 30 89 13 30 84 18 37 67 19 39 65 8 22 60 5 17 60
5 16 61 5 15 62 5 15 63 5 14 64 4 14 65 4 13 66 4 12 67 4 11 67 4 11
68 4 10 68 3 9 69 3 8 69 3 8 70 3 7 70 3 6 70 3 5 70 3 4 75 6 4 116 10
4 167 4 2 105 2 1 73 1 1 73 1 1 74 1 1 76 1 1 77 1 1 77 1 1 77 1 1 76
1 1 74 1 1 70 1 1 54 0 0 0 0 0 0 0 0 0 0 0 0 0 0 0 0 0 0 0 0 0 0 0 0 0
0 0 0 0 0 0 0 0 0 0 0 0 0 0 0 0 0 0 0 0 0 0 0 0 0 0 0 0 0 0 0 0 0 0 0
0 0 0 0 0 0 0 0 0 0 0 0 0 0 0 0 0 0 0 0 0 0 0 0 0 0 0 0 0 0 0 0 0 0 0
0 0 0 0 0 0 0 0 0 0 0 0 0 0 0 0 0 0 0 0 0 0 0 0 0 0 0 0 0 0 0 0 0 0 0
0 0 0 0 0 0 0 0 0 0 0 0 0 0 0 0 0 0 0 0 0 0 0 0 0 0 0 0 0 0 0 0 0 0 0
0 0 0 0 0 0 0 0 0 0 0 0 0 0 0 0 0 0 0 0 0 0 0 0 0 0 0 0 0 0 0 0 0 0 0
0 0 0 0 0 0 0 0 0 0 0 0 0 0 0 0 0 0 0 0 0 0 0 0 0 0 0 0 0 0 0 0 0 0 0
0 0 0 0 0 0 0 0 0 0 0 0 0 0 0 0 0 0 0 0 0 0 0 0 0 0 0 0 0 0 0 0 0 0 0
0 0 0 0 0 0 0 0 0 0 0 0 0 0 0 0 0 0 0 0 0 0 0 0 0 0 0 0 0 0 0 0 0 0 0
0 0 0 0 0 0 0 0 0 0 0 0 0 0 0 0 0 0 0 0 0 0 0 0 0 0 0 0 0 0 0 0 0 0 0
0 0 0 0 0 0 0 0 0 0 0 0 0 0 0 0 0 0 0 0 0 0 0 0 0 0 0 0 0 0 0 0 0 0 0
0 0 0 0 0 0 0 0 0 0 0 0 0 0 0 0 0 0 0 0 0 0 0 0 0 0 0 0 0 0 0 0 0 0 0
0 0 0 0 0 0 0 0 0 0 0 0 0 0 0 0 0 0 0 0 0 0 0 0 0 0 0 0
0 0 0 0 0 0 0 0 0 0 0 0 0 0 0 0 0 0 0 0 0 0 0 0 0 0 0 0 0 0 0 0 0 0 0
0 0 0 0 0 0 0 0 0 0 0 0 0 0 0 0 0 0 0 0 0 0 0 0 0 0 0 0 0 0 0 0 0 0 0
0 0 0 0 0 0 0 0 0 0 0 0 0 0 0 0 0 0 0 0 0 0 0 0 0 0 0 0 0 0 0 0 0 0 0
0 0 0 0 0 0 0 0 0 0 0 0 0 0 0 0 0 0 0 0 0 0 0 0 0 0 0 0 0 0 0 0 0 0 0
0 0 0 0 0 0 0 0 0 0 0 0 0 0 0 0 0 0 0 0 0 0 0 0 0 0 0 0 0 0 0 0 0 0 0
0 0 0 0 0 0 0 0 0 0 0 0 0 0 0 0 0 0 0 0 0 0 0 0 0 0 0 0 0 0 0 0 0 0 0
0 0 0 0 0 0 0 0 0 0 0 0 0 0 0 0 0 0 0 0 0 0 0 0 0 0 0 0 0 0 0 0 0 0 0
0 0 0 0 0 0 0 0 0 0 0 0 0 0 0 0 0 0 0 0 0 0 0 0 0 0 0 0 0 0 0 0 0 0 0
0 0 0 0 0 0 0 0 0 0 0 0 0 0 0 0 0 0 0 0 0 0 0 0 0 0 0 0 0 0 0 0 0 0 0
0 0 0 0 0 0 0 0 0 0 0 0 0 0 0 0 0 0 0 0 0 0 0 0 0 0 0 0 0 0 0 0 0 0 0
0 0 0 0 0 0 0 0 0 0 0 0 0 0 0 0 0 0 0 0 0 0 0 0 0 9 12 50 2 1 12 1 0 7
1 0 6 1 0 6 1 0 6 1 0 6 1 0 6 1 0 6 1 0 6 1 0 6 1 0 6 1 0 6 1 0 6 1 0
6 1 0 6 1 0 6 1 0 6 1 0 6 1 0 6 1 0 6 1 0 6 1 0 6 1 0 6 1 0 6 1 0 6 1
0 6 1 0 6 1 0 6 1 0 6 1 0 6 1 0 6 1 0 6 1 0 6 1 0 6 1 0 6 1 0 6 1 0 6
1 0 6 1 0 6 1 0 6 1 0 6 1 0 6 1 0 6 1 0 6 1 0 6 1 0 6 1 0 6 1 0 6 1 0
6 1 0 6 1 0 6 1 0 6 1 0 6 1 0 6 1 0 6 1 0 6 1 0 6 1 0 6 1 0 8 1 0 10 1
0 12 2 0 14 2 0 16 2 0 18 2 0 20 2 0 22 2 0 25 2 0 27 2 0 30 3 0 32 3
0 35 3 0 38 4 1 55 10 2 132 9 1 117 4 0 54 4 0 55 4 0 59 5 0 65 0 0 0
5 16 54 5 18 58 6 19 60 6 19 61 6 20 62 6 20 62 6 20 61 6 20 61 6 20
60 6 20 59 6 20 59 7 21 63 7 21 61 8 22 58 8 22 59 6 18 59 5 17 60 5
16 61 5 15 62 5 15 63 5 14 64 4 13 65 4 13 66 4 12 67 4 11 67 4 11 68
4 10 68 3 9 69 3 8 69 3 8 70 3 7 70 3 6 70 2 5 70 3 4 75 5 4 110 8 4
141 3 2 91 2 1 72 1 1 73 1 1 75 1 1 76 1 1 77 1 1 77 1 1 77 1 1 76 1 1
74 1 1 69 0 0 0 0 0 0 0 0 0 0 0 0 0 0 0 0 0 0 0 0 0 0 0 0 0 0 0 0 0 0
0 0 0 0 0 0 0 0 0 0 0 0 0 0 0 0 0 0 0 0 0 0 0 0 0 0 0 0 0 0 0 0 0 0 0
0 0 0 0 0 0 0 0 0 0 0 0 0 0 0 0 0 0 0 0 0 0 0 0 0 0 0 0 0 0 0 0 0 0 0
0 0 0 0 0 0 0 0 0 0 0 0 0 0 0 0 0 0 0 0 0 0 0 0 0 0 0 0 0 0 0 0 0 0 0
0 0 0 0 0 0 0 0 0 0 0 0 0 0 0 0 0 0 0 0 0 0 0 0 0 0 0 0 0 0 0 0 0 0 0
0 0 0 0 0 0 0 0 0 0 0 0 0 0 0 0 0 0 0 0 0 0 0 0 0 0 0 0 0 0 0 0 0 0 0
0 0 0 0 0 0 0 0 0 0 0 0 0 0 0 0 0 0 0 0 0 0 0 0 0 0 0 0 0 0 0 0 0 0 0
0 0 0 0 0 0 0 0 0 0 0 0 0 0 0 0 0 0 0 0 0 0 0 0 0 0 0 0 0 0 0 0 0 0 0
0 0 0 0 0 0 0 0 0 0 0 0 0 0 0 0 0 0 0 0 0 0 0 0 0 0 0 0 0 0 0 0 0 0 0
0 0 0 0 0 0 0 0 0 0 0 0 0 0 0 0 0 0 0 0 0 0 0 0 0 0 0 0 0 0 0 0 0 0 0
0 0 0 0 0 0 0 0 0 0 0 0 0 0 0 0 0 0 0 0 0 0 0 0 0 0 0 0 0 0 0 0 0 0 0
0 0 0 0 0 0 0 0 0 0 0 0 0 0 0 0 0 0 0 0 0 0 0 0 0 0 0 0 0 0 0 0 0 0 0
0 0 0 0 0 0 0 0 0 0 0 0 0 0 0 0 0 0 0 0 0 0 0 0 0 0
0 0 0 0 0 0 0 0 0 0 0 0 0 0 0 0 0 0 0 0 0 0 0 0 0 0 0 0 0 0 0 0 0 0 0
0 0 0 0 0 0 0 0 0 0 0 0 0 0 0 0 0 0 0 0 0 0 0 0 0 0 0 0 0 0 0 0 0 0 0
0 0 0 0 0 0 0 0 0 0 0 0 0 0 0 0 0 0 0 0 0 0 0 0 0 0 0 0 0 0 0 0 0 0 0
0 0 0 0 0 0 0 0 0 0 0 0 0 0 0 0 0 0 0 0 0 0 0 0 0 0 0 0 0 0 0 0 0 0 0
0 0 0 0 0 0 0 0 0 0 0 0 0 0 0 0 0 0 0 0 0 0 0 0 0 0 0 0 0 0 0 0 0 0 0
0 0 0 0 0 0 0 0 0 0 0 0 0 0 0 0 0 0 0 0 0 0 0 0 0 0 0 0 0 0 0 0 0 0 0
0 0 0 0 0 0 0 0 0 0 0 0 0 0 0 0 0 0 0 0 0 0 0 0 0 0 0 0 0 0 0 0 0 0 0
0 0 0 0 0 0 0 0 0 0 0 0 0 0 0 0 0 0 0 0 0 0 0 0 0 0 0 0 0 0 0 0 0 0 0
0 0 0 0 0 0 0 0 0 0 0 0 0 0 0 0 0 0 0 0 0 0 0 0 0 0 0 0 0 0 0 0 0 0 0
0 0 0 0 0 0 0 0 0 0 0 0 0 0 0 0 0 0 0 0 0 0 0 0 0 0 0 0 0 0 0 0 0 0 0
0 0 0 0 0 0 0 0 0 0 0 0 0 0 0 0 0 0 0 0 0 0 0 0 0 5 5 30 2 1 13 1 0 8
1 0 6 1 0 6 1 0 6 1 0 6 1 0 6 1 0 6 1 0 6 1 0 6 1 0 6 1 0 6 1 0 6 1 0
6 1 0 6 1 0 6 1 0 6 1 0 6 1 0 6 1 0 6 1 0 6 1 0 6 1 0 6 1 0 6 1 0 6 1
0 6 1 0 6 1 0 6 1 0 6 1 0 6 1 0 6 1 0 6 1 0 6 1 0 6 1 0 6 1 0 6 1 0 6
1 0 6 1 0 6 1 0 6 1 0 6 1 0 6 1 0 6 1 0 6 1 0 6 1 0 6 1 0 6 1 0 6 1 0
6 1 0 6 1 0 6 1 0 6 1 0 6 1 0 6 1 0 6 1 0 6 1 0 6 1 0 6 1 0 8 1 0 10 1
0 12 2 0 14 2 0 16 2 0 18 2 0 20 2 0 23 2 0 25 2 0 27 2 0 30 3 0 32 3
0 35 3 0 38 4 0 54 9 1 115 7 1 95 4 0 53 4 0 55 4 0 60 5 0 66 0 0 0 4
15 53 5 17 58 5 18 60 6 19 61 6 20 61 6 20 61 6 20 61 6 20 60 6 20 59
6 20 58 6 19 57 6 19 56 6 19 55 6 18 55 6 18 57 5 17 58 5 16 59 5 16
61 5 15 62 5 15 63 5 14 64 4 13 65 4 13 66 4 12 66 4 11 67 4 11 68 4
10 68 3 9 69 3 8 69 3 7 70 3 7 70 3 6 70 2 5 70 2 4 72 3 4 82 3 3 87 2
2 74 1 1 72 1 1 73 1 1 75 1 1 76 1 1 77 1 1 77 1 1 77 1 1 76 1 1 73 1
1 68 0 0 0 0 0 0 0 0 0 0 0 0 0 0 0 0 0 0 0 0 0 0 0 0 0 0 0 0 0 0 0 0 0
0 0 0 0 0 0 0 0 0 0 0 0 0 0 0 0 0 0 0 0 0 0 0 0 0 0 0 0 0 0 0 0 0 0 0
0 0 0 0 0 0 0 0 0 0 0 0 0 0 0 0 0 0 0 0 0 0 0 0 0 0 0 0 0 0 0 0 0 0 0
0 0 0 0 0 0 0 0 0 0 0 0 0 0 0 0 0 0 0 0 0 0 0 0 0 0 0 0 0 0 0 0 0 0 0
0 0 0 0 0 0 0 0 0 0 0 0 0 0 0 0 0 0 0 0 0 0 0 0 0 0 0 0 0 0 0 0 0 0 0
0 0 0 0 0 0 0 0 0 0 0 0 0 0 0 0 0 0 0 0 0 0 0 0 0 0 0 0 0 0 0 0 0 0 0
0 0 0 0 0 0 0 0 0 0 0 0 0 0 0 0 0 0 0 0 0 0 0 0 0 0 0 0 0 0 0 0 0 0 0
0 0 0 0 0 0 0 0 0 0 0 0 0 0 0 0 0 0 0 0 0 0 0 0 0 0 0 0 0 0 0 0 0 0 0
0 0 0 0 0 0 0 0 0 0 0 0 0 0 0 0 0 0 0 0 0 0 0 0 0 0 0 0 0 0 0 0 0 0 0
0 0 0 0 0 0 0 0 0 0 0 0 0 0 0 0 0 0 0 0 0 0 0 0 0 0 0 0 0 0 0 0 0 0 0
0 0 0 0 0 0 0 0 0 0 0 0 0 0 0 0 0 0 0 0 0 0 0 0 0 0 0 0 0 0 0 0 0 0 0
0 0 0 0 0 0 0 0 0 0 0 0 0 0 0 0 0 0 0 0 0 0 0 0 0 0 0 0 0 0 0 0 0 0 0
0 0 0 0 0 0 0 0 0 0 0 0 0 0 0 0 0 0 0 0 0 0 0
0 0 0 0 0 0 0 0 0 0 0 0 0 0 0 0 0 0 0 0 0 0 0 0 0 0 0 0 0 0 0 0 0 0 0
0 0 0 0 0 0 0 0 0 0 0 0 0 0 0 0 0 0 0 0 0 0 0 0 0 0 0 0 0 0 0 0 0 0 0
0 0 0 0 0 0 0 0 0 0 0 0 0 0 0 0 0 0 0 0 0 0 0 0 0 0 0 0 0 0 0 0 0 0 0
0 0 0 0 0 0 0 0 0 0 0 0 0 0 0 0 0 0 0 0 0 0 0 0 0 0 0 0 0 0 0 0 0 0 0
0 0 0 0 0 0 0 0 0 0 0 0 0 0 0 0 0 0 0 0 0 0 0 0 0 0 0 0 0 0 0 0 0 0 0
0 0 0 0 0 0 0 0 0 0 0 0 0 0 0 0 0 0 0 0 0 0 0 0 0 0 0 0 0 0 0 0 0 0 0
0 0 0 0 0 0 0 0 0 0 0 0 0 0 0 0 0 0 0 0 0 0 0 0 0 0 0 0 0 0 0 0 0 0 0
0 0 0 0 0 0 0 0 0 0 0 0 0 0 0 0 0 0 0 0 0 0 0 0 0 0 0 0 0 0 0 0 0 0 0
0 0 0 0 0 0 0 0 0 0 0 0 0 0 0 0 0 0 0 0 0 0 0 0 0 0 0 0 0 0 0 0 0 0 0
0 0 0 0 0 0 0 0 0 0 0 0 0 0 0 0 0 0 0 0 0 0 0 0 0 0 0 0 0 0 0 0 0 0 0
0 0 0 0 0 0 0 0 0 0 0 0 0 0 0 0 0 0 0 0 0 0 0 0 0 3 1 21 3 1 16 1 0 9
1 0 6 1 0 6 1 0 6 1 0 6 1 0 6 1 0 6 1 0 6 1 0 6 1 0 6 1 0 6 1 0 6 1 0
6 1 0 6 1 0 6 1 0 6 1 0 6 1 0 6 1 0 6 1 0 6 1 0 6 1 0 6 1 0 6 1 0 6 1
0 6 1 0 6 1 0 6 1 0 6 1 0 6 1 0 6 1 0 6 1 0 6 1 0 6 1 0 6 1 0 6 1 0 6
1 0 6 1 0 6 1 0 6 1 0 6 1 0 6 1 0 6 1 0 6 1 0 6 1 0 6 1 0 6 1 0 6 1 0
6 1 0 6 1 0 6 1 0 6 1 0 6 1 0 6 1 0 6 1 0 6 1 0 6 1 0 6 1 0 8 1 0 10 1
0 12 2 0 14 2 0 16 2 0 18 2 0 20 2 0 23 2 0 25 2 0 27 2 0 30 3 0 32 3
0 35 3 0 38 4 0 51 7 1 90 6 1 72 4 0 52 4 0 55 4 0 60 5 0 66 0 0 0 4
15 51 5 17 57 5 18 59 6 19 60 6 19 61 6 20 61 6 20 61 6 20 60 6 20 59
6 19 58 6 19 57 6 19 55 5 18 54 5 18 55 5 17 56 5 17 58 5 16 59 5 16
60 5 15 62 5 15 63 5 14 64 4 13 64 4 13 65 4 12 66 4 11 67 4 10 67 4
10 68 3 9 69 3 8 69 3 7 69 3 7 70 3 6 70 2 5 70 2 4 70 2 3 71 2 2 70 2
2 70 1 1 72 1 1 73 1 1 75 1 1 76 1 1 76 1 1 77 1 1 76 1 1 75 1 1 72 1
1 65 0 0 0 0 0 0 0 0 0 0 0 0 0 0 0 0 0 0 0 0 0 0 0 0 0 0 0 0 0 0 0 0 0
0 0 0 0 0 0 0 0 0 0 0 0 0 0 0 0 0 0 0 0 0 0 0 0 0 0 0 0 0 0 0 0 0 0 0
0 0 0 0 0 0 0 0 0 0 0 0 0 0 0 0 0 0 0 0 0 0 0 0 0 0 0 0 0 0 0 0 0 0 0
0 0 0 0 0 0 0 0 0 0 0 0 0 0 0 0 0 0 0 0 0 0 0 0 0 0 0 0 0 0 0 0 0 0 0
0 0 0 0 0 0 0 0 0 0 0 0 0 0 0 0 0 0 0 0 0 0 0 0 0 0 0 0 0 0 0 0 0 0 0
0 0 0 0 0 0 0 0 0 0 0 0 0 0 0 0 0 0 0 0 0 0 0 0 0 0 0 0 0 0 0 0 0 0 0
0 0 0 0 0 0 0 0 0 0 0 0 0 0 0 0 0 0 0 0 0 0 0 0 0 0 0 0 0 0 0 0 0 0 0
0 0 0 0 0 0 0 0 0 0 0 0 0 0 0 0 0 0 0 0 0 0 0 0 0 0 0 0 0 0 0 0 0 0 0
0 0 0 0 0 0 0 0 0 0 0 0 0 0 0 0 0 0 0 0 0 0 0 0 0 0 0 0 0 0 0 0 0 0 0
0 0 0 0 0 0 0 0 0 0 0 0 0 0 0 0 0 0 0 0 0 0 0 0 0 0 0 0 0 0 0 0 0 0 0
0 0 0 0 0 0 0 0 0 0 0 0 0 0 0 0 0 0 0 0 0 0 0 0 0 0 0 0 0 0 0 0 0 0 0
0 0 0 0 0 0 0 0 0 0 0 0 0 0 0 0 0 0 0 0 0 0 0 0 0 0 0 0 0 0 0 0 0 0 0
0 0 0 0 0 0 0 0 0 0 0 0 0 0 0 0 0 0 0 0 0 0 0
0 0 0 0 0 0 0 0 0 0 0 0 0 0 0 0 0 0 0 0 0 0 0 0 0 0 0 0 0 0 0 0 0 0 0
0 0 0 0 0 0 0 0 0 0 0 0 0 0 0 0 0 0 0 0 0 0 0 0 0 0 0 0 0 0 0 0 0 0 0
0 0 0 0 0 0 0 0 0 0 0 0 0 0 0 0 0 0 0 0 0 0 0 0 0 0 0 0 0 0 0 0 0 0 0
0 0 0 0 0 0 0 0 0 0 0 0 0 0 0 0 0 0 0 0 0 0 0 0 0 0 0 0 0 0 0 0 0 0 0
0 0 0 0 0 0 0 0 0 0 0 0 0 0 0 0 0 0 0 0 0 0 0 0 0 0 0 0 0 0 0 0 0 0 0
0 0 0 0 0 0 0 0 0 0 0 0 0 0 0 0 0 0 0 0 0 0 0 0 0 0 0 0 0 0 0 0 0 0 0
0 0 0 0 0 0 0 0 0 0 0 0 0 0 0 0 0 0 0 0 0 0 0 0 0 0 0 0 0 0 0 0 0 0 0
0 0 0 0 0 0 0 0 0 0 0 0 0 0 0 0 0 0 0 0 0 0 0 0 0 0 0 0 0 0 0 0 0 0 0
0 0 0 0 0 0 0 0 0 0 0 0 0 0 0 0 0 0 0 0 0 0 0 0 0 0 0 0 0 0 0 0 0 0 0
0 0 0 0 0 0 0 0 0 0 0 0 0 0 0 0 0 0 0 0 0 0 0 0 0 0 0 0 0 0 0 0 0 0 0
0 0 0 0 0 0 0 0 0 0 0 0 0 0 0 0 0 0 0 0 0 0 0 0 0 3 1 23 3 2 18 2 0 9
1 0 6 1 0 6 1 0 6 1 0 6 1 0 6 1 0 6 1 0 6 1 0 6 1 0 6 1 0 6 1 0 6 1 0
6 1 0 6 1 0 6 1 0 6 1 0 6 1 0 6 1 0 6 1 0 6 1 0 6 1 0 6 1 0 6 1 0 6 1
0 6 1 0 6 1 0 6 1 0 6 1 0 6 1 0 6 1 0 6 1 0 6 1 0 6 1 0 6 1 0 6 1 0 6
1 0 6 1 0 6 1 0 6 1 0 6 1 0 6 1 0 6 1 0 6 1 0 6 1 0 6 1 0 6 1 0 6 1 0
6 1 0 6 1 0 6 1 0 6 1 0 6 1 0 6 1 0 6 1 0 6 1 0 6 1 0 7 1 0 8 1 0 10 1
0 12 2 0 14 2 0 16 2 0 18 2 0 21 2 0 23 2 0 25 2 0 28 3 0 30 3 0 33 3
0 35 3 0 38 4 0 47 5 1 68 4 0 57 4 0 52 4 0 56 4 0 61 5 0 67 0 0 0 4
14 49 5 17 56 5 18 58 6 19 60 6 19 60 6 19 60 6 20 60 6 19 59 6 19 58
6 19 57 6 19 56 5 19 55 5 18 53 5 18 54 5 17 56 5 17 57 5 16 59 5 16
60 5 15 61 5 14 62 4 14 63 4 13 64 4 12 65 4 12 66 4 11 66 4 10 67 4
10 68 3 9 68 3 8 69 3 7 69 3 6 69 3 6 69 2 5 69 2 4 69 2 3 69 2 2 68 2
2 70 1 1 71 1 1 73 1 1 74 1 1 75 1 1 76 1 1 76 1 1 76 1 1 74 1 1 70 1
1 62 0 0 0 0 0 0 0 0 0 0 0 0 0 0 0 0 0 0 0 0 0 0 0 0 0 0 0 0 0 0 0 0 0
0 0 0 0 0 0 0 0 0 0 0 0 0 0 0 0 0 0 0 0 0 0 0 0 0 0 0 0 0 0 0 0 0 0 0
0 0 0 0 0 0 0 0 0 0 0 0 0 0 0 0 0 0 0 0 0 0 0 0 0 0 0 0 0 0 0 0 0 0 0
0 0 0 0 0 0 0 0 0 0 0 0 0 0 0 0 0 0 0 0 0 0 0 0 0 0 0 0 0 0 0 0 0 0 0
0 0 0 0 0 0 0 0 0 0 0 0 0 0 0 0 0 0 0 0 0 0 0 0 0 0 0 0 0 0 0 0 0 0 0
0 0 0 0 0 0 0 0 0 0 0 0 0 0 0 0 0 0 0 0 0 0 0 0 0 0 0 0 0 0 0 0 0 0 0
0 0 0 0 0 0 0 0 0 0 0 0 0 0 0 0 0 0 0 0 0 0 0 0 0 0 0 0 0 0 0 0 0 0 0
0 0 0 0 0 0 0 0 0 0 0 0 0 0 0 0 0 0 0 0 0 0 0 0 0 0 0 0 0 0 0 0 0 0 0
0 0 0 0 0 0 0 0 0 0 0 0 0 0 0 0 0 0 0 0 0 0 0 0 0 0 0 0 0 0 0 0 0 0 0
0 0 0 0 0 0 0 0 0 0 0 0 0 0 0 0 0 0 0 0 0 0 0 0 0 0 0 0 0 0 0 0 0 0 0
0 0 0 0 0 0 0 0 0 0 0 0 0 0 0 0 0 0 0 0 0 0 0 0 0 0 0 0 0 0 0 0 0 0 0
0 0 0 0 0 0 0 0 0 0 0 0 0 0 0 0 0 0 0 0 0 0 0 0 0 0 0 0 0 0 0 0 0 0 0
0 0 0 0 0 0 0 0 0 0 0 0 0 0 0 0 0 0 0 0 0 0 0
0 0 0 0 0 0 0 0 0 0 0 0 0 0 0 0 0 0 0 0 0 0 0 0 0 0 0 0 0 0 0 0 0 0 0
0 0 0 0 0 0 0 0 0 0 0 0 0 0 0 0 0 0 0 0 0 0 0 0 0 0 0 0 0 0 0 0 0 0 0
0 0 0 0 0 0 0 0 0 0 0 0 0 0 0 0 0 0 0 0 0 0 0 0 0 0 0 0 0 0 0 0 0 0 0
0 0 0 0 0 0 0 0 0 0 0 0 0 0 0 0 0 0 0 0 0 0 0 0 0 0 0 0 0 0 0 0 0 0 0
0 0 0 0 0 0 0 0 0 0 0 0 0 0 0 0 0 0 0 0 0 0 0 0 0 0 0 0 0 0 0 0 0 0 0
0 0 0 0 0 0 0 0 0 0 0 0 0 0 0 0 0 0 0 0 0 0 0 0 0 0 0 0 0 0 0 0 0 0 0
0 0 0 0 0 0 0 0 0 0 0 0 0 0 0 0 0 0 0 0 0 0 0 0 0 0 0 0 0 0 0 0 0 0 0
0 0 0 0 0 0 0 0 0 0 0 0 0 0 0 0 0 0 0 0 0 0 0 0 0 0 0 0 0 0 0 0 0 0 0
0 0 0 0 0 0 0 0 0 0 0 0 0 0 0 0 0 0 0 0 0 0 0 0 0 0 0 0 0 0 0 0 0 0 0
0 0 0 0 0 0 0 0 0 0 0 0 0 0 0 0 0 0 0 0 0 0 0 0 0 0 0 0 0 0 0 0 0 0 0
0 0 0 0 0 0 0 0 0 0 0 0 0 0 0 0 0 0 0 0 0 0 0 0 0 0 0 0 3 2 18 2 0 10
1 0 7 1 0 6 1 0 6 1 0 6 1 0 6 1 0 6 1 0 6 1 0 6 1 0 6 1 0 6 1 0 6 1 0
6 1 0 6 1 0 6 1 0 6 1 0 6 1 0 6 1 0 6 1 0 6 1 0 6 1 0 6 1 0 6 1 0 6 1
0 6 1 0 6 1 0 6 1 0 6 1 0 6 1 0 6 1 0 6 1 0 6 1 0 6 1 0 6 1 0 6 1 0 6
1 0 6 1 0 6 1 0 6 1 0 6 1 0 6 1 0 6 1 0 6 1 0 6 1 0 6 1 0 6 1 0 6 1 0
6 1 0 6 1 0 6 1 0 6 1 0 6 1 0 6 1 0 6 1 0 6 1 0 6 1 0 7 1 0 8 1 0 10 1
0 12 2 0 14 2 0 16 2 0 19 2 0 21 2 0 23 2 0 25 2 0 28 3 0 30 3 0 33 3
0 36 3 0 39 3 0 45 4 0 54 4 0 51 4 0 52 4 0 56 4 0 61 5 0 68 0 0 0 4
12 44 5 16 54 5 17 57 5 18 59 6 19 59 6 19 59 6 19 59 6 19 59 6 19 58
6 19 57 6 19 56 5 18 54 5 18 53 5 17 54 5 17 55 5 17 57 5 16 58 5 15
59 5 15 60 5 14 61 4 14 62 4 13 63 4 12 64 4 12 65 4 11 66 4 10 66 3 9
67 3 9 67 3 8 68 3 7 68 3 6 68 2 5 69 2 5 68 2 4 68 2 3 68 2 2 68 2 1
70 1 1 71 1 1 72 1 1 74 1 1 75 1 1 75 1 1 75 1 1 74 1 1 72 1 1 68 0 0
0 0 0 0 0 0 0 0 0 0 6 12 8 7 13 11 7 13 13 8 13 15 8 13 16 8 13 15 0 0
0 0 0 0 0 0 0 0 0 0 0 0 0 0 0 0 0 0 0 0 0 0 0 0 0 0 0 0 0 0 0 0 0 0 0
0 0 0 0 0 0 0 0 0 0 0 0 0 0 0 0 0 0 0 0 0 0 0 0 0 0 0 0 0 0 0 0 0 0 0
0 0 0 0 0 0 0 0 0 0 0 0 0 0 0 0 0 0 0 0 0 0 0 0 0 0 0 0 0 0 0 0 0 0 0
0 0 0 0 0 0 0 0 0 0 0 0 0 0 0 0 0 0 0 0 0 0 0 0 0 0 0 0 0 0 0 0 0 0 0
0 0 0 0 0 0 0 0 0 0 0 0 0 0 0 0 0 0 0 0 0 0 0 0 0 0 0 0 0 0 0 0 0 0 0
0 0 0 0 0 0 0 0 0 0 0 0 0 0 0 0 0 0 0 0 0 0 0 0 0 0 0 0 0 0 0 0 0 0 0
0 0 0 0 0 0 0 0 0 0 0 0 0 0 0 0 0 0 0 0 0 0 0 0 0 0 0 0 0 0 0 0 0 0 0
0 0 0 0 0 0 0 0 0 0 0 0 0 0 0 0 0 0 0 0 0 0 0 0 0 0 0 0 0 0 0 0 0 0 0
0 0 0 0 0 0 0 0 0 0 0 0 0 0 0 0 0 0 0 0 0 0 0 0 0 0 0 0 0 0 0 0 0 0 0
0 0 0 0 0 0 0 0 0 0 0 0 0 0 0 0 0 0 0 0 0 0 0 0 0 0 0 0 0 0 0 0 0 0 0
0 0 0 0 0 0 0 0 0 0 0 0 0 0 0 0 0 0 0 0 0 0 0 0 0 0 0 0 0 0 0 0 0 0 0
0 0 0 0 0 0 0 0 0 0 0 0 0 0 0 0 0 0 0 0 0 0 0 0 0 0 0
6 11 5 6 11 5 6 11 5 6 11 5 6 11 5 6 11 5 6 11 5 6 11 5 6 11 5 6 11 5
6 11 5 6 11 5 6 11 5 6 11 5 6 11 5 6 11 5 6 11 5 6 11 5 6 11 5 6 11 5
6 11 5 6 11 5 6 11 5 6 11 5 6 11 5 6 11 5 6 11 5 6 11 5 6 11 5 6 11 5
6 11 5 6 11 5 6 11 5 6 11 5 6 11 5 6 11 5 6 11 5 6 11 5 6 11 5 6 11 5
6 11 5 6 11 5 6 11 5 6 11 5 6 11 5 6 11 5 6 11 5 6 11 5 6 11 5 6 11 5
6 11 5 6 11 5 6 11 5 6 11 5 6 11 5 6 11 5 6 11 5 6 11 5 6 11 5 6 11 5
6 11 5 6 11 5 6 11 5 6 11 5 6 11 5 6 11 5 6 11 5 6 11 5 6 11 5 6 11 5
6 11 5 6 11 5 6 11 5 6 11 5 6 11 5 6 11 5 6 11 5 6 11 5 6 11 5 6 11 5
6 11 5 6 11 5 6 11 5 6 11 5 6 11 5 6 11 5 6 11 5 6 11 5 6 11 5 6 11 5
6 11 5 6 11 5 6 11 5 6 11 5 6 11 5 6 11 5 6 11 5 6 11 5 6 11 5 6 11 5
6 11 5 6 11 5 6 11 5 6 11 5 6 11 5 6 11 5 6 11 5 6 11 5 6 11 5 6 11 5
6 11 5 6 11 5 6 11 5 6 11 5 6 11 5 6 11 5 6 11 5 6 11 5 6 11 5 6 11 5
6 11 5 6 11 5 6 11 5 6 11 5 6 11 5 6 11 5 3 1 18 2 0 11 1 0 7 1 0 6 1
0 6 1 0 6 1 0 6 1 0 6 1 0 6 1 0 6 1 0 6 1 0 6 1 0 6 1 0 6 1 0 6 1 0 6
1 0 6 1 0 6 1 0 6 1 0 6 1 0 6 1 0 6 1 0 6 1 0 6 1 0 6 1 0 6 1 0 6 1 0
6 1 0 6 1 0 6 1 0 6 1 0 6 1 0 6 1 0 6 1 0 6 1 0 6 1 0 6 1 0 6 1 0 6 1
0 6 1 0 6 1 0 6 1 0 6 1 0 6 1 0 6 1 0 6 1 0 6 1 0 6 1 0 6 1 0 6 1 0 6
1 0 6 1 0 6 1 0 6 1 0 6 1 0 6 1 0 6 1 0 7 1 0 9 1 0 11 1 0 12 2 0 14 2
0 17 2 0 19 2 0 21 2 0 23 2 0 25 2 0 28 3 0 30 3 0 33 3 0 36 3 0 39 3
0 43 4 0 48 4 0 49 4 0 52 4 0 57 4 0 62 5 0 69 6 11 5 6 11 5 4 15 52 5
17 56 5 18 57 5 18 58 6 19 58 6 19 58 6 19 58 6 19 57 6 19 56 5 18 55
5 18 54 5 18 52 5 17 53 5 17 54 5 16 56 5 16 57 5 15 58 5 15 60 4 14
61 4 13 62 4 13 63 4 12 63 4 11 64 4 11 65 4 10 66 3 9 66 3 8 67 3 8
67 3 7 67 3 6 68 2 5 68 2 4 68 2 3 67 2 3 67 2 2 67 1 1 69 1 1 70 1 1
72 1 1 73 1 1 74 1 1 74 1 1 74 1 1 73 1 1 70 1 1 65 6 11 5 7 14 9 7 14
9 8 14 12 8 14 15 9 14 17 9 15 19 10 15 21 10 15 22 10 15 23 10 15 23
10 15 22 6 11 5 6 11 5 6 11 5 6 11 5 6 11 5 6 11 5 6 11 5 6 11 5 6 11
5 6 11 5 6 11 5 6 11 5 6 11 5 6 11 5 6 11 5 6 11 5 6 11 5 6 11 5 6 11
5 6 11 5 6 11 5 6 11 5 6 11 5 6 11 5 6 11 5 6 11 5 6 11 5 6 11 5 6 11
5 6 11 5 6 11 5 6 11 5 6 11 5 6 11 5 6 11 5 6 11 5 6 11 5 6 11 5 6 11
5 6 11 5 6 11 5 6 11 5 6 11 5 6 11 5 6 11 5 6 11 5 6 11 5 6 11 5 6 11
5 6 11 5 6 11 5 6 11 5 6 11 5 6 11 5 6 11 5 6 11 5 6 11 5 6 11 5 6 11
5 6 11 5 6 11 5 6 11 5 6 11 5 6 11 5 6 11 5 6 11 5 6 11 5 6 11 5 6 11
5 6 11 5 6 11 5 6 11 5 6 11 5 6 11 5 6 11 5 6 11 5 6 11 5 6 11 5 6 11
5 6 11 5 6 11 5 6 11 5 6 11 5 6 11 5 6 11 5 6 11 5 6 11 5 6 11 5 6 11
5 6 11 5 6 11 5 6 11 5 6 11 5 6 11 5 6 11 5 6 11 5 6 11 5 6 11 5 6 11
5 6 11 5 6 11 5 6 11 5 6 11 5 6 11 5 6 11 5 6 11 5 6 11 5 6 11 5 6 11
5 6 11 5 6 11 5 6 11 5 6 11 5 6 11 5 6 11 5 6 11 5 6 11 5 6 11 5 6 11
5 6 11 5 6 11 5 6 11 5 6 11 5 6 11 5 6 11 5 6 11 5 6 11 5 6 11 5 6 11
5 6 11 5 6 11 5 6 11 5 6 11 5 6 11 5 6 11 5 6 11 5
6 11 5 6 11 5 6 11 5 6 11 5 6 11 5 6 11 5 6 11 5 6 11 5 6 11 5 6 11 5
6 11 5 6 11 5 6 11 5 6 11 5 6 11 5 6 11 5 6 11 5 6 11 5 6 11 5 6 11 5
6 11 5 6 11 5 6 11 5 6 11 5 6 11 5 6 11 5 6 11 5 6 11 5 6 11 5 6 11 5
6 11 5 6 11 5 6 11 5 6 11 5 6 11 5 6 11 5 6 11 5 6 11 5 6 11 5 6 11 5
6 11 5 6 11 5 6 11 5 6 11 5 6 11 5 6 11 5 6 11 5 6 11 5 6 11 5 6 11 5
6 11 5 6 11 5 6 11 5 6 11 5 6 11 5 6 11 5 6 11 5 6 11 5 6 11 5 6 11 5
6 11 5 6 11 5 6 11 5 6 11 5 6 11 5 6 11 5 6 11 5 6 11 5 6 11 5 6 11 5
6 11 5 6 11 5 6 11 5 6 11 5 6 11 5 6 11 5 6 11 5 6 11 5 6 11 5 6 11 5
6 11 5 6 11 5 6 11 5 6 11 5 6 11 5 6 11 5 6 11 5 6 11 5 6 11 5 6 11 5
6 11 5 6 11 5 6 11 5 6 11 5 6 11 5 6 11 5 6 11 5 6 11 5 6 11 5 6 11 5
6 11 5 6 11 5 6 11 5 6 11 5 6 11 5 6 11 5 6 11 5 6 11 5 6 11 5 6 11 5
6 11 5 6 11 5 6 11 5 6 11 5 6 11 5 6 11 5 6 11 5 6 11 5 6 11 5 6 11 5
6 11 5 6 11 5 6 11 5 6 11 5 6 11 5 6 11 5 3 1 20 2 0 12 1 0 8 1 0 6 1
0 6 1 0 6 1 0 6 1 0 6 1 0 6 1 0 6 1 0 6 1 0 6 1 0 6 1 0 6 1 0 6 1 0 6
1 0 6 1 0 6 1 0 6 1 0 6 1 0 6 1 0 6 1 0 6 1 0 6 1 0 6 1 0 6 1 0 6 1 0
6 1 0 6 1 0 6 1 0 6 1 0 6 1 0 6 1 0 6 1 0 6 1 0 6 1 0 6 1 0 6 1 0 6 1
0 6 1 0 6 1 0 6 1 0 6 1 0 6 1 0 6 1 0 6 1 0 6 1 0 6 1 0 6 1 0 6 1 0 6
1 0 6 1 0 6 1 0 6 1 0 6 1 0 6 1 0 6 1 0 7 1 0 9 1 0 11 1 0 13 2 0 15 2
0 17 2 0 19 2 0 21 2 0 23 2 0 26 2 0 28 3 0 31 3 0 33 3 0 36 3 0 39 3
0 42 3 0 46 4 0 49 4 0 53 4 0 57 4 0 63 5 0 72 6 11 5 6 11 5 4 14 49 5
16 54 5 17 56 5 18 57 5 18 57 5 18 57 5 19 57 5 18 56 5 18 55 5 18 54
5 18 53 5 17 51 5 17 52 5 16 53 5 16 55 5 15 56 5 15 57 5 14 59 4 14
60 4 13 61 4 12 62 4 12 62 4 11 63 4 10 64 3 10 65 3 9 65 3 8 66 3 7
66 3 7 66 3 6 66 2 5 66 2 4 66 2 3 66 2 2 66 2 2 67 1 1 68 1 1 70 1 1
71 1 1 72 1 1 73 1 1 73 1 1 73 1 1 71 1 1 68 1 1 59 7 14 9 7 14 10 8
14 13 9 14 16 9 15 19 10 15 21 10 15 23 11 15 24 11 15 26 11 15 26 11
15 27 11 15 27 11 15 26 10 15 23 6 11 5 6 11 5 6 11 5 6 11 5 6 11 5 6
11 5 6 11 5 6 11 5 6 11 5 6 11 5 6 11 5 6 11 5 6 11 5 6 11 5 6 11 5 6
11 5 6 11 5 6 11 5 6 11 5 6 11 5 6 11 5 6 11 5 6 11 5 6 11 5 6 11 5 6
11 5 6 11 5 6 11 5 6 11 5 6 11 5 6 11 5 6 11 5 6 11 5 6 11 5 6 11 5 6
11 5 6 11 5 6 11 5 6 11 5 6 11 5 6 11 5 6 11 5 6 11 5 6 11 5 6 11 5 6
11 5 6 11 5 6 11 5 6 11 5 6 11 5 6 11 5 6 11 5 6 11 5 6 11 5 6 11 5 6
11 5 6 11 5 6 11 5 6 11 5 6 11 5 6 11 5 6 11 5 6 11 5 6 11 5 6 11 5 6
11 5 6 11 5 6 11 5 6 11 5 6 11 5 6 11 5 6 11 5 6 11 5 6 11 5 6 11 5 6
11 5 6 11 5 6 11 5 6 11 5 6 11 5 6 11 5 6 11 5 6 11 5 6 11 5 6 11 5 6
11 5 6 11 5 6 11 5 6 11 5 6 11 5 6 11 5 6 11 5 6 11 5 6 11 5 6 11 5 6
11 5 6 11 5 6 11 5 6 11 5 6 11 5 6 11 5 6 11 5 6 11 5 6 11 5 6 11 5 6
11 5 6 11 5 6 11 5 6 11 5 6 11 5 6 11 5 6 11 5 6 11 5 6 11 5 6 11 5 6
11 5 6 11 5 6 11 5 6 11 5 6 11 5 6 11 5 6 11 5 6 11 5 6 11 5 6 11 5 6
11 5 6 11 5 6 11 5 6 11 5 6 11 5 6 11 5 6 11 5 6 11 5 6 11 5
6 11 5 6 11 5 6 11 5 6 11 5 6 11 5 6 11 5 6 11 5 6 11 5 6 11 5 6 11 5
6 11 5 6 11 5 6 11 5 6 11 5 6 11 5 6 11 5 6 11 5 6 11 5 6 11 5 6 11 5
6 11 5 6 11 5 6 11 5 6 11 5 6 11 5 6 11 5 6 11 5 6 11 5 6 11 5 6 11 5
6 11 5 6 11 5 6 11 5 6 11 5 6 11 5 6 11 5 6 11 5 6 11 5 6 12 5 6 12 5
6 12 5 6 12 5 6 12 5 6 12 5 6 12 5 6 12 5 6 12 5 6 12 5 6 12 5 6 12 5
6 12 5 6 12 5 6 12 5 6 12 5 6 12 5 6 12 5 6 12 5 6 12 5 6 12 5 6 12 5
6 12 5 7 12 5 7 12 5 7 12 5 7 12 5 7 12 5 7 12 5 7 12 5 7 12 5 7 12 5
7 12 5 7 12 5 7 12 5 7 12 5 7 12 5 7 12 5 7 12 5 7 12 5 7 12 5 7 12 5
7 12 5 7 12 5 7 12 5 7 12 5 7 12 5 7 12 5 7 12 5 7 12 5 7 12 5 7 12 5
7 12 5 7 12 5 7 12 5 7 12 5 7 12 5 7 12 5 7 12 5 7 12 5 7 12 5 7 12 5
7 12 5 7 12 5 7 12 5 7 12 5 7 12 5 7 12 5 7 12 5 7 12 5 7 12 5 7 12 5
7 12 5 7 12 5 7 12 5 7 12 5 7 12 5 7 12 5 7 12 5 7 12 5 7 12 5 7 12 5
7 12 5 7 12 5 7 12 5 7 12 5 7 12 5 7 12 5 7 12 5 2 1 14 2 0 9 1 0 6 1
0 6 1 0 6 1 0 6 1 0 6 1 0 6 1 0 6 1 0 6 1 0 6 1 0 6 1 0 6 1 0 6 1 0 6
1 0 6 1 0 6 1 0 6 1 0 6 1 0 6 1 0 6 1 0 6 1 0 6 1 0 6 1 0 6 1 0 6 1 0
6 1 0 6 1 0 6 1 0 6 1 0 6 1 0 6 1 0 6 1 0 6 1 0 6 1 0 6 1 0 6 1 0 6 1
0 6 1 0 6 1 0 6 1 0 6 1 0 6 1 0 6 1 0 6 1 0 6 1 0 6 1 0 6 1 0 6 1 0 6
1 0 6 1 0 6 1 0 6 1 0 6 1 0 6 1 0 6 1 0 7 1 0 9 1 0 11 1 0 13 2 0 15 2
0 17 2 0 19 2 0 21 2 0 24 2 0 26 2 0 28 3 0 31 3 0 34 3 0 36 3 0 39 3
0 43 3 0 46 4 0 49 4 0 53 4 0 58 4 0 64 7 12 5 7 12 5 7 12 5 4 12 45 5
15 52 5 17 54 5 17 56 5 18 56 5 18 56 5 18 56 5 18 55 5 18 54 5 18 53
5 17 52 5 17 50 5 17 50 5 16 52 5 16 53 5 15 55 5 15 56 4 14 57 4 13
58 4 13 59 4 12 60 4 11 61 4 11 62 4 10 63 3 9 63 3 9 64 3 8 64 3 7 65
3 6 65 2 5 65 2 5 65 2 4 65 2 3 65 2 2 64 1 1 66 1 1 67 1 1 69 1 1 70
1 1 71 1 1 72 1 1 72 1 1 71 1 1 69 1 1 64 7 14 9 7 14 9 8 14 13 9 15
16 9 15 19 10 15 21 11 15 23 11 15 25 11 15 27 12 15 28 12 16 29 12 16
30 12 16 30 12 16 30 12 15 28 11 15 25 7 12 5 7 12 5 7 12 5 7 12 5 7
12 5 7 12 5 7 12 5 7 12 5 7 12 5 7 12 5 7 12 5 7 12 5 7 12 5 7 12 5 7
12 5 7 12 5 7 12 5 7 12 5 7 12 5 7 12 5 7 12 5 7 12 5 7 12 5 7 12 5 7
12 5 7 12 5 7 12 5 7 12 5 7 12 5 7 12 5 7 12 5 7 12 5 7 12 5 7 12 5 7
12 5 7 12 5 7 12 5 7 12 5 7 12 5 7 12 5 7 12 5 6 11 5 6 11 5 6 11 5 6
11 5 6 11 5 6 11 5 6 11 5 6 11 5 6 11 5 6 11 5 6 11 5 6 11 5 6 11 5 6
11 5 6 11 5 6 11 5 6 11 5 6 11 5 6 11 5 6 11 5 6 11 5 6 11 5 6 11 5 6
11 5 6 11 5 6 11 5 6 11 5 6 11 5 6 11 5 6 11 5 6 11 5 6 11 5 6 11 5 6
11 5 6 11 5 6 11 5 6 11 5 6 11 5 6 11 5 6 11 5 6 11 5 6 11 5 6 11 5 6
11 5 6 11 5 6 11 5 6 11 5 6 11 5 6 11 5 6 11 5 6 11 5 6 11 5 6 11 5 6
11 5 6 11 5 6 11 5 6 11 5 6 11 5 6 11 5 6 11 5 6 11 5 6 11 5 6 11 5 6
11 5 6 11 5 6 11 5 6 11 5 6 11 5 6 11 5 6 11 5 6 11 5 6 11 5 6 11 5 6
11 5 6 11 5 6 11 5 6 11 5 6 11 5 6 11 5 6 11 5 6 11 5 6 11 5 6 11 5 6
11 5 6 11 5 6 11 5 6 11 5 6 11 5 6 11 5 6 11 5 6 11 5 6 11 5
7 12 5 7 12 5 7 12 5 7 12 5 7 12 5 7 12 5 7 12 5 7 12 5 7 12 5 7 12 5
7 12 5 7 12 5 7 12 5 7 12 5 7 12 5 7 12 5 7 12 5 7 12 5 7 12 5 7 12 5
7 12 5 7 12 5 7 12 5 7 12 5 7 12 5 7 12 5 7 12 5 7 12 5 7 12 5 7 12 5
7 12 5 7 12 5 7 12 5 7 12 5 7 12 5 7 12 5 7 12 5 7 12 5 7 12 5 7 12 5
7 12 5 7 12 5 7 12 5 7 12 5 7 12 5 7 12 5 7 12 5 7 12 5 7 12 5 7 12 5
7 12 5 7 12 5 7 12 5 7 12 5 7 12 5 7 12 5 7 12 5 7 12 5 7 12 5 7 12 5
7 12 5 7 12 5 7 12 5 7 12 5 7 12 5 7 12 5 7 12 5 7 12 5 7 12 5 7 12 5
7 12 5 7 12 5 7 12 5 7 12 5 7 12 5 7 12 5 7 12 5 7 12 5 7 12 5 7 12 5
7 12 5 7 12 5 7 12 5 7 12 5 7 12 5 7 12 5 7 12 5 7 12 5 7 12 5 7 12 5
7 12 5 7 12 5 7 12 5 7 12 5 7 12 5 7 12 5 7 12 5 7 12 5 7 12 5 7 12 5
7 12 5 7 12 5 7 12 5 7 12 5 7 12 5 7 12 5 7 12 5 7 12 5 7 12 5 7 12 5
7 12 5 7 12 5 7 12 5 7 12 5 7 12 5 7 12 5 7 12 5 7 12 5 7 12 5 7 12 5
7 12 5 7 12 5 7 12 5 7 12 5 7 12 5 7 12 5 7 12 5 2 1 16 2 0 10 1 0 7 1
0 6 1 0 6 1 0 6 1 0 6 1 0 6 1 0 6 1 0 6 1 0 6 1 0 6 1 0 6 1 0 6 1 0 6
1 0 6 1 0 6 1 0 6 1 0 6 1 0 6 1 0 6 1 0 6 1 0 6 1 0 6 1 0 6 1 0 6 1 0
6 1 0 6 1 0 6 1 0 6 1 0 6 1 0 6 1 0 6 1 0 6 1 0 6 1 0 6 1 0 6 1 0 6 1
0 6 1 0 6 1 0 6 1 0 6 1 0 6 1 0 6 1 0 6 1 0 6 1 0 6 1 0 6 1 0 6 1 0 6
1 0 6 1 0 6 1 0 6 1 0 6 1 0 6 1 0 6 1 0 7 1 0 9 1 0 11 1 0 13 2 0 15 2
0 17 2 0 19 2 0 21 2 0 24 2 0 26 2 0 29 3 0 31 3 0 34 3 0 37 3 0 40 3
0 43 3 0 46 4 0 50 4 0 54 4 0 59 5 0 65 7 12 5 7 12 5 7 12 5 7 12 5 4
14 49 5 16 52 5 17 54 5 17 55 5 17 55 5 18 54 5 18 54 5 17 53 5 17 52
5 17 51 5 17 49 5 16 49 5 16 50 5 15 52 5 15 53 4 14 55 4 14 56 4 13
57 4 12 58 4 12 59 4 11 60 4 10 61 3 10 61 3 9 62 3 8 63 3 7 63 3 7 63
3 6 63 2 5 64 2 4 64 2 3 63 2 3 63 2 2 63 1 1 65 1 1 66 1 1 68 1 1 69
1 1 70 1 1 70 1 1 70 1 1 68 1 1 65 1 1 58 7 14 9 8 14 12 9 15 15 9 15
18 10 15 21 11 15 23 11 15 25 12 15 27 12 16 29 12 16 30 13 16 31 13
16 32 13 16 33 13 16 32 13 16 32 12 16 30 11 15 25 7 12 5 7 12 5 7 12
5 7 12 5 7 12 5 7 12 5 7 12 5 7 12 5 7 12 5 7 12 5 7 12 5 7 12 5 7 12
5 7 12 5 7 12 5 7 12 5 7 12 5 7 12 5 7 12 5 7 12 5 7 12 5 7 12 5 7 12
5 7 12 5 7 12 5 7 12 5 7 12 5 7 12 5 7 12 5 7 12 5 7 12 5 7 12 5 7 12
5 7 12 5 7 12 5 7 12 5 7 12 5 7 12 5 6 11 5 6 11 5 6 11 5 6 11 5 6 11
5 6 11 5 6 11 5 6 11 5 6 11 5 6 11 5 6 11 5 6 11 5 6 11 5 6 11 5 6 11
5 6 11 5 6 11 5 6 11 5 6 11 5 6 11 5 6 11 5 6 11 5 6 11 5 6 11 5 6 11
5 6 11 5 6 11 5 6 11 5 6 11 5 6 11 5 6 11 5 6 11 5 6 11 5 6 11 5 6 11
5 6 11 5 6 11 5 6 11 5 6 11 5 6 11 5 6 11 5 6 11 5 6 11 5 6 11 5 6 11
5 6 11 5 6 11 5 6 11 5 6 11 5 6 11 5 6 11 5 6 11 5 6 11 5 6 11 5 6 11
5 6 11 5 6 11 5 6 11 5 6 11 5 6 11 5 6 11 5 6 11 5 6 11 5 6 11 5 6 11
5 6 11 5 6 11 5 6 11 5 6 11 5 6 11 5 6 11 5 6 11 5 6 11 5 6 11 5 6 11
5 6 11 5 6 11 5 6 11 5 6 11 5 6 11 5 6 11 5 6 11 5 6 11 5 6 11 5 6 11
5 6 11 5 6 11 5 6 11 5 6 11 5 6 11 5 6 11 5 6 11 5 6 11 5 6 11 5
7 12 5 7 12 5 7 12 5 7 12 5 7 12 5 7 12 5 7 12 5 7 12 5 7 12 5 7 12 5
7 12 5 7 12 5 7 12 5 7 12 5 7 12 5 7 12 5 7 12 5 7 12 5 7 12 5 7 12 5
7 12 5 7 12 5 7 12 5 7 12 5 7 12 5 7 12 5 7 12 5 7 12 5 7 12 5 7 12 5
7 12 5 7 12 5 7 12 5 7 12 5 7 12 5 7 12 5 7 12 5 7 12 5 7 12 5 7 12 5
7 12 5 7 12 5 7 12 5 7 12 5 7 12 5 7 12 5 7 12 5 7 12 5 7 12 5 7 12 5
7 12 5 7 12 5 7 12 5 7 12 5 7 12 5 7 12 5 7 12 5 7 12 5 7 12 5 7 12 5
7 12 5 7 12 5 7 12 5 7 12 5 7 12 5 7 12 5 7 12 5 7 12 5 7 12 5 7 12 5
7 12 5 7 12 5 7 12 5 7 12 5 7 12 5 7 12 5 7 12 5 7 12 5 7 12 5 7 12 5
7 12 5 7 12 5 7 12 5 7 12 5 7 12 5 7 12 5 7 12 5 7 12 5 7 12 5 7 12 5
7 12 5 7 12 5 7 12 5 7 12 5 7 12 5 7 12 5 7 12 5 7 12 5 7 12 5 7 12 5
7 12 5 7 12 5 7 13 5 7 13 5 7 13 5 7 13 5 7 13 5 7 13 5 7 13 5 7 13 5
7 13 5 7 13 5 7 13 5 7 13 5 7 13 5 7 13 5 7 13 5 7 13 5 7 13 5 7 13 5
7 13 5 7 13 5 7 13 5 7 13 5 7 13 5 7 13 5 7 13 5 3 1 20 2 0 12 1 0 8 1
0 6 1 0 6 1 0 6 1 0 6 1 0 6 1 0 6 1 0 6 1 0 6 1 0 6 1 0 6 1 0 6 1 0 6
1 0 6 1 0 6 1 0 6 1 0 6 1 0 6 1 0 6 1 0 6 1 0 6 1 0 6 1 0 6 1 0 6 1 0
6 1 0 6 1 0 6 1 0 6 1 0 6 1 0 6 1 0 6 1 0 6 1 0 6 1 0 6 1 0 6 1 0 6 1
0 6 1 0 6 1 0 6 1 0 6 1 0 6 1 0 6 1 0 6 1 0 6 1 0 6 1 0 6 1 0 6 1 0 6
1 0 6 1 0 6 1 0 6 1 0 6 1 0 6 1 0 6 1 0 7 1 0 9 1 0 11 2 0 13 2 0 15 2
0 17 2 0 19 2 0 22 2 0 24 2 0 26 2 0 29 3 0 31 3 0 34 3 0 37 3 0 40 3
0 43 3 0 47 4 0 51 4 0 55 4 0 60 5 0 67 7 13 5 7 13 5 7 13 5 7 13 5 4
13 45 4 15 50 5 16 52 5 16 53 5 17 53 5 17 53 5 17 52 5 17 52 5 17 51
5 16 50 5 16 48 5 16 47 5 15 49 5 15 50 4 14 52 4 14 53 4 13 54 4 13
55 4 12 57 4 11 57 4 11 58 3 10 59 3 9 60 3 9 60 3 8 61 3 7 61 3 6 62
2 6 62 2 5 62 2 4 62 2 3 61 2 2 61 1 2 62 1 1 63 1 1 65 1 1 66 1 1 67
1 1 68 1 1 68 1 1 67 1 1 65 1 1 61 7 14 9 7 14 11 8 14 14 9 15 17 10
15 20 10 15 23 11 15 25 11 15 27 12 16 29 12 16 31 13 16 32 13 16 33
13 16 34 13 16 34 13 16 34 13 16 34 13 16 33 12 16 30 7 13 5 7 13 5 7
13 5 7 13 5 7 13 5 7 13 5 7 13 5 7 13 5 7 13 5 7 13 5 7 13 5 7 13 5 7
13 5 7 13 5 7 13 5 7 13 5 7 13 5 7 13 5 7 13 5 7 13 5 7 13 5 7 13 5 7
13 5 7 13 5 7 13 5 7 13 5 7 13 5 7 13 5 7 13 5 7 13 5 7 13 5 7 13 5 7
13 5 7 13 5 7 13 5 7 13 5 7 11 5 7 11 5 7 11 5 7 11 5 7 11 5 7 11 5 7
11 5 7 11 5 7 11 5 7 11 5 7 11 5 7 11 5 7 11 5 7 11 5 7 11 5 7 11 5 7
11 5 7 11 5 7 11 5 7 11 5 7 11 5 7 11 5 7 11 5 7 11 5 7 11 5 7 11 5 7
11 5 7 11 5 7 11 5 7 11 5 7 11 5 7 11 5 7 11 5 7 11 5 7 11 5 7 11 5 7
11 5 7 11 5 7 11 5 7 11 5 6 11 5 6 11 5 6 11 5 6 11 5 6 11 5 6 11 5 6
11 5 6 11 5 6 11 5 6 11 5 6 11 5 6 11 5 6 11 5 6 11 5 6 11 5 6 11 5 6
11 5 6 11 5 6 11 5 6 11 5 6 11 5 6 11 5 6 11 5 6 11 5 6 11 5 6 11 5 6
11 5 6 11 5 6 11 5 6 11 5 6 11 5 6 11 5 6 11 5 6 11 5 6 11 5 6 11 5 6
11 5 6 11 5 6 11 5 6 11 5 6 11 5 6 11 5 6 11 5 6 11 5 6 11 5 6 11 5 6
11 5 6 11 5 6 11 5 6 11 5 6 11 5 6 11 5 6 11 5 6 11 5 6 11 5 6 11 5
7 12 5 7 12 5 7 12 5 7 12 5 7 12 5 7 12 5 7 12 5 7 12 5 7 12 5 7 12 5
7 12 5 7 12 5 7 12 5 7 12 5 7 13 5 7 13 5 7 13 5 7 13 5 7 13 5 7 13 5
7 13 5 7 13 5 7 13 5 7 13 5 7 13 5 7 13 5 7 13 5 7 13 5 7 13 5 7 13 5
7 13 5 7 13 5 7 13 5 7 13 5 7 13 5 7 13 5 7 13 5 7 13 5 7 13 5 7 13 5
7 13 5 7 13 5 7 13 5 7 13 5 7 13 5 7 13 5 7 13 5 7 13 5 7 13 5 7 13 5
7 13 5 7 13 5 7 13 5 7 13 5 7 13 5 7 13 5 7 13 5 7 13 5 7 13 5 7 13 5
7 13 5 7 13 5 7 13 5 7 13 5 7 13 5 7 13 5 7 13 5 7 13 5 7 13 5 7 13 5
7 13 5 7 13 5 7 13 5 7 13 5 7 13 5 7 13 5 7 13 5 7 13 5 7 13 5 7 13 5
7 13 5 7 13 5 7 13 5 7 13 5 7 13 5 7 13 5 7 13 5 7 13 5 7 13 5 7 13 5
7 13 5 7 13 5 7 13 5 7 13 5 7 13 5 7 13 5 7 13 5 7 13 5 7 13 5 7 13 5
7 13 5 7 13 5 7 13 5 7 13 5 7 13 5 7 13 5 7 13 5 7 13 5 7 13 6 7 13 5
7 13 5 7 13 5 7 13 5 7 13 5 7 13 5 7 13 5 7 13 5 7 13 5 7 13 5 7 13 5
7 13 5 7 13 5 7 13 5 7 13 5 7 13 5 7 13 5 7 13 5 7 13 5 2 0 14 1 0 9 1
0 6 1 0 6 1 0 6 1 0 6 1 0 6 1 0 6 1 0 6 1 0 6 1 0 6 1 0 6 1 0 6 1 0 6
1 0 6 1 0 6 1 0 6 1 0 6 1 0 6 1 0 6 1 0 6 1 0 6 1 0 6 1 0 6 1 0 6 1 0
6 1 0 6 1 0 6 1 0 6 1 0 6 1 0 6 1 0 6 1 0 6 1 0 6 1 0 6 1 0 6 1 0 6 1
0 6 1 0 6 1 0 6 1 0 6 1 0 6 1 0 6 1 0 6 1 0 6 1 0 6 1 0 6 1 0 6 1 0 6
1 0 6 1 0 6 1 0 6 1 0 6 1 0 6 1 0 6 1 0 7 1 0 9 1 0 11 2 0 13 2 0 15 2
0 17 2 0 20 2 0 22 2 0 24 2 0 27 2 0 29 3 0 32 3 0 35 3 0 37 3 0 40 3
0 44 4 0 47 4 0 51 4 0 56 4 0 61 8 13 6 8 13 6 8 13 6 8 13 6 8 13 6 8
13 6 4 13 46 4 15 49 5 16 51 5 16 51 5 16 51 5 16 51 5 16 50 5 16 49 5
16 48 5 16 47 5 15 46 4 15 47 4 14 48 4 14 50 4 13 51 4 13 52 4 12 54
4 12 55 4 11 56 4 10 57 3 10 57 3 9 58 3 8 59 3 7 59 3 7 59 2 6 60 2 5
60 2 4 60 2 3 60 2 3 59 1 2 59 1 1 60 1 1 62 1 1 63 1 1 65 1 1 65 1 1
66 1 1 66 1 1 64 1 1 61 1 1 54 7 14 9 8 14 12 9 15 16 9 15 19 10 15 21
11 15 24 11 15 26 12 16 28 12 16 30 13 16 32 13 16 33 13 16 34 14 16
35 14 16 36 14 16 36 14 16 36 13 16 35 13 16 33 12 16 28 7 13 6 7 13 6
7 13 6 7 13 6 7 13 6 7 13 6 7 13 6 7 13 6 7 13 6 7 13 6 7 13 6 7 13 6
7 13 6 7 13 6 7 13 6 7 13 6 7 13 6 7 13 6 7 13 6 7 13 6 7 13 6 7 13 6
7 13 6 7 13 6 7 13 6 7 13 6 7 13 6 7 13 6 7 13 6 7 13 6 7 13 6 7 13 6
7 13 6 7 13 6 7 11 5 7 11 5 7 11 5 7 11 5 7 11 5 7 11 5 7 11 5 7 11 5
7 11 5 7 11 5 7 11 5 7 11 5 7 11 5 7 11 5 7 11 5 7 11 5 7 11 5 7 11 5
7 11 5 7 11 5 7 11 5 7 11 5 7 11 5 7 11 5 7 11 5 7 11 5 7 11 5 7 11 5
7 11 5 7 11 5 7 11 5 7 11 5 7 11 5 7 11 5 7 11 5 7 11 5 7 11 5 7 11 5
7 11 5 7 11 5 7 11 5 7 11 5 7 11 5 7 11 5 7 11 5 7 11 5 7 11 5 7 11 5
7 11 5 7 11 5 7 11 5 7 11 5 7 11 5 7 11 5 7 11 5 7 11 5 7 11 5 7 11 5
7 11 5 7 11 5 7 11 5 7 11 5 7 11 5 7 11 5 7 11 5 7 11 5 7 11 5 7 11 5
7 11 5 7 11 5 7 11 5 7 11 5 7 11 5 7 11 5 7 11 5 7 11 5 7 11 5 7 11 5
7 11 5 7 11 5 7 11 5 7 11 5 7 11 5 7 11 5 7 11 5 7 11 5 7 11 5 7 11 5
7 11 5 7 11 5 7 11 5 7 11 5 7 11 5 7 11 5 7 11 5 7 11 5 7 11 5
7 13 5 7 13 5 7 13 5 7 13 5 7 13 5 7 13 5 7 13 5 7 13 5 7 13 5 7 13 5
7 13 5 7 13 5 7 13 5 7 13 5 7 13 5 7 13 5 7 13 5 7 13 5 7 13 5 7 13 5
7 13 5 7 13 5 7 13 5 7 13 5 7 13 5 7 13 5 7 13 5 7 13 5 7 13 5 7 13 5
7 13 5 7 13 5 7 13 5 7 13 5 7 13 5 7 13 5 7 13 5 7 13 5 7 13 5 7 13 5
7 13 5 7 13 5 7 13 5 7 13 5 7 13 5 7 13 5 7 13 5 7 13 5 7 13 5 7 13 5
7 13 5 7 13 5 7 13 5 7 13 5 7 13 5 7 13 5 7 13 5 7 13 5 7 13 5 7 13 5
7 13 5 7 13 5 7 13 5 7 13 5 7 13 5 7 13 5 7 13 5 7 13 5 7 13 5 7 13 5
7 13 5 7 13 5 7 13 5 7 13 5 7 13 5 7 13 5 7 13 5 7 13 5 7 13 5 7 13 5
7 13 5 7 13 5 7 13 5 7 13 5 7 13 5 7 13 5 7 13 5 7 13 5 7 13 5 7 13 5
7 13 5 7 13 5 7 13 5 7 13 5 7 13 5 7 13 5 7 13 5 7 13 5 7 13 5 7 13 5
7 13 5 7 13 5 7 13 5 7 13 5 7 13 5 7 13 5 7 13 5 7 13 5 7 13 5 7 13 5
8 14 6 7 13 5 7 13 5 7 13 5 7 13 5 7 13 5 7 13 5 7 13 5 7 13 5 7 13 5
7 13 5 7 13 5 7 14 5 7 14 5 7 14 5 7 14 5 7 14 5 7 14 5 3 1 17 2 0 11
1 0 7 1 0 6 1 0 6 1 0 6 1 0 6 1 0 6 1 0 6 1 0 6 1 0 6 1 0 6 1 0 6 1 0
6 1 0 6 1 0 6 1 0 6 1 0 6 1 0 6 1 0 6 1 0 6 1 0 6 1 0 6 1 0 6 1 0 6 1
0 6 1 0 6 1 0 6 1 0 6 1 0 6 1 0 6 1 0 6 1 0 6 1 0 6 1 0 6 1 0 6 1 0 6
1 0 6 1 0 6 1 0 6 1 0 6 1 0 6 1 0 6 1 0 6 1 0 6 1 0 6 1 0 6 1 0 6 1 0
6 1 0 6 1 0 6 1 0 6 1 0 6 1 0 6 1 0 6 1 0 8 1 0 10 1 0 11 2 0 13 2 0
16 2 0 18 2 0 20 2 0 22 2 0 25 2 0 27 2 0 29 3 0 32 3 0 35 3 0 38 3 0
41 3 0 44 4 0 48 4 0 52 4 0 57 4 0 62 8 14 6 8 14 6 8 14 6 8 14 6 8 14
6 8 14 6 3 12 41 4 14 46 4 15 48 4 15 49 5 16 49 5 16 49 5 16 49 5 16
48 5 15 47 4 15 45 4 15 44 4 14 44 4 14 46 4 13 48 4 13 49 4 12 50 4
12 52 4 11 53 4 11 54 3 10 54 3 9 55 3 9 56 3 8 56 3 7 57 3 6 57 2 6
57 2 5 57 2 4 57 2 3 57 2 2 57 1 1 57 1 1 59 1 1 60 1 1 62 1 1 63 1 1
63 1 1 63 1 1 63 1 1 61 1 1 56 7 14 9 7 14 10 8 15 14 9 15 17 10 15 20
10 15 22 11 15 25 12 16 27 12 16 29 13 16 31 13 16 33 13 16 34 14 16
35 14 16 36 14 16 37 14 16 37 16 21 37 14 16 36 13 16 34 12 16 31 8 14
6 8 14 6 8 14 6 8 14 6 8 14 6 8 14 6 8 14 6 8 14 6 8 14 6 8 14 6 8 14
6 8 14 6 8 14 6 8 14 6 8 14 6 8 13 6 8 13 6 8 13 6 8 13 6 8 13 6 8 13
6 8 13 6 8 13 6 8 13 6 8 13 6 8 13 6 8 13 6 8 13 6 8 13 6 8 13 6 8 13
6 8 13 6 7 12 6 7 12 6 7 12 6 7 12 6 7 12 6 7 12 6 7 12 6 7 12 6 7 12
6 7 12 6 7 12 6 7 12 6 7 12 6 7 12 6 7 12 6 7 12 6 7 12 6 7 12 6 7 12
6 7 12 6 7 12 6 7 12 6 7 12 6 7 12 6 7 12 6 7 12 6 7 12 6 7 12 6 7 12
6 7 12 6 7 12 6 7 12 6 7 12 6 7 12 6 7 12 6 7 12 6 7 12 6 7 12 6 7 12
6 7 12 6 7 12 6 7 12 6 7 12 6 7 12 6 7 12 6 7 12 6 7 12 6 7 12 6 7 12
6 7 12 6 7 12 6 7 12 6 7 12 6 7 12 6 7 12 6 7 12 6 7 12 6 7 12 6 7 12
6 7 12 6 7 12 6 7 12 6 7 12 6 7 12 5 7 12 5 7 12 5 7 12 5 7 12 5 7 12
5 7 12 5 7 12 5 7 11 5 7 11 5 7 11 5 7 11 5 7 11 5 7 11 5 7 11 5 7 11
5 7 11 5 7 11 5 7 11 5 7 11 5 7 11 5 7 11 5 7 11 5 7 11 5 7 11 5 7 11
5 7 11 5 7 11 5 7 11 5 7 11 5 7 11 5 7 11 5 7 11 5 7 11 5 7 11 5 7 11
5
7 13 5 7 13 5 7 13 5 7 13 5 7 13 5 7 13 5 7 13 5 7 13 5 7 13 5 7 13 5
7 13 5 7 13 5 7 13 5 7 13 5 7 13 5 7 13 5 7 13 5 7 13 5 7 13 5 7 13 5
7 13 5 7 13 5 7 13 5 7 13 5 7 13 5 7 13 5 7 13 5 7 13 5 7 13 5 7 13 5
7 13 5 7 13 5 7 13 5 7 13 5 7 13 5 7 13 5 7 13 5 7 13 5 7 13 5 7 13 5
7 13 5 7 13 5 7 13 5 7 13 5 7 13 5 7 13 5 7 13 5 7 13 5 7 13 5 7 13 5
7 13 5 7 14 5 7 14 5 7 14 5 7 14 5 7 14 5 7 14 5 7 14 5 7 14 5 7 14 5
7 14 5 7 14 5 7 14 5 7 14 5 7 14 5 7 14 5 7 14 5 7 14 5 7 14 5 7 14 5
7 14 5 8 14 5 8 14 5 8 14 5 8 14 5 8 14 5 8 14 5 8 14 5 8 14 5 8 14 5
8 14 5 8 14 5 8 14 5 8 14 5 8 14 5 8 14 5 8 14 5 8 14 5 8 14 5 8 14 5
8 14 5 8 14 5 8 14 5 8 14 5 8 14 5 8 14 5 8 14 5 8 14 5 8 14 5 8 14 5
8 14 5 8 14 5 8 14 5 8 14 5 8 14 5 8 14 5 8 14 5 8 14 5 8 14 5 8 14 5
8 14 5 8 14 5 8 14 5 8 14 5 8 14 5 8 14 5 8 14 5 8 14 5 8 14 5 8 14 5
8 14 5 8 14 5 8 14 5 8 14 5 8 14 5 8 14 5 8 14 5 8 14 5 8 14 5 2 0 13
1 0 8 1 0 6 1 0 6 1 0 6 1 0 6 1 0 6 1 0 6 1 0 6 1 0 6 1 0 6 1 0 6 1 0
6 1 0 6 1 0 6 1 0 6 1 0 6 1 0 6 1 0 6 1 0 6 1 0 6 1 0 6 1 0 6 1 0 6 1
0 6 1 0 6 1 0 6 1 0 6 1 0 6 1 0 6 1 0 6 1 0 6 1 0 6 1 0 6 1 0 6 1 0 6
1 0 6 1 0 6 1 0 6 1 0 6 1 0 6 1 0 6 1 0 6 1 0 6 1 0 6 1 0 6 1 0 6 1 0
6 1 0 6 1 0 6 1 0 6 1 0 6 1 0 6 1 0 6 1 0 8 1 0 10 1 0 12 2 0 14 2 0
16 2 0 18 2 0 20 2 0 22 2 0 25 2 0 27 2 0 30 3 0 33 3 0 35 3 0 38 3 0
41 3 0 45 4 0 49 4 0 53 4 0 58 5 0 65 8 14 6 8 14 6 8 14 6 8 14 6 8 14
6 8 14 6 8 14 6 4 12 42 4 13 45 4 14 47 4 15 47 4 15 47 4 15 47 4 15
46 4 15 45 4 14 44 4 14 43 4 14 42 4 13 44 4 13 45 4 12 47 4 12 48 4
11 49 3 11 50 3 10 51 3 9 52 3 9 53 3 8 54 3 7 54 3 7 54 2 6 55 2 5 55
2 4 55 2 3 55 2 3 54 1 2 54 1 1 55 1 1 57 1 1 58 1 1 60 1 1 60 1 1 61
1 1 60 1 1 59 1 1 55 7 14 9 7 14 9 8 14 11 8 15 15 9 15 18 10 15 21 11
15 23 11 16 26 12 16 28 12 16 30 13 16 32 13 16 33 14 16 35 14 16 36
22 36 39 21 32 39 19 27 39 17 22 38 14 16 37 14 16 36 13 16 33 8 14 6
8 14 6 8 14 6 8 14 6 8 14 6 8 14 6 8 14 6 8 14 6 8 14 6 8 14 6 8 14 6
8 14 6 8 14 6 8 14 6 8 14 6 8 14 6 8 14 6 8 14 6 8 14 6 8 14 6 8 14 6
8 14 6 8 14 6 8 14 6 8 14 6 8 14 6 8 14 6 8 14 6 8 14 6 8 14 6 7 12 6
7 12 6 7 12 6 7 12 6 7 12 6 7 12 6 7 12 6 7 12 6 7 12 6 7 12 6 7 12 6
7 12 6 7 12 6 7 12 6 7 12 6 7 12 6 7 12 6 7 12 6 7 12 6 7 12 6 7 12 6
7 12 6 7 12 6 7 12 6 7 12 6 7 12 6 7 12 6 7 12 6 7 12 6 7 12 6 7 12 6
7 12 6 7 12 6 7 12 6 7 12 6 7 12 6 7 12 6 7 12 6 7 12 6 7 12 6 7 12 6
7 12 6 7 12 6 7 12 6 7 12 6 7 12 6 7 12 6 7 12 6 7 12 6 7 12 6 7 12 6
7 12 6 7 12 6 7 12 6 7 12 6 7 12 6 7 12 6 7 12 6 7 12 6 7 12 6 7 12 6
7 12 6 7 12 6 7 12 6 7 12 6 7 12 6 7 12 6 7 12 6 7 12 6 7 12 6 7 12 6
7 12 6 7 12 6 7 12 6 7 12 6 7 12 6 7 12 6 7 12 6 7 12 6 7 12 6 7 12 6
7 12 6 7 12 6 7 12 6 7 12 6 7 12 6 7 12 6 7 12 6 7 12 6 7 12 6 7 12 6
7 12 6 7 12 6 7 12 6 7 12 6 7 12 6 7 12 6 7 12 6 7 12 6 6 11 5 6 11 5
7 14 5 7 14 5 7 14 5 7 14 5 7 14 5 7 14 5 7 14 5 7 14 5 7 14 5 7 14 5
7 14 5 7 14 5 7 14 5 7 14 5 7 14 5 7 14 5 7 14 5 7 14 5 8 14 5 8 14 5
8 14 5 8 14 5 8 14 5 8 14 5 8 14 5 8 14 5 8 14 5 8 14 5 8 14 5 8 14 5
8 14 5 8 14 5 8 14 5 8 14 5 8 14 5 8 14 5 8 14 5 8 14 5 8 14 5 8 14 5
8 14 5 8 14 5 8 14 5 8 14 5 8 14 5 8 14 5 8 14 5 8 14 5 8 14 5 8 14 5
8 14 5 8 14 5 8 14 5 8 14 5 8 14 5 8 14 5 8 14 5 8 14 5 8 14 5 8 14 5
8 14 5 8 14 5 8 14 5 8 14 5 8 14 5 8 14 5 8 14 5 8 14 5 8 14 5 8 14 5
8 14 5 8 14 5 8 14 5 8 14 5 8 14 5 8 14 5 8 14 5 8 14 5 8 14 5 8 14 5
8 14 5 8 14 5 8 14 5 8 14 5 8 14 5 8 14 5 8 14 5 8 14 5 8 14 5 8 14 5
8 14 5 8 14 5 8 14 5 8 14 5 8 14 5 8 14 5 8 14 5 8 14 5 8 14 5 8 14 5
8 14 5 8 14 5 8 14 5 8 14 5 8 14 5 8 14 5 8 14 5 8 14 5 8 14 5 8 14 5
8 14 5 8 14 5 8 14 5 8 14 5 8 14 5 8 14 5 8 14 5 8 14 5 8 14 5 8 14 5
8 14 5 8 14 5 8 14 5 8 14 5 8 15 5 8 15 5 8 15 5 8 15 5 8 15 5 2 1 16
2 0 10 1 0 6 1 0 6 1 0 6 1 0 6 1 0 6 1 0 6 1 0 6 1 0 6 1 0 6 1 0 6 1 0
6 1 0 6 1 0 6 1 0 6 1 0 6 1 0 6 1 0 6 1 0 6 1 0 6 1 0 6 1 0 6 1 0 6 1
0 6 1 0 6 1 0 6 1 0 6 1 0 6 1 0 6 1 0 6 1 0 6 1 0 6 1 0 6 1 0 6 1 0 6
1 0 6 1 0 6 1 0 6 1 0 6 1 0 6 1 0 6 1 0 6 1 0 6 1 0 6 1 0 6 1 0 6 1 0
6 1 0 6 1 0 6 1 0 6 1 0 6 1 0 6 1 0 6 1 0 8 1 0 10 1 0 12 2 0 14 2 0
16 2 0 18 2 0 20 2 0 23 2 0 25 2 0 28 3 0 30 3 0 33 3 0 36 3 0 39 3 0
42 3 0 46 4 0 49 4 0 54 4 0 59 8 15 6 8 15 6 8 15 6 8 15 6 8 15 6 8 15
6 8 15 6 8 15 6 2 8 32 4 12 41 4 13 43 4 14 44 4 14 45 4 14 45 4 14 44
4 14 43 4 14 42 4 13 41 4 13 40 4 13 41 4 12 43 4 12 44 4 11 45 3 11
47 3 10 48 3 9 49 3 9 50 3 8 50 3 7 51 3 7 51 2 6 52 2 5 52 2 5 52 2 4
52 2 3 52 1 2 51 1 1 52 1 1 53 1 1 55 1 1 56 1 1 57 1 1 58 1 1 57 1 1
56 1 1 54 1 1 45 7 14 9 7 14 9 8 15 12 9 15 15 9 15 18 10 15 21 11 16
24 11 16 26 12 16 28 12 16 30 13 16 32 13 16 34 14 16 35 24 40 39 22
36 39 21 32 39 19 27 39 17 22 39 14 17 38 14 16 36 13 16 33 11 16 25 8
15 6 8 15 6 8 15 6 8 15 6 8 15 6 8 15 6 8 15 6 8 15 6 8 15 6 8 14 6 8
14 6 8 14 6 8 14 6 8 14 6 8 14 6 8 14 6 8 14 6 8 14 6 8 14 6 8 14 6 8
14 6 8 14 6 8 14 6 8 14 6 8 14 6 8 14 6 8 14 6 8 14 6 7 12 6 7 12 6 7
12 6 7 12 6 7 12 6 7 12 6 7 12 6 7 12 6 7 12 6 7 12 6 7 12 6 7 12 6 7
12 6 7 12 6 7 12 6 7 12 6 7 12 6 7 12 6 7 12 6 7 12 6 7 12 6 7 12 6 7
12 6 7 12 6 7 12 6 7 12 6 7 12 6 7 12 6 7 12 6 7 12 6 7 12 6 7 12 6 7
12 6 7 12 6 7 12 6 7 12 6 7 12 6 7 12 6 7 12 6 7 12 6 7 12 6 7 12 6 7
12 6 7 12 6 7 12 6 7 12 6 7 12 6 7 12 6 7 12 6 7 12 6 7 12 6 7 12 6 7
12 6 7 12 6 7 12 6 7 12 6 7 12 6 7 12 6 7 12 6 7 12 6 7 12 6 7 12 6 7
12 6 7 12 6 7 12 6 7 12 6 7 12 6 7 12 6 7 12 6 7 12 6 7 12 6 7 12 6 7
12 6 7 12 6 7 12 6 7 12 6 7 12 6 7 12 6 7 12 6 7 12 6 7 12 6 7 12 6 7
12 6 7 12 6 7 12 6 7 12 6 7 12 6 7 12 6 7 12 6 7 12 6 7 12 6 7 12 6 7
12 6 7 12 6 7 12 6 7 12 6 7 12 6 6 11 5 6 11 5 6 11 5 6 11 5 6 11 5
8 14 5 8 14 5 8 14 5 8 14 5 8 14 5 8 14 5 8 14 5 8 14 5 8 14 5 8 14 5
8 14 5 8 14 5 8 14 5 8 14 5 8 14 5 8 14 5 8 14 5 8 14 5 8 14 5 8 14 5
8 14 5 8 14 5 8 14 5 8 14 5 8 14 5 8 14 5 8 14 5 8 14 5 8 14 5 8 14 5
8 14 5 8 14 5 8 14 5 8 14 5 8 14 5 8 14 5 8 14 5 8 14 5 8 14 5 8 14 5
8 14 5 8 14 5 8 14 5 8 14 5 8 14 5 8 14 5 8 14 5 8 14 5 8 14 5 8 14 5
8 14 5 8 14 5 8 14 5 8 14 5 8 14 5 8 14 5 8 14 5 8 14 5 8 14 5 8 14 5
8 14 5 8 14 5 8 14 5 8 14 5 8 14 5 8 14 5 8 14 5 8 15 5 8 15 5 8 15 5
8 15 5 8 15 5 8 15 5 8 15 5 8 15 5 8 15 5 8 15 5 8 15 5 8 15 5 8 15 5
8 15 5 8 15 5 8 15 5 8 15 5 8 15 5 8 15 5 8 15 5 8 15 5 8 15 5 8 15 5
8 15 5 8 15 5 8 15 5 8 15 5 8 15 5 8 15 5 8 15 5 8 15 5 8 15 5 8 15 5
8 15 5 8 15 5 8 15 5 8 15 5 8 15 5 8 15 5 8 15 5 8 15 5 8 15 5 8 15 5
8 15 5 8 15 5 8 15 5 8 15 5 8 15 5 8 15 5 8 15 5 8 15 5 8 15 5 8 15 5
8 15 5 8 15 5 8 15 5 8 15 5 8 15 5 8 15 5 8 15 5 8 15 5 8 15 5 8 15 5
2 0 12 1 0 7 1 0 6 1 0 6 1 0 6 1 0 6 1 0 6 1 0 6 1 0 6 1 0 6 1 0 6 1 0
6 1 0 6 1 0 6 1 0 6 1 0 6 1 0 6 1 0 6 1 0 6 1 0 6 1 0 6 1 0 6 1 0 6 1
0 6 1 0 6 1 0 6 1 0 6 1 0 6 1 0 6 1 0 6 1 0 6 1 0 6 1 0 6 1 0 6 1 0 6
1 0 6 1 0 6 1 0 6 1 0 6 1 0 6 1 0 6 1 0 6 1 0 6 1 0 6 1 0 6 1 0 6 1 0
6 1 0 6 1 0 6 1 0 6 1 0 6 1 0 6 1 0 6 1 0 8 1 0 10 1 0 12 2 0 14 2 0
16 2 0 19 2 0 21 2 0 23 2 0 26 2 0 28 3 0 31 3 0 33 3 0 36 3 0 39 3 0
43 3 0 46 4 0 50 4 0 55 4 0 61 9 15 7 9 15 7 9 15 7 9 15 7 9 15 7 9 15
7 9 15 7 9 15 7 9 15 7 3 10 35 3 12 40 4 12 41 4 13 42 4 13 42 4 13 42
4 13 41 4 13 40 4 13 39 4 12 38 4 12 38 4 12 39 3 11 41 3 11 42 3 10
44 3 9 45 3 9 46 3 8 47 3 8 47 3 7 48 2 6 48 2 5 49 2 5 49 2 4 49 2 3
49 1 2 48 1 1 48 1 1 50 1 1 51 1 1 52 1 1 53 1 1 54 1 1 54 1 1 53 1 1
51 1 1 45 7 14 9 7 14 9 7 14 9 8 15 12 9 15 16 10 15 19 10 15 21 11 16
24 12 16 26 12 16 29 13 16 31 13 16 33 26 47 37 25 44 38 29 41 98 23
36 53 21 32 40 19 27 40 17 22 39 14 17 38 14 17 36 13 16 34 11 16 26 9
15 6 9 15 6 9 15 6 9 15 6 9 15 6 9 15 6 9 15 6 9 15 6 9 15 6 9 15 6 9
15 6 9 15 6 9 15 6 9 15 6 9 15 6 9 15 6 9 15 6 9 15 6 8 15 6 8 15 6 8
15 6 8 15 6 8 15 6 8 15 6 8 15 6 8 15 6 7 12 6 7 12 6 7 12 6 7 12 6 7
12 6 7 12 6 7 12 6 7 12 6 7 12 6 7 12 6 7 12 6 7 12 6 7 12 6 7 12 6 7
12 6 7 12 6 7 12 6 7 12 6 7 12 6 7 12 6 7 12 6 7 12 6 7 12 6 7 12 6 7
12 6 7 12 6 7 12 6 7 12 6 7 12 6 7 12 6 7 12 6 7 12 6 7 12 6 7 12 6 7
12 6 7 12 6 7 12 6 7 12 6 7 12 6 7 12 6 7 12 6 7 12 6 7 12 6 7 12 6 7
12 6 7 12 6 7 12 6 7 12 6 7 12 6 7 12 6 7 12 6 7 12 6 7 12 6 7 12 6 7
12 6 7 12 6 7 12 6 7 12 6 7 12 6 7 12 6 7 12 6 7 12 6 7 12 6 7 12 6 7
12 6 7 12 6 7 12 6 7 12 6 7 12 6 7 12 6 7 12 6 7 12 6 7 12 6 7 12 6 7
12 6 7 12 6 7 12 6 7 12 6 7 12 6 7 12 6 7 12 6 7 12 6 7 12 6 7 12 6 7
12 6 7 12 6 7 12 6 7 12 6 7 12 6 7 12 6 7 12 6 7 12 6 7 12 6 7 12 6 7
12 6 6 11 5 6 11 5 6 11 5 6 11 5 6 11 5 6 11 5 6 11 5 6 11 5 6 11 5
8 14 5 8 14 5 8 14 5 8 14 5 8 14 5 8 14 5 8 14 5 8 14 5 8 14 5 8 14 5
8 14 5 8 14 5 8 14 5 8 14 5 8 14 5 8 14 5 8 14 5 8 14 5 8 14 5 8 14 5
8 14 5 8 14 5 8 14 5 8 14 5 8 14 5 8 15 5 8 15 5 8 15 5 8 15 5 8 15 5
8 15 5 8 15 5 8 15 5 8 15 5 8 15 5 8 15 5 8 15 5 8 15 5 8 15 5 8 15 5
8 15 5 8 15 5 8 15 5 8 15 5 8 15 5 8 15 5 8 15 5 8 15 5 8 15 5 8 15 5
8 15 5 8 15 5 8 15 5 8 15 5 8 15 5 8 15 5 8 15 5 8 15 5 8 15 5 8 15 5
8 15 5 8 15 5 8 15 5 8 15 5 8 15 5 8 15 5 8 15 5 8 15 5 8 15 5 8 15 5
8 15 5 8 15 5 8 15 5 8 15 5 8 15 5 8 15 5 8 15 5 8 15 5 8 15 5 8 15 5
8 15 5 8 15 5 8 15 5 8 15 5 8 15 5 8 15 5 8 15 5 8 15 5 8 15 5 8 15 5
8 15 5 8 15 5 8 15 5 8 15 5 8 15 5 8 15 5 8 15 5 8 15 5 8 15 5 8 15 5
8 15 5 8 15 5 8 15 5 8 15 5 8 15 5 8 15 6 8 15 6 8 15 6 8 15 6 8 15 6
8 15 6 8 15 6 8 15 6 8 15 6 8 15 6 8 15 6 8 15 6 8 15 6 8 15 6 8 15 6
8 16 6 8 16 6 8 16 6 8 16 6 8 16 6 8 16 6 8 16 6 8 16 6 8 16 6 8 16 6
2 1 16 1 0 9 1 0 6 1 0 6 1 0 6 1 0 6 1 0 6 1 0 6 1 0 6 1 0 6 1 0 6 1 0
6 1 0 6 1 0 6 1 0 6 1 0 6 1 0 6 1 0 6 1 0 6 1 0 6 1 0 6 1 0 6 1 0 6 1
0 6 1 0 6 1 0 6 1 0 6 1 0 6 1 0 6 1 0 6 1 0 6 1 0 6 1 0 6 1 0 6 1 0 6
1 0 6 1 0 6 1 0 6 1 0 6 1 0 6 1 0 6 1 0 6 1 0 6 1 0 6 1 0 6 1 0 6 1 0
6 1 0 6 1 0 6 1 0 6 1 0 6 1 0 6 1 0 7 1 0 8 1 0 10 1 0 12 2 0 14 2 0
17 2 0 19 2 0 21 2 0 23 2 0 26 2 0 28 3 0 31 3 0 34 3 0 37 3 0 40 3 0
43 4 0 47 4 0 51 4 0 56 5 0 65 9 16 7 9 16 7 9 16 7 9 16 7 9 16 7 9 16
7 9 16 7 9 16 7 9 16 7 9 16 7 3 9 33 3 11 37 3 12 39 4 12 39 4 12 39 4
12 39 4 12 38 4 12 37 3 12 36 3 11 34 3 11 36 3 10 38 3 10 39 3 9 40 3
9 41 3 8 42 3 8 43 2 7 44 2 6 45 2 6 45 2 5 45 2 4 45 2 3 45 1 2 45 1
2 44 1 1 45 1 1 47 1 1 48 1 1 50 1 1 50 1 1 51 1 1 50 1 1 48 1 1 42 9
16 7 7 15 9 7 15 9 7 15 9 8 15 13 9 15 16 10 15 19 10 15 22 11 16 24
12 16 26 12 16 29 13 16 31 27 50 35 26 47 37 25 43 39 29 41 110 23 36
51 20 31 39 19 27 39 16 21 39 14 17 38 14 17 36 13 16 33 11 16 26 9 16
7 9 16 7 9 16 7 9 16 7 9 16 7 9 16 7 9 16 7 9 16 7 9 16 7 9 16 7 9 15
7 9 15 7 9 15 7 9 15 7 9 15 7 9 15 7 9 15 7 9 15 7 9 15 7 9 15 7 9 15
7 9 15 7 9 15 7 9 15 7 9 15 7 7 12 6 7 12 6 7 12 6 7 12 6 7 12 6 7 12
6 7 12 6 7 12 6 7 12 6 7 12 6 7 12 6 7 12 6 7 12 6 7 12 6 7 12 6 7 12
6 7 12 6 7 12 6 7 12 6 7 12 6 7 12 6 7 12 6 7 12 6 7 12 6 7 12 6 7 12
6 7 12 6 7 12 6 7 12 6 7 12 6 7 12 6 7 12 6 7 12 6 7 12 6 7 12 6 7 12
6 7 12 6 7 12 6 7 12 6 7 12 6 7 12 6 7 12 6 7 12 6 7 12 6 7 12 6 7 12
6 7 12 6 7 12 6 7 12 6 7 12 6 7 12 6 7 12 6 7 12 6 7 12 6 7 12 6 7 12
6 7 12 6 7 12 6 7 12 6 7 12 6 7 12 6 7 12 6 7 12 6 7 12 6 7 12 6 7 12
6 7 12 6 7 12 6 7 12 6 7 12 6 7 12 6 7 12 6 7 12 6 7 12 6 7 12 6 7 12
6 7 12 6 7 12 6 7 12 6 7 12 6 7 12 6 7 12 6 7 12 6 7 12 6 7 12 6 7 12
6 7 12 6 7 12 6 7 12 6 7 12 6 7 12 6 7 12 6 7 12 6 6 11 5 6 11 5 6 11
5 6 11 5 6 11 5 6 11 5 6 11 5 6 11 5 6 11 5 6 11 5 6 11 5 6 11 5
8 15 5 8 15 5 8 15 5 8 15 5 8 15 5 8 15 5 8 15 5 8 15 5 8 15 5 8 15 5
8 15 5 8 15 5 8 15 5 8 15 5 8 15 5 8 15 5 8 15 5 8 15 5 8 15 5 8 15 5
8 15 5 8 15 5 8 15 5 8 15 5 8 15 5 8 15 5 8 15 5 8 15 5 8 15 5 8 15 5
8 15 5 8 15 5 8 15 5 8 15 5 8 15 5 8 15 5 8 15 5 8 15 5 8 15 5 8 15 5
8 15 5 8 15 5 8 15 5 8 15 5 8 15 5 8 15 5 8 15 5 8 15 5 8 15 5 8 15 5
8 15 5 8 15 5 8 15 5 8 15 5 8 15 5 8 15 5 8 15 5 8 15 5 8 15 5 8 15 5
8 15 6 8 15 6 8 15 6 8 15 6 8 15 6 8 15 6 8 15 6 8 15 6 8 15 6 8 15 6
8 15 6 8 15 6 8 15 6 8 16 6 8 16 6 8 16 6 8 16 6 8 16 6 8 16 6 8 16 6
8 16 6 8 16 6 8 16 6 8 16 6 8 16 6 8 16 6 8 16 6 8 16 6 8 16 6 8 16 6
8 16 6 8 16 6 8 16 6 9 16 6 9 16 6 9 16 6 9 16 6 9 16 6 9 16 6 9 16 6
9 16 6 9 16 6 9 16 6 9 16 6 9 16 6 9 16 6 9 16 6 9 16 6 9 16 6 9 16 6
9 16 6 9 16 6 9 16 6 9 16 6 9 16 6 9 16 6 9 16 6 9 16 6 9 16 6 9 16 6
9 16 6 9 16 6 9 16 6 9 16 6 9 16 6 9 16 6 9 16 6 9 16 6 9 16 6 9 16 6
9 16 6 2 0 12 1 0 7 1 0 6 1 0 6 1 0 6 1 0 6 1 0 6 1 0 6 1 0 6 1 0 6 1
0 6 1 0 6 1 0 6 1 0 6 1 0 6 1 0 6 1 0 6 1 0 6 1 0 6 1 0 6 1 0 6 1 0 6
1 0 6 1 0 6 1 0 6 1 0 6 1 0 6 1 0 6 1 0 6 1 0 6 1 0 6 1 0 6 1 0 6 1 0
6 1 0 6 1 0 6 1 0 6 1 0 6 1 0 6 1 0 6 1 0 6 1 0 6 1 0 6 1 0 6 1 0 6 1
0 6 1 0 6 1 0 6 1 0 6 1 0 6 1 0 6 1 0 7 1 0 9 1 0 11 1 0 13 2 0 15 2 0
17 2 0 19 2 0 21 2 0 24 2 0 26 2 0 29 3 0 32 3 0 34 3 0 38 3 0 41 3 0
44 4 0 48 4 0 53 4 0 58 9 17 7 9 17 7 9 17 7 9 17 7 9 17 7 9 17 7 9 17
7 9 17 7 9 17 7 9 17 7 9 17 7 9 17 7 3 9 31 3 10 34 3 11 36 3 11 36 3
11 36 3 11 35 3 11 34 3 11 33 3 10 32 3 10 32 3 10 34 3 9 35 3 9 37 3
8 38 2 7 39 2 7 40 2 6 40 2 6 41 2 5 41 2 4 41 2 3 41 1 3 41 1 2 41 1
1 41 1 1 43 1 1 44 1 1 45 1 1 46 1 1 46 1 1 46 1 1 44 1 0 39 9 16 7 9
16 7 7 15 9 7 15 9 7 15 9 8 15 12 9 15 16 10 15 19 10 16 21 11 16 24
12 16 26 12 16 28 27 52 33 27 49 35 26 46 36 25 43 37 23 39 39 22 35
39 22 36 43 19 28 41 16 20 38 14 17 37 14 17 36 13 16 33 9 16 7 9 16 7
9 16 7 9 16 7 9 16 7 9 16 7 9 16 7 9 16 7 9 16 7 9 16 7 9 16 7 9 16 7
9 16 7 9 16 7 9 16 7 9 16 7 9 16 7 9 16 7 9 16 7 9 16 7 9 16 7 9 16 7
9 16 7 9 16 7 7 13 7 7 13 7 7 13 7 7 13 7 7 13 7 7 13 7 7 13 7 7 13 7
7 13 7 7 13 7 7 13 7 7 13 7 7 13 7 7 13 7 7 13 7 7 13 7 7 13 7 7 13 7
7 13 7 7 13 7 7 13 7 7 13 7 7 13 7 7 13 7 7 13 7 7 13 7 7 13 7 7 13 6
7 13 6 7 13 6 7 13 6 7 13 6 7 13 6 7 13 6 7 13 6 7 12 6 7 12 6 7 12 6
7 12 6 7 12 6 7 12 6 7 12 6 7 12 6 7 12 6 7 12 6 7 12 6 7 12 6 7 12 6
7 12 6 7 12 6 7 12 6 7 12 6 7 12 6 7 12 6 7 12 6 7 12 6 7 12 6 7 12 6
7 12 6 7 12 6 7 12 6 7 12 6 7 12 6 7 12 6 7 12 6 7 12 6 7 12 6 7 12 6
7 12 6 7 12 6 7 12 6 7 12 6 7 12 6 7 12 6 7 12 6 7 12 6 7 12 6 7 12 6
7 12 6 7 12 6 7 12 6 7 12 6 7 12 6 7 12 6 7 12 6 7 12 6 7 12 6 7 12 6
7 12 6 7 12 6 7 12 6 6 11 6 6 11 6 6 11 6 6 11 5 6 11 5 6 11 5 6 11 5
6 11 5 6 11 5 6 11 5 6 11 5 6 11 5 6 11 5 6 11 5 6 11 5 6 11 5
8 15 5 8 15 5 8 15 5 8 15 5 8 15 5 8 15 5 8 15 5 8 15 5 8 15 5 8 15 5
8 15 5 8 15 5 8 15 5 8 15 5 8 15 5 8 15 5 8 15 5 8 15 5 8 15 5 8 15 5
8 15 5 8 15 5 8 15 5 8 15 5 8 15 5 8 15 6 8 15 6 8 15 6 8 15 6 8 15 6
8 15 6 8 15 6 8 15 6 8 15 6 8 15 6 8 15 6 8 15 6 8 16 6 8 16 6 8 16 6
8 16 6 8 16 6 8 16 6 8 16 6 8 16 6 8 16 6 8 16 6 8 16 6 8 16 6 8 16 6
8 16 6 8 16 6 8 16 6 8 16 6 8 16 6 9 16 6 9 16 6 9 16 6 9 16 6 9 16 6
9 16 6 9 16 6 9 16 6 9 16 6 9 16 6 9 16 6 9 16 6 9 16 6 9 16 6 9 16 6
9 16 6 9 16 6 9 16 6 9 16 6 9 16 6 9 16 6 9 16 6 9 16 6 9 16 6 9 16 6
9 16 6 9 16 6 9 16 6 9 16 6 9 16 6 9 16 6 9 16 6 9 16 6 9 16 6 9 16 6
9 16 6 9 16 6 9 16 6 9 16 6 9 16 6 9 16 6 9 16 6 9 16 6 9 16 6 9 16 6
9 16 6 9 16 6 9 16 6 9 16 6 9 16 6 9 16 6 9 16 6 9 16 6 9 16 6 9 16 6
9 16 6 9 16 6 9 16 6 9 17 6 9 17 6 9 17 6 9 17 6 9 17 6 9 17 6 9 17 6
9 17 6 9 17 6 9 17 6 9 17 6 9 17 6 9 17 6 9 17 6 9 17 6 9 17 6 9 17 6
9 17 6 3 1 18 1 0 9 1 0 6 1 0 6 1 0 6 1 0 6 1 0 6 1 0 6 1 0 6 1 0 6 1
0 6 1 0 6 1 0 6 1 0 6 1 0 6 1 0 6 1 0 6 1 0 6 1 0 6 1 0 6 1 0 6 1 0 6
1 0 6 1 0 6 1 0 6 1 0 6 1 0 6 1 0 6 1 0 6 1 0 6 1 0 6 1 0 6 1 0 6 1 0
6 1 0 6 1 0 6 1 0 6 1 0 6 1 0 6 1 0 6 1 0 6 1 0 6 1 0 6 1 0 6 1 0 6 1
0 6 1 0 6 1 0 6 1 0 6 1 0 6 1 0 6 1 0 7 1 0 9 1 0 11 2 0 13 2 0 15 2 0
17 2 0 20 2 0 22 2 0 24 2 0 27 2 0 29 3 0 32 3 0 35 3 0 38 3 0 42 3 0
45 4 0 49 4 0 54 4 0 62 10 17 7 10 17 7 10 17 7 10 17 7 10 17 7 10 17
7 10 17 7 10 17 7 10 17 7 10 17 7 10 17 7 10 17 7 10 17 7 2 7 27 3 9
31 3 9 32 3 10 32 3 10 32 3 10 32 3 10 31 3 9 30 3 9 28 3 9 29 3 8 31
2 8 32 2 7 33 2 7 35 2 6 35 2 5 36 2 5 37 2 4 37 1 3 37 1 3 37 1 2 36
1 1 36 1 0 38 1 0 39 1 1 41 1 1 42 1 1 42 1 1 41 1 0 40 1 0 32 10 17 7
10 17 7 10 17 7 7 15 9 7 15 9 7 15 9 8 15 12 9 15 15 10 15 18 10 16 21
11 16 24 11 16 26 28 54 31 27 51 33 26 48 34 25 45 36 24 41 37 27 48
44 24 41 43 21 34 41 18 26 39 15 19 37 14 17 36 14 17 35 13 16 31 9 17
7 9 17 7 9 17 7 9 17 7 9 17 7 9 17 7 9 17 7 9 17 7 9 17 7 9 17 7 9 17
7 9 17 7 9 17 7 9 17 7 9 16 7 9 16 7 9 16 7 9 16 7 9 16 7 9 16 7 9 16
7 9 16 7 9 16 7 8 13 7 8 13 7 8 13 7 8 13 7 8 13 7 8 13 7 8 13 7 8 13
7 8 13 7 8 13 7 8 13 7 8 13 7 8 13 7 8 13 7 8 13 7 8 13 7 8 13 7 8 13
7 8 13 7 8 13 7 8 13 7 8 13 7 8 13 7 8 13 7 8 13 7 8 13 7 8 13 7 8 13
7 8 13 7 8 13 7 8 13 7 8 13 7 7 13 7 7 13 7 7 13 7 7 13 7 7 13 7 7 13
7 7 13 7 7 13 7 7 13 7 7 13 7 7 13 7 7 13 7 7 13 7 7 13 7 7 13 7 7 13
7 7 13 7 7 13 7 7 13 7 7 13 7 7 13 7 7 13 7 7 13 7 7 13 7 7 13 7 7 13
7 7 13 7 7 13 7 7 13 7 7 13 7 7 13 7 7 13 6 7 13 6 7 13 6 7 13 6 7 13
6 7 13 6 7 12 6 7 12 6 7 12 6 7 12 6 7 12 6 7 12 6 7 12 6 7 12 6 7 12
6 7 12 6 7 12 6 7 12 6 7 12 6 7 12 6 7 12 6 7 12 6 7 12 6 7 12 6 7 12
6 7 12 6 6 11 6 6 11 6 6 11 6 6 11 6 6 11 6 6 11 6 6 11 6 6 11 6 6 11
6 6 11 6 6 11 6 6 11 6 6 11 6 6 11 6 6 11 6 6 11 6 6 11 6 6 11 6 6 11
6
8 15 6 8 15 6 8 15 6 8 15 6 8 15 6 8 15 6 8 16 6 8 16 6 8 16 6 8 16 6
8 16 6 8 16 6 8 16 6 8 16 6 8 16 6 8 16 6 8 16 6 8 16 6 8 16 6 8 16 6
8 16 6 8 16 6 8 16 6 8 16 6 9 16 6 9 16 6 9 16 6 9 16 6 9 16 6 9 16 6
9 16 6 9 16 6 9 16 6 9 16 6 9 16 6 9 16 6 9 16 6 9 16 6 9 16 6 9 16 6
9 16 6 9 16 6 9 16 6 9 16 6 9 16 6 9 16 6 9 16 6 9 16 6 9 16 6 9 16 6
9 16 6 9 16 6 9 16 6 9 16 6 9 16 6 9 16 6 9 16 6 9 16 6 9 16 6 9 16 6
9 16 6 9 16 6 9 16 6 9 16 6 9 16 6 9 16 6 9 16 6 9 16 6 9 16 6 9 16 6
9 16 6 9 16 6 9 16 6 9 16 6 9 17 6 9 17 6 9 17 6 9 17 6 9 17 6 9 17 6
9 17 6 9 17 6 9 17 6 9 17 6 9 17 6 9 17 6 9 17 6 9 17 6 9 17 6 9 17 6
9 17 6 9 17 6 9 17 6 9 17 6 9 17 6 9 17 6 9 17 6 9 17 6 9 17 6 9 17 6
9 17 6 9 17 6 9 17 6 9 17 6 9 17 6 9 17 6 9 17 6 9 17 6 9 17 6 9 17 6
9 17 6 9 17 6 9 17 6 9 17 6 9 17 6 9 17 6 9 17 6 9 17 6 9 17 6 9 17 6
9 17 6 9 17 6 9 17 6 9 17 6 9 17 6 9 17 6 9 17 6 9 17 6 9 17 6 9 17 6
9 17 6 9 17 6 2 0 13 1 0 7 1 0 6 1 0 6 1 0 6 1 0 6 1 0 6 1 0 6 1 0 6 1
0 6 1 0 6 1 0 6 1 0 6 1 0 6 1 0 6 1 0 6 1 0 6 1 0 6 1 0 6 1 0 6 1 0 6
1 0 6 1 0 6 1 0 6 1 0 6 1 0 6 1 0 6 1 0 6 1 0 6 1 0 6 1 0 6 1 0 6 1 0
6 1 0 6 1 0 6 1 0 6 1 0 6 1 0 6 1 0 6 1 0 6 1 0 6 1 0 6 1 0 6 1 0 6 1
0 6 1 0 6 1 0 6 1 0 6 1 0 6 1 0 6 1 0 7 1 0 9 1 0 11 2 0 13 2 0 15 2 0
18 2 0 20 2 0 22 2 0 25 2 0 27 3 0 30 3 0 33 3 0 36 3 0 39 3 0 42 3 0
46 4 0 51 4 0 56 10 18 8 10 18 8 10 18 8 10 18 8 10 18 8 10 18 8 10 18
8 10 18 8 10 18 8 10 18 8 10 18 8 10 18 8 10 18 8 10 18 8 10 18 8 2 5
22 2 7 27 2 8 28 2 8 28 3 9 28 3 8 28 2 8 27 2 8 25 2 8 24 2 7 26 2 7
27 2 6 29 2 6 30 2 5 31 2 5 31 1 4 32 1 3 32 1 2 32 1 2 31 1 1 31 1 0
33 1 0 34 1 0 36 1 0 37 1 0 37 1 0 36 1 0 34 10 18 7 10 18 7 10 18 7
10 18 7 10 18 7 7 15 9 7 15 9 7 15 9 8 15 11 9 15 15 9 15 18 10 16 20
11 16 23 27 55 28 27 52 30 26 50 32 25 47 33 30 58 44 28 52 44 26 46
43 23 39 42 20 32 40 17 23 38 14 17 36 14 17 35 13 17 33 12 16 29 10
17 7 10 17 7 10 17 7 10 17 7 10 17 7 10 17 7 10 17 7 10 17 7 10 17 7
10 17 7 10 17 7 10 17 7 10 17 7 10 17 7 10 17 7 10 17 7 10 17 7 10 17
7 10 17 7 10 17 7 10 17 7 8 13 7 8 13 7 8 13 7 8 13 7 8 13 7 8 13 7 8
13 7 8 13 7 8 13 7 8 13 7 8 13 7 8 13 7 8 13 7 8 13 7 8 13 7 8 13 7 8
13 7 8 13 7 8 13 7 8 13 7 8 13 7 8 13 7 8 13 7 8 13 7 8 13 7 8 13 7 8
13 7 8 13 7 8 13 7 8 13 7 8 13 7 8 13 7 8 13 7 8 13 7 8 13 7 8 13 7 8
13 7 8 13 7 8 13 7 8 13 7 8 13 7 8 13 7 8 13 7 8 13 7 8 13 7 8 13 7 8
13 7 8 13 7 8 13 7 8 13 7 8 13 7 8 13 7 8 13 7 8 13 7 8 13 7 8 13 7 8
13 7 8 13 7 8 13 7 8 13 7 8 13 7 8 13 7 8 13 7 8 13 7 8 13 7 8 13 7 7
13 7 7 13 7 7 13 7 7 13 7 7 13 7 7 13 7 7 13 7 7 13 7 7 13 7 7 13 7 7
13 7 7 13 7 7 13 7 7 13 7 7 13 7 7 13 7 7 13 7 7 13 7 7 13 7 7 13 7 7
13 7 7 11 6 7 11 6 7 11 6 7 11 6 7 11 6 7 11 6 7 11 6 7 11 6 7 11 6 7
11 6 7 11 6 7 11 6 7 11 6 7 11 6 7 11 6 7 11 6 7 11 6 7 11 6 7 11 6 7
11 6 7 11 6 7 11 6 6 11 6
9 16 6 9 16 6 9 16 6 9 16 6 9 16 6 9 16 6 9 16 6 9 16 6 9 16 6 9 16 6
9 16 6 9 16 6 9 16 6 9 16 6 9 16 6 9 16 6 9 16 6 9 16 6 9 16 6 9 16 6
9 16 6 9 16 6 9 16 6 9 16 6 9 16 6 9 16 6 9 16 6 9 16 6 9 16 6 9 16 6
9 16 6 9 16 6 9 16 6 9 16 6 9 16 6 9 16 6 9 16 6 9 16 6 9 16 6 9 16 6
9 16 6 9 16 6 9 16 6 9 16 6 9 17 6 9 17 6 9 17 6 9 17 6 9 17 6 9 17 6
9 17 6 9 17 6 9 17 6 9 17 6 9 17 6 9 17 6 9 17 6 9 17 6 9 17 6 9 17 6
9 17 6 9 17 6 9 17 6 9 17 6 9 17 6 9 17 6 9 17 6 9 17 6 9 17 6 9 17 6
9 17 6 9 17 6 9 17 6 9 17 6 9 17 6 9 17 6 9 17 6 9 17 6 9 17 6 9 17 6
9 17 6 9 17 6 9 17 6 9 17 6 9 17 6 9 17 6 9 17 6 9 17 6 9 17 6 9 17 6
9 17 6 9 17 6 9 17 6 9 17 6 9 17 6 9 17 6 9 17 6 9 17 6 9 17 6 9 17 6
9 17 6 9 17 6 9 17 6 9 17 6 9 18 6 9 18 6 9 18 6 9 18 6 9 18 6 9 18 6
9 18 6 9 18 6 9 18 6 9 18 6 9 18 6 9 18 6 9 18 6 9 18 6 9 18 6 9 18 6
9 18 6 9 18 6 9 18 6 9 18 6 9 18 6 9 18 6 9 18 6 9 18 6 10 18 6 10 18
6 10 18 6 10 18 6 10 18 6 2 0 10 1 0 6 1 0 6 1 0 6 1 0 6 1 0 6 1 0 6 1
0 6 1 0 6 1 0 6 1 0 6 1 0 6 1 0 6 1 0 6 1 0 6 1 0 6 1 0 6 1 0 6 1 0 6
1 0 6 1 0 6 1 0 6 1 0 6 1 0 6 1 0 6 1 0 6 1 0 6 1 0 6 1 0 6 1 0 6 1 0
6 1 0 6 1 0 6 1 0 6 1 0 6 1 0 6 1 0 6 1 0 6 1 0 6 1 0 6 1 0 6 1 0 6 1
0 6 1 0 6 1 0 6 1 0 6 1 0 6 1 0 6 1 0 6 1 0 8 1 0 10 1 0 12 2 0 14 2 0
16 2 0 18 2 0 20 2 0 23 2 0 25 2 0 28 3 0 31 3 0 33 3 0 37 3 0 40 3 0
43 4 0 48 4 0 52 10 18 8 10 18 8 10 18 8 10 18 8 10 18 8 10 18 8 10 18
8 10 18 8 10 18 8 10 18 8 10 18 8 10 18 8 10 18 8 10 18 8 10 18 8 10
18 8 10 18 8 10 18 8 2 6 21 2 7 23 2 7 24 2 7 24 2 7 23 2 7 22 2 6 21
2 6 20 2 6 22 2 5 23 2 5 24 1 4 25 1 3 25 1 3 26 1 2 26 1 1 26 1 1 26
1 0 27 1 0 29 1 0 30 1 0 31 1 0 31 1 0 30 0 0 25 10 18 8 10 18 8 10 18
8 10 18 8 10 18 8 10 18 8 7 15 9 7 15 9 7 15 9 8 15 11 9 15 14 9 15 17
10 16 20 27 55 25 26 53 27 26 50 29 32 66 43 30 61 43 29 55 42 26 49
42 24 43 41 21 36 40 19 28 38 15 20 35 14 17 35 13 17 33 13 16 31 11
16 23 10 18 8 10 18 8 10 18 8 10 18 8 10 18 8 10 18 8 10 18 8 10 18 8
10 18 8 10 18 8 10 18 8 10 18 8 10 18 8 10 18 8 10 18 8 10 18 8 10 18
8 10 18 8 10 18 7 10 17 7 8 13 7 8 13 7 8 13 7 8 13 7 8 13 7 8 13 7 8
13 7 8 13 7 8 13 7 8 13 7 8 13 7 8 13 7 8 13 7 8 13 7 8 13 7 8 13 7 8
13 7 8 13 7 8 13 7 8 13 7 8 13 7 8 13 7 8 13 7 8 13 7 8 13 7 8 13 7 8
13 7 8 13 7 8 13 7 8 13 7 8 13 7 8 13 7 8 13 7 8 13 7 8 13 7 8 13 7 8
13 7 8 13 7 8 13 7 8 13 7 8 13 7 8 13 7 8 13 7 8 13 7 8 13 7 8 13 7 8
13 7 8 13 7 8 13 7 8 13 7 8 13 7 8 13 7 8 13 7 8 13 7 8 13 7 8 13 7 8
13 7 8 13 7 8 13 7 8 13 7 8 13 7 8 13 7 8 13 7 8 13 7 8 13 7 8 13 7 8
13 7 8 13 7 8 13 7 8 13 7 8 13 7 8 13 7 8 13 7 8 13 7 8 13 7 8 13 7 8
13 7 8 13 7 8 13 7 8 13 7 8 13 7 8 13 7 8 13 7 8 13 7 8 13 7 7 11 6 7
11 6 7 11 6 7 11 6 7 11 6 7 11 6 7 11 6 7 11 6 7 11 6 7 11 6 7 11 6 7
11 6 7 11 6 7 11 6 7 11 6 7 11 6 7 11 6 7 11 6 7 11 6 7 11 6 7 11 6 7
11 6 7 11 6 7 11 6 7 11 6 7 11 6
9 16 6 9 16 6 9 16 6 9 16 6 9 16 6 9 16 6 9 16 6 9 16 6 9 16 6 9 16 6
9 16 6 9 16 6 9 16 6 9 16 6 9 16 6 9 16 6 9 16 6 9 17 6 9 17 6 9 17 6
9 17 6 9 17 6 9 17 6 9 17 6 9 17 6 9 17 6 9 17 6 9 17 6 9 17 6 9 17 6
9 17 6 9 17 6 9 17 6 9 17 6 9 17 6 9 17 6 9 17 6 9 17 6 9 17 6 9 17 6
9 17 6 9 17 6 9 17 6 9 17 6 9 17 6 9 17 6 9 17 6 9 17 6 9 17 6 9 17 6
9 17 6 9 17 6 9 17 6 9 17 6 9 17 6 9 17 6 9 17 6 9 17 6 9 17 6 9 17 6
9 17 6 9 17 6 9 17 6 9 17 6 9 17 6 9 17 6 9 17 6 9 17 6 9 17 6 9 17 6
9 17 6 9 17 6 9 18 6 9 18 6 9 18 6 9 18 6 9 18 6 9 18 6 9 18 6 9 18 6
9 18 6 9 18 6 9 18 6 9 18 6 9 18 6 9 18 6 9 18 6 9 18 6 9 18 6 9 18 6
9 18 6 10 18 6 10 18 6 10 18 6 10 18 6 10 18 6 10 18 6 10 18 6 10 18 6
10 18 6 10 18 6 10 18 6 10 18 6 10 18 6 10 18 6 10 18 6 10 18 6 10 18
6 10 18 6 10 18 6 10 18 6 10 18 6 10 18 6 10 18 6 10 18 6 10 18 6 10
18 6 10 18 6 10 18 6 10 18 6 10 18 6 10 18 6 10 18 6 10 18 6 10 18 6
10 18 6 10 18 6 10 18 6 10 18 6 10 18 6 10 18 6 10 18 6 10 19 6 10 19
6 1 0 8 1 0 6 1 0 6 1 0 6 1 0 6 1 0 6 1 0 6 1 0 6 1 0 6 1 0 6 1 0 6 1
0 6 1 0 6 1 0 6 1 0 6 1 0 6 1 0 6 1 0 6 1 0 6 1 0 6 1 0 6 1 0 6 1 0 6
1 0 6 1 0 6 1 0 6 1 0 6 1 0 6 1 0 6 1 0 6 1 0 6 1 0 6 1 0 6 1 0 6 1 0
6 1 0 6 1 0 6 1 0 6 1 0 6 1 0 6 1 0 6 1 0 6 1 0 6 1 0 6 1 0 6 1 0 6 1
0 6 1 0 6 1 0 8 1 0 10 1 0 12 2 0 14 2 0 16 2 0 18 2 0 21 2 0 23 2 0
26 2 0 28 3 0 31 3 0 34 3 0 37 3 0 41 3 0 45 4 0 49 4 0 55 11 19 8 11
19 8 11 19 8 11 19 8 11 19 8 11 19 8 11 19 8 11 19 8 11 19 8 11 19 8
11 19 8 11 19 8 11 19 8 11 19 8 11 19 8 11 19 8 11 19 8 11 19 8 11 19
8 11 19 8 1 4 17 1 5 18 2 5 18 2 5 18 1 5 17 1 5 16 1 4 14 1 4 16 1 3
17 1 3 18 1 2 18 1 2 19 1 1 19 0 0 19 0 0 21 0 0 23 0 0 24 0 0 24 0 0
24 0 0 20 11 19 8 11 19 8 11 19 8 11 19 8 11 19 8 11 19 8 11 19 8 11
19 8 7 15 9 7 15 9 7 15 9 7 15 9 8 15 13 9 15 16 26 54 22 26 53 24 25
51 26 32 67 40 31 63 41 29 58 41 27 52 40 25 46 40 22 39 39 20 32 37
17 24 35 14 18 33 13 17 33 13 17 31 12 16 27 10 18 8 10 18 8 10 18 8
10 18 8 10 18 8 10 18 8 10 18 8 10 18 8 10 18 8 10 18 8 10 18 8 10 18
8 10 18 8 10 18 8 10 18 8 10 18 8 10 18 8 10 18 8 10 18 8 10 18 8 8 14
7 8 14 7 8 14 7 8 14 7 8 14 7 8 14 7 8 14 7 8 13 7 8 13 7 8 13 7 8 13
7 8 13 7 8 13 7 8 13 7 8 13 7 8 13 7 8 13 7 8 13 7 8 13 7 8 13 7 8 13
7 8 13 7 8 13 7 8 13 7 8 13 7 8 13 7 8 13 7 8 13 7 8 13 7 8 13 7 8 13
7 8 13 7 8 13 7 8 13 7 8 13 7 8 13 7 8 13 7 8 13 7 8 13 7 8 13 7 8 13
7 8 13 7 8 13 7 8 13 7 8 13 7 8 13 7 8 13 7 8 13 7 8 13 7 8 13 7 8 13
7 8 13 7 8 13 7 8 13 7 8 13 7 8 13 7 8 13 7 8 13 7 8 13 7 8 13 7 8 13
7 8 13 7 8 13 7 8 13 7 8 13 7 8 13 7 8 13 7 8 13 7 8 13 7 8 13 7 8 13
7 8 13 7 8 13 7 8 13 7 8 13 7 8 13 7 8 13 7 8 13 7 8 13 7 8 13 7 8 13
7 8 13 7 8 13 7 7 11 6 7 11 6 7 11 6 7 11 6 7 11 6 7 11 6 7 11 6 7 11
6 7 11 6 7 11 6 7 11 6 7 11 6 7 11 6 7 11 6 7 11 6 7 11 6 7 11 6 7 11
6 7 11 6 7 11 6 7 11 6 7 11 6 7 11 6 7 11 6 7 11 6 7 11 6 7 11 6 7 11
6 7 11 6
9 17 6 9 17 6 9 17 6 9 17 6 9 17 6 9 17 6 9 17 6 9 17 6 9 17 6 9 17 6
9 17 6 9 17 6 9 17 6 9 17 6 9 17 6 9 17 6 9 17 6 9 17 6 9 17 6 9 17 6
9 17 6 9 17 6 9 17 6 9 17 6 9 17 6 9 17 6 9 17 6 9 17 6 9 17 6 9 17 6
9 17 6 9 17 6 9 17 6 9 17 6 9 17 6 9 17 6 9 17 6 9 17 6 9 17 6 9 17 6
9 17 6 9 17 6 9 17 6 9 17 6 9 17 6 9 17 6 9 18 6 9 18 6 9 18 6 9 18 6
9 18 6 9 18 6 9 18 6 9 18 6 9 18 6 9 18 6 9 18 6 9 18 6 9 18 6 9 18 6
9 18 6 9 18 6 9 18 6 10 18 6 10 18 6 10 18 6 10 18 6 10 18 6 10 18 6
10 18 6 10 18 6 10 18 6 10 18 6 10 18 6 10 18 6 10 18 6 10 18 6 10 18
6 10 18 6 10 18 6 10 18 6 10 18 6 10 18 6 10 18 6 10 18 6 10 18 6 10
18 6 10 18 6 10 18 6 10 18 6 10 18 6 10 18 6 10 18 6 10 18 6 10 18 6
10 18 6 10 19 6 10 19 6 10 19 6 10 19 6 10 19 6 10 19 6 10 19 6 10 19
6 10 19 6 10 19 6 10 19 6 10 19 6 10 19 6 10 19 6 10 19 6 10 19 6 10
19 6 10 19 6 10 19 6 10 19 6 10 19 6 10 19 6 10 19 6 10 19 6 10 19 6
10 19 6 10 19 6 10 19 6 10 19 6 10 19 6 10 19 6 10 19 6 10 19 6 10 19
6 10 19 6 10 19 6 10 19 6 10 19 6 2 0 13 1 0 6 1 0 6 1 0 6 1 0 6 1 0 6
1 0 6 1 0 6 1 0 6 1 0 6 1 0 6 1 0 6 1 0 6 1 0 6 1 0 6 1 0 6 1 0 6 1 0
6 1 0 6 1 0 6 1 0 6 1 0 6 1 0 6 1 0 6 1 0 6 1 0 6 1 0 6 1 0 6 1 0 6 1
0 6 1 0 6 1 0 6 1 0 6 1 0 6 1 0 6 1 0 6 1 0 6 1 0 6 1 0 6 1 0 6 1 0 6
1 0 6 1 0 6 1 0 6 1 0 6 1 0 6 1 0 6 1 0 6 1 0 8 1 0 10 1 0 12 2 0 14 2
0 17 2 0 19 2 0 21 2 0 24 2 0 26 2 0 29 3 0 32 3 0 35 3 0 38 3 0 42 3
0 46 4 0 51 11 20 8 11 20 8 11 20 8 11 20 8 11 20 8 11 20 8 11 20 8 11
20 8 11 20 8 11 20 8 11 20 8 11 20 8 11 20 8 11 20 8 11 20 8 11 20 8
11 20 8 11 20 8 11 20 8 11 20 8 11 20 8 11 20 8 11 20 8 1 2 11 1 3 12
1 3 12 1 3 11 1 3 10 1 2 8 1 2 8 0 1 9 0 1 10 0 0 10 0 0 12 0 0 14 0 0
15 0 0 16 0 0 15 11 19 8 11 19 8 11 19 8 11 19 8 11 19 8 11 19 8 11 19
8 11 19 8 11 19 8 11 19 8 11 19 8 11 19 8 7 15 9 7 15 9 7 15 9 8 15 11
24 52 17 24 51 20 24 50 22 31 67 37 30 63 38 29 59 38 27 53 38 25 48
38 23 42 37 20 35 36 17 28 34 14 20 32 13 17 31 13 17 30 12 16 27 11
19 8 11 19 8 11 19 8 11 19 8 11 19 8 11 19 8 11 19 8 11 19 8 11 19 8
11 19 8 11 19 8 11 19 8 11 19 8 11 19 8 11 19 8 11 19 8 11 19 8 11 19
8 11 19 8 8 14 8 8 14 8 8 14 8 8 14 8 8 14 8 8 14 8 8 14 8 8 14 8 8 14
8 8 14 8 8 14 8 8 14 8 8 14 8 8 14 8 8 14 8 8 14 8 8 14 8 8 14 8 8 14
8 8 14 8 8 14 8 8 14 8 8 14 8 8 14 8 8 14 8 8 14 8 8 14 8 8 14 8 8 14
8 8 14 8 8 14 8 8 14 8 8 14 8 8 14 7 8 13 7 8 13 7 8 13 7 8 13 7 8 13
7 8 13 7 8 13 7 8 13 7 8 13 7 8 13 7 8 13 7 8 13 7 8 13 7 8 13 7 8 13
7 8 13 7 8 13 7 8 13 7 8 13 7 8 13 7 8 13 7 8 13 7 8 13 7 8 13 7 8 13
7 8 13 7 8 13 7 8 13 7 8 13 7 8 13 7 8 13 7 8 13 7 8 13 7 8 13 7 8 13
7 8 13 7 8 13 7 8 13 7 8 13 7 8 13 7 8 13 7 8 13 7 8 13 7 8 13 7 8 13
7 8 13 7 8 13 7 7 11 6 7 11 6 7 11 6 7 11 6 7 11 6 7 11 6 7 11 6 7 11
6 7 11 6 7 11 6 7 11 6 7 11 6 7 11 6 7 11 6 7 11 6 7 11 6 7 11 6 7 11
6 7 11 6 7 11 6 7 11 6 7 11 6 7 11 6 7 11 6 7 11 6 7 11 6 7 11 6 7 11
6 7 11 6 7 11 6 7 11 6 7 11 6 7 11 6
9 17 6 9 17 6 9 17 6 9 17 6 9 17 6 9 17 6 9 17 6 9 17 6 9 17 6 9 17 6
9 17 6 9 17 6 9 17 6 9 17 6 9 17 6 9 17 6 9 17 6 9 17 6 9 17 6 9 17 6
9 17 6 9 17 6 9 18 6 9 18 6 9 18 6 9 18 6 9 18 6 9 18 6 9 18 6 9 18 6
9 18 6 9 18 6 9 18 6 9 18 6 9 18 6 9 18 6 9 18 6 9 18 6 9 18 6 10 18 6
10 18 6 10 18 6 10 18 6 10 18 6 10 18 6 10 18 6 10 18 6 10 18 6 10 18
6 10 18 6 10 18 6 10 18 6 10 18 6 10 18 6 10 18 6 10 18 6 10 18 6 10
18 6 10 18 6 10 18 6 10 18 6 10 18 6 10 18 6 10 18 6 10 18 6 10 18 6
10 18 6 10 18 6 10 18 6 10 19 6 10 19 6 10 19 6 10 19 6 10 19 6 10 19
6 10 19 6 10 19 6 10 19 6 10 19 6 10 19 6 10 19 6 10 19 6 10 19 6 10
19 6 10 19 6 10 19 6 10 19 6 10 19 6 10 19 6 10 19 6 10 19 6 10 19 6
10 19 6 10 19 6 10 19 6 10 19 6 10 19 6 10 19 6 10 19 6 10 19 6 10 19
6 10 19 6 10 19 6 10 19 6 10 19 6 10 19 6 10 19 6 10 19 6 10 19 6 10
19 6 10 19 6 10 19 6 10 19 6 10 19 6 10 19 6 10 19 6 10 20 6 10 20 6
10 20 6 10 20 6 10 20 6 10 20 6 10 20 6 10 20 6 10 20 6 10 20 6 10 20
6 10 20 6 10 20 6 10 20 6 10 20 6 10 20 6 10 20 6 10 20 6 10 20 6 2 0
10 1 0 6 1 0 6 1 0 6 1 0 6 1 0 6 1 0 6 1 0 6 1 0 6 1 0 6 1 0 6 1 0 6 1
0 6 1 0 6 1 0 6 1 0 6 1 0 6 1 0 6 1 0 6 1 0 6 1 0 6 1 0 6 1 0 6 1 0 6
1 0 6 1 0 6 1 0 6 1 0 6 1 0 6 1 0 6 1 0 6 1 0 6 1 0 6 1 0 6 1 0 6 1 0
6 1 0 6 1 0 6 1 0 6 1 0 6 1 0 6 1 0 6 1 0 6 1 0 6 1 0 6 1 0 6 1 0 7 1
0 9 1 0 11 1 0 13 2 0 15 2 0 17 2 0 19 2 0 22 2 0 24 2 0 27 2 0 30 3 0
33 3 0 36 3 0 39 3 0 43 4 0 48 12 21 9 12 21 9 12 20 9 12 20 9 12 20 9
12 20 9 12 20 9 12 20 9 12 20 9 12 20 9 12 20 9 12 20 9 12 20 9 12 20
9 12 20 9 12 20 9 12 20 9 12 20 9 12 20 9 12 20 9 12 20 9 12 20 9 12
20 9 12 20 9 12 20 9 12 20 9 12 20 9 12 20 9 0 0 2 0 0 2 0 0 1 0 0 1 0
0 1 0 0 2 0 0 3 11 20 9 11 20 9 11 20 9 11 20 9 11 20 9 11 20 9 11 20
9 11 20 9 11 20 9 11 20 9 11 20 9 11 20 9 11 20 9 11 20 9 11 20 9 11
20 9 11 20 9 7 15 9 7 15 9 8 15 9 22 49 15 22 48 18 30 66 33 29 62 34
28 58 35 26 54 35 25 49 35 23 43 34 20 37 33 18 30 32 15 22 30 12 17
29 12 17 28 12 16 26 10 16 21 11 20 8 11 20 8 11 20 8 11 20 8 11 20 8
11 20 8 11 19 8 11 19 8 11 19 8 11 19 8 11 19 8 11 19 8 11 19 8 11 19
8 11 19 8 11 19 8 11 19 8 11 19 8 8 14 8 8 14 8 8 14 8 8 14 8 8 14 8 8
14 8 8 14 8 8 14 8 8 14 8 8 14 8 8 14 8 8 14 8 8 14 8 8 14 8 8 14 8 8
14 8 8 14 8 8 14 8 8 14 8 8 14 8 8 14 8 8 14 8 8 14 8 8 14 8 8 14 8 8
14 8 8 14 8 8 14 8 8 14 8 8 14 8 8 14 8 8 14 8 8 14 8 8 14 8 8 14 8 8
14 8 8 14 8 8 14 8 8 14 8 8 14 8 8 14 8 8 14 8 8 14 8 8 14 8 8 14 8 8
14 8 8 14 8 8 14 8 8 14 8 8 14 8 8 14 8 8 14 8 8 14 8 8 14 8 8 14 8 8
14 8 8 14 8 8 14 8 8 13 8 8 13 7 8 13 7 8 13 7 8 13 7 8 13 7 8 13 7 8
13 7 8 13 7 8 13 7 8 13 7 8 13 7 8 13 7 8 13 7 8 13 7 8 13 7 8 13 7 8
13 7 8 13 7 8 13 7 8 13 7 7 11 6 7 11 6 7 11 6 7 11 6 7 11 6 7 11 6 7
11 6 7 11 6 7 11 6 7 11 6 7 11 6 7 11 6 7 11 6 7 11 6 7 11 6 7 11 6 7
11 6 7 11 6 7 11 6 7 11 6 7 11 6 7 11 6 7 11 6 7 11 6 7 11 6 7 11 6 7
11 6 7 11 6 7 11 6 7 11 6 7 11 6 7 11 6 7 11 6 7 11 6 7 11 6 7 11 6
9 17 6 9 18 6 9 18 6 9 18 6 9 18 6 9 18 6 9 18 6 9 18 6 9 18 6 9 18 6
9 18 6 9 18 6 9 18 6 9 18 6 9 18 6 9 18 6 9 18 6 10 18 6 10 18 6 10 18
6 10 18 6 10 18 6 10 18 6 10 18 6 10 18 6 10 18 6 10 18 6 10 18 6 10
18 6 10 18 6 10 18 6 10 18 6 10 18 6 10 18 6 10 18 6 10 18 6 10 18 6
10 18 6 10 18 6 10 18 6 10 18 6 10 18 6 10 18 6 10 18 6 10 18 6 10 18
6 10 19 6 10 19 6 10 19 6 10 19 6 10 19 6 10 19 6 10 19 6 10 19 6 10
19 6 10 19 6 10 19 6 10 19 6 10 19 6 10 19 6 10 19 6 10 19 6 10 19 6
10 19 6 10 19 6 10 19 6 10 19 6 10 19 6 10 19 6 10 19 6 10 19 6 10 19
6 10 19 6 10 19 6 10 19 6 10 19 6 10 19 6 10 19 6 10 19 6 10 19 6 10
19 6 10 19 6 10 19 6 10 19 6 10 19 6 10 19 6 10 19 6 10 19 6 10 20 6
10 20 6 10 20 6 10 20 6 10 20 6 10 20 6 10 20 6 10 20 6 10 20 6 10 20
6 10 20 6 10 20 6 10 20 6 10 20 6 10 20 6 10 20 6 10 20 6 10 20 6 10
20 6 11 20 6 11 20 6 11 20 6 11 20 6 11 20 6 11 20 6 11 20 6 11 20 6
11 20 6 11 20 6 11 20 6 11 20 6 11 20 6 11 20 6 11 20 6 11 20 6 11 20
6 11 20 7 11 20 7 11 20 7 11 20 7 11 20 7 11 20 7 11 20 7 11 20 7 11
20 7 12 21 9 11 20 7 11 21 7 1 0 8 1 0 6 1 0 6 1 0 6 1 0 6 1 0 6 1 0 6
1 0 6 1 0 6 1 0 6 1 0 6 1 0 6 1 0 6 1 0 6 1 0 6 1 0 6 1 0 6 1 0 6 1 0
6 1 0 6 1 0 6 1 0 6 1 0 6 1 0 6 1 0 6 1 0 6 1 0 6 1 0 6 1 0 6 1 0 6 1
0 6 1 0 6 1 0 6 1 0 6 1 0 6 1 0 6 1 0 6 1 0 6 1 0 6 1 0 6 1 0 6 1 0 6
1 0 6 1 0 6 1 0 6 1 0 7 1 0 9 1 0 11 2 0 13 2 0 15 2 0 18 2 0 20 2 0
22 2 0 25 2 0 28 3 0 31 3 0 34 3 0 37 3 0 41 3 0 45 4 0 52 12 21 9 12
21 9 12 21 9 12 21 9 12 21 9 12 21 9 12 21 9 12 21 9 12 21 9 12 21 9
12 21 9 12 21 9 12 21 9 12 21 9 12 21 9 12 21 9 12 21 9 12 21 9 12 21
9 12 21 9 12 21 9 12 21 9 12 21 9 12 21 9 12 21 9 12 21 9 12 21 9 12
21 9 12 21 9 12 21 9 12 21 9 12 21 9 12 21 9 12 21 9 12 21 9 12 21 9
12 21 9 12 21 9 12 21 9 12 21 9 12 21 9 12 21 9 12 21 9 12 21 9 12 21
9 12 21 9 12 21 9 12 21 9 12 21 9 12 21 9 12 21 9 12 21 9 8 15 9 8 15
9 19 44 11 20 44 12 27 62 27 27 60 29 26 56 30 25 53 31 23 48 31 22 43
31 20 37 30 17 31 29 15 23 28 12 17 26 12 16 26 11 16 24 10 16 20 12
20 9 12 20 9 12 20 9 12 20 9 12 20 9 11 20 9 11 20 9 11 20 9 11 20 9
11 20 9 11 20 9 11 20 9 11 20 9 11 20 9 11 20 9 11 20 9 11 20 9 11 20
9 9 14 8 9 14 8 9 14 8 9 14 8 9 14 8 9 14 8 9 14 8 9 14 8 9 14 8 9 14
8 9 14 8 9 14 8 9 14 8 8 14 8 8 14 8 8 14 8 8 14 8 8 14 8 8 14 8 8 14
8 8 14 8 8 14 8 8 14 8 8 14 8 8 14 8 8 14 8 8 14 8 8 14 8 8 14 8 8 14
8 8 14 8 8 14 8 8 14 8 8 14 8 8 14 8 8 14 8 8 14 8 8 14 8 8 14 8 8 14
8 8 14 8 8 14 8 8 14 8 8 14 8 8 14 8 8 14 8 8 14 8 8 14 8 8 14 8 8 14
8 8 14 8 8 14 8 8 14 8 8 14 8 8 14 8 8 14 8 8 14 8 8 14 8 8 14 8 8 14
8 8 14 8 8 14 8 8 14 8 8 14 8 8 14 8 8 14 8 8 14 8 8 14 8 8 14 8 8 14
8 8 14 8 8 14 8 8 14 8 8 14 8 8 14 8 8 14 8 8 14 8 7 11 6 7 11 6 7 11
6 7 11 6 7 11 6 7 11 6 7 11 6 7 11 6 7 11 6 7 11 6 7 11 6 7 11 6 7 11
6 7 11 6 7 11 6 7 11 6 7 11 6 7 11 6 7 11 6 7 11 6 7 11 6 7 11 6 7 11
6 7 11 6 7 11 6 7 11 6 7 11 6 7 11 6 7 11 6 7 11 6 7 11 6 7 11 6 7 11
6 7 11 6 7 11 6 7 11 6 7 11 6 7 11 6 7 11 6
10 18 6 10 18 6 10 18 6 10 18 6 10 18 6 10 18 6 10 18 6 10 18 6 10 18
6 10 18 6 10 18 6 10 18 6 10 18 6 10 18 6 10 18 6 10 18 6 10 18 6 10
18 6 10 18 6 10 18 6 10 18 6 10 18 6 10 18 6 10 18 6 10 18 6 10 19 6
10 19 6 10 19 6 10 19 6 10 19 6 10 19 6 10 19 6 10 19 6 10 19 6 10 19
6 10 19 6 10 19 6 10 19 6 10 19 6 10 19 6 10 19 6 10 19 6 10 19 6 10
19 6 10 19 6 10 19 6 10 19 6 10 19 6 10 19 6 10 19 6 10 19 6 10 19 6
10 19 6 10 19 6 10 19 6 10 19 6 10 19 6 10 19 6 10 19 6 10 19 6 10 19
6 10 19 6 10 19 6 10 19 6 10 20 6 10 20 6 10 20 6 10 20 6 10 20 6 10
20 6 10 20 6 10 20 6 10 20 6 10 20 6 10 20 6 10 20 6 10 20 6 10 20 6
10 20 6 10 20 6 10 20 6 11 20 6 11 20 6 11 20 6 11 20 6 11 20 6 11 20
6 11 20 6 11 20 6 11 20 6 11 20 6 11 20 6 11 20 6 11 20 6 11 20 7 11
20 7 11 20 7 11 20 7 11 20 7 11 20 7 11 20 7 11 20 7 11 20 7 11 21 7
11 21 7 11 21 7 11 21 7 11 21 7 11 21 7 11 21 7 11 21 7 11 21 7 11 21
7 11 21 7 11 21 7 11 21 7 11 21 7 11 21 7 11 21 7 11 21 7 11 21 7 11
21 7 11 21 7 11 21 7 11 21 7 11 21 7 11 21 7 11 21 7 11 21 7 11 21 7
11 21 7 11 21 7 11 21 7 11 21 7 11 21 7 12 21 9 11 21 7 1 0 7 1 0 6 1
0 6 1 0 6 1 0 6 1 0 6 1 0 6 1 0 6 1 0 6 1 0 6 1 0 6 1 0 6 1 0 6 1 0 6
1 0 6 1 0 6 1 0 6 1 0 6 1 0 6 1 0 6 1 0 6 1 0 6 1 0 6 1 0 6 1 0 6 1 0
6 1 0 6 1 0 6 1 0 6 1 0 6 1 0 6 1 0 6 1 0 6 1 0 6 1 0 6 1 0 6 1 0 6 1
0 6 1 0 6 1 0 6 1 0 6 1 0 6 1 0 6 1 0 6 1 0 7 1 0 9 1 0 12 2 0 14 2 0
16 2 0 18 2 0 21 2 0 23 2 0 26 2 0 29 3 0 32 3 0 35 3 0 38 3 0 43 4 0
48 9 29 100 12 22 9 12 22 9 12 22 9 12 22 9 12 22 9 12 22 9 12 22 9 12
22 9 12 22 9 12 22 9 12 22 9 12 22 9 12 22 9 12 22 9 12 22 9 12 22 9
12 22 9 12 22 9 12 22 9 12 22 9 12 22 9 12 22 9 12 22 9 12 22 9 12 22
9 12 22 9 12 22 9 12 22 9 12 22 9 12 22 9 12 22 9 12 22 9 12 22 9 12
22 9 12 22 9 12 22 9 12 22 9 12 22 9 12 22 9 12 22 9 12 22 9 12 21 9
12 21 9 12 21 9 12 21 9 12 21 9 12 21 9 12 21 9 12 21 9 12 21 9 12 21
9 12 21 9 12 21 9 8 15 9 17 37 11 23 55 21 23 54 22 23 52 24 23 49 25
21 45 26 20 41 26 18 36 26 16 30 25 14 23 24 11 16 23 11 16 22 10 16
21 9 16 15 12 21 9 12 21 9 12 21 9 12 21 9 12 21 9 12 21 9 12 21 9 12
21 9 12 21 9 12 21 9 12 21 9 12 21 9 12 21 9 12 21 9 12 21 9 12 21 9
12 21 9 9 15 8 9 14 8 9 14 8 9 14 8 9 14 8 9 14 8 9 14 8 9 14 8 9 14 8
9 14 8 9 14 8 9 14 8 9 14 8 9 14 8 9 14 8 9 14 8 9 14 8 9 14 8 9 14 8
9 14 8 9 14 8 9 14 8 9 14 8 9 14 8 9 14 8 9 14 8 9 14 8 9 14 8 9 14 8
9 14 8 9 14 8 9 14 8 9 14 8 9 14 8 9 14 8 9 14 8 9 14 8 9 14 8 8 14 8
8 14 8 8 14 8 8 14 8 8 14 8 8 14 8 8 14 8 8 14 8 8 14 8 8 14 8 8 14 8
8 14 8 8 14 8 8 14 8 8 14 8 8 14 8 8 14 8 8 14 8 8 14 8 8 14 8 8 14 8
8 14 8 8 14 8 8 14 8 8 14 8 8 14 8 8 14 8 8 14 8 8 14 8 8 14 8 8 14 8
8 14 8 8 14 8 8 14 8 8 14 8 8 14 8 8 14 8 8 14 8 7 11 6 7 11 6 7 11 6
7 11 6 7 11 6 7 11 6 7 11 6 7 11 6 7 11 6 7 11 6 7 11 6 7 11 6 7 11 6
7 11 6 7 11 6 7 11 6 7 11 6 7 11 6 7 11 6 7 11 6 7 11 6 7 11 6 7 11 6
7 11 6 7 11 6 7 11 6 7 11 6 7 11 6 7 11 6 7 11 6 7 11 6 7 11 6 7 11 6
7 11 6 7 11 6 7 11 6 7 11 6 7 11 6 7 11 6 7 11 6 7 11 6 7 11 6
10 18 6 10 18 6 10 18 6 10 18 6 10 18 6 10 19 6 10 19 6 10 19 6 10 19
6 10 19 6 10 19 6 10 19 6 10 19 6 10 19 6 10 19 6 10 19 6 10 19 6 10
19 6 10 19 6 10 19 6 10 19 6 10 19 6 10 19 6 10 19 6 10 19 6 10 19 6
10 19 6 10 19 6 10 19 6 10 19 6 10 19 6 10 19 6 10 19 6 10 19 6 10 19
6 10 19 6 10 19 6 10 19 6 10 19 6 10 19 6 10 19 6 10 19 6 10 19 6 10
19 6 10 20 6 10 20 6 10 20 6 10 20 6 10 20 6 10 20 6 10 20 6 10 20 6
10 20 6 10 20 6 10 20 6 10 20 6 10 20 6 10 20 6 10 20 6 10 20 6 11 20
6 11 20 6 11 20 6 11 20 6 11 20 6 11 20 6 11 20 6 11 20 6 11 20 6 11
20 6 11 20 7 11 20 7 11 20 7 11 20 7 11 20 7 11 20 7 11 20 7 11 20 7
11 20 7 11 20 7 11 21 7 11 21 7 11 21 7 11 21 7 11 21 7 11 21 7 11 21
7 11 21 7 11 21 7 11 21 7 11 21 7 11 21 7 11 21 7 11 21 7 11 21 7 11
21 7 11 21 7 11 21 7 11 21 7 11 21 7 11 21 7 11 21 7 11 21 7 11 21 7
11 21 7 11 21 7 11 21 7 11 21 7 11 21 7 11 21 7 11 21 7 11 21 7 11 21
7 11 21 7 11 21 7 11 21 7 11 21 7 11 22 7 11 22 7 11 22 7 11 22 7 11
22 7 11 22 7 11 22 7 11 22 7 11 22 7 11 22 7 11 22 7 11 22 7 11 22 7
11 22 7 11 22 7 11 22 7 11 22 7 11 22 7 11 22 7 13 22 9 13 22 9 1 0 6
1 0 6 1 0 6 1 0 6 1 0 6 1 0 6 1 0 6 1 0 6 1 0 6 1 0 6 1 0 6 1 0 6 1 0
6 1 0 6 1 0 6 1 0 6 1 0 6 1 0 6 1 0 6 1 0 6 1 0 6 1 0 6 1 0 6 1 0 6 1
0 6 1 0 6 1 0 6 1 0 6 1 0 6 1 0 6 1 0 6 1 0 6 1 0 6 1 0 6 1 0 6 1 0 6
1 0 6 1 0 6 1 0 6 1 0 6 1 0 6 1 0 6 1 0 6 1 0 8 1 0 10 1 0 12 2 0 14 2
0 16 2 0 19 2 0 21 2 0 24 2 0 27 2 0 30 3 0 33 3 0 36 3 0 40 3 0 45 12
40 116 11 35 116 11 33 121 9 25 111 13 23 10 13 23 10 13 23 10 13 23
10 13 23 10 13 23 10 13 23 10 13 23 10 13 23 10 13 23 10 13 23 10 13
23 10 13 23 10 13 23 10 13 23 10 13 23 10 13 23 10 13 23 10 13 23 10
13 23 10 13 23 10 13 23 10 13 22 10 13 22 10 13 22 10 13 22 10 13 22 9
13 22 9 13 22 9 13 22 9 13 22 9 13 22 9 13 22 9 13 22 9 13 22 9 13 22
9 13 22 9 13 22 9 13 22 9 13 22 9 13 22 9 13 22 9 13 22 9 13 22 9 13
22 9 13 22 9 13 22 9 13 22 9 13 22 9 13 22 9 13 22 9 12 22 9 12 22 9
18 41 17 19 43 18 18 42 18 18 40 19 17 36 20 16 32 20 14 26 20 11 20
19 10 16 18 10 16 18 9 16 16 12 22 9 12 22 9 12 22 9 12 22 9 12 21 9
12 21 9 12 21 9 12 21 9 12 21 9 12 21 9 12 21 9 12 21 9 12 21 9 12 21
9 12 21 9 12 21 9 12 21 9 12 21 9 9 15 9 9 15 9 9 15 9 9 15 9 9 15 9 9
15 9 9 15 9 9 15 9 9 15 9 9 15 9 9 15 9 9 15 9 9 15 9 9 15 9 9 15 9 9
15 9 9 15 9 9 15 9 9 15 9 9 15 9 9 15 9 9 15 9 9 15 9 9 14 9 9 14 9 9
14 9 9 14 8 9 14 8 9 14 8 9 14 8 9 14 8 9 14 8 9 14 8 9 14 8 9 14 8 9
14 8 9 14 8 9 14 8 9 14 8 9 14 8 9 14 8 9 14 8 9 14 8 9 14 8 9 14 8 9
14 8 9 14 8 9 14 8 9 14 8 9 14 8 9 14 8 9 14 8 9 14 8 9 14 8 9 14 8 9
14 8 9 14 8 9 14 8 9 14 8 8 14 8 8 14 8 8 14 8 8 14 8 8 14 8 8 14 8 8
14 8 8 14 8 8 14 8 8 14 8 8 14 8 8 14 8 8 14 8 8 14 8 8 14 8 7 11 7 7
11 7 7 11 7 7 11 7 7 11 7 7 11 7 7 11 7 7 11 7 7 11 7 7 11 7 7 11 7 7
11 7 7 11 7 7 11 7 7 11 7 7 11 7 7 11 7 7 11 7 7 11 7 7 11 7 7 11 6 7
11 6 7 11 6 7 11 6 7 11 6 7 11 6 7 11 6 7 11 6 7 11 6 7 11 6 7 11 6 7
11 6 7 11 6 7 11 6 7 11 6 7 11 6 7 11 6 7 11 6 7 11 6 7 11 6 7 11 6 7
11 6 7 11 6 7 11 6 7 11 6
10 19 6 10 19 6 10 19 6 10 19 6 10 19 6 10 19 6 10 19 6 10 19 6 10 19
6 10 19 6 10 19 6 10 19 6 10 19 6 10 19 6 10 19 6 10 19 6 10 19 6 10
19 6 10 19 6 10 19 6 10 19 6 10 19 6 10 19 6 10 19 6 10 19 6 10 20 6
10 20 6 10 20 6 10 20 6 10 20 6 10 20 6 10 20 6 10 20 6 10 20 6 10 20
6 10 20 6 10 20 6 10 20 6 10 20 6 10 20 6 10 20 6 11 20 6 11 20 6 11
20 6 11 20 6 11 20 6 11 20 6 11 20 6 11 20 6 11 20 7 11 20 7 11 20 7
11 20 7 11 20 7 11 20 7 11 20 7 11 20 7 11 20 7 11 20 7 11 21 7 11 21
7 11 21 7 11 21 7 11 21 7 11 21 7 11 21 7 11 21 7 11 21 7 11 21 7 11
21 7 11 21 7 11 21 7 11 21 7 11 21 7 11 21 7 11 21 7 11 21 7 11 21 7
11 21 7 11 21 7 11 21 7 11 21 7 11 21 7 11 21 7 11 21 7 11 21 7 11 21
7 11 21 7 11 21 7 11 21 7 11 21 7 11 21 7 11 22 7 11 22 7 11 22 7 11
22 7 11 22 7 11 22 7 11 22 7 11 22 7 11 22 7 11 22 7 11 22 7 11 22 7
11 22 7 11 22 7 11 22 7 11 22 7 11 22 7 11 22 7 11 22 7 12 22 7 12 22
7 12 22 7 12 22 7 12 22 7 12 22 7 12 22 7 12 22 7 12 22 7 12 22 7 12
22 7 12 22 7 12 22 7 12 22 7 12 22 7 12 22 7 12 22 7 12 22 7 12 23 7
12 23 7 12 23 7 12 23 7 12 23 7 12 23 7 12 23 7 12 23 7 12 23 7 13 23
9 1 0 6 1 0 6 1 0 6 1 0 6 1 0 6 1 0 6 1 0 6 1 0 6 1 0 6 1 0 6 1 0 6 1
0 6 1 0 6 1 0 6 1 0 6 1 0 6 1 0 6 1 0 6 1 0 6 1 0 6 1 0 6 1 0 6 1 0 6
1 0 6 1 0 6 1 0 6 1 0 6 1 0 6 1 0 6 1 0 6 1 0 6 1 0 6 1 0 6 1 0 6 1 0
6 1 0 6 1 0 6 1 0 6 1 0 6 1 0 6 1 0 6 1 0 6 1 0 8 1 0 10 1 0 13 2 0 15
2 0 17 2 0 20 2 0 22 2 0 25 2 0 28 3 0 31 3 0 34 3 0 38 3 0 43 13 46
121 13 42 122 12 38 122 12 37 132 11 32 130 10 27 129 8 20 121 13 23
10 13 23 10 13 23 10 13 23 10 13 23 10 13 23 10 13 23 10 13 23 10 13
23 10 13 23 10 13 23 10 13 23 10 13 23 10 13 23 10 13 23 10 13 23 10
13 23 10 13 23 10 13 23 10 13 23 10 13 23 10 13 23 10 13 23 10 13 23
10 13 23 10 13 23 10 13 23 10 13 23 10 13 23 10 13 23 10 13 23 10 13
23 10 13 23 10 13 23 10 13 23 10 13 23 10 13 23 10 13 23 10 13 23 10
13 23 10 13 23 10 13 23 10 13 23 10 13 23 10 13 23 10 13 23 10 13 23
10 13 23 10 13 23 10 13 23 10 13 23 10 13 23 10 13 23 10 11 23 12 11
24 12 10 22 12 9 18 11 8 16 11 8 16 11 13 22 10 13 22 10 13 22 10 13
22 10 13 22 10 13 22 10 13 22 10 13 22 10 13 22 10 13 22 9 13 22 9 13
22 9 13 22 9 13 22 9 13 22 9 13 22 9 13 22 9 12 22 9 12 22 9 12 22 9 9
15 9 9 15 9 9 15 9 9 15 9 9 15 9 9 15 9 9 15 9 9 15 9 9 15 9 9 15 9 9
15 9 9 15 9 9 15 9 9 15 9 9 15 9 9 15 9 9 15 9 9 15 9 9 15 9 9 15 9 9
15 9 9 15 9 9 15 9 9 15 9 9 15 9 9 15 9 9 15 9 9 15 9 9 15 9 9 15 9 9
15 9 9 15 9 9 15 9 9 15 9 9 15 9 9 15 9 9 15 9 9 15 9 9 15 9 9 15 9 9
15 9 9 15 9 9 14 9 9 14 9 9 14 9 9 14 9 9 14 9 9 14 9 9 14 8 9 14 8 9
14 8 9 14 8 9 14 8 9 14 8 9 14 8 9 14 8 9 14 8 9 14 8 9 14 8 9 14 8 9
14 8 9 14 8 9 14 8 9 14 8 9 14 8 9 14 8 9 14 8 9 14 8 9 14 8 9 14 8 9
14 8 9 14 8 7 11 7 7 11 7 7 11 7 7 11 7 7 11 7 7 11 7 7 11 7 7 11 7 7
11 7 7 11 7 7 11 7 7 11 7 7 11 7 7 11 7 7 11 7 7 11 7 7 11 7 7 11 7 7
11 7 7 11 7 7 11 7 7 11 7 7 11 7 7 11 7 7 11 7 7 11 7 7 11 7 7 11 7 7
11 7 7 11 7 7 11 7 7 11 7 7 11 7 7 11 7 7 11 7 7 11 7 7 11 7 7 11 7 7
11 7 7 11 7 7 11 7 7 11 7 7 11 6 7 11 6 7 11 6 7 11 6 7 11 6 7 11 6
10 19 6 10 19 6 10 19 6 10 19 6 10 19 6 10 19 6 10 19 6 10 19 6 10 20
6 10 20 6 10 20 6 10 20 6 10 20 6 10 20 6 10 20 6 10 20 6 10 20 6 10
20 6 10 20 6 10 20 6 10 20 6 10 20 6 10 20 6 11 20 6 11 20 6 11 20 6
11 20 6 11 20 6 11 20 6 11 20 6 11 20 6 11 20 7 11 20 7 11 20 7 11 20
7 11 20 7 11 20 7 11 20 7 11 20 7 11 20 7 11 20 7 11 21 7 11 21 7 11
21 7 11 21 7 11 21 7 11 21 7 11 21 7 11 21 7 11 21 7 11 21 7 11 21 7
11 21 7 11 21 7 11 21 7 11 21 7 11 21 7 11 21 7 11 21 7 11 21 7 11 21
7 11 21 7 11 21 7 11 21 7 11 21 7 11 21 7 11 21 7 11 21 7 11 21 7 11
21 7 11 21 7 11 21 7 11 22 7 11 22 7 11 22 7 11 22 7 11 22 7 11 22 7
11 22 7 11 22 7 11 22 7 11 22 7 11 22 7 11 22 7 11 22 7 11 22 7 11 22
7 11 22 7 12 22 7 12 22 7 12 22 7 12 22 7 12 22 7 12 22 7 12 22 7 12
22 7 12 22 7 12 22 7 12 22 7 12 22 7 12 22 7 12 22 7 12 22 7 12 23 7
12 23 7 12 23 7 12 23 7 12 23 7 12 23 7 12 23 7 12 23 7 12 23 7 12 23
7 12 23 7 12 23 7 12 23 7 12 23 7 12 23 7 12 23 7 12 23 7 12 23 7 12
23 7 12 23 7 12 23 7 12 23 7 12 23 7 12 23 7 12 23 7 12 23 7 12 23 7
12 23 7 12 23 7 12 23 7 12 23 7 12 23 7 12 23 7 12 23 7 12 23 7 12 23
7 12 23 7 1 0 6 1 0 6 1 0 6 1 0 6 1 0 6 1 0 6 1 0 6 1 0 6 1 0 6 1 0 6
1 0 6 1 0 6 1 0 6 1 0 6 1 0 6 1 0 6 1 0 6 1 0 6 1 0 6 1 0 6 1 0 6 1 0
6 1 0 6 1 0 6 1 0 6 1 0 6 1 0 6 1 0 6 1 0 6 1 0 6 1 0 6 1 0 6 1 0 6 1
0 6 1 0 6 1 0 6 1 0 6 1 0 6 1 0 6 1 0 6 1 0 7 1 0 9 1 0 11 2 0 13 2 0
15 2 0 18 2 0 20 2 0 23 2 0 26 2 0 29 3 0 32 3 0 36 3 0 41 14 50 123
14 46 124 13 43 125 12 39 126 11 35 126 11 34 135 11 30 136 10 26 137
8 20 134 14 24 10 14 24 10 14 24 10 14 24 10 14 24 10 14 24 10 14 24
10 14 24 10 14 24 10 14 24 10 14 24 10 14 24 10 14 24 10 14 24 10 14
24 10 14 24 10 14 24 10 14 24 10 14 24 10 14 24 10 14 24 10 14 24 10
14 24 10 14 24 10 14 24 10 14 24 10 14 24 10 14 24 10 14 24 10 14 24
10 14 24 10 14 24 10 14 24 10 14 24 10 13 24 10 13 24 10 13 24 10 13
24 10 13 24 10 13 24 10 13 24 10 13 24 10 13 23 10 13 23 10 13 23 10
13 23 10 13 23 10 13 23 10 13 23 10 13 23 10 13 23 10 13 23 10 13 23
10 13 23 10 13 23 10 13 23 10 13 23 10 13 23 10 13 23 10 13 23 10 13
23 10 13 23 10 13 23 10 13 23 10 13 23 10 13 23 10 13 23 10 13 23 10
13 23 10 13 23 10 13 23 10 13 23 10 13 23 10 13 23 10 13 23 10 13 23
10 13 22 10 9 15 9 9 15 9 9 15 9 9 15 9 9 15 9 9 15 9 9 15 9 9 15 9 9
15 9 9 15 9 9 15 9 9 15 9 9 15 9 9 15 9 9 15 9 9 15 9 9 15 9 9 15 9 9
15 9 9 15 9 9 15 9 9 15 9 9 15 9 9 15 9 9 15 9 9 15 9 9 15 9 9 15 9 9
15 9 9 15 9 9 15 9 9 15 9 9 15 9 9 15 9 9 15 9 9 15 9 9 15 9 9 15 9 9
15 9 9 15 9 9 15 9 9 15 9 9 15 9 9 15 9 9 15 9 9 15 9 9 15 9 9 15 9 9
15 9 9 15 9 9 15 9 9 15 9 9 15 9 9 15 9 9 15 9 9 15 9 9 15 9 9 15 9 9
15 9 9 14 9 9 14 9 9 14 9 9 14 9 9 14 9 9 14 9 9 14 9 9 14 9 9 14 8 9
14 8 9 14 8 7 11 7 7 11 7 7 11 7 7 11 7 7 11 7 7 11 7 7 11 7 7 11 7 7
11 7 7 11 7 7 11 7 7 11 7 7 11 7 7 11 7 7 11 7 7 11 7 7 11 7 7 11 7 7
11 7 7 11 7 7 11 7 7 11 7 7 11 7 7 11 7 7 11 7 7 11 7 7 11 7 7 11 7 7
11 7 7 11 7 7 11 7 7 11 7 7 11 7 7 11 7 7 11 7 7 11 7 7 11 7 7 11 7 7
11 7 7 11 7 7 11 7 7 11 7 7 11 7 7 11 7 7 11 7 7 11 7 7 11 7 7 11 7 7
11 7 7 11 7 7 11 7
11 20 8 11 20 8 11 20 8 11 20 8 11 20 8 10 20 6 10 20 6 11 20 6 11 20
6 11 20 6 11 20 6 11 20 6 11 20 6 11 20 6 11 20 7 11 20 7 11 20 7 11
20 7 11 20 7 11 20 7 11 20 7 11 20 7 11 20 7 11 20 7 11 20 7 11 21 7
11 21 7 11 21 7 11 21 7 11 21 7 11 21 7 11 21 7 11 21 7 11 21 7 11 21
7 11 21 7 11 21 7 11 21 7 11 21 7 11 21 7 11 21 7 11 21 7 11 21 7 11
21 7 11 21 7 11 21 7 11 21 7 11 21 7 11 21 7 11 21 7 11 21 7 11 21 7
11 21 7 11 21 7 11 22 7 11 22 7 11 22 7 11 22 7 11 22 7 11 22 7 11 22
7 11 22 7 11 22 7 11 22 7 11 22 7 11 22 7 11 22 7 11 22 7 11 22 7 11
22 7 12 22 7 12 22 7 12 22 7 12 22 7 12 22 7 12 22 7 12 22 7 12 22 7
12 22 7 12 22 7 12 22 7 12 22 7 12 22 7 12 23 7 12 23 7 12 23 7 12 23
7 12 23 7 12 23 7 12 23 7 12 23 7 12 23 7 12 23 7 12 23 7 12 23 7 12
23 7 12 23 7 12 23 7 12 23 7 12 23 7 12 23 7 12 23 7 12 23 7 12 23 7
12 23 7 12 23 7 12 23 7 12 23 7 12 23 7 12 23 7 12 23 7 12 23 7 12 24
7 12 24 7 12 24 7 12 24 7 12 24 7 12 24 7 12 24 7 12 24 7 12 24 7 12
24 7 12 24 7 12 24 7 12 24 7 12 24 7 12 24 7 12 24 7 12 24 7 12 24 7
12 24 7 12 24 7 12 24 7 12 24 7 13 24 7 13 24 7 13 24 7 13 24 7 13 24
7 13 24 7 13 24 7 1 0 6 1 0 6 1 0 6 1 0 6 1 0 6 1 0 6 1 0 6 1 0 6 1 0
6 1 0 6 1 0 6 1 0 6 1 0 6 1 0 6 1 0 6 1 0 6 1 0 6 1 0 6 1 0 6 1 0 6 1
0 6 1 0 6 1 0 6 1 0 6 1 0 6 1 0 6 1 0 6 1 0 6 1 0 6 1 0 6 1 0 6 1 0 6
1 0 6 1 0 6 1 0 6 1 0 6 1 0 6 1 0 6 1 0 6 1 0 7 1 0 9 1 0 12 2 0 14 2
0 16 2 0 19 2 0 21 2 0 24 2 0 27 3 0 30 3 0 34 3 0 39 15 53 123 14 50
124 14 47 126 13 43 127 12 39 128 11 36 128 11 31 127 11 30 137 10 27
140 9 23 142 8 18 139 13 25 7 14 25 11 14 25 11 14 25 11 14 25 11 31
37 43 31 35 46 29 32 48 27 29 48 24 26 48 14 25 11 14 25 10 14 25 10
14 25 10 14 25 10 14 25 10 14 25 10 14 25 10 14 25 10 14 25 10 14 25
10 14 25 10 14 25 10 14 25 10 14 25 10 14 25 10 14 25 10 14 25 10 14
25 10 14 25 10 14 25 10 14 25 10 14 24 10 14 24 10 14 24 10 14 24 10
14 24 10 14 24 10 14 24 10 14 24 10 14 24 10 14 24 10 14 24 10 14 24
10 14 24 10 14 24 10 14 24 10 14 24 10 14 24 10 14 24 10 14 24 10 14
24 10 14 24 10 14 24 10 14 24 10 14 24 10 14 24 10 14 24 10 14 24 10
14 24 10 14 24 10 13 24 10 13 24 10 13 24 10 13 24 10 13 23 10 13 23
10 13 23 10 13 23 10 13 23 10 13 23 10 13 23 10 13 23 10 13 23 10 13
23 10 10 16 10 9 16 10 9 16 10 9 15 10 9 15 10 9 15 10 9 15 10 9 15 10
9 15 9 9 15 9 9 15 9 9 15 9 9 15 9 9 15 9 9 15 9 9 15 9 9 15 9 9 15 9
9 15 9 9 15 9 9 15 9 9 15 9 9 15 9 9 15 9 9 15 9 9 15 9 9 15 9 9 15 9
9 15 9 9 15 9 9 15 9 9 15 9 9 15 9 9 15 9 9 15 9 9 15 9 9 15 9 9 15 9
9 15 9 9 15 9 9 15 9 9 15 9 9 15 9 9 15 9 9 15 9 9 15 9 9 15 9 9 15 9
9 15 9 9 15 9 9 15 9 9 15 9 9 15 9 9 15 9 9 15 9 9 15 9 9 15 9 9 15 9
9 15 9 9 15 9 9 15 9 9 15 9 9 15 9 9 15 9 9 15 9 9 15 9 9 15 9 9 15 9
7 11 7 7 11 7 7 11 7 7 11 7 7 11 7 7 11 7 7 11 7 7 11 7 7 11 7 7 11 7
7 11 7 7 11 7 7 11 7 7 11 7 7 11 7 7 11 7 7 11 7 7 11 7 7 11 7 7 11 7
7 11 7 7 11 7 7 11 7 7 11 7 7 11 7 7 11 7 7 11 7 7 11 7 7 11 7 7 11 7
7 11 7 7 11 7 7 11 7 7 11 7 7 11 7 7 11 7 7 11 7 7 11 7 7 11 7 7 11 7
7 11 7 7 11 7 7 11 7 7 11 7 7 11 7 7 11 7 7 11 7 7 11 7 7 11 7 7 11 7
7 11 7 7 11 7 7 11 7 7 11 7
11 20 8 12 20 8 12 21 8 12 21 8 12 21 8 12 21 8 12 21 8 12 21 8 12 21
8 12 21 9 12 21 9 12 21 9 11 21 7 11 21 7 11 21 7 11 21 7 11 21 7 11
21 7 11 21 7 11 21 7 11 21 7 11 21 7 11 21 7 11 21 7 11 21 7 11 21 7
11 21 7 11 21 7 11 21 7 11 21 7 11 21 7 11 21 7 11 21 7 11 21 7 11 21
7 11 21 7 11 21 7 11 21 7 11 22 7 11 22 7 11 22 7 11 22 7 11 22 7 11
22 7 11 22 7 11 22 7 11 22 7 11 22 7 11 22 7 11 22 7 11 22 7 11 22 7
11 22 7 12 22 7 12 22 7 12 22 7 12 22 7 12 22 7 12 22 7 12 22 7 12 22
7 12 22 7 12 22 7 12 22 7 12 22 7 12 23 7 12 23 7 12 23 7 12 23 7 12
23 7 12 23 7 12 23 7 12 23 7 12 23 7 12 23 7 12 23 7 12 23 7 12 23 7
12 23 7 12 23 7 12 23 7 12 23 7 12 23 7 12 23 7 12 23 7 12 23 7 12 23
7 12 23 7 12 23 7 12 23 7 12 23 7 12 24 7 12 24 7 12 24 7 12 24 7 12
24 7 12 24 7 12 24 7 12 24 7 12 24 7 12 24 7 12 24 7 12 24 7 12 24 7
12 24 7 12 24 7 12 24 7 12 24 7 12 24 7 13 24 7 13 24 7 13 24 7 13 24
7 13 24 7 13 24 7 13 24 7 13 24 7 13 24 7 13 24 7 13 25 7 13 25 7 13
25 7 13 25 7 13 25 7 13 25 7 13 25 7 13 25 7 13 25 7 13 25 7 13 25 7
13 25 7 13 25 7 13 25 7 13 25 7 13 25 7 13 25 7 13 25 7 13 25 7 13 25
7 13 25 7 13 25 7 13 25 7 14 26 10 1 0 6 1 0 6 1 0 6 1 0 6 1 0 6 1 0 6
1 0 6 1 0 6 1 0 6 1 0 6 1 0 6 1 0 6 1 0 6 1 0 6 1 0 6 1 0 6 1 0 6 1 0
6 1 0 6 1 0 6 1 0 6 1 0 6 1 0 6 1 0 6 1 0 6 1 0 6 1 0 6 1 0 6 1 0 6 1
0 6 1 0 6 1 0 6 1 0 6 1 0 6 1 0 6 1 0 6 1 0 6 1 0 8 1 0 10 1 0 12 2 0
15 2 0 17 2 0 20 2 0 22 2 0 25 2 0 28 3 0 32 3 0 37 15 55 121 15 52
123 14 49 125 14 46 126 13 43 127 12 39 128 11 35 129 11 31 128 10 27
128 10 27 143 9 24 145 8 20 145 4 14 45 13 26 7 38 45 48 35 39 45 36
42 48 35 40 50 34 38 52 32 35 53 30 32 54 28 29 54 25 26 54 22 22 54
19 18 53 15 26 11 15 26 11 15 26 11 15 26 11 15 26 11 15 26 11 15 26
11 15 26 11 15 26 11 15 26 11 15 26 11 15 25 11 14 25 11 14 25 11 14
25 11 14 25 11 14 25 11 14 25 11 14 25 11 14 25 11 14 25 11 14 25 11
14 25 11 14 25 11 14 25 11 14 25 11 14 25 11 14 25 11 14 25 11 14 25
11 14 25 11 14 25 11 14 25 11 14 25 11 14 25 11 14 25 11 14 25 11 14
25 11 14 25 11 14 25 11 14 25 11 14 25 11 14 25 11 14 24 11 14 24 11
14 24 11 14 24 10 14 24 10 14 24 10 14 24 10 14 24 10 14 24 10 14 24
10 14 24 10 14 24 10 14 24 10 14 24 10 14 24 10 14 24 10 14 24 10 14
24 10 10 16 10 10 16 10 10 16 10 10 16 10 10 16 10 10 16 10 10 16 10
10 16 10 10 16 10 10 16 10 10 16 10 10 16 10 10 16 10 10 16 10 10 16
10 10 16 10 10 16 10 10 16 10 10 16 10 10 16 10 10 15 10 9 15 10 9 15
10 9 15 10 9 15 10 9 15 10 9 15 10 9 15 10 9 15 10 9 15 10 9 15 9 9 15
9 9 15 9 9 15 9 9 15 9 9 15 9 9 15 9 9 15 9 9 15 9 9 15 9 9 15 9 9 15
9 9 15 9 9 15 9 9 15 9 9 15 9 9 15 9 9 15 9 9 15 9 9 15 9 9 15 9 9 15
9 9 15 9 9 15 9 9 15 9 9 15 9 9 15 9 9 15 9 9 15 9 9 15 9 9 15 9 9 15
9 9 15 9 9 15 9 9 15 9 9 15 9 9 15 9 7 11 7 7 11 7 7 11 7 7 11 7 7 11
7 7 11 7 7 11 7 7 11 7 7 11 7 7 11 7 7 11 7 7 11 7 7 11 7 7 11 7 7 11
7 7 11 7 7 11 7 7 11 7 7 11 7 7 11 7 7 11 7 7 11 7 7 11 7 7 11 7 7 11
7 7 11 7 7 11 7 7 11 7 7 11 7 7 11 7 7 11 7 7 11 7 7 11 7 7 11 7 7 11
7 7 11 7 7 11 7 7 11 7 7 11 7 7 11 7 7 11 7 7 11 7 7 11 7 7 11 7 7 11
7 7 11 7 7 11 7 7 11 7 7 11 7 7 11 7 7 11 7 7 11 7 7 11 7 7 11 7 7 11
7 7 11 7
12 21 9 12 21 9 12 21 9 12 21 9 12 21 9 12 21 9 12 21 9 12 21 9 12 21
9 12 21 9 12 21 9 12 21 9 12 21 9 12 21 9 12 21 9 12 21 9 12 22 9 12
22 9 12 22 9 11 21 7 11 21 7 11 21 7 11 21 7 11 22 7 11 22 7 11 22 7
11 22 7 11 22 7 11 22 7 11 22 7 11 22 7 11 22 7 11 22 7 11 22 7 11 22
7 11 22 7 11 22 7 12 22 7 12 22 7 12 22 7 12 22 7 12 22 7 12 22 7 12
22 7 12 22 7 12 22 7 12 22 7 12 22 7 12 22 7 12 23 7 12 23 7 12 23 7
12 23 7 12 23 7 12 23 7 12 23 7 12 23 7 12 23 7 12 23 7 12 23 7 12 23
7 12 23 7 12 23 7 12 23 7 12 23 7 12 23 7 12 23 7 12 23 7 12 23 7 12
23 7 12 23 7 12 23 7 12 23 7 12 23 7 12 24 7 12 24 7 12 24 7 12 24 7
12 24 7 12 24 7 12 24 7 12 24 7 12 24 7 12 24 7 12 24 7 12 24 7 12 24
7 12 24 7 12 24 7 13 24 7 13 24 7 13 24 7 13 24 7 13 24 7 13 24 7 13
24 7 13 24 7 13 24 7 13 25 7 13 25 7 13 25 7 13 25 7 13 25 7 13 25 7
13 25 7 13 25 7 13 25 7 13 25 7 13 25 7 13 25 7 13 25 7 13 25 7 13 25
7 13 25 7 13 25 7 13 25 7 13 25 7 13 25 8 13 25 8 13 25 8 13 25 8 13
25 8 13 25 8 13 25 8 13 25 8 13 25 8 13 26 8 13 26 8 13 26 8 13 26 8
13 26 8 13 26 8 13 26 8 13 26 8 13 26 8 13 26 8 13 26 8 13 26 8 13 26
8 13 26 8 13 26 8 13 26 8 13 26 8 13 26 8 1 0 6 1 0 6 1 0 6 1 0 6 1 0
6 1 0 6 1 0 6 1 0 6 1 0 6 1 0 6 1 0 6 1 0 6 1 0 6 1 0 6 1 0 6 1 0 6 1
0 6 1 0 6 1 0 6 1 0 6 1 0 6 1 0 6 1 0 6 1 0 6 1 0 6 1 0 6 1 0 6 1 0 6
1 0 6 1 0 6 1 0 6 1 0 6 1 0 6 1 0 6 1 0 6 1 0 6 1 0 9 1 0 11 2 0 13 2
0 16 2 0 18 2 0 21 2 0 24 2 0 27 3 0 31 16 59 115 16 57 118 15 54 120
15 52 122 14 49 124 13 45 126 13 42 127 12 39 128 11 35 128 11 31 129
10 27 128 9 24 133 6 22 59 6 19 54 39 44 51 39 44 51 38 43 49 37 41 47
38 44 51 36 41 52 35 39 54 33 36 55 31 33 56 29 30 57 26 27 57 24 24
57 21 20 57 19 17 58 17 14 59 15 27 11 15 27 11 15 26 11 15 26 11 15
26 11 15 26 11 15 26 11 15 26 11 15 26 11 15 26 11 15 26 11 15 26 11
15 26 11 15 26 11 15 26 11 15 26 11 15 26 11 15 26 11 15 26 11 15 26
11 15 26 11 15 26 11 15 26 11 15 26 11 15 26 11 15 26 11 15 26 11 15
26 11 15 26 11 15 26 11 15 26 11 15 26 11 15 26 11 15 26 11 15 25 11
15 25 11 15 25 11 15 25 11 14 25 11 14 25 11 14 25 11 14 25 11 14 25
11 14 25 11 14 25 11 14 25 11 14 25 11 14 25 11 14 25 11 14 25 11 14
25 11 14 25 11 14 25 11 14 25 11 14 25 11 14 25 11 14 25 11 14 25 11
10 16 10 10 16 10 10 16 10 10 16 10 10 16 10 10 16 10 10 16 10 10 16
10 10 16 10 10 16 10 10 16 10 10 16 10 10 16 10 10 16 10 10 16 10 10
16 10 10 16 10 10 16 10 10 16 10 10 16 10 10 16 10 10 16 10 10 16 10
10 16 10 10 16 10 10 16 10 10 16 10 10 16 10 10 16 10 10 16 10 10 16
10 10 16 10 10 16 10 10 16 10 10 16 10 10 16 10 10 15 10 10 15 10 10
15 10 9 15 10 9 15 10 9 15 10 9 15 10 9 15 10 9 15 10 9 15 10 9 15 10
9 15 10 9 15 9 9 15 9 9 15 9 9 15 9 9 15 9 9 15 9 9 15 9 9 15 9 9 15 9
9 15 9 9 15 9 9 15 9 9 15 9 9 15 9 9 15 9 9 15 9 9 15 9 7 11 7 7 11 7
7 11 7 7 11 7 7 11 7 7 11 7 7 11 7 7 11 7 7 11 7 7 11 7 7 11 7 7 11 7
7 11 7 7 11 7 7 11 7 7 11 7 7 11 7 7 11 7 7 11 7 7 11 7 7 11 7 7 11 7
7 11 7 7 11 7 7 11 7 7 11 7 7 11 7 7 11 7 7 11 7 7 11 7 7 11 7 7 11 7
7 11 7 7 11 7 7 11 7 7 11 7 7 11 7 7 11 7 7 11 7 7 11 7 7 11 7 7 11 7
7 11 7 7 11 7 7 11 7 7 11 7 7 11 7 7 11 7 7 11 7 7 11 7 7 11 7 7 11 7
7 11 7 7 11 7 7 11 7 7 11 7 7 11 7 7 11 7 7 11 7
12 21 9 12 21 9 12 22 9 12 22 9 12 22 9 12 22 9 12 22 9 12 22 9 12 22
9 12 22 9 12 22 9 12 22 9 12 22 9 12 22 9 12 22 9 12 22 9 12 22 9 12
22 9 12 22 9 12 22 9 12 22 9 12 22 9 12 22 9 12 22 9 13 22 9 13 22 9
12 22 7 12 22 7 12 22 7 12 22 7 12 22 7 12 22 7 12 22 7 12 22 7 12 23
7 12 23 7 12 23 7 12 23 7 12 23 7 12 23 7 12 23 7 12 23 7 12 23 7 12
23 7 12 23 7 12 23 7 12 23 7 12 23 7 12 23 7 12 23 7 12 23 7 12 23 7
12 23 7 12 23 7 12 23 7 12 23 7 12 23 7 12 23 7 12 24 7 12 24 7 12 24
7 12 24 7 12 24 7 12 24 7 12 24 7 12 24 7 12 24 7 12 24 7 12 24 7 12
24 7 12 24 7 12 24 7 12 24 7 13 24 7 13 24 7 13 24 7 13 24 7 13 24 7
13 24 7 13 24 7 13 24 7 13 25 7 13 25 7 13 25 7 13 25 7 13 25 7 13 25
7 13 25 7 13 25 7 13 25 7 13 25 7 13 25 7 13 25 7 13 25 7 13 25 7 13
25 8 13 25 8 13 25 8 13 25 8 13 25 8 13 25 8 13 25 8 13 25 8 13 25 8
13 26 8 13 26 8 13 26 8 13 26 8 13 26 8 13 26 8 13 26 8 13 26 8 13 26
8 13 26 8 13 26 8 13 26 8 13 26 8 13 26 8 13 26 8 13 26 8 13 26 8 13
26 8 13 26 8 14 26 8 14 26 8 14 26 8 14 26 8 14 26 8 14 26 8 14 26 8
14 26 8 14 27 8 14 27 8 14 27 8 14 27 8 14 27 8 14 27 8 14 27 8 14 27
8 14 27 8 14 27 8 14 27 8 14 27 8 14 27 8 14 27 8 15 27 11 1 0 6 1 0 6
1 0 6 1 0 6 1 0 6 1 0 6 1 0 6 1 0 6 1 0 6 1 0 6 1 0 6 1 0 6 1 0 6 1 0
6 1 0 6 1 0 6 1 0 6 1 0 6 1 0 6 1 0 6 1 0 6 1 0 6 1 0 6 1 0 6 1 0 6 1
0 6 1 0 6 1 0 6 1 0 6 1 0 6 1 0 6 1 0 6 1 0 6 1 0 7 1 0 9 1 0 12 2 0
14 2 0 17 2 0 19 2 0 22 2 0 26 2 0 30 17 61 111 18 63 116 16 57 117 15
53 119 14 50 121 14 47 123 13 44 125 13 41 126 12 38 127 11 34 127 10
30 128 10 26 128 6 23 49 6 20 48 40 50 71 41 47 54 40 46 52 39 44 50
39 46 50 38 44 52 36 42 53 35 39 55 33 36 56 31 33 57 29 31 57 27 27
58 25 24 58 22 21 58 20 18 59 18 15 62 21 24 64 16 27 12 16 27 12 16
27 12 16 27 12 16 27 12 15 27 12 15 27 12 15 27 12 15 27 11 15 27 11
15 27 11 15 27 11 15 27 11 15 27 11 15 27 11 15 27 11 15 27 11 15 27
11 15 27 11 15 27 11 15 27 11 15 27 11 15 27 11 15 27 11 15 27 11 15
27 11 15 27 11 15 27 11 15 26 11 15 26 11 15 26 11 15 26 11 15 26 11
15 26 11 15 26 11 15 26 11 15 26 11 15 26 11 15 26 11 15 26 11 15 26
11 15 26 11 15 26 11 15 26 11 15 26 11 15 26 11 15 26 11 15 26 11 15
26 11 15 26 11 15 26 11 15 26 11 15 25 11 15 25 11 15 25 11 15 25 11
10 16 11 10 16 10 10 16 10 10 16 10 10 16 10 10 16 10 10 16 10 10 16
10 10 16 10 10 16 10 10 16 10 10 16 10 10 16 10 10 16 10 10 16 10 10
16 10 10 16 10 10 16 10 10 16 10 10 16 10 10 16 10 10 16 10 10 16 10
10 16 10 10 16 10 10 16 10 10 16 10 10 16 10 10 16 10 10 16 10 10 16
10 10 16 10 10 16 10 10 16 10 10 16 10 10 16 10 10 16 10 10 16 10 10
16 10 10 16 10 10 16 10 10 16 10 10 16 10 10 16 10 10 16 10 10 16 10
10 16 10 10 16 10 10 16 10 10 16 10 10 15 10 10 15 10 10 15 10 10 15
10 10 15 10 9 15 10 9 15 10 9 15 10 9 15 10 9 15 10 9 15 10 9 15 10 9
15 10 9 15 10 7 11 8 7 11 8 7 11 8 7 11 8 7 11 8 7 11 8 7 11 8 7 11 8
7 11 8 7 11 8 7 11 8 7 11 8 7 11 7 7 11 7 7 11 7 7 11 7 7 11 7 7 11 7
7 11 7 7 11 7 7 11 7 7 11 7 7 11 7 7 11 7 7 11 7 7 11 7 7 11 7 7 11 7
7 11 7 7 11 7 7 11 7 7 11 7 7 11 7 7 11 7 7 11 7 7 11 7 7 11 7 7 11 7
7 11 7 7 11 7 7 11 7 7 11 7 7 11 7 7 11 7 7 11 7 7 11 7 7 11 7 7 11 7
7 11 7 7 11 7 7 11 7 7 11 7 7 11 7 7 11 7 7 11 7 7 11 7 7 11 7 7 11 7
7 11 7 7 11 7 7 11 7
12 22 9 12 22 9 12 22 9 12 22 9 12 22 9 12 22 9 12 22 9 12 22 9 12 22
9 12 22 9 13 22 9 13 22 9 13 22 9 13 22 9 13 23 9 13 23 9 13 23 9 13
23 9 13 23 9 13 23 9 13 23 9 13 23 9 13 23 9 13 23 9 13 23 9 13 23 9
13 23 9 13 23 9 13 23 9 13 23 9 13 23 9 13 23 9 13 23 9 12 23 7 12 23
7 12 23 7 12 23 7 12 23 7 12 23 7 12 23 7 12 23 7 12 23 7 12 23 7 12
23 7 12 24 7 12 24 7 12 24 7 12 24 7 12 24 7 12 24 7 12 24 7 12 24 7
12 24 7 12 24 7 12 24 7 12 24 7 12 24 7 12 24 7 13 24 7 13 24 7 13 24
7 13 24 7 13 24 7 13 24 7 13 24 7 13 24 7 13 25 7 13 25 7 13 25 7 13
25 7 13 25 7 13 25 7 13 25 7 13 25 7 13 25 7 13 25 7 13 25 7 13 25 8
13 25 8 13 25 8 13 25 8 13 25 8 13 25 8 13 25 8 13 25 8 13 25 8 13 25
8 13 26 8 13 26 8 13 26 8 13 26 8 13 26 8 13 26 8 13 26 8 13 26 8 13
26 8 13 26 8 13 26 8 13 26 8 13 26 8 13 26 8 13 26 8 13 26 8 14 26 8
14 26 8 14 26 8 14 26 8 14 26 8 14 26 8 14 27 8 14 27 8 14 27 8 14 27
8 14 27 8 14 27 8 14 27 8 14 27 8 14 27 8 14 27 8 14 27 8 14 27 8 14
27 8 14 27 8 14 27 8 14 27 8 14 27 8 14 27 8 14 27 8 14 27 8 14 27 8
14 27 8 14 27 8 14 27 8 14 27 8 14 28 8 14 28 8 14 28 8 14 28 8 14 28
8 14 28 8 14 28 8 14 28 8 14 28 8 14 28 8 14 28 8 14 28 8 16 28 11 1 0
6 1 0 6 1 0 6 1 0 6 1 0 6 1 0 6 1 0 6 1 0 6 1 0 6 1 0 6 1 0 6 1 0 6 1
0 6 1 0 6 1 0 6 1 0 6 1 0 6 1 0 6 1 0 6 1 0 6 1 0 6 1 0 6 1 0 6 1 0 6
1 0 6 1 0 6 1 0 6 1 0 6 1 0 6 1 0 6 1 0 6 1 0 6 1 0 8 1 0 10 1 0 13 2
0 15 2 0 18 2 0 21 2 0 24 16 62 117 16 61 113 19 64 111 21 66 115 16
55 115 14 52 117 14 49 119 13 46 121 13 43 123 12 40 124 11 36 125 11
33 126 10 29 126 7 25 50 6 22 49 42 52 74 42 52 73 42 47 55 41 46 53
41 48 52 39 46 50 38 44 52 36 41 53 34 39 55 33 36 56 31 33 57 29 30
57 27 27 58 24 24 58 22 21 59 20 18 59 18 16 62 22 23 66 22 24 68 16
28 12 16 28 12 16 28 12 16 28 12 16 28 12 16 28 12 16 28 12 16 28 12
16 28 12 16 28 12 16 28 12 16 28 12 16 28 12 16 28 12 16 28 12 16 28
12 16 28 12 16 28 12 16 28 12 16 28 12 16 28 12 16 28 12 16 27 12 16
27 12 16 27 12 16 27 12 16 27 12 16 27 12 16 27 12 16 27 12 16 27 12
16 27 12 15 27 12 15 27 12 15 27 12 15 27 12 15 27 12 15 27 12 15 27
12 15 27 12 15 27 12 15 27 12 15 27 12 15 27 11 15 27 11 15 26 11 15
26 11 15 26 11 15 26 11 15 26 11 15 26 11 15 26 11 15 26 11 15 26 11
10 17 11 10 17 11 10 17 11 10 17 11 10 17 11 10 17 11 10 17 11 10 17
11 10 16 11 10 16 11 10 16 11 10 16 11 10 16 11 10 16 11 10 16 11 10
16 11 10 16 11 10 16 11 10 16 11 10 16 11 10 16 11 10 16 11 10 16 10
10 16 10 10 16 10 10 16 10 10 16 10 10 16 10 10 16 10 10 16 10 10 16
10 10 16 10 10 16 10 10 16 10 10 16 10 10 16 10 10 16 10 10 16 10 10
16 10 10 16 10 10 16 10 10 16 10 10 16 10 10 16 10 10 16 10 10 16 10
10 16 10 10 16 10 10 16 10 10 16 10 10 16 10 10 16 10 10 16 10 10 16
10 10 16 10 10 16 10 10 16 10 10 16 10 10 16 10 10 16 10 10 16 10 10
16 10 7 11 8 7 11 8 7 11 8 7 11 8 7 11 8 7 11 8 7 11 8 7 11 8 7 11 8 7
11 8 7 11 8 7 11 8 7 11 8 7 11 8 7 11 8 7 11 8 7 11 8 7 11 8 7 11 8 7
11 8 7 11 8 7 11 8 7 11 8 7 11 8 7 11 8 7 11 8 7 11 8 7 11 8 7 11 8 7
11 8 7 11 7 7 11 7 7 11 7 7 11 7 7 11 7 7 11 7 7 11 7 7 11 7 7 11 7 7
11 7 7 11 7 7 11 7 7 11 7 7 11 7 7 11 7 7 11 7 7 11 7 7 11 7 7 11 7 7
11 7 7 11 7 7 11 7 7 11 7 7 11 7 7 11 7 7 11 7 7 11 7 7 11 7 7 11 7 7
11 7 7 11 7 7 11 7 7 11 7 7 11 7
13 22 9 13 23 9 13 23 9 13 23 9 13 23 9 13 23 9 13 23 9 13 23 9 13 23
9 13 23 9 13 23 9 13 23 9 13 23 9 13 23 9 13 23 9 13 23 9 13 23 9 13
23 9 13 23 9 13 23 9 13 23 9 13 23 9 13 23 9 13 23 9 13 23 10 13 24 10
13 24 10 13 24 10 13 24 10 13 24 10 13 24 10 13 24 10 13 24 10 13 24
10 13 24 10 13 24 10 13 24 10 13 24 10 13 24 10 14 24 10 14 24 10 12
24 7 12 24 7 12 24 7 13 24 7 13 24 7 13 24 7 13 24 7 13 24 7 13 24 7
13 24 7 13 24 7 13 25 7 13 25 7 13 25 7 13 25 7 13 25 7 13 25 7 13 25
7 13 25 7 13 25 7 13 25 7 13 25 8 13 25 8 13 25 8 13 25 8 13 25 8 13
25 8 13 25 8 13 25 8 13 25 8 13 25 8 13 26 8 13 26 8 13 26 8 13 26 8
13 26 8 13 26 8 13 26 8 13 26 8 13 26 8 13 26 8 13 26 8 13 26 8 13 26
8 13 26 8 13 26 8 14 26 8 14 26 8 14 26 8 14 26 8 14 26 8 14 27 8 14
27 8 14 27 8 14 27 8 14 27 8 14 27 8 14 27 8 14 27 8 14 27 8 14 27 8
14 27 8 14 27 8 14 27 8 14 27 8 14 27 8 14 27 8 14 27 8 14 27 8 14 27
8 14 27 8 14 27 8 14 28 8 14 28 8 14 28 8 14 28 8 14 28 8 14 28 8 14
28 8 14 28 8 14 28 8 14 28 8 14 28 8 14 28 8 14 28 8 14 28 8 14 28 8
14 28 8 14 28 8 14 28 8 14 28 8 15 28 8 15 28 8 15 28 8 15 28 8 15 28
8 15 29 8 15 29 8 15 29 8 15 29 8 15 29 8 15 29 8 15 29 8 15 29 8 15
29 8 15 29 8 16 29 12 16 29 12 1 0 6 1 0 6 1 0 6 1 0 6 1 0 6 1 0 6 1 0
6 1 0 6 1 0 6 1 0 6 1 0 6 1 0 6 1 0 6 1 0 6 1 0 6 1 0 6 1 0 6 1 0 6 1
0 6 1 0 6 1 0 6 1 0 6 1 0 6 1 0 6 1 0 6 1 0 6 1 0 6 1 0 6 1 0 6 1 0 7
1 0 9 1 0 12 2 0 14 2 0 17 2 0 20 2 0 24 17 62 121 17 62 121 16 59 112
16 58 107 15 56 110 17 53 118 16 50 120 15 47 126 13 44 119 12 41 120
12 38 122 11 35 123 10 32 124 8 27 54 7 24 49 14 30 59 43 54 75 42 52
74 42 47 55 42 50 54 40 48 52 39 45 50 37 43 51 36 41 53 34 38 54 32
35 55 30 32 56 28 30 57 26 27 57 24 24 58 22 20 58 20 17 59 23 24 63
21 23 66 21 22 69 22 24 71 17 29 12 17 29 12 17 29 12 17 29 12 16 29
12 16 29 12 16 29 12 16 29 12 16 29 12 16 29 12 16 29 12 16 29 12 16
29 12 16 29 12 16 29 12 16 29 12 16 29 12 16 28 12 16 28 12 16 28 12
16 28 12 16 28 12 16 28 12 16 28 12 16 28 12 16 28 12 16 28 12 16 28
12 16 28 12 16 28 12 16 28 12 16 28 12 16 28 12 16 28 12 16 28 12 16
28 12 16 28 12 16 28 12 16 28 12 16 27 12 16 27 12 16 27 12 16 27 12
16 27 12 16 27 12 16 27 12 16 27 12 16 27 12 16 27 12 15 27 12 15 27
12 15 27 12 15 27 12 11 17 11 11 17 11 11 17 11 11 17 11 10 17 11 10
17 11 10 17 11 10 17 11 10 17 11 10 17 11 10 17 11 10 17 11 10 17 11
10 17 11 10 17 11 10 17 11 10 17 11 10 17 11 10 17 11 10 17 11 10 17
11 10 16 11 10 16 11 10 16 11 10 16 11 10 16 11 10 16 11 10 16 11 10
16 11 10 16 11 10 16 11 10 16 11 10 16 11 10 16 11 10 16 11 10 16 11
10 16 11 10 16 11 10 16 10 10 16 10 10 16 10 10 16 10 10 16 10 10 16
10 10 16 10 10 16 10 10 16 10 10 16 10 10 16 10 10 16 10 10 16 10 10
16 10 10 16 10 10 16 10 10 16 10 10 16 10 10 16 10 10 16 10 10 16 10
10 16 10 8 11 8 8 11 8 8 11 8 8 11 8 8 11 8 8 11 8 8 11 8 8 11 8 8 11
8 8 11 8 8 11 8 8 11 8 7 11 8 7 11 8 7 11 8 7 11 8 7 11 8 7 11 8 7 11
8 7 11 8 7 11 8 7 11 8 7 11 8 7 11 8 7 11 8 7 11 8 7 11 8 7 11 8 7 11
8 7 11 8 7 11 8 7 11 8 7 11 8 7 11 8 7 11 8 7 11 8 7 11 8 7 11 8 7 11
8 7 11 8 7 11 8 7 11 8 7 11 8 7 11 8 7 11 8 7 11 8 7 11 7 7 11 7 7 11
7 7 11 7 7 11 7 7 11 7 7 11 7 7 11 7 7 11 7 7 11 7 7 11 7 7 11 7 7 11
7 7 11 7 7 11 7 7 11 7 7 11 7 7 11 7 7 11 7 7 11 7
13 23 9 13 23 9 13 23 9 13 23 9 13 23 9 13 23 9 13 23 9 13 23 9 13 23
9 13 23 9 13 23 9 13 23 9 13 24 10 13 24 10 13 24 10 13 24 10 13 24 10
13 24 10 13 24 10 13 24 10 13 24 10 13 24 10 13 24 10 13 24 10 13 24
10 13 24 10 13 24 10 14 24 10 14 24 10 14 24 10 14 24 10 14 24 10 14
24 10 14 25 10 14 25 10 14 25 10 14 25 10 14 25 10 14 25 10 14 25 10
14 25 10 14 25 10 14 25 10 14 25 10 14 25 10 14 25 10 14 25 10 14 25
10 14 25 10 13 25 8 13 25 8 13 25 8 13 25 8 13 25 8 13 25 8 13 25 8 13
25 8 13 25 8 13 26 8 13 26 8 13 26 8 13 26 8 13 26 8 13 26 8 13 26 8
13 26 8 13 26 8 13 26 8 13 26 8 13 26 8 13 26 8 13 26 8 14 26 8 14 26
8 14 26 8 14 26 8 14 26 8 14 27 8 14 27 8 14 27 8 14 27 8 14 27 8 14
27 8 14 27 8 14 27 8 14 27 8 14 27 8 14 27 8 14 27 8 14 27 8 14 27 8
14 27 8 14 27 8 14 27 8 14 27 8 14 27 8 14 28 8 14 28 8 14 28 8 14 28
8 14 28 8 14 28 8 14 28 8 14 28 8 14 28 8 14 28 8 14 28 8 14 28 8 14
28 8 14 28 8 14 28 8 14 28 8 15 28 8 15 28 8 15 28 8 15 29 8 15 29 8
15 29 8 15 29 8 15 29 8 15 29 8 15 29 8 15 29 8 15 29 8 15 29 8 15 29
8 15 29 8 15 29 8 15 29 8 15 29 8 15 29 8 15 29 8 15 29 8 15 29 8 15
29 8 15 29 8 15 29 8 15 29 8 15 29 8 15 30 8 15 30 8 15 30 8 15 30 8
15 30 8 15 30 8 15 30 8 15 30 8 17 30 12 17 30 12 17 30 12 17 30 12 1
0 6 1 0 6 1 0 6 1 0 6 1 0 6 1 0 6 1 0 6 1 0 6 1 0 6 1 0 6 1 0 6 1 0 6
1 0 6 1 0 6 1 0 6 1 0 6 1 0 6 1 0 6 1 0 6 1 0 6 1 0 6 1 0 6 1 0 6 1 0
6 1 0 6 1 0 6 1 0 6 1 0 8 1 0 11 2 0 13 2 0 16 2 0 20 16 61 122 16 60
120 18 64 129 18 63 129 15 57 110 14 55 105 16 53 116 16 51 115 15 48
118 14 45 124 13 43 129 12 40 118 11 36 119 11 33 120 8 29 58 7 25 52
6 22 49 43 54 76 43 54 75 42 52 74 43 51 57 42 49 54 40 47 51 38 44 49
36 42 50 35 40 52 33 37 53 31 34 54 29 32 55 27 29 56 25 26 56 27 31
57 25 28 58 23 25 59 22 23 62 21 22 65 21 22 69 22 23 72 22 24 71 17
30 13 17 30 13 17 30 13 17 30 13 17 30 13 17 30 13 17 30 13 17 30 13
17 30 13 17 30 13 17 30 13 17 30 13 17 30 13 17 29 13 17 29 13 17 29
13 17 29 13 17 29 13 17 29 13 17 29 13 17 29 12 17 29 12 17 29 12 17
29 12 17 29 12 17 29 12 17 29 12 17 29 12 16 29 12 16 29 12 16 29 12
16 29 12 16 29 12 16 29 12 16 28 12 16 28 12 16 28 12 16 28 12 16 28
12 16 28 12 16 28 12 16 28 12 16 28 12 16 28 12 16 28 12 16 28 12 16
28 12 16 28 12 16 28 12 16 28 12 16 28 12 11 17 11 11 17 11 11 17 11
11 17 11 11 17 11 11 17 11 11 17 11 11 17 11 11 17 11 11 17 11 11 17
11 11 17 11 11 17 11 11 17 11 11 17 11 11 17 11 11 17 11 11 17 11 11
17 11 11 17 11 10 17 11 10 17 11 10 17 11 10 17 11 10 17 11 10 17 11
10 17 11 10 17 11 10 17 11 10 17 11 10 17 11 10 17 11 10 17 11 10 17
11 10 16 11 10 16 11 10 16 11 10 16 11 10 16 11 10 16 11 10 16 11 10
16 11 10 16 11 10 16 11 10 16 11 10 16 11 10 16 11 10 16 11 10 16 11
10 16 11 10 16 11 10 16 11 10 16 11 10 16 10 10 16 10 10 16 10 10 16
10 10 16 10 10 16 10 8 11 8 8 11 8 8 11 8 8 11 8 8 11 8 8 11 8 8 11 8
8 11 8 8 11 8 8 11 8 8 11 8 8 11 8 8 11 8 8 11 8 8 11 8 8 11 8 8 11 8
8 11 8 8 11 8 8 11 8 8 11 8 8 11 8 8 11 8 8 11 8 8 11 8 8 11 8 8 11 8
8 11 8 7 11 8 7 11 8 7 11 8 7 11 8 7 11 8 7 11 8 7 11 8 7 11 8 7 11 8
7 11 8 7 11 8 7 11 8 7 11 8 7 11 8 7 11 8 7 11 8 7 11 8 7 11 8 7 11 8
7 11 8 7 11 8 7 11 8 7 11 8 7 11 8 7 11 8 7 11 8 7 11 8 7 11 8 7 11 8
7 11 8 7 11 8 7 11 8 7 11 8 7 11 8 7 11 7 7 11 7 7 11 7 7 11 7 7 11 7
7 11 7
13 24 10 13 24 10 13 24 10 13 24 10 13 24 10 13 24 10 13 24 10 13 24
10 13 24 10 13 24 10 13 24 10 13 24 10 13 24 10 13 24 10 13 24 10 14
24 10 14 24 10 14 24 10 14 24 10 14 24 10 14 24 10 14 25 10 14 25 10
14 25 10 14 25 10 14 25 10 14 25 10 14 25 10 14 25 10 14 25 10 14 25
10 14 25 10 14 25 10 14 25 10 14 25 10 14 25 10 14 25 10 14 25 10 14
25 10 14 25 10 14 26 10 14 26 10 14 26 10 14 26 10 14 26 10 14 26 10
14 26 10 14 26 10 14 26 10 14 26 10 15 26 10 15 26 10 15 26 10 15 26
11 15 26 11 15 26 11 15 26 11 13 26 8 13 26 8 14 26 8 14 26 8 14 26 8
14 26 8 14 26 8 14 27 8 14 27 8 14 27 8 14 27 8 14 27 8 14 27 8 14 27
8 14 27 8 14 27 8 14 27 8 14 27 8 14 27 8 14 27 8 14 27 8 14 27 8 14
27 8 14 27 8 14 28 8 14 28 8 14 28 8 14 28 8 14 28 8 14 28 8 14 28 8
14 28 8 14 28 8 14 28 8 14 28 8 14 28 8 14 28 8 14 28 8 14 28 8 15 28
8 15 28 8 15 28 8 15 29 8 15 29 8 15 29 8 15 29 8 15 29 8 15 29 8 15
29 8 15 29 8 15 29 8 15 29 8 15 29 8 15 29 8 15 29 8 15 29 8 15 29 8
15 29 8 15 29 8 15 29 8 15 30 8 15 30 8 15 30 8 15 30 8 15 30 8 15 30
8 15 30 8 15 30 8 15 30 8 15 30 8 15 30 8 15 30 8 15 30 8 15 30 8 15
30 9 15 30 9 15 30 9 15 30 9 15 30 9 15 30 9 16 30 9 16 30 9 16 31 9
16 31 9 16 31 9 16 31 9 16 31 9 16 31 9 16 31 9 16 31 9 16 31 9 17 31
13 17 31 13 18 31 13 18 31 13 18 31 13 18 31 13 1 0 6 1 0 6 1 0 6 1 0
6 1 0 6 1 0 6 1 0 6 1 0 6 1 0 6 1 0 6 1 0 6 1 0 6 1 0 6 1 0 6 1 0 6 1
0 6 1 0 6 1 0 6 1 0 6 1 0 6 1 0 6 1 0 6 1 0 6 1 0 7 1 0 10 1 0 13 14
54 121 15 57 123 15 58 122 15 59 120 15 58 118 17 60 123 16 58 117 14
54 107 14 52 102 15 51 111 15 49 110 14 46 114 13 43 120 13 40 125 11
38 114 11 35 116 8 31 62 8 27 56 7 24 51 14 31 59 43 54 77 42 53 75 41
52 73 42 50 56 41 48 53 40 48 51 37 43 48 35 41 49 34 38 50 32 36 51
34 40 53 32 38 54 30 35 55 28 32 55 26 29 56 24 27 57 22 24 58 21 22
61 20 21 64 20 21 68 21 22 71 22 23 74 18 31 13 18 31 13 18 31 13 18
31 13 18 31 13 18 31 13 18 31 13 17 31 13 17 31 13 17 31 13 17 31 13
17 30 13 17 30 13 17 30 13 17 30 13 17 30 13 17 30 13 17 30 13 17 30
13 17 30 13 17 30 13 17 30 13 17 30 13 17 30 13 17 30 13 17 30 13 17
30 13 17 30 13 17 30 13 17 30 13 17 30 13 17 29 13 17 29 13 17 29 13
17 29 13 17 29 13 17 29 13 17 29 13 17 29 13 17 29 13 17 29 13 17 29
13 17 29 13 17 29 13 17 29 13 16 29 13 16 29 12 16 29 12 16 28 12 16
28 12 16 28 12 11 17 12 11 17 12 11 17 12 11 17 12 11 17 12 11 17 12
11 17 12 11 17 12 11 17 12 11 17 12 11 17 12 11 17 12 11 17 12 11 17
12 11 17 12 11 17 12 11 17 12 11 17 12 11 17 11 11 17 11 11 17 11 11
17 11 11 17 11 11 17 11 11 17 11 11 17 11 11 17 11 11 17 11 11 17 11
11 17 11 11 17 11 11 17 11 11 17 11 11 17 11 10 17 11 10 17 11 10 17
11 10 17 11 10 17 11 10 17 11 10 17 11 10 17 11 10 17 11 10 17 11 10
17 11 10 16 11 10 16 11 10 16 11 10 16 11 10 16 11 10 16 11 10 16 11
10 16 11 10 16 11 10 16 11 10 16 11 10 16 11 8 11 8 8 11 8 8 11 8 8 11
8 8 11 8 8 11 8 8 11 8 8 11 8 8 11 8 8 11 8 8 11 8 8 11 8 8 11 8 8 11
8 8 11 8 8 11 8 8 11 8 8 11 8 8 11 8 8 11 8 8 11 8 8 11 8 8 11 8 8 11
8 8 11 8 8 11 8 8 11 8 8 11 8 8 11 8 8 11 8 8 11 8 8 11 8 8 11 8 8 11
8 8 11 8 8 11 8 8 11 8 8 11 8 8 11 8 8 11 8 8 11 8 8 11 8 8 11 8 7 11
8 7 11 8 7 11 8 7 11 8 7 11 8 7 11 8 7 11 8 7 11 8 7 11 8 7 11 8 7 11
8 7 11 8 7 11 8 7 11 8 7 11 8 7 11 8 7 11 8 7 11 8 7 11 8 7 11 8 7 11
8 7 11 8 7 11 8 7 11 8 7 11 8 7 11 8 7 11 8
13 24 10 13 24 10 13 24 10 13 24 10 14 24 10 14 24 10 14 24 10 14 24
10 14 24 10 14 25 10 14 25 10 14 25 10 14 25 10 14 25 10 14 25 10 14
25 10 14 25 10 14 25 10 14 25 10 14 25 10 14 25 10 14 25 10 14 25 10
14 25 10 14 25 10 14 25 10 14 25 10 14 25 10 14 26 10 14 26 10 14 26
10 14 26 10 14 26 10 14 26 10 14 26 10 14 26 10 14 26 10 14 26 10 15
26 10 15 26 10 15 26 10 15 26 10 15 26 11 15 26 11 15 26 11 15 26 11
15 27 11 15 27 11 15 27 11 15 27 11 15 27 11 15 27 11 15 27 11 15 27
11 15 27 11 15 27 11 15 27 11 15 27 11 15 27 11 15 27 11 15 27 11 15
27 11 15 27 11 15 28 11 15 28 11 14 27 8 14 27 8 14 27 8 14 28 8 14 28
8 14 28 8 14 28 8 14 28 8 14 28 8 14 28 8 14 28 8 14 28 8 14 28 8 14
28 8 14 28 8 14 28 8 14 28 8 15 28 8 15 28 8 15 28 8 15 29 8 15 29 8
15 29 8 15 29 8 15 29 8 15 29 8 15 29 8 15 29 8 15 29 8 15 29 8 15 29
8 15 29 8 15 29 8 15 29 8 15 29 8 15 29 8 15 30 8 15 30 8 15 30 8 15
30 8 15 30 8 15 30 8 15 30 8 15 30 8 15 30 9 15 30 9 15 30 9 15 30 9
15 30 9 15 30 9 15 30 9 15 30 9 16 30 9 16 31 9 16 31 9 16 31 9 16 31
9 16 31 9 16 31 9 16 31 9 16 31 9 16 31 9 16 31 9 16 31 9 16 31 9 16
31 9 16 31 9 16 31 9 16 31 9 16 31 9 16 31 9 16 31 9 16 31 9 16 31 9
16 32 9 16 32 9 16 32 9 16 32 9 16 32 9 16 32 9 16 32 9 16 32 9 16 32
9 18 32 13 18 32 13 18 32 13 18 32 13 18 32 13 18 32 13 18 33 13 18 33
13 18 33 13 1 0 6 1 0 6 1 0 6 1 0 6 1 0 6 1 0 6 1 0 6 1 0 6 1 0 6 1 0
6 1 0 6 1 0 6 1 0 6 1 0 6 1 0 6 1 0 6 1 0 6 1 0 6 1 0 6 1 0 7 16 32 9
16 32 9 16 32 9 15 55 120 14 55 120 15 56 120 15 56 118 15 56 115 15
55 113 14 54 108 14 52 104 13 50 100 13 48 100 13 46 105 13 44 109 12
41 114 12 38 120 11 35 111 9 32 65 8 29 60 7 25 54 6 22 49 14 29 58 42
53 76 42 52 75 40 51 73 41 48 55 46 57 56 46 58 55 39 49 47 37 46 48
36 44 49 34 41 50 32 39 51 30 36 52 29 33 53 27 31 54 25 28 54 23 25
55 21 22 56 20 21 60 19 19 63 20 20 67 20 21 70 21 22 73 22 24 73 18
32 13 18 32 13 18 32 13 18 32 13 18 32 13 18 32 13 18 32 13 18 32 13
18 32 13 18 31 13 18 31 13 18 31 13 18 31 13 18 31 13 18 31 13 18 31
13 18 31 13 18 31 13 18 31 13 18 31 13 18 31 13 18 31 13 18 31 13 18
31 13 18 31 13 18 31 13 18 31 13 17 30 13 17 30 13 17 30 13 17 30 13
17 30 13 17 30 13 17 30 13 17 30 13 17 30 13 17 30 13 17 30 13 17 30
13 17 30 13 17 30 13 17 30 13 17 30 13 17 30 13 17 29 13 17 29 13 17
29 13 17 29 13 17 29 13 11 18 12 11 18 12 11 18 12 11 18 12 11 18 12
11 18 12 11 18 12 11 18 12 11 18 12 11 18 12 11 18 12 11 18 12 11 18
12 11 17 12 11 17 12 11 17 12 11 17 12 11 17 12 11 17 12 11 17 12 11
17 12 11 17 12 11 17 12 11 17 12 11 17 12 11 17 12 11 17 12 11 17 12
11 17 12 11 17 12 11 17 12 11 17 12 11 17 12 11 17 12 11 17 11 11 17
11 11 17 11 11 17 11 11 17 11 11 17 11 11 17 11 11 17 11 11 17 11 11
17 11 11 17 11 11 17 11 11 17 11 10 17 11 10 17 11 10 17 11 10 17 11
10 17 11 10 17 11 10 17 11 10 17 11 10 17 11 8 11 9 8 11 9 8 11 9 8 11
9 8 11 9 8 11 9 8 11 9 8 11 9 8 11 9 8 11 9 8 11 9 8 11 8 8 11 8 8 11
8 8 11 8 8 11 8 8 11 8 8 11 8 8 11 8 8 11 8 8 11 8 8 11 8 8 11 8 8 11
8 8 11 8 8 11 8 8 11 8 8 11 8 8 11 8 8 11 8 8 11 8 8 11 8 8 11 8 8 11
8 8 11 8 8 11 8 8 11 8 8 11 8 8 11 8 8 11 8 8 11 8 8 11 8 8 11 8 8 11
8 8 11 8 8 11 8 8 11 8 8 11 8 8 11 8 8 11 8 8 11 8 8 11 8 8 11 8 8 11
8 8 11 8 8 11 8 8 11 8 7 11 8 7 11 8 7 11 8 7 11 8 7 11 8 7 11 8 7 11
8 7 11 8 7 11 8 7 11 8 7 11 8 7 11 8 7 11 8 7 11 8 7 11 8
14 25 10 14 25 10 14 25 10 14 25 10 14 25 10 14 25 10 14 25 10 14 25
10 14 25 10 14 25 10 14 25 10 14 25 10 14 25 10 14 25 10 14 25 10 14
25 10 14 25 10 14 26 10 14 26 10 14 26 10 14 26 10 14 26 10 14 26 10
14 26 10 14 26 10 14 26 10 14 26 10 14 26 10 15 26 10 15 26 10 15 26
10 15 26 11 15 26 11 15 26 11 15 26 11 15 27 11 15 27 11 15 27 11 15
27 11 15 27 11 15 27 11 15 27 11 15 27 11 15 27 11 15 27 11 15 27 11
15 27 11 15 27 11 15 27 11 15 27 11 15 27 11 15 28 11 15 28 11 15 28
11 15 28 11 15 28 11 15 28 11 15 28 11 16 28 11 16 28 11 16 28 11 16
28 11 16 28 11 16 28 11 16 28 11 16 28 11 16 29 11 16 29 11 16 29 11
16 29 11 16 29 11 16 29 11 16 29 11 15 29 8 15 29 8 15 29 8 15 29 8 15
29 8 15 29 8 15 29 8 15 29 8 15 29 8 15 29 8 15 29 8 15 29 8 15 29 8
15 29 8 15 30 8 15 30 8 15 30 8 15 30 8 15 30 8 15 30 8 15 30 9 15 30
9 15 30 9 15 30 9 15 30 9 15 30 9 15 30 9 15 30 9 16 30 9 16 30 9 16
31 9 16 31 9 16 31 9 16 31 9 16 31 9 16 31 9 16 31 9 16 31 9 16 31 9
16 31 9 16 31 9 16 31 9 16 31 9 16 31 9 16 31 9 16 31 9 16 32 9 16 32
9 16 32 9 16 32 9 16 32 9 16 32 9 16 32 9 16 32 9 16 32 9 16 32 9 16
32 9 16 32 9 16 32 9 16 32 9 16 32 9 16 32 9 16 32 9 16 32 9 16 32 9
17 33 9 17 33 9 17 33 9 17 33 9 17 33 9 17 33 9 17 33 9 17 33 9 17 33
9 17 33 9 19 33 13 19 33 13 19 33 13 19 34 13 19 34 13 19 34 13 19 34
13 19 34 13 19 34 13 19 34 13 19 34 13 19 34 13 19 34 13 19 34 14 1 0
6 1 0 6 1 0 6 1 0 6 1 0 6 1 0 6 1 0 6 1 0 6 1 0 6 1 0 6 17 33 9 17 33
9 17 33 9 17 33 9 17 33 9 17 33 9 17 33 9 17 33 9 16 54 118 16 56 119
15 55 118 14 54 115 14 53 112 14 52 109 13 51 105 13 49 101 13 47 97
12 45 95 12 43 98 12 41 102 11 39 103 11 36 105 9 33 68 8 30 63 7 26
58 7 23 52 13 28 58 42 53 77 41 52 76 40 51 74 39 50 72 44 54 58 43 54
53 40 49 49 37 46 46 35 44 46 34 42 47 32 39 48 31 37 49 29 34 50 27
31 51 25 29 52 23 26 52 21 23 53 20 21 55 19 19 60 19 18 65 19 19 66
20 20 69 21 20 73 21 22 73 19 33 14 19 33 14 19 33 14 19 33 14 19 33
14 19 33 14 19 33 14 19 33 14 19 32 14 19 32 14 18 32 14 18 32 14 18
32 14 18 32 14 18 32 14 18 32 14 18 32 14 18 32 14 18 32 14 18 32 14
18 32 14 18 32 14 18 32 14 18 32 14 18 32 14 18 31 14 18 31 14 18 31
14 18 31 14 18 31 14 18 31 14 18 31 14 18 31 13 18 31 13 18 31 13 18
31 13 18 31 13 18 31 13 18 31 13 18 31 13 18 31 13 18 30 13 18 30 13
17 30 13 17 30 13 17 30 13 17 30 13 17 30 13 17 30 13 11 18 13 11 18
13 11 18 13 11 18 12 11 18 12 11 18 12 11 18 12 11 18 12 11 18 12 11
18 12 11 18 12 11 18 12 11 18 12 11 18 12 11 18 12 11 18 12 11 18 12
11 18 12 11 18 12 11 18 12 11 18 12 11 18 12 11 18 12 11 17 12 11 17
12 11 17 12 11 17 12 11 17 12 11 17 12 11 17 12 11 17 12 11 17 12 11
17 12 11 17 12 11 17 12 11 17 12 11 17 12 11 17 12 11 17 12 11 17 12
11 17 12 11 17 12 11 17 12 11 17 12 11 17 12 11 17 12 11 17 12 11 17
12 11 17 11 11 17 11 11 17 11 11 17 11 11 17 11 11 17 11 11 17 11 8 11
9 8 11 9 8 11 9 8 11 9 8 11 9 8 11 9 8 11 9 8 11 9 8 11 9 8 11 9 8 11
9 8 11 9 8 11 9 8 11 9 8 11 9 8 11 9 8 11 9 8 11 9 8 11 9 8 11 9 8 11
9 8 11 9 8 11 9 8 11 9 8 11 9 8 11 8 8 11 8 8 11 8 8 11 8 8 11 8 8 11
8 8 11 8 8 11 8 8 11 8 8 11 8 8 11 8 8 11 8 8 11 8 8 11 8 8 11 8 8 11
8 8 11 8 8 11 8 8 11 8 8 11 8 8 11 8 8 11 8 8 11 8 8 11 8 8 11 8 8 11
8 8 11 8 8 11 8 8 11 8 8 11 8 8 11 8 8 11 8 8 11 8 8 11 8 8 11 8 8 11
8 8 11 8 8 11 8 8 11 8 8 11 8 8 11 8 8 11 8 8 11 8 8 11 8 8 11 8 7 11
8 7 11 8 7 11 8
14 25 10 14 25 10 14 25 10 14 25 10 14 25 10 14 25 10 14 25 10 14 26
10 14 26 10 14 26 10 14 26 10 14 26 10 14 26 10 14 26 10 14 26 10 14
26 10 14 26 10 15 26 10 15 26 10 15 26 10 15 26 10 15 26 11 15 26 11
15 26 11 15 27 11 15 27 11 15 27 11 15 27 11 15 27 11 15 27 11 15 27
11 15 27 11 15 27 11 15 27 11 15 27 11 15 27 11 15 27 11 15 27 11 15
27 11 15 27 11 15 28 11 15 28 11 15 28 11 15 28 11 15 28 11 15 28 11
15 28 11 16 28 11 16 28 11 16 28 11 16 28 11 16 28 11 16 28 11 16 28
11 16 28 11 16 29 11 16 29 11 16 29 11 16 29 11 16 29 11 16 29 11 16
29 11 16 29 11 16 29 11 16 29 12 16 29 12 16 29 12 16 29 12 16 29 12
16 30 12 16 30 12 16 30 12 16 30 12 17 30 12 17 30 12 17 30 12 17 30
12 17 30 12 17 30 12 17 30 12 17 30 12 17 30 12 15 30 9 15 30 9 15 30
9 15 30 9 15 30 9 15 30 9 16 30 9 16 31 9 16 31 9 16 31 9 16 31 9 16
31 9 16 31 9 16 31 9 16 31 9 16 31 9 16 31 9 16 31 9 16 31 9 16 31 9
16 31 9 16 31 9 16 32 9 16 32 9 16 32 9 16 32 9 16 32 9 16 32 9 16 32
9 16 32 9 16 32 9 16 32 9 16 32 9 16 32 9 16 32 9 16 32 9 16 32 9 17
33 9 17 33 9 17 33 9 17 33 9 17 33 9 17 33 9 17 33 9 17 33 9 17 33 9
17 33 9 17 33 9 17 33 9 17 33 9 17 33 9 17 33 9 17 33 9 17 33 9 17 33
9 17 34 9 17 34 9 17 34 9 17 34 9 17 34 9 17 34 9 17 34 9 17 34 9 17
34 9 17 34 9 19 34 14 19 35 14 19 35 14 19 35 14 19 35 14 19 35 14 19
35 14 19 35 14 19 35 14 19 35 14 19 35 14 19 35 14 19 35 14 19 35 14
19 35 14 20 35 14 20 35 14 20 35 14 20 35 14 20 35 14 20 35 14 20 35
14 20 35 14 20 35 14 20 35 14 20 35 14 20 35 14 20 35 14 20 35 14 18
35 9 18 35 9 18 35 9 18 35 9 16 53 115 16 55 116 16 56 115 16 55 113
15 54 110 15 52 107 14 51 103 14 49 99 12 45 94 11 43 91 11 41 93 11
38 96 10 36 76 9 33 71 8 30 66 8 27 61 7 24 55 6 21 50 13 28 58 41 51
76 40 50 75 39 49 73 39 49 75 49 64 93 39 49 51 37 46 47 35 44 44 34
42 43 32 39 44 30 37 46 29 34 47 27 32 48 25 29 48 23 27 49 22 24 50
20 21 51 18 19 53 18 18 64 22 18 114 18 18 65 19 18 68 20 19 71 21 20
74 19 34 14 19 34 14 19 34 14 19 34 14 19 34 14 19 34 14 19 34 14 19
34 14 19 33 14 19 33 14 19 33 14 19 33 14 19 33 14 19 33 14 19 33 14
19 33 14 19 33 14 19 33 14 19 33 14 19 33 14 19 33 14 19 33 14 19 33
14 19 33 14 19 32 14 19 32 14 19 32 14 19 32 14 19 32 14 18 32 14 18
32 14 18 32 14 18 32 14 18 32 14 18 32 14 18 32 14 18 32 14 18 32 14
18 31 14 18 31 14 18 31 14 18 31 14 18 31 14 18 31 14 18 31 14 18 31
14 18 31 14 18 31 14 18 31 14 12 18 13 12 18 13 12 18 13 12 18 13 12
18 13 12 18 13 12 18 13 12 18 13 12 18 13 12 18 13 12 18 13 11 18 13
11 18 13 11 18 13 11 18 13 11 18 13 11 18 13 11 18 13 11 18 13 11 18
12 11 18 12 11 18 12 11 18 12 11 18 12 11 18 12 11 18 12 11 18 12 11
18 12 11 18 12 11 18 12 11 18 12 11 18 12 11 18 12 11 17 12 11 17 12
11 17 12 11 17 12 11 17 12 11 17 12 11 17 12 11 17 12 11 17 12 11 17
12 11 17 12 11 17 12 11 17 12 11 17 12 11 17 12 11 17 12 11 17 12 11
17 12 11 17 12 11 17 12 8 11 9 8 11 9 8 11 9 8 11 9 8 11 9 8 11 9 8 11
9 8 11 9 8 11 9 8 11 9 8 11 9 8 11 9 8 11 9 8 11 9 8 11 9 8 11 9 8 11
9 8 11 9 8 11 9 8 11 9 8 11 9 8 11 9 8 11 9 8 11 9 8 11 9 8 11 9 8 11
9 8 11 9 8 11 9 8 11 9 8 11 9 8 11 9 8 11 9 8 11 9 8 11 9 8 11 9 8 11
9 8 11 9 8 11 9 8 11 8 8 11 8 8 11 8 8 11 8 8 11 8 8 11 8 8 11 8 8 11
8 8 11 8 8 11 8 8 11 8 8 11 8 8 11 8 8 11 8 8 11 8 8 11 8 8 11 8 8 11
8 8 11 8 8 11 8 8 11 8 8 11 8 8 11 8 8 11 8 8 11 8 8 11 8 8 11 8 8 11
8 8 11 8 8 11 8 8 11 8 8 11 8 8 11 8 8 11 8 8 11 8 8 11 8
14 26 10 14 26 10 14 26 10 14 26 10 14 26 10 14 26 10 14 26 10 15 26
10 15 26 10 15 26 10 15 26 10 15 26 11 15 26 11 15 26 11 15 27 11 15
27 11 15 27 11 15 27 11 15 27 11 15 27 11 15 27 11 15 27 11 15 27 11
15 27 11 15 27 11 15 27 11 15 27 11 15 27 11 15 27 11 15 27 11 15 28
11 15 28 11 15 28 11 15 28 11 15 28 11 15 28 11 15 28 11 16 28 11 16
28 11 16 28 11 16 28 11 16 28 11 16 28 11 16 28 11 16 29 11 16 29 11
16 29 11 16 29 11 16 29 11 16 29 11 16 29 11 16 29 11 16 29 11 16 29
11 16 29 12 16 29 12 16 29 12 16 29 12 16 30 12 16 30 12 16 30 12 16
30 12 16 30 12 17 30 12 17 30 12 17 30 12 17 30 12 17 30 12 17 30 12
17 30 12 17 30 12 17 30 12 17 31 12 17 31 12 17 31 12 17 31 12 17 31
12 17 31 12 17 31 12 17 31 12 17 31 12 17 31 12 17 31 12 17 31 12 17
31 12 17 32 12 17 32 12 18 32 12 18 32 12 18 32 12 18 32 13 18 32 13
16 32 9 16 32 9 16 32 9 16 32 9 16 32 9 16 32 9 16 32 9 16 32 9 16 32
9 16 32 9 16 32 9 16 32 9 17 33 9 17 33 9 17 33 9 17 33 9 17 33 9 17
33 9 17 33 9 17 33 9 17 33 9 17 33 9 17 33 9 17 33 9 17 33 9 17 33 9
17 34 9 17 34 9 17 34 9 17 34 9 17 34 9 17 34 9 17 34 9 17 34 9 17 34
9 17 34 9 17 34 9 17 34 9 17 34 9 17 34 9 17 34 9 17 34 9 17 34 9 17
35 9 17 35 9 18 35 9 18 35 9 18 35 9 18 35 9 18 35 9 18 35 9 18 35 9
18 35 9 20 36 14 20 36 14 20 36 14 20 36 14 20 36 14 20 36 14 20 36 14
20 36 14 20 36 14 20 36 14 20 36 14 20 36 14 20 36 14 20 36 14 20 36
14 20 36 14 20 36 14 20 36 14 20 36 14 20 36 14 20 36 14 20 36 14 20
36 14 20 36 14 20 36 14 20 36 14 20 36 14 20 36 14 20 36 15 20 36 15
20 36 15 20 36 15 20 36 15 20 36 15 20 36 15 16 51 112 16 54 113 17 56
113 17 56 111 17 55 108 16 54 105 16 52 102 15 50 98 15 48 94 14 46 89
12 41 84 12 39 80 11 36 75 10 34 70 10 31 65 9 28 60 8 24 54 8 23 49
12 25 57 39 50 75 39 49 73 38 48 71 37 48 74 41 52 64 37 46 48 35 44
46 33 42 43 32 39 41 30 37 42 28 35 43 27 32 44 25 30 45 23 27 46 22
24 47 20 22 47 18 19 48 17 17 51 16 16 57 20 17 97 18 17 64 18 17 66
19 18 70 19 18 72 20 35 15 20 35 15 20 35 15 20 35 15 20 35 15 20 35
15 20 35 15 20 35 15 20 34 15 20 34 15 20 34 15 20 34 15 20 34 15 20
34 15 20 34 15 19 34 15 19 34 15 19 34 15 19 34 15 19 34 15 19 34 15
19 34 15 19 34 14 19 33 14 19 33 14 19 33 14 19 33 14 19 33 14 19 33
14 19 33 14 19 33 14 19 33 14 19 33 14 19 33 14 19 33 14 19 33 14 19
32 14 19 32 14 19 32 14 19 32 14 19 32 14 19 32 14 19 32 14 18 32 14
18 32 14 18 32 14 18 32 14 18 32 14 18 32 14 12 19 13 12 19 13 12 19
13 12 19 13 12 19 13 12 19 13 12 18 13 12 18 13 12 18 13 12 18 13 12
18 13 12 18 13 12 18 13 12 18 13 12 18 13 12 18 13 12 18 13 12 18 13
12 18 13 12 18 13 12 18 13 12 18 13 12 18 13 12 18 13 11 18 13 11 18
13 11 18 13 11 18 13 11 18 13 11 18 13 11 18 13 11 18 13 11 18 13 11
18 12 11 18 12 11 18 12 11 18 12 11 18 12 11 18 12 11 18 12 11 18 12
11 18 12 11 17 12 11 17 12 11 17 12 11 17 12 11 17 12 11 17 12 11 17
12 11 17 12 11 17 12 11 17 12 11 17 12 8 11 9 8 11 9 8 11 9 8 11 9 8
11 9 8 11 9 8 11 9 8 11 9 8 11 9 8 11 9 8 11 9 8 11 9 8 11 9 8 11 9 8
11 9 8 11 9 8 11 9 8 11 9 8 11 9 8 11 9 8 11 9 8 11 9 8 11 9 8 11 9 8
11 9 8 11 9 8 11 9 8 11 9 8 11 9 8 11 9 8 11 9 8 11 9 8 11 9 8 11 9 8
11 9 8 11 9 8 11 9 8 11 9 8 11 9 8 11 9 8 11 9 8 11 9 8 11 9 8 11 9 8
11 9 8 11 9 8 11 9 8 11 9 8 11 9 8 11 9 8 11 8 8 11 8 8 11 8 8 11 8 8
11 8 8 11 8 8 11 8 8 11 8 8 11 8 8 11 8 8 11 8 8 11 8 8 11 8 8 11 8 8
11 8 8 11 8 8 11 8 8 11 8 8 11 8 8 11 8 8 11 8 8 11 8 8 11 8 8 11 8 8
11 8
15 26 10 15 26 11 15 26 11 15 26 11 15 27 11 15 27 11 15 27 11 15 27
11 15 27 11 15 27 11 15 27 11 15 27 11 15 27 11 15 27 11 15 27 11 15
27 11 15 27 11 15 27 11 15 27 11 15 27 11 15 28 11 15 28 11 15 28 11
15 28 11 15 28 11 15 28 11 15 28 11 16 28 11 16 28 11 16 28 11 16 28
11 16 28 11 16 28 11 16 28 11 16 29 11 16 29 11 16 29 11 16 29 11 16
29 11 16 29 11 16 29 11 16 29 11 16 29 11 16 29 11 16 29 12 16 29 12
16 29 12 16 29 12 16 30 12 16 30 12 16 30 12 16 30 12 16 30 12 17 30
12 17 30 12 17 30 12 17 30 12 17 30 12 17 30 12 17 30 12 17 30 12 17
31 12 17 31 12 17 31 12 17 31 12 17 31 12 17 31 12 17 31 12 17 31 12
17 31 12 17 31 12 17 31 12 17 31 12 17 31 12 17 32 12 17 32 12 18 32
12 18 32 12 18 32 12 18 32 12 18 32 13 18 32 13 18 32 13 18 32 13 18
32 13 18 32 13 18 33 13 18 33 13 18 33 13 18 33 13 18 33 13 18 33 13
18 33 13 18 33 13 18 33 13 18 33 13 18 33 13 18 33 13 18 34 13 19 34
13 19 34 13 19 34 13 19 34 13 19 34 13 17 34 9 17 34 9 17 34 9 17 34 9
17 34 9 17 34 9 17 34 9 17 34 9 17 34 9 17 34 9 17 34 9 17 34 9 17 34
9 17 34 9 17 35 9 18 35 9 18 35 9 18 35 9 18 35 9 18 35 9 18 35 10 18
35 10 18 35 10 18 35 10 18 35 10 18 35 10 18 35 10 18 35 10 18 35 10
18 36 10 18 36 10 18 36 10 18 36 10 18 36 10 18 36 10 18 36 10 18 36
10 18 36 10 20 37 14 20 37 14 20 37 14 20 37 14 20 37 14 20 37 14 20
37 14 20 37 14 21 37 14 21 37 15 21 37 15 21 37 15 21 37 15 21 37 15
21 37 15 21 37 15 21 37 15 21 37 15 21 37 15 21 37 15 21 37 15 21 37
15 21 37 15 21 37 15 21 37 15 21 37 15 21 37 15 21 37 15 21 38 15 21
38 15 21 38 15 21 38 15 21 38 15 21 38 15 21 38 15 21 38 15 21 38 15
21 38 15 15 48 107 16 53 109 17 55 109 18 56 108 18 56 106 18 55 103
18 54 100 17 52 96 17 50 92 16 48 88 15 46 83 12 38 78 11 35 74 11 33
69 10 30 64 12 31 59 11 28 54 10 26 51 12 24 56 38 48 74 37 47 72 36
46 70 35 45 68 37 45 49 35 43 46 33 41 44 31 39 41 29 37 38 28 34 39
26 32 40 25 30 41 23 27 42 21 24 43 20 22 44 18 19 45 16 17 46 15 15
49 15 15 53 16 15 58 17 15 61 17 15 64 18 16 68 18 16 70 14 9 77 20 36
15 20 36 15 20 36 15 20 36 15 20 36 15 20 36 15 20 36 15 20 36 15 20
35 15 20 35 15 20 35 15 20 35 15 20 35 15 20 35 15 20 35 15 20 35 15
20 35 15 20 35 15 20 35 15 20 35 15 20 35 15 20 34 15 20 34 15 20 34
15 20 34 15 20 34 15 20 34 15 20 34 15 20 34 15 20 34 15 19 34 15 19
34 15 19 34 15 19 34 15 19 33 15 19 33 15 19 33 15 19 33 15 19 33 15
19 33 15 19 33 15 19 33 15 19 33 15 19 33 14 19 33 14 19 33 14 19 32
14 19 32 14 19 32 14 12 19 14 12 19 14 12 19 14 12 19 14 12 19 14 12
19 14 12 19 14 12 19 13 12 19 13 12 19 13 12 19 13 12 19 13 12 19 13
12 19 13 12 19 13 12 18 13 12 18 13 12 18 13 12 18 13 12 18 13 12 18
13 12 18 13 12 18 13 12 18 13 12 18 13 12 18 13 12 18 13 12 18 13 12
18 13 12 18 13 12 18 13 12 18 13 12 18 13 12 18 13 11 18 13 11 18 13
11 18 13 11 18 13 11 18 13 11 18 13 11 18 13 11 18 13 11 18 13 11 18
13 11 18 12 11 18 12 11 18 12 11 18 12 11 18 12 11 18 12 11 17 12 8 11
10 8 11 10 8 11 10 8 11 10 8 11 9 8 11 9 8 11 9 8 11 9 8 11 9 8 11 9 8
11 9 8 11 9 8 11 9 8 11 9 8 11 9 8 11 9 8 11 9 8 11 9 8 11 9 8 11 9 8
11 9 8 11 9 8 11 9 8 11 9 8 11 9 8 11 9 8 11 9 8 11 9 8 11 9 8 11 9 8
11 9 8 11 9 8 11 9 8 11 9 8 11 9 8 11 9 8 11 9 8 11 9 8 11 9 8 11 9 8
11 9 8 11 9 8 11 9 8 11 9 8 11 9 8 11 9 8 11 9 8 11 9 8 11 9 8 11 9 8
11 9 8 11 9 8 11 9 8 11 9 8 11 9 8 11 9 8 11 9 8 11 9 8 11 9 8 11 9 8
11 9 8 11 9 8 11 8 8 11 8 8 11 8 8 11 8 8 11 8 8 11 8 8 11 8 8 11 8 8
11 8 8 11 8 8 11 8 8 11 8 8 11 8 8 11 8
15 27 11 15 27 11 15 27 11 15 27 11 15 27 11 15 27 11 15 27 11 15 27
11 15 27 11 15 27 11 15 28 11 15 28 11 15 28 11 15 28 11 15 28 11 15
28 11 15 28 11 16 28 11 16 28 11 16 28 11 16 28 11 16 28 11 16 28 11
16 28 11 16 28 11 16 29 11 16 29 11 16 29 11 16 29 11 16 29 11 16 29
11 16 29 11 16 29 11 16 29 11 16 29 11 16 29 12 16 29 12 16 29 12 16
30 12 16 30 12 16 30 12 16 30 12 16 30 12 17 30 12 17 30 12 17 30 12
17 30 12 17 30 12 17 30 12 17 30 12 17 30 12 17 31 12 17 31 12 17 31
12 17 31 12 17 31 12 17 31 12 17 31 12 17 31 12 17 31 12 17 31 12 17
31 12 17 31 12 17 32 12 17 32 12 17 32 12 18 32 12 18 32 12 18 32 12
18 32 12 18 32 13 18 32 13 18 32 13 18 32 13 18 32 13 18 33 13 18 33
13 18 33 13 18 33 13 18 33 13 18 33 13 18 33 13 18 33 13 18 33 13 18
33 13 18 33 13 18 33 13 19 34 13 19 34 13 19 34 13 19 34 13 19 34 13
19 34 13 19 34 13 19 34 13 19 34 13 19 34 13 19 34 13 19 35 13 19 35
13 19 35 13 19 35 13 19 35 14 19 35 14 19 35 14 19 35 14 19 35 14 19
35 14 19 35 14 20 35 14 20 36 14 20 36 14 20 36 14 20 36 14 20 36 14
20 36 14 20 36 14 20 36 14 20 36 14 20 36 14 20 36 14 18 36 10 18 36
10 18 36 10 18 36 10 18 36 10 18 36 10 18 36 10 18 36 10 18 36 10 18
37 10 18 37 10 18 37 10 21 37 14 21 37 14 21 37 15 21 37 15 21 37 15
21 38 15 21 38 15 21 38 15 21 38 15 21 38 15 21 38 15 21 38 15 21 38
15 21 38 15 21 38 15 21 38 15 21 38 15 21 38 15 21 38 15 21 38 15 21
38 15 21 38 15 21 38 15 21 38 15 21 38 15 21 38 15 21 39 15 21 39 15
21 39 15 21 39 15 21 39 15 21 39 15 22 39 15 22 39 15 22 39 15 22 39
15 22 39 15 22 39 15 22 39 15 22 39 15 22 39 15 22 39 15 22 39 15 22
39 15 22 39 15 22 39 15 22 39 15 14 43 100 16 50 104 17 53 105 18 55
105 19 55 103 19 55 100 18 54 97 18 53 93 18 51 89 17 48 85 16 46 81
15 43 76 15 40 71 14 37 67 13 34 62 12 31 57 12 28 52 11 26 51 35 45
72 36 45 72 35 45 70 34 44 68 36 43 49 34 42 47 33 40 44 31 38 42 29
36 39 27 34 36 25 31 36 23 29 36 22 27 37 20 24 38 18 21 38 17 19 39
15 16 40 14 14 44 14 13 47 14 14 51 15 14 55 15 14 59 16 14 62 16 13
65 16 13 68 13 9 76 21 37 16 21 37 16 21 37 16 21 37 16 21 37 16 21 37
16 21 37 16 21 37 16 21 36 16 21 36 16 21 36 16 21 36 16 21 36 16 21
36 16 21 36 15 21 36 15 21 36 15 21 36 15 21 36 15 20 36 15 20 36 15
20 35 15 20 35 15 20 35 15 20 35 15 20 35 15 20 35 15 20 35 15 20 35
15 20 35 15 20 35 15 20 35 15 20 35 15 20 34 15 20 34 15 20 34 15 20
34 15 20 34 15 20 34 15 20 34 15 20 34 15 20 34 15 20 34 15 19 34 15
19 33 15 19 33 15 19 33 15 19 33 15 19 33 15 12 19 14 12 19 14 12 19
14 12 19 14 12 19 14 12 19 14 12 19 14 12 19 14 12 19 14 12 19 14 12
19 14 12 19 14 12 19 14 12 19 14 12 19 14 12 19 14 12 19 14 12 19 14
12 19 14 12 19 14 12 19 14 12 19 13 12 19 13 12 18 13 12 18 13 12 18
13 12 18 13 12 18 13 12 18 13 12 18 13 12 18 13 12 18 13 12 18 13 12
18 13 12 18 13 12 18 13 12 18 13 12 18 13 12 18 13 12 18 13 12 18 13
12 18 13 12 18 13 12 18 13 11 18 13 11 18 13 11 18 13 11 18 13 11 18
13 11 18 13 11 18 13 8 11 10 8 11 10 8 11 10 8 11 10 8 11 10 8 11 10 8
11 10 8 11 10 8 11 10 8 11 10 8 11 10 8 11 10 8 11 10 8 11 10 8 11 10
8 11 10 8 11 9 8 11 9 8 11 9 8 11 9 8 11 9 8 11 9 8 11 9 8 11 9 8 11 9
8 11 9 8 11 9 8 11 9 8 11 9 8 11 9 8 11 9 8 11 9 8 11 9 8 11 9 8 11 9
8 11 9 8 11 9 8 11 9 8 11 9 8 11 9 8 11 9 8 11 9 8 11 9 8 11 9 8 11 9
8 11 9 8 11 9 8 11 9 8 11 9 8 11 9 8 11 9 8 11 9 8 11 9 8 11 9 8 11 9
8 11 9 8 11 9 8 11 9 8 11 9 8 11 9 8 11 9 8 11 9 8 11 9 8 11 9 8 11 9
8 11 9 8 11 9 8 11 9 8 11 9 8 11 9 8 11 9 8 11 9 12 19 9 12 19 9 12 19
9 12 19 9
15 27 11 15 28 11 15 28 11 15 28 11 15 28 11 15 28 11 15 28 11 15 28
11 16 28 11 16 28 11 16 28 11 16 28 11 16 28 11 16 28 11 16 28 11 16
29 11 16 29 11 16 29 11 16 29 11 16 29 11 16 29 11 16 29 11 16 29 11
16 29 11 16 29 11 16 29 11 16 29 12 16 29 12 16 29 12 16 30 12 16 30
12 16 30 12 16 30 12 16 30 12 17 30 12 17 30 12 17 30 12 17 30 12 17
30 12 17 30 12 17 30 12 17 30 12 17 31 12 17 31 12 17 31 12 17 31 12
17 31 12 17 31 12 17 31 12 17 31 12 17 31 12 17 31 12 17 31 12 17 31
12 17 32 12 17 32 12 17 32 12 18 32 12 18 32 12 18 32 12 18 32 12 18
32 13 18 32 13 18 32 13 18 32 13 18 33 13 18 33 13 18 33 13 18 33 13
18 33 13 18 33 13 18 33 13 18 33 13 18 33 13 18 33 13 18 33 13 18 34
13 19 34 13 19 34 13 19 34 13 19 34 13 19 34 13 19 34 13 19 34 13 19
34 13 19 34 13 19 34 13 19 35 13 19 35 13 19 35 13 19 35 13 19 35 13
19 35 14 19 35 14 19 35 14 19 35 14 19 35 14 20 35 14 20 36 14 20 36
14 20 36 14 20 36 14 20 36 14 20 36 14 20 36 14 20 36 14 20 36 14 20
36 14 20 36 14 20 37 14 20 37 14 20 37 14 20 37 14 20 37 14 20 37 14
20 37 14 20 37 14 20 37 14 21 37 14 21 37 14 21 37 14 21 38 14 21 38
15 21 38 15 21 38 15 21 38 15 21 38 15 21 38 15 21 38 15 21 38 15 21
38 15 21 38 15 21 38 15 21 38 15 21 39 15 21 39 15 21 39 15 21 39 15
21 39 15 21 39 15 21 39 15 22 39 15 22 39 15 22 39 15 22 39 15 22 39
15 22 39 15 22 39 15 22 39 15 22 39 15 22 39 15 22 39 15 22 40 15 22
40 15 22 40 15 22 40 15 22 40 15 22 40 15 22 40 16 22 40 16 22 40 16
22 40 16 22 40 16 22 40 16 22 40 16 22 40 16 22 40 16 22 40 16 22 40
16 22 40 16 22 40 16 22 40 16 22 40 16 22 40 16 22 40 16 22 40 16 22
40 16 22 40 16 22 40 16 22 40 16 22 40 16 15 46 100 16 50 100 17 52 99
18 53 99 18 53 96 18 52 93 18 51 90 17 49 86 17 47 82 16 44 77 16 42
73 15 39 68 14 36 64 13 33 59 12 30 54 12 27 51 11 26 51 33 43 70 34
43 70 33 43 69 32 42 67 33 40 47 32 38 45 30 37 42 28 35 40 27 33 37
25 30 34 23 28 32 21 26 32 19 23 33 18 21 34 16 18 35 14 16 36 12 13
37 12 12 40 12 12 44 13 12 49 14 12 53 14 11 56 14 11 59 14 10 62 14 9
64 13 9 73 22 38 16 22 38 16 22 38 16 22 38 16 22 38 16 22 38 16 22 38
16 22 38 16 21 38 16 21 37 16 21 37 16 21 37 16 21 37 16 21 37 16 21
37 16 21 37 16 21 37 16 21 37 16 21 37 16 21 37 16 21 37 16 21 36 16
21 36 16 21 36 16 21 36 16 21 36 16 21 36 16 21 36 16 21 36 16 21 36
16 21 36 16 21 36 16 21 35 16 20 35 16 20 35 16 20 35 16 20 35 16 20
35 16 20 35 15 20 35 15 20 35 15 20 35 15 20 35 15 20 34 15 20 34 15
20 34 15 20 34 15 20 34 15 20 34 15 20 34 15 13 19 14 13 19 14 13 19
14 13 19 14 13 19 14 13 19 14 12 19 14 12 19 14 12 19 14 12 19 14 12
19 14 12 19 14 12 19 14 12 19 14 12 19 14 12 19 14 12 19 14 12 19 14
12 19 14 12 19 14 12 19 14 12 19 14 12 19 14 12 19 14 12 19 14 12 19
14 12 19 14 12 19 14 12 19 14 12 19 14 12 18 14 12 18 14 12 18 14 12
18 13 12 18 13 12 18 13 12 18 13 12 18 13 12 18 13 12 18 13 12 18 13
12 18 13 12 18 13 12 18 13 12 18 13 12 18 13 12 18 13 12 18 13 12 18
13 12 18 13 12 18 13 8 11 10 8 11 10 8 11 10 8 11 10 8 11 10 8 11 10 8
11 10 8 11 10 8 11 10 8 11 10 8 11 10 8 11 10 8 11 10 8 11 10 8 11 10
8 11 10 8 11 10 8 11 10 8 11 10 8 11 10 8 11 10 8 11 10 8 11 10 8 11
10 8 11 10 8 11 10 8 11 9 8 11 9 8 11 9 8 11 9 8 11 9 8 11 9 8 11 9 8
11 9 8 11 9 8 11 9 8 11 9 8 11 9 8 11 9 8 11 9 8 11 9 8 11 9 8 11 9 8
11 9 8 11 9 8 11 9 8 11 9 8 11 9 8 11 9 8 11 9 8 11 9 8 11 9 8 11 9 8
11 9 8 11 9 8 11 9 8 11 9 8 11 9 8 11 9 8 11 9 8 11 9 8 11 9 8 11 9 8
11 9 8 11 9 12 20 9 12 20 9 12 20 9 12 20 9 12 20 9 12 20 9 12 20 9 12
20 9 12 20 9 12 20 9
16 28 11 16 28 11 16 28 11 16 28 11 16 28 11 16 28 11 16 28 11 16 29
11 16 29 11 16 29 11 16 29 11 16 29 11 16 29 11 16 29 11 16 29 11 16
29 11 16 29 11 16 29 12 16 29 12 16 29 12 16 30 12 16 30 12 16 30 12
16 30 12 16 30 12 17 30 12 17 30 12 17 30 12 17 30 12 17 30 12 17 30
12 17 30 12 17 30 12 17 31 12 17 31 12 17 31 12 17 31 12 17 31 12 17
31 12 17 31 12 17 31 12 17 31 12 17 31 12 17 31 12 17 31 12 17 32 12
17 32 12 17 32 12 18 32 12 18 32 12 18 32 12 18 32 12 18 32 13 18 32
13 18 32 13 18 32 13 18 33 13 18 33 13 18 33 13 18 33 13 18 33 13 18
33 13 18 33 13 18 33 13 18 33 13 18 33 13 18 33 13 18 34 13 19 34 13
19 34 13 19 34 13 19 34 13 19 34 13 19 34 13 19 34 13 19 34 13 19 34
13 19 35 13 19 35 13 19 35 13 19 35 13 19 35 13 19 35 14 19 35 14 19
35 14 19 35 14 19 35 14 20 36 14 20 36 14 20 36 14 20 36 14 20 36 14
20 36 14 20 36 14 20 36 14 20 36 14 20 36 14 20 37 14 20 37 14 20 37
14 20 37 14 20 37 14 20 37 14 20 37 14 20 37 14 20 37 14 21 37 14 21
37 14 21 38 14 21 38 14 21 38 14 21 38 15 21 38 15 21 38 15 21 38 15
21 38 15 21 38 15 21 38 15 21 38 15 21 39 15 21 39 15 21 39 15 21 39
15 21 39 15 21 39 15 21 39 15 22 39 15 22 39 15 22 39 15 22 39 15 22
39 15 22 40 15 22 40 15 22 40 15 22 40 15 22 40 15 22 40 15 22 40 15
22 40 15 22 40 15 22 40 15 22 40 15 22 40 16 22 40 16 22 40 16 22 40
16 22 41 16 22 41 16 22 41 16 22 41 16 23 41 16 23 41 16 23 41 16 23
41 16 23 41 16 23 41 16 23 41 16 23 41 16 23 41 16 23 41 16 23 41 16
23 41 16 23 41 16 23 41 16 23 41 16 23 41 16 23 41 16 23 41 16 23 41
16 23 41 16 23 41 16 23 41 16 23 41 16 23 41 16 23 41 16 23 41 16 23
41 16 23 41 16 23 41 16 23 41 16 23 41 16 14 40 92 15 45 94 16 48 94
17 49 94 18 49 92 18 49 89 17 48 85 17 46 82 16 44 78 16 42 74 15 39
69 14 37 65 14 34 60 13 31 55 12 28 51 12 27 51 12 27 51 31 40 68 32
41 68 31 40 66 30 39 64 29 34 44 29 34 42 27 33 40 25 31 37 24 29 34
22 27 32 20 25 29 19 22 30 17 20 31 15 17 31 13 15 32 12 12 33 10 10
34 11 10 38 11 10 42 12 10 46 12 9 50 12 9 53 12 8 56 12 7 59 11 5 60
22 39 17 22 39 17 22 39 17 22 39 17 22 39 17 22 39 17 22 39 17 22 39
17 22 39 17 22 39 16 22 39 16 22 38 16 22 38 16 22 38 16 22 38 16 22
38 16 22 38 16 22 38 16 22 38 16 22 38 16 22 38 16 22 38 16 22 37 16
22 37 16 21 37 16 21 37 16 21 37 16 21 37 16 21 37 16 21 37 16 21 37
16 21 37 16 21 36 16 21 36 16 21 36 16 21 36 16 21 36 16 21 36 16 21
36 16 21 36 16 21 36 16 21 36 16 21 35 16 21 35 16 21 35 16 20 35 16
20 35 16 20 35 16 20 35 16 20 35 16 20 35 16 20 35 16 20 35 16 13 20
15 13 20 15 13 20 15 13 20 15 13 20 15 13 20 15 13 19 15 13 19 15 13
19 15 13 19 15 13 19 15 13 19 14 13 19 14 13 19 14 13 19 14 12 19 14
12 19 14 12 19 14 12 19 14 12 19 14 12 19 14 12 19 14 12 19 14 12 19
14 12 19 14 12 19 14 12 19 14 12 19 14 12 19 14 12 19 14 12 19 14 12
19 14 12 19 14 12 19 14 12 19 14 12 19 14 12 18 14 12 18 14 12 18 14
12 18 14 12 18 14 12 18 14 12 18 13 12 18 13 12 18 13 12 18 13 12 18
13 12 18 13 12 18 13 12 18 13 12 18 13 9 11 10 9 11 10 9 11 10 9 11 10
9 11 10 9 11 10 8 11 10 8 11 10 8 11 10 8 11 10 8 11 10 8 11 10 8 11
10 8 11 10 8 11 10 8 11 10 8 11 10 8 11 10 8 11 10 8 11 10 8 11 10 8
11 10 8 11 10 8 11 10 8 11 10 8 11 10 8 11 10 8 11 10 8 11 10 8 11 10
8 11 10 8 11 10 8 11 10 8 11 10 8 11 9 8 11 9 8 11 9 8 11 9 8 11 9 8
11 9 8 11 9 8 11 9 8 11 9 8 11 9 8 11 9 8 11 9 8 11 9 8 11 9 8 11 9 8
11 9 8 11 9 8 11 9 8 11 9 8 11 9 8 11 9 8 11 9 13 21 10 13 20 10 13 20
10 13 20 9 13 20 9 13 20 9 13 20 9 13 20 9 12 20 9 12 20 9 12 20 9 12
20 9 12 20 9 12 20 9 12 20 9 12 20 9 12 20 9
16 29 11 16 29 11 16 29 11 16 29 11 16 29 11 16 29 11 16 29 11 16 29
11 16 29 11 16 29 12 16 29 12 16 29 12 16 30 12 16 30 12 16 30 12 16
30 12 16 30 12 17 30 12 17 30 12 17 30 12 17 30 12 17 30 12 17 30 12
17 30 12 17 31 12 17 31 12 17 31 12 17 31 12 17 31 12 17 31 12 17 31
12 17 31 12 17 31 12 17 31 12 17 31 12 17 31 12 17 32 12 17 32 12 17
32 12 18 32 12 18 32 12 18 32 12 18 32 12 18 32 13 18 32 13 18 32 13
18 32 13 18 33 13 18 33 13 18 33 13 18 33 13 18 33 13 18 33 13 18 33
13 18 33 13 18 33 13 18 33 13 18 34 13 18 34 13 19 34 13 19 34 13 19
34 13 19 34 13 19 34 13 19 34 13 19 34 13 19 34 13 19 34 13 19 35 13
19 35 13 19 35 13 19 35 13 19 35 13 19 35 14 19 35 14 19 35 14 19 35
14 19 36 14 20 36 14 20 36 14 20 36 14 20 36 14 20 36 14 20 36 14 20
36 14 20 36 14 20 36 14 20 37 14 20 37 14 20 37 14 20 37 14 20 37 14
20 37 14 20 37 14 20 37 14 21 37 14 21 37 14 21 38 14 21 38 14 21 38
14 21 38 14 21 38 15 21 38 15 21 38 15 21 38 15 21 38 15 21 39 15 21
39 15 21 39 15 21 39 15 21 39 15 21 39 15 21 39 15 22 39 15 22 39 15
22 39 15 22 39 15 22 40 15 22 40 15 22 40 15 22 40 15 22 40 15 22 40
15 22 40 15 22 40 15 22 40 15 22 40 15 22 40 15 22 41 15 22 41 16 22
41 16 22 41 16 22 41 16 23 41 16 23 41 16 23 41 16 23 41 16 23 41 16
23 41 16 23 41 16 23 42 16 23 42 16 23 42 16 23 42 16 23 42 16 23 42
16 23 42 16 23 42 16 23 42 16 23 42 16 23 42 16 23 42 16 23 42 16 23
42 16 23 42 16 23 42 16 23 42 16 23 42 16 23 42 16 24 43 16 24 43 16
24 43 16 24 43 16 24 43 17 24 43 17 24 43 17 24 43 17 24 43 17 24 43
17 24 43 17 24 43 17 24 43 17 24 43 17 24 43 17 24 43 17 24 43 17 24
43 17 24 43 17 24 43 17 24 43 17 24 43 17 24 43 17 14 39 87 15 43 88
15 44 87 16 45 87 17 45 84 16 44 81 16 42 77 16 41 74 15 39 70 14 36
65 14 34 61 13 31 56 12 29 52 12 28 51 12 28 51 12 27 51 28 37 65 29
38 65 28 37 64 26 30 42 25 28 40 25 29 39 24 28 37 22 26 34 21 25 32
19 23 29 17 20 26 15 18 26 14 16 27 12 13 28 11 11 29 9 8 29 9 8 32 9
7 36 10 7 40 10 7 44 9 4 46 10 4 50 10 4 53 10 4 56 11 4 58 23 41 17
23 40 17 23 40 17 23 40 17 23 40 17 23 40 17 23 40 17 23 40 17 23 40
17 23 40 17 23 40 17 23 40 17 23 39 17 23 39 17 23 39 17 23 39 17 22
39 17 22 39 17 22 39 17 22 39 17 22 39 17 22 39 17 22 38 17 22 38 17
22 38 17 22 38 17 22 38 17 22 38 17 22 38 17 22 38 17 22 38 17 22 38
17 22 37 17 22 37 17 22 37 17 22 37 17 21 37 16 21 37 16 21 37 16 21
37 16 21 37 16 21 36 16 21 36 16 21 36 16 21 36 16 21 36 16 21 36 16
21 36 16 21 36 16 21 36 16 21 36 16 21 35 16 21 35 16 21 35 16 21 35
16 20 35 16 13 20 15 13 20 15 13 20 15 13 20 15 13 20 15 13 20 15 13
20 15 13 20 15 13 20 15 13 20 15 13 20 15 13 19 15 13 19 15 13 19 15
13 19 15 13 19 15 13 19 15 13 19 15 13 19 15 13 19 15 13 19 14 13 19
14 13 19 14 12 19 14 12 19 14 12 19 14 12 19 14 12 19 14 12 19 14 12
19 14 12 19 14 12 19 14 12 19 14 12 19 14 12 19 14 12 19 14 12 19 14
12 19 14 12 19 14 12 19 14 12 19 14 12 18 14 12 18 14 12 18 14 12 18
14 12 18 14 12 18 14 12 18 14 12 18 14 12 18 13 12 18 13 12 18 13 9 11
10 9 11 10 9 11 10 9 11 10 9 11 10 9 11 10 9 11 10 9 11 10 9 11 10 9
11 10 9 11 10 9 11 10 8 11 10 8 11 10 8 11 10 8 11 10 8 11 10 8 11 10
8 11 10 8 11 10 8 11 10 8 11 10 8 11 10 8 11 10 8 11 10 8 11 10 8 11
10 8 11 10 8 11 10 8 11 10 8 11 10 8 11 10 8 11 10 8 11 10 8 11 10 8
11 10 8 11 10 8 11 10 8 11 10 8 11 9 8 11 9 8 11 9 8 11 9 8 11 9 8 11
9 13 21 10 13 21 10 13 21 10 13 21 10 13 21 10 13 21 10 13 21 10 13 21
10 13 21 10 13 21 10 13 21 10 13 21 10 13 21 10 13 21 10 13 21 10 13
20 10 13 20 10 13 20 10 13 20 10 13 20 9 13 20 9 13 20 9 13 20 9 12 20
9
16 29 11 16 29 12 16 29 12 16 30 12 16 30 12 16 30 12 16 30 12 16 30
12 17 30 12 17 30 12 17 30 12 17 30 12 17 30 12 17 30 12 17 30 12 17
30 12 17 31 12 17 31 12 17 31 12 17 31 12 17 31 12 17 31 12 17 31 12
17 31 12 17 31 12 17 31 12 17 31 12 17 32 12 17 32 12 17 32 12 17 32
12 18 32 12 18 32 12 18 32 12 18 32 12 18 32 13 18 32 13 18 32 13 18
33 13 18 33 13 18 33 13 18 33 13 18 33 13 18 33 13 18 33 13 18 33 13
18 33 13 18 33 13 18 33 13 18 34 13 18 34 13 19 34 13 19 34 13 19 34
13 19 34 13 19 34 13 19 34 13 19 34 13 19 34 13 19 35 13 19 35 13 19
35 13 19 35 13 19 35 13 19 35 13 19 35 14 19 35 14 19 35 14 19 36 14
20 36 14 20 36 14 20 36 14 20 36 14 20 36 14 20 36 14 20 36 14 20 36
14 20 36 14 20 37 14 20 37 14 20 37 14 20 37 14 20 37 14 20 37 14 20
37 14 20 37 14 21 37 14 21 38 14 21 38 14 21 38 14 21 38 14 21 38 15
21 38 15 21 38 15 21 38 15 21 38 15 21 39 15 21 39 15 21 39 15 21 39
15 21 39 15 21 39 15 21 39 15 22 39 15 22 39 15 22 40 15 22 40 15 22
40 15 22 40 15 22 40 15 22 40 15 22 40 15 22 40 15 22 40 15 22 41 15
22 41 15 22 41 15 22 41 16 22 41 16 22 41 16 23 41 16 23 41 16 23 41
16 23 41 16 23 42 16 23 42 16 23 42 16 23 42 16 23 42 16 23 42 16 23
42 16 23 42 16 23 42 16 23 42 16 23 42 16 23 42 16 23 43 16 23 43 16
23 43 16 24 43 16 24 43 16 24 43 16 24 43 16 24 43 16 24 43 16 24 43
16 24 43 16 24 43 17 24 43 17 24 43 17 24 44 17 24 44 17 24 44 17 24
44 17 24 44 17 24 44 17 24 44 17 24 44 17 24 44 17 24 44 17 24 44 17
24 44 17 24 44 17 24 44 17 24 44 17 24 44 17 24 44 17 24 44 17 24 44
17 24 44 17 24 44 17 25 44 17 25 44 17 25 44 17 25 44 17 25 44 17 25
44 17 25 44 17 25 44 17 25 44 17 25 44 17 25 44 17 13 34 80 13 37 81
14 39 81 14 40 80 15 40 79 15 40 76 15 38 73 15 37 69 14 35 65 14 33
61 13 31 57 13 30 53 12 29 51 12 28 51 12 28 51 12 28 51 14 20 31 26
35 63 26 34 61 24 27 40 23 26 38 21 24 36 20 23 33 18 21 31 17 19 28
15 17 25 13 14 23 11 12 20 10 10 21 8 7 22 6 5 23 6 4 25 7 4 29 7 4 33
8 4 37 8 4 41 9 4 44 9 4 48 10 4 51 10 4 53 10 4 55 24 42 18 24 42 18
24 42 18 24 41 18 24 41 18 24 41 18 24 41 18 24 41 17 23 41 17 23 41
17 23 41 17 23 41 17 23 41 17 23 40 17 23 40 17 23 40 17 23 40 17 23
40 17 23 40 17 23 40 17 23 40 17 23 40 17 23 39 17 23 39 17 23 39 17
23 39 17 23 39 17 23 39 17 23 39 17 22 39 17 22 39 17 22 39 17 22 38
17 22 38 17 22 38 17 22 38 17 22 38 17 22 38 17 22 38 17 22 38 17 22
38 17 22 37 17 22 37 17 22 37 17 22 37 17 22 37 17 22 37 17 21 37 17
21 37 17 21 37 17 21 36 17 21 36 17 21 36 17 21 36 16 21 36 16 21 36
16 21 36 16 21 36 16 21 36 16 13 20 15 13 20 15 13 20 15 13 20 15 13
20 15 13 20 15 13 20 15 13 20 15 13 20 15 13 20 15 13 20 15 13 20 15
13 20 15 13 20 15 13 20 15 13 19 15 13 19 15 13 19 15 13 19 15 13 19
15 13 19 15 13 19 15 13 19 15 13 19 15 13 19 15 13 19 15 13 19 15 13
19 15 13 19 14 12 19 14 12 19 14 12 19 14 12 19 14 12 19 14 12 19 14
12 19 14 12 19 14 12 19 14 12 19 14 12 19 14 12 19 14 12 19 14 12 19
14 12 19 14 12 19 14 12 18 14 12 18 14 12 18 14 12 18 14 12 18 14 12
18 14 12 18 14 12 18 14 12 18 14 12 18 14 12 18 13 12 18 13 12 18 13 9
11 10 9 11 10 9 11 10 9 11 10 9 11 10 9 11 10 9 11 10 9 11 10 9 11 10
9 11 10 9 11 10 9 11 10 9 11 10 8 11 10 8 11 10 8 11 10 8 11 10 8 11
10 8 11 10 8 11 10 8 11 10 8 11 10 8 11 10 8 11 10 8 11 10 8 11 10 8
11 10 8 11 10 8 11 10 14 22 10 14 22 10 13 22 10 13 22 10 13 22 10 13
21 10 13 21 10 13 21 10 13 21 10 13 21 10 13 21 10 13 21 10 13 21 10
13 21 10 13 21 10 13 21 10 13 21 10 13 21 10 13 21 10 13 21 10 13 21
10 13 21 10 13 21 10 13 21 10 13 21 10 13 21 10 13 21 10 13 21 10 13
21 10 13 21 10 13 20 10
17 30 12 17 30 12 17 30 12 17 30 12 17 30 12 17 30 12 17 30 12 17 30
12 17 31 12 17 31 12 17 31 12 17 31 12 17 31 12 17 31 12 17 31 12 17
31 12 17 31 12 17 31 12 17 31 12 17 32 12 17 32 12 17 32 12 17 32 12
18 32 12 18 32 12 18 32 12 18 32 12 18 32 13 18 32 13 18 32 13 18 33
13 18 33 13 18 33 13 18 33 13 18 33 13 18 33 13 18 33 13 18 33 13 18
33 13 18 33 13 18 33 13 18 34 13 18 34 13 19 34 13 19 34 13 19 34 13
19 34 13 19 34 13 19 34 13 19 34 13 19 35 13 19 35 13 19 35 13 19 35
13 19 35 13 19 35 13 19 35 13 19 35 14 19 35 14 19 35 14 19 36 14 20
36 14 20 36 14 20 36 14 20 36 14 20 36 14 20 36 14 20 36 14 20 36 14
20 37 14 20 37 14 20 37 14 20 37 14 20 37 14 20 37 14 20 37 14 20 37
14 21 37 14 21 38 14 21 38 14 21 38 14 21 38 14 21 38 14 21 38 15 21
38 15 21 38 15 21 39 15 21 39 15 21 39 15 21 39 15 21 39 15 21 39 15
21 39 15 22 39 15 22 39 15 22 40 15 22 40 15 22 40 15 22 40 15 22 40
15 22 40 15 22 40 15 22 40 15 22 41 15 22 41 15 22 41 15 22 41 15 22
41 16 22 41 16 23 41 16 23 41 16 23 41 16 23 42 16 23 42 16 23 42 16
23 42 16 23 42 16 23 42 16 23 42 16 23 42 16 23 42 16 23 43 16 23 43
16 23 43 16 23 43 16 24 43 16 24 43 16 24 43 16 24 43 16 24 43 16 24
43 16 24 43 16 24 44 16 24 44 17 24 44 17 24 44 17 24 44 17 24 44 17
24 44 17 24 44 17 24 44 17 24 44 17 24 44 17 24 44 17 24 45 17 25 45
17 25 45 17 25 45 17 25 45 17 25 45 17 25 45 17 25 45 17 25 45 17 25
45 17 25 45 17 25 45 17 25 45 17 25 45 17 25 45 17 25 45 17 25 45 17
25 45 17 25 45 17 25 46 17 25 46 17 25 46 17 25 46 17 25 46 18 25 46
18 25 46 18 25 46 18 25 46 18 25 46 18 25 46 18 25 46 18 25 46 18 25
46 18 25 46 18 25 46 18 25 46 18 25 46 18 25 46 18 25 46 18 13 34 76
13 36 75 13 37 74 14 36 72 14 36 71 14 35 68 14 34 65 14 33 61 13 32
57 13 30 53 13 29 51 12 29 51 12 28 51 12 28 51 12 28 51 5 9 28 23 31
59 22 25 39 21 24 37 20 23 36 19 22 33 18 20 31 16 18 29 15 16 26 13
14 23 11 12 21 9 10 18 7 7 18 6 5 19 5 4 20 6 4 23 6 4 27 7 4 31 7 4
35 8 4 38 8 4 42 9 4 45 9 4 48 10 4 51 11 7 61 25 43 18 24 43 18 24 43
18 24 43 18 24 43 18 24 42 18 24 42 18 24 42 18 24 42 18 24 42 18 24
42 18 24 42 18 24 42 18 24 42 18 24 41 18 24 41 18 24 41 18 24 41 18
24 41 18 24 41 18 24 41 18 24 41 18 23 41 18 23 40 18 23 40 18 23 40
18 23 40 18 23 40 18 23 40 18 23 40 18 23 40 18 23 39 18 23 39 18 23
39 18 23 39 18 23 39 18 23 39 17 23 39 17 23 39 17 22 39 17 22 38 17
22 38 17 22 38 17 22 38 17 22 38 17 22 38 17 22 38 17 22 38 17 22 38
17 22 37 17 22 37 17 22 37 17 22 37 17 22 37 17 22 37 17 22 37 17 21
37 17 21 36 17 21 36 17 21 36 17 21 36 17 21 36 17 21 36 17 21 36 17
21 36 17 21 36 17 21 35 16 13 20 16 13 20 16 13 20 16 13 20 16 13 20
15 13 20 15 13 20 15 13 20 15 13 20 15 13 20 15 13 20 15 13 20 15 13
20 15 13 20 15 13 19 15 13 19 15 13 19 15 13 19 15 13 19 15 13 19 15
13 19 15 13 19 15 13 19 15 13 19 15 13 19 15 13 19 15 13 19 15 13 19
15 13 19 15 19 32 15 12 19 14 12 19 14 12 19 14 12 19 14 12 19 14 12
19 14 12 19 14 12 19 14 12 19 14 12 19 14 12 19 14 12 19 14 12 19 14
12 18 14 12 18 14 12 18 14 12 18 14 12 18 14 12 18 14 12 18 14 12 18
14 12 18 14 12 18 14 12 18 14 12 18 14 12 18 13 12 18 13 12 18 13 12
18 13 12 18 13 12 18 13 12 18 13 12 18 13 12 18 13 12 18 13 12 18 13
12 18 13 9 11 10 9 11 10 9 11 10 14 22 11 14 22 11 14 22 11 14 22 11
14 22 11 14 22 11 14 22 11 14 22 11 14 22 11 14 22 10 14 22 10 14 22
10 14 22 10 14 22 10 14 22 10 14 22 10 14 22 10 14 22 10 14 22 10 13
22 10 13 22 10 13 21 10 13 21 10 13 21 10 13 21 10 13 21 10 13 21 10
13 21 10 16 27 13 16 27 13 16 27 12 16 27 12 16 27 12 16 27 12 16 27
12 16 27 12 16 27 12 16 27 12 16 27 12 16 26 12
17 31 12 17 31 12 17 31 12 17 31 12 17 31 12 17 31 12 17 31 12 17 31
12 17 31 12 17 31 12 17 31 12 17 31 12 17 32 12 17 32 12 17 32 12 18
32 12 18 32 12 18 32 12 18 32 12 18 32 12 18 32 13 18 32 13 18 32 13
18 33 13 18 33 13 18 33 13 18 33 13 18 33 13 18 33 13 18 33 13 18 33
13 18 33 13 18 33 13 18 34 13 18 34 13 19 34 13 19 34 13 19 34 13 19
34 13 19 34 13 19 34 13 19 34 13 19 34 13 19 35 13 19 35 13 19 35 13
19 35 13 19 35 13 19 35 13 19 35 14 19 35 14 19 35 14 19 36 14 20 36
14 20 36 14 20 36 14 20 36 14 20 36 14 20 36 14 20 36 14 20 36 14 20
37 14 20 37 14 20 37 14 20 37 14 20 37 14 20 37 14 20 37 14 20 37 14
21 38 14 21 38 14 21 38 14 21 38 14 21 38 14 21 38 14 21 38 15 21 38
15 21 39 15 21 39 15 21 39 15 21 39 15 21 39 15 21 39 15 21 39 15 22
39 15 22 40 15 22 40 15 22 40 15 22 40 15 22 40 15 22 40 15 22 40 15
22 40 15 22 41 15 22 41 15 22 41 15 22 41 15 22 41 15 22 41 16 23 41
16 23 41 16 23 41 16 23 42 16 23 42 16 23 42 16 23 42 16 23 42 16 23
42 16 23 42 16 23 42 16 23 43 16 23 43 16 23 43 16 23 43 16 24 43 16
24 43 16 24 43 16 24 43 16 24 44 16 24 44 16 24 44 16 24 44 16 24 44
17 24 44 17 24 44 17 24 44 17 24 44 17 24 44 17 24 45 17 24 45 17 24
45 17 25 45 17 25 45 17 25 45 17 25 45 17 25 45 17 25 45 17 25 45 17
25 46 17 25 46 17 25 46 17 25 46 17 25 46 17 25 46 17 25 46 17 25 46
17 25 46 17 25 46 17 25 46 17 25 46 17 25 46 18 26 46 18 26 47 18 26
47 18 26 47 18 26 47 18 26 47 18 26 47 18 26 47 18 26 47 18 26 47 18
26 47 18 26 47 18 26 47 18 26 47 18 26 47 18 26 47 18 26 47 18 26 47
18 26 47 18 26 47 18 26 47 18 26 47 18 26 47 18 26 47 18 26 47 18 26
47 18 26 47 18 26 47 18 26 47 18 26 47 18 26 47 18 26 47 18 26 47 18
12 32 69 13 34 68 13 34 67 14 34 66 14 33 63 13 33 60 13 31 57 13 30
53 13 29 50 13 29 50 12 29 50 12 28 50 12 28 50 12 28 50 12 27 50 20
27 56 19 22 36 19 21 35 18 20 33 17 19 31 15 17 29 14 16 26 12 14 24
11 12 21 9 10 18 7 7 16 5 5 14 5 4 15 5 4 17 5 4 21 6 4 25 7 4 29 7 4
33 8 4 36 8 4 40 9 4 43 9 4 45 9 4 47 25 44 19 25 44 19 25 44 19 25 44
19 25 44 19 25 44 19 25 44 19 25 44 19 25 43 19 25 43 18 25 43 18 25
43 18 25 43 18 25 43 18 25 43 18 25 43 18 24 42 18 24 42 18 24 42 18
24 42 18 24 42 18 24 42 18 24 42 18 24 42 18 24 41 18 24 41 18 24 41
18 24 41 18 24 41 18 24 41 18 24 41 18 24 41 18 24 40 18 24 40 18 23
40 18 23 40 18 23 40 18 23 40 18 23 40 18 23 40 18 23 39 18 23 39 18
23 39 18 23 39 18 23 39 18 23 39 18 23 39 18 23 39 18 23 39 18 23 38
18 22 38 18 22 38 18 22 38 18 22 38 17 22 38 17 22 38 17 22 38 17 22
37 17 22 37 17 22 37 17 22 37 17 22 37 17 22 37 17 22 37 17 22 37 17
22 36 17 21 36 17 21 36 17 21 36 17 21 36 17 21 36 17 21 36 17 21 36
17 21 36 17 21 35 17 21 35 17 21 35 17 21 35 17 21 35 16 21 35 16 21
35 16 21 35 16 20 35 16 20 34 16 20 34 16 20 34 16 20 34 16 20 34 16
20 34 16 20 34 16 20 34 16 20 34 16 20 34 16 20 33 16 20 33 16 20 33
16 20 33 16 20 33 16 19 33 16 19 33 16 19 33 15 13 19 15 13 19 15 13
19 15 13 19 15 13 19 15 12 19 15 12 19 14 12 19 14 12 19 14 12 19 14
12 19 14 12 19 14 12 19 14 12 19 14 12 19 14 12 19 14 12 19 14 12 18
14 12 18 14 12 18 14 12 18 14 12 18 14 12 18 14 12 18 14 12 18 14 12
18 14 18 30 14 18 30 14 18 30 14 18 30 14 18 30 14 18 30 14 18 30 14
18 30 14 18 30 14 17 30 14 17 30 14 17 30 14 17 29 14 17 29 14 17 29
14 17 29 14 17 29 14 17 29 14 17 29 14 17 29 14 17 29 13 17 29 13 17
29 13 17 29 13 17 29 13 17 28 13 17 28 13 17 28 13 17 28 13 17 28 13
17 28 13 17 28 13 16 28 13 16 28 13 16 28 13 16 28 13 16 28 13 16 28
13 16 28 13 16 28 13 16 28 13 16 27 13 16 27 13 16 27 13 16 27 13 16
27 13 16 27 13 16 27 13 16 27 13 16 27 12 16 27 12
17 31 12 17 31 12 17 31 12 17 31 12 17 32 12 17 32 12 17 32 12 17 32
12 18 32 12 18 32 12 18 32 12 18 32 12 18 32 12 18 32 13 18 32 13 18
33 13 18 33 13 18 33 13 18 33 13 18 33 13 18 33 13 18 33 13 18 33 13
18 33 13 18 33 13 18 34 13 18 34 13 18 34 13 19 34 13 19 34 13 19 34
13 19 34 13 19 34 13 19 34 13 19 34 13 19 35 13 19 35 13 19 35 13 19
35 13 19 35 13 19 35 13 19 35 13 19 35 14 19 35 14 19 36 14 20 36 14
20 36 14 20 36 14 20 36 14 20 36 14 20 36 14 20 36 14 20 36 14 20 37
14 20 37 14 20 37 14 20 37 14 20 37 14 20 37 14 20 37 14 20 37 14 21
38 14 21 38 14 21 38 14 21 38 14 21 38 14 21 38 14 21 38 15 21 38 15
21 39 15 21 39 15 21 39 15 21 39 15 21 39 15 21 39 15 21 39 15 22 39
15 22 40 15 22 40 15 22 40 15 22 40 15 22 40 15 22 40 15 22 40 15 22
40 15 22 41 15 22 41 15 22 41 15 22 41 15 22 41 15 22 41 16 23 41 16
23 42 16 23 42 16 23 42 16 23 42 16 23 42 16 23 42 16 23 42 16 23 42
16 23 43 16 23 43 16 23 43 16 23 43 16 23 43 16 24 43 16 24 43 16 24
43 16 24 44 16 24 44 16 24 44 16 24 44 16 24 44 17 24 44 17 24 44 17
24 44 17 24 45 17 24 45 17 24 45 17 25 45 17 25 45 17 25 45 17 25 45
17 25 45 17 25 46 17 25 46 17 25 46 17 25 46 17 25 46 17 25 46 17 25
46 17 25 46 17 25 46 17 25 47 17 25 47 17 26 47 17 26 47 17 26 47 18
26 47 18 26 47 18 26 47 18 26 47 18 26 47 18 26 47 18 26 48 18 26 48
18 26 48 18 26 48 18 26 48 18 26 48 18 26 48 18 26 48 18 26 48 18 26
48 18 26 48 18 26 48 18 27 48 18 27 48 18 27 48 18 27 48 18 27 48 18
27 48 18 27 49 18 27 49 18 27 49 18 27 49 18 27 49 18 27 49 18 27 49
18 27 49 19 27 49 19 27 49 19 27 49 19 27 49 19 27 49 19 27 49 19 27
49 19 27 49 19 27 49 19 27 49 19 27 49 19 27 49 19 27 49 19 27 49 19
27 49 19 12 29 61 13 31 62 12 31 59 13 31 58 13 31 55 13 30 52 12 29
50 12 29 50 12 29 50 12 28 50 12 28 50 12 28 50 8 19 50 8 19 50 14 16
31 16 18 32 16 18 32 15 17 30 14 16 28 13 15 26 12 13 24 10 11 21 8 9
19 7 7 16 5 6 13 4 5 11 4 4 11 5 4 15 5 4 19 6 4 23 6 4 27 7 4 30 7 4
34 8 4 37 8 4 40 8 4 42 26 46 19 26 46 19 26 45 19 26 45 19 26 45 19
26 45 19 26 45 19 26 45 19 26 45 19 26 45 19 26 44 19 25 44 19 25 44
19 25 44 19 25 44 19 25 44 19 25 44 19 25 44 19 25 43 19 25 43 19 25
43 19 25 43 19 25 43 19 25 43 19 25 43 19 25 43 19 25 42 19 25 42 19
25 42 19 24 42 19 24 42 19 24 42 19 24 42 19 24 41 19 24 41 19 24 41
19 24 41 19 24 41 19 24 41 19 24 41 18 24 41 18 24 40 18 24 40 18 24
40 18 23 40 18 23 40 18 23 40 18 23 40 18 23 40 18 23 39 18 23 39 18
23 39 18 23 39 18 23 39 18 23 39 18 23 39 18 23 39 18 23 38 18 23 38
18 22 38 18 22 38 18 22 38 18 22 38 18 22 38 18 22 38 18 22 37 18 22
37 18 22 37 17 22 37 17 22 37 17 22 37 17 22 37 17 22 37 17 22 36 17
22 36 17 21 36 17 21 36 17 21 36 17 21 36 17 21 36 17 21 36 17 21 36
17 21 35 17 21 35 17 21 35 17 21 35 17 21 35 17 21 35 17 21 35 17 21
35 16 20 35 16 20 34 16 20 34 16 20 34 16 20 34 16 20 34 16 20 34 16
20 34 16 20 34 16 20 34 16 20 33 16 20 33 16 20 33 16 20 33 16 20 33
16 20 33 16 20 33 16 19 33 16 19 33 16 19 33 16 19 33 15 19 32 15 19
32 15 19 32 15 19 32 15 19 32 15 19 32 15 19 32 15 19 32 15 19 32 15
19 32 15 19 32 15 19 31 15 19 31 15 18 31 15 18 31 15 18 31 15 18 31
15 18 31 15 18 31 15 18 31 15 18 31 15 18 31 14 18 30 14 18 30 14 18
30 14 18 30 14 18 30 14 18 30 14 18 30 14 18 30 14 18 30 14 18 30 14
18 30 14 17 30 14 17 30 14 17 29 14 17 29 14 17 29 14 17 29 14 17 29
14 17 29 14 17 29 14 17 29 14 17 29 14 17 29 14 17 29 13 17 29 13 17
29 13 17 29 13 17 28 13 17 28 13 17 28 13 17 28 13 17 28 13 17 28 13
17 28 13 16 28 13 16 28 13 16 28 13 16 28 13 16 28 13 16 28 13 16 28
13 16 28 13 16 27 13 16 27 13 16 27 13 16 27 13
17 32 12 18 32 12 18 32 12 18 32 12 18 32 12 18 32 13 18 32 13 18 32
13 18 33 13 18 33 13 18 33 13 18 33 13 18 33 13 18 33 13 18 33 13 18
33 13 18 33 13 18 33 13 18 34 13 18 34 13 19 34 13 19 34 13 19 34 13
19 34 13 19 34 13 19 34 13 19 34 13 19 34 13 19 35 13 19 35 13 19 35
13 19 35 13 19 35 13 19 35 13 19 35 13 19 35 14 19 35 14 19 36 14 20
36 14 20 36 14 20 36 14 20 36 14 20 36 14 20 36 14 20 36 14 20 37 14
20 37 14 20 37 14 20 37 14 20 37 14 20 37 14 20 37 14 20 37 14 20 37
14 21 38 14 21 38 14 21 38 14 21 38 14 21 38 14 21 38 14 21 38 15 21
39 15 21 39 15 21 39 15 21 39 15 21 39 15 21 39 15 21 39 15 21 39 15
22 40 15 22 40 15 22 40 15 22 40 15 22 40 15 22 40 15 22 40 15 22 41
15 22 41 15 22 41 15 22 41 15 22 41 15 22 41 15 23 41 16 23 41 16 23
42 16 23 42 16 23 42 16 23 42 16 23 42 16 23 42 16 23 42 16 23 43 16
23 43 16 23 43 16 23 43 16 23 43 16 24 43 16 24 43 16 24 44 16 24 44
16 24 44 16 24 44 16 24 44 16 24 44 16 24 44 17 24 45 17 24 45 17 24
45 17 24 45 17 25 45 17 25 45 17 25 45 17 25 45 17 25 46 17 25 46 17
25 46 17 25 46 17 25 46 17 25 46 17 25 46 17 25 46 17 25 47 17 25 47
17 26 47 17 26 47 17 26 47 17 26 47 18 26 47 18 26 47 18 26 48 18 26
48 18 26 48 18 26 48 18 26 48 18 26 48 18 26 48 18 26 48 18 26 48 18
26 49 18 27 49 18 27 49 18 27 49 18 27 49 18 27 49 18 27 49 18 27 49
18 27 49 18 27 49 18 27 49 18 27 49 18 27 49 18 27 50 18 27 50 19 27
50 19 27 50 19 27 50 19 27 50 19 27 50 19 27 50 19 27 50 19 27 50 19
28 50 19 28 50 19 28 50 19 28 50 19 28 50 19 28 50 19 28 50 19 28 50
19 28 50 19 28 50 19 28 50 19 28 50 19 28 50 19 28 50 19 28 50 19 28
50 19 28 50 19 28 50 19 28 50 19 28 50 19 28 50 19 28 50 19 28 50 19
28 50 19 28 50 19 28 50 19 12 28 52 12 28 51 12 28 50 12 28 50 12 29
50 12 28 50 12 28 50 12 28 50 8 20 50 8 19 50 8 19 50 8 19 50 10 24 49
12 13 33 13 14 28 12 14 27 12 13 25 10 12 23 9 10 21 8 8 19 6 7 16 6 6
14 5 5 12 4 4 9 4 3 9 4 4 13 5 4 17 5 4 20 6 4 24 6 4 28 7 4 31 7 4 34
8 4 37 8 4 38 27 47 20 27 47 20 27 47 20 27 47 20 27 46 20 27 46 20 26
46 20 26 46 20 26 46 20 26 46 20 26 46 20 26 46 20 26 45 20 26 45 20
26 45 20 26 45 19 26 45 19 26 45 19 26 45 19 26 44 19 26 44 19 26 44
19 26 44 19 25 44 19 25 44 19 25 44 19 25 43 19 25 43 19 25 43 19 25
43 19 25 43 19 25 43 19 25 43 19 25 43 19 25 42 19 25 42 19 25 42 19
25 42 19 24 42 19 24 42 19 24 42 19 24 41 19 24 41 19 24 41 19 24 41
19 24 41 19 24 41 19 24 41 19 24 40 19 24 40 19 24 40 19 24 40 19 24
40 19 23 40 19 23 40 18 23 39 18 23 39 18 23 39 18 23 39 18 23 39 18
23 39 18 23 39 18 23 39 18 23 38 18 23 38 18 23 38 18 23 38 18 22 38
18 22 38 18 22 38 18 22 38 18 22 37 18 22 37 18 22 37 18 22 37 18 22
37 18 22 37 18 22 37 17 22 37 17 22 36 17 22 36 17 22 36 17 21 36 17
21 36 17 21 36 17 21 36 17 21 36 17 21 36 17 21 35 17 21 35 17 21 35
17 21 35 17 21 35 17 21 35 17 21 35 17 21 35 17 21 35 17 20 34 16 20
34 16 20 34 16 20 34 16 20 34 16 20 34 16 20 34 16 20 34 16 20 34 16
20 34 16 20 33 16 20 33 16 20 33 16 20 33 16 20 33 16 20 33 16 19 33
16 19 33 16 19 33 16 19 33 16 19 32 16 19 32 15 19 32 15 19 32 15 19
32 15 19 32 15 19 32 15 19 32 15 19 32 15 19 32 15 19 32 15 19 31 15
19 31 15 19 31 15 18 31 15 18 31 15 18 31 15 18 31 15 18 31 15 18 31
15 18 31 15 18 31 15 18 31 14 18 30 14 18 30 14 18 30 14 18 30 14 18
30 14 18 30 14 18 30 14 18 30 14 18 30 14 18 30 14 18 30 14 17 30 14
17 29 14 17 29 14 17 29 14 17 29 14 17 29 14 17 29 14 17 29 14 17 29
14 17 29 14 17 29 14 17 29 14 17 29 13 17 29 13 17 29 13 17 29 13 17
28 13 17 28 13 17 28 13 17 28 13 17 28 13 17 28 13 17 28 13 16 28 13
16 28 13 16 28 13 16 28 13 16 28 13
18 32 13 18 33 13 18 33 13 18 33 13 18 33 13 18 33 13 18 33 13 18 33
13 18 33 13 18 33 13 18 33 13 18 34 13 18 34 13 17 33 9 17 33 9 17 34
9 17 34 9 17 34 9 17 34 9 17 34 9 17 34 10 17 34 10 17 34 10 17 34 10
17 34 10 17 35 10 18 35 10 18 35 10 18 35 10 18 35 10 18 35 10 18 35
10 18 35 10 18 35 10 18 36 10 18 36 10 20 36 14 20 36 14 20 37 14 20
37 14 20 37 14 20 37 14 20 37 14 20 37 14 20 37 14 20 37 14 20 38 14
21 38 14 21 38 14 21 38 14 21 38 14 21 38 14 21 38 14 21 38 15 21 39
15 21 39 15 21 39 15 21 39 15 21 39 15 21 39 15 21 39 15 22 39 15 22
40 15 22 40 15 22 40 15 22 40 15 22 40 15 22 40 15 22 40 15 22 41 15
22 41 15 22 41 15 22 41 15 22 41 15 22 41 15 23 41 16 23 42 16 23 42
16 23 42 16 23 42 16 23 42 16 23 42 16 23 42 16 23 43 16 23 43 16 23
43 16 23 43 16 23 43 16 24 43 16 24 43 16 24 44 16 24 44 16 24 44 16
24 44 16 24 44 16 24 44 17 24 45 17 24 45 17 24 45 17 24 45 17 24 45
17 25 45 17 25 45 17 25 46 17 25 46 17 25 46 17 25 46 17 25 46 17 25
46 17 25 46 17 25 47 17 25 47 17 25 47 17 26 47 17 26 47 17 26 47 17
26 47 18 26 48 18 26 48 18 26 48 18 26 48 18 26 48 18 26 48 18 26 48
18 26 48 18 26 49 18 26 49 18 27 49 18 27 49 18 27 49 18 27 49 18 27
49 18 27 49 18 27 50 18 27 50 18 27 50 18 27 50 18 27 50 18 27 50 18
27 50 19 27 50 19 27 50 19 28 50 19 28 51 19 28 51 19 28 51 19 28 51
19 28 51 19 28 51 19 28 51 19 28 51 19 28 51 19 28 51 19 28 51 19 28
51 19 28 51 19 28 51 19 28 52 19 28 52 19 28 52 19 28 52 19 28 52 19
28 52 19 28 52 19 28 52 19 28 52 19 28 52 19 29 52 19 29 52 19 29 52
19 29 52 20 29 52 20 29 52 20 29 52 20 29 52 20 29 52 20 29 52 20 29
52 20 29 52 20 29 52 20 29 52 20 29 52 20 29 52 20 29 52 20 29 52 20
29 52 20 29 52 20 29 51 20 29 51 20 11 26 50 12 27 50 12 27 50 8 20 50
8 19 50 8 19 50 8 19 50 8 19 49 28 51 20 28 51 20 28 51 20 28 51 20 9
10 25 9 10 24 8 9 22 8 9 20 7 8 19 6 7 16 6 6 14 5 5 12 4 4 10 4 3 8 4
3 8 4 3 10 4 4 14 5 4 18 5 4 21 6 4 25 6 4 28 7 4 30 7 4 32 28 48 20
28 48 20 27 48 20 27 48 20 27 48 20 27 48 20 27 48 20 27 47 20 27 47
20 27 47 20 27 47 20 27 47 20 27 47 20 27 47 20 27 46 20 27 46 20 27
46 20 27 46 20 27 46 20 26 46 20 26 46 20 26 45 20 26 45 20 26 45 20
26 45 20 26 45 20 26 45 20 26 45 20 26 44 20 26 44 20 26 44 20 26 44
20 26 44 20 26 44 20 25 44 20 25 43 20 25 43 20 25 43 20 25 43 20 25
43 20 25 43 20 25 42 20 25 42 19 25 42 19 25 42 19 25 42 19 25 42 19
25 42 19 24 41 19 24 41 19 24 41 19 24 41 19 24 41 19 24 41 19 24 41
19 24 40 19 24 40 19 24 40 19 24 40 19 24 40 19 24 40 19 24 40 19 23
40 19 23 39 19 23 39 19 23 39 19 23 39 19 23 39 19 23 39 18 23 39 18
23 38 18 23 38 18 23 38 18 23 38 18 23 38 18 23 38 18 22 38 18 22 38
18 22 37 18 22 37 18 22 37 18 22 37 18 22 37 18 22 37 18 22 37 18 22
37 18 22 36 18 22 36 18 22 36 17 22 36 17 21 36 17 21 36 17 21 36 17
21 36 17 21 36 17 21 35 17 21 35 17 21 35 17 21 35 17 21 35 17 21 35
17 21 35 17 21 35 17 21 35 17 21 34 17 20 34 17 20 34 17 20 34 16 20
34 16 20 34 16 20 34 16 20 34 16 20 34 16 20 33 16 20 33 16 20 33 16
20 33 16 20 33 16 20 33 16 20 33 16 20 33 16 19 33 16 19 33 16 19 33
16 19 32 16 19 32 16 19 32 15 19 32 15 19 32 15 19 32 15 19 32 15 19
32 15 19 32 15 19 32 15 19 32 15 19 31 15 19 31 15 19 31 15 19 31 15
18 31 15 18 31 15 18 31 15 18 31 15 18 31 15 18 31 15 18 31 15 18 31
15 18 30 14 18 30 14 18 30 14 18 30 14 18 30 14 18 30 14 18 30 14 18
30 14 18 30 14 18 30 14 18 30 14 18 30 14 17 30 14 17 29 14 17 29 14
17 29 14 17 29 14 17 29 14 17 29 14 17 29 14 17 29 14 17 29 14 17 29
14 17 29 14 17 29 14 17 29 13 17 29 13 17 28 13 17 28 13 17 28 13 17
28 13 17 28 13 17 28 13
17 33 9 17 33 9 17 33 9 17 33 9 17 33 9 17 33 9 17 33 9 17 33 9 17 34
9 17 34 9 17 34 9 17 34 9 17 34 10 17 34 10 17 34 10 17 34 10 17 34 10
17 34 10 17 35 10 18 35 10 18 35 10 18 35 10 18 35 10 18 35 10 18 35
10 18 35 10 18 35 10 18 36 10 18 36 10 18 36 10 18 36 10 18 36 10 18
36 10 18 36 10 18 36 10 18 37 10 18 37 10 19 37 10 19 37 10 19 37 10
19 37 10 19 37 10 19 37 10 19 38 10 19 38 10 19 38 10 19 38 10 19 38
10 19 38 10 19 38 10 19 38 10 19 39 10 19 39 11 19 39 11 20 39 11 20
39 11 20 39 11 20 39 11 22 40 15 22 40 15 22 40 15 22 40 15 22 41 15
22 41 15 22 41 15 22 41 15 22 41 15 22 41 15 23 41 16 23 42 16 23 42
16 23 42 16 23 42 16 23 42 16 23 42 16 23 43 16 23 43 16 23 43 16 23
43 16 23 43 16 24 43 16 24 43 16 24 44 16 24 44 16 24 44 16 24 44 16
24 44 16 24 44 16 24 45 17 24 45 17 24 45 17 24 45 17 24 45 17 25 45
17 25 45 17 25 46 17 25 46 17 25 46 17 25 46 17 25 46 17 25 46 17 25
47 17 25 47 17 25 47 17 25 47 17 26 47 17 26 47 17 26 47 18 26 48 18
26 48 18 26 48 18 26 48 18 26 48 18 26 48 18 26 49 18 26 49 18 26 49
18 27 49 18 27 49 18 27 49 18 27 49 18 27 50 18 27 50 18 27 50 18 27
50 18 27 50 18 27 50 18 27 50 18 27 50 19 27 51 19 28 51 19 28 51 19
28 51 19 28 51 19 28 51 19 28 51 19 28 51 19 28 52 19 28 52 19 28 52
19 28 52 19 28 52 19 28 52 19 28 52 19 28 52 19 29 52 19 29 52 19 29
53 19 29 53 19 29 53 19 29 53 19 29 53 19 29 53 19 29 53 20 29 53 20
29 53 20 29 53 20 29 53 20 29 53 20 29 53 20 29 53 20 29 53 20 29 53
20 29 53 20 29 53 20 29 53 20 29 53 20 29 54 20 29 54 20 29 54 20 29
54 20 29 54 20 29 54 20 29 54 20 30 54 20 30 54 20 30 54 20 30 53 20
30 53 20 30 53 20 30 53 20 30 53 20 30 53 20 30 53 20 30 53 20 30 53
20 30 53 20 29 53 20 29 53 20 29 53 20 29 53 20 29 53 20 29 53 20 29
53 20 29 53 20 29 53 20 29 52 20 29 52 21 29 52 21 29 52 21 29 52 21
29 52 21 8 9 22 7 8 20 7 7 18 6 7 16 6 6 14 5 5 12 4 4 10 4 3 8 4 3 8
4 3 8 4 3 8 4 3 11 5 4 15 5 4 18 5 4 21 6 4 24 6 4 26 28 50 21 28 50
21 28 50 21 28 49 21 28 49 21 28 49 21 28 49 21 28 49 21 28 49 21 28
49 21 28 48 21 28 48 21 28 48 21 28 48 21 28 48 21 28 48 21 27 47 21
27 47 21 27 47 21 27 47 21 27 47 21 27 47 21 27 47 21 27 46 20 27 46
20 27 46 20 27 46 20 27 46 20 27 46 20 27 45 20 26 45 20 26 45 20 26
45 20 26 45 20 26 45 20 26 45 20 26 44 20 26 44 20 26 44 20 26 44 20
26 44 20 26 44 20 26 43 20 26 43 20 25 43 20 25 43 20 25 43 20 25 43
20 25 43 20 25 42 20 25 42 20 25 42 20 25 42 20 25 42 20 25 42 20 25
42 20 25 41 20 24 41 20 24 41 19 24 41 19 24 41 19 24 41 19 24 40 19
24 40 19 24 40 19 24 40 19 24 40 19 24 40 19 24 40 19 24 40 19 23 39
19 23 39 19 23 39 19 23 39 19 23 39 19 23 39 19 23 39 19 23 38 19 23
38 19 23 38 18 23 38 18 23 38 18 23 38 18 22 38 18 22 38 18 22 37 18
22 37 18 22 37 18 22 37 18 22 37 18 22 37 18 22 37 18 22 37 18 22 36
18 22 36 18 22 36 18 22 36 18 21 36 17 21 36 17 21 36 17 21 36 17 21
35 17 21 35 17 21 35 17 21 35 17 21 35 17 21 35 17 21 35 17 21 35 17
21 35 17 21 34 17 21 34 17 20 34 17 20 34 17 20 34 17 20 34 16 20 34
16 20 34 16 20 34 16 20 34 16 20 33 16 20 33 16 20 33 16 20 33 16 20
33 16 20 33 16 20 33 16 20 33 16 19 33 16 19 33 16 19 32 16 19 32 16
19 32 16 19 32 16 19 32 15 19 32 15 19 32 15 19 32 15 19 32 15 19 32
15 19 32 15 19 32 15 19 31 15 19 31 15 19 31 15 19 31 15 18 31 15 18
31 15 18 31 15 18 31 15 18 31 15 18 31 15 18 31 15 18 31 15 18 30 15
18 30 14 18 30 14 18 30 14 18 30 14 18 30 14 18 30 14 18 30 14 18 30
14 18 30 14 18 30 14 18 30 14 17 30 14 17 29 14 17 29 14 17 29 14 17
29 14 17 29 14 17 29 14 17 29 14 17 29 14 17 29 14 17 29 14 17 29 14
17 29 14 17 29 14 17 29 13
17 33 9 17 34 9 17 34 9 17 34 9 17 34 9 17 34 10 17 34 10 17 34 10 17
34 10 17 34 10 17 34 10 17 35 10 17 35 10 18 35 10 18 35 10 18 35 10
18 35 10 18 35 10 18 35 10 18 35 10 18 36 10 18 36 10 18 36 10 18 36
10 18 36 10 18 36 10 18 36 10 18 36 10 18 37 10 18 37 10 18 37 10 19
37 10 19 37 10 19 37 10 19 37 10 19 37 10 19 38 10 19 38 10 19 38 10
19 38 10 19 38 10 19 38 10 19 38 10 19 38 10 19 39 11 19 39 11 19 39
11 20 39 11 20 39 11 20 39 11 20 39 11 20 40 11 20 40 11 20 40 11 20
40 11 20 40 11 20 40 11 20 40 11 20 41 11 20 41 11 20 41 11 21 41 11
21 41 11 21 41 11 21 41 11 21 42 11 21 42 11 21 42 11 21 42 11 21 42
11 21 42 11 21 42 11 23 43 16 24 43 16 24 44 16 24 44 16 24 44 16 24
44 16 24 44 16 24 44 16 24 44 16 24 45 17 24 45 17 24 45 17 24 45 17
25 45 17 25 45 17 25 46 17 25 46 17 25 46 17 25 46 17 25 46 17 25 46
17 25 47 17 25 47 17 25 47 17 25 47 17 26 47 17 26 47 17 26 48 18 26
48 18 26 48 18 26 48 18 26 48 18 26 48 18 26 49 18 26 49 18 26 49 18
27 49 18 27 49 18 27 49 18 27 50 18 27 50 18 27 50 18 27 50 18 27 50
18 27 50 18 27 50 18 27 51 18 27 51 19 28 51 19 28 51 19 28 51 19 28
51 19 28 51 19 28 52 19 28 52 19 28 52 19 28 52 19 28 52 19 28 52 19
28 52 19 29 53 19 29 53 19 29 53 19 29 53 19 29 53 19 29 53 19 29 53
19 29 53 19 29 54 20 29 54 20 29 54 20 29 54 20 29 54 20 29 54 20 29
54 20 29 54 20 30 54 20 30 54 20 30 54 20 30 55 20 30 55 20 30 55 20
30 55 20 30 55 20 30 55 20 30 55 20 30 55 20 30 55 20 30 55 20 30 55
20 30 55 20 30 55 20 30 55 20 30 55 20 30 55 20 30 55 20 30 55 20 30
55 20 30 55 21 30 55 21 30 55 21 30 55 21 30 55 21 30 55 21 30 55 21
30 55 21 30 55 21 30 55 21 30 55 21 30 55 21 30 55 21 30 55 21 30 55
21 30 55 21 30 55 21 30 55 21 30 55 21 30 55 21 30 55 21 30 54 21 30
54 21 30 54 21 30 54 21 30 54 21 30 54 21 30 54 21 30 54 21 30 54 21
30 54 21 30 54 21 30 53 21 6 8 20 6 7 18 5 6 16 5 5 13 4 4 10 4 3 8 4
3 8 4 3 8 4 3 8 4 3 8 4 3 8 4 3 11 4 4 14 5 4 17 5 4 18 29 51 21 29 51
21 29 51 21 29 51 21 29 51 21 29 51 21 29 50 21 29 50 21 29 50 21 29
50 21 29 50 21 29 50 21 28 50 21 28 49 21 28 49 21 28 49 21 28 49 21
28 49 21 28 49 21 28 48 21 28 48 21 28 48 21 28 48 21 28 48 21 28 48
21 28 47 21 28 47 21 27 47 21 27 47 21 27 47 21 27 47 21 27 46 21 27
46 21 27 46 21 27 46 21 27 46 21 27 46 21 27 45 21 27 45 21 27 45 21
26 45 21 26 45 21 26 45 21 26 44 21 26 44 21 26 44 21 26 44 21 26 44
20 26 44 20 26 43 20 26 43 20 26 43 20 26 43 20 25 43 20 25 43 20 25
43 20 25 42 20 25 42 20 25 42 20 25 42 20 25 42 20 25 42 20 25 41 20
25 41 20 25 41 20 24 41 20 24 41 20 24 41 20 24 41 20 24 40 20 24 40
20 24 40 19 24 40 19 24 40 19 24 40 19 24 40 19 24 39 19 24 39 19 23
39 19 23 39 19 23 39 19 23 39 19 23 39 19 23 39 19 23 38 19 23 38 19
23 38 19 23 38 19 23 38 19 23 38 18 23 38 18 22 37 18 22 37 18 22 37
18 22 37 18 22 37 18 22 37 18 22 37 18 22 37 18 22 36 18 22 36 18 22
36 18 22 36 18 22 36 18 22 36 18 21 36 18 21 36 17 21 36 17 21 35 17
21 35 17 21 35 17 21 35 17 21 35 17 21 35 17 21 35 17 21 35 17 21 35
17 21 34 17 21 34 17 20 34 17 20 34 17 20 34 17 20 34 17 20 34 17 20
34 16 20 34 16 20 34 16 20 33 16 20 33 16 20 33 16 20 33 16 20 33 16
20 33 16 20 33 16 20 33 16 19 33 16 19 33 16 19 32 16 19 32 16 19 32
16 19 32 16 19 32 16 19 32 15 19 32 15 19 32 15 19 32 15 19 32 15 19
32 15 19 31 15 19 31 15 19 31 15 19 31 15 19 31 15 18 31 15 18 31 15
18 31 15 18 31 15 18 31 15 18 31 15 18 31 15 18 30 15 18 30 15 18 30
15 18 30 14 18 30 14 18 30 14 18 30 14 18 30 14 18 30 14 18 30 14 18
30 14 18 30 14 18 30 14 17 30 14 17 29 14 17 29 14 17 29 14 17 29 14
17 29 14 17 29 14 17 29 14 17 29 14
17 34 10 17 34 10 17 34 10 17 34 10 17 34 10 17 35 10 18 35 10 18 35
10 18 35 10 18 35 10 18 35 10 18 35 10 18 35 10 18 35 10 18 36 10 18
36 10 18 36 10 18 36 10 18 36 10 18 36 10 18 36 10 18 36 10 18 37 10
18 37 10 19 37 10 19 37 10 19 37 10 19 37 10 19 37 10 19 37 10 19 38
10 19 38 10 19 38 10 19 38 10 19 38 10 19 38 10 19 38 10 19 38 10 19
39 11 19 39 11 20 39 11 20 39 11 20 39 11 20 39 11 20 39 11 20 40 11
20 40 11 20 40 11 20 40 11 20 40 11 20 40 11 20 40 11 20 41 11 20 41
11 20 41 11 21 41 11 21 41 11 21 41 11 21 42 11 21 42 11 21 42 11 21
42 11 21 42 11 21 42 11 21 42 11 21 43 11 21 43 11 21 43 11 22 43 11
22 43 11 22 43 12 22 44 12 22 44 12 22 44 12 22 44 12 22 44 12 22 44
12 22 45 12 22 45 12 22 45 12 22 45 12 23 45 12 23 45 12 25 46 17 25
46 17 25 47 17 25 47 17 25 47 17 25 47 17 26 47 17 26 47 17 26 48 17
26 48 18 26 48 18 26 48 18 26 48 18 26 48 18 26 49 18 26 49 18 26 49
18 27 49 18 27 49 18 27 49 18 27 50 18 27 50 18 27 50 18 27 50 18 27
50 18 27 50 18 27 51 18 27 51 19 28 51 19 28 51 19 28 51 19 28 51 19
28 52 19 28 52 19 28 52 19 28 52 19 28 52 19 28 52 19 28 53 19 29 53
19 29 53 19 29 53 19 29 53 19 29 53 19 29 54 19 29 54 19 29 54 19 29
54 20 29 54 20 29 54 20 29 54 20 29 54 20 30 55 20 30 55 20 30 55 20
30 55 20 30 55 20 30 55 20 30 55 20 30 55 20 30 56 20 30 56 20 30 56
20 30 56 20 30 56 20 30 56 20 30 56 20 31 56 20 31 56 20 31 56 20 31
56 21 31 56 21 31 57 21 31 57 21 31 57 21 31 57 21 31 57 21 31 57 21
31 57 21 31 57 21 31 57 21 31 57 21 31 57 21 31 57 21 31 57 21 31 57
21 31 57 21 31 57 21 31 57 21 31 57 21 31 57 21 31 57 21 31 57 21 31
57 21 31 57 21 31 57 21 31 57 21 31 57 21 31 57 21 31 57 21 31 57 21
31 57 21 31 57 21 31 56 21 31 56 21 31 56 21 31 56 21 31 56 21 31 56
21 31 56 21 31 56 21 31 56 21 31 56 22 31 56 22 31 56 22 31 55 22 31
55 22 31 55 22 31 55 22 31 55 22 31 55 22 31 55 22 4 6 16 4 5 15 4 5
14 4 5 14 4 5 14 4 4 13 4 3 8 4 3 8 4 3 8 4 3 8 4 3 9 30 53 22 30 53
22 30 53 22 30 53 22 30 52 22 30 52 22 30 52 22 30 52 22 30 52 22 30
52 22 30 51 22 29 51 22 29 51 22 29 51 22 29 51 22 29 51 22 29 50 22
29 50 22 29 50 22 29 50 22 29 50 22 29 50 22 29 49 22 29 49 22 29 49
22 28 49 22 28 49 22 28 49 22 28 48 22 28 48 22 28 48 22 28 48 22 28
48 22 28 47 21 28 47 21 28 47 21 28 47 21 28 47 21 27 47 21 27 46 21
27 46 21 27 46 21 27 46 21 27 46 21 27 46 21 27 45 21 27 45 21 27 45
21 27 45 21 27 45 21 26 45 21 26 44 21 26 44 21 26 44 21 26 44 21 26
44 21 26 44 21 26 43 21 26 43 21 26 43 21 26 43 21 26 43 21 25 43 21
25 42 20 25 42 20 25 42 20 25 42 20 25 42 20 25 42 20 25 42 20 25 41
20 20 31 16 20 31 16 25 41 20 24 41 20 24 41 20 24 41 20 24 40 20 24
40 20 24 40 20 24 40 20 24 40 20 24 40 19 24 39 19 24 39 19 24 39 19
23 39 19 23 39 19 23 39 19 23 39 19 23 39 19 23 38 19 23 38 19 23 38
19 23 38 19 23 38 19 23 38 19 23 38 19 23 37 19 22 37 18 22 37 18 22
37 18 22 37 18 22 37 18 22 37 18 22 37 18 22 37 18 22 36 18 22 36 18
22 36 18 22 36 18 22 36 18 22 36 18 21 36 18 21 36 18 21 35 17 21 35
17 21 35 17 21 35 17 21 35 17 21 35 17 21 35 17 21 35 17 21 35 17 21
34 17 21 34 17 21 34 17 20 34 17 20 34 17 20 34 17 20 34 17 20 34 17
20 34 16 20 34 16 20 33 16 20 33 16 20 33 16 20 33 16 20 33 16 20 33
16 20 33 16 20 33 16 20 33 16 19 33 16 19 32 16 19 32 16 19 32 16 19
32 16 19 32 16 19 32 16 19 32 16 19 32 15 19 32 15 19 32 15 19 32 15
19 32 15 19 31 15 19 31 15 19 31 15 19 31 15 19 31 15 18 31 15 18 31
15 18 31 15 18 31 15 18 31 15 18 31 15 18 31 15 18 30 15 18 30 15 18
30 15 18 30 15 18 30 14 18 30 14 18 30 14 18 30 14 18 30 14 18 30 14
18 30 14 18 30 14 18 30 14 17 29 14 17 29 14 17 29 14
18 35 10 18 35 10 18 35 10 18 35 10 18 35 10 18 35 10 18 35 10 18 36
10 18 36 10 18 36 10 18 36 10 18 36 10 18 36 10 18 36 10 18 36 10 18
36 10 18 37 10 18 37 10 19 37 10 19 37 10 19 37 10 19 37 10 19 37 10
19 37 10 19 38 10 19 38 10 19 38 10 19 38 10 19 38 10 19 38 10 19 38
10 19 39 11 19 39 11 19 39 11 20 39 11 20 39 11 20 39 11 20 39 11 20
39 11 20 40 11 20 40 11 20 40 11 20 40 11 20 40 11 20 40 11 20 41 11
20 41 11 20 41 11 20 41 11 21 41 11 21 41 11 21 41 11 21 42 11 21 42
11 21 42 11 21 42 11 21 42 11 21 42 11 21 43 11 21 43 11 21 43 11 21
43 11 22 43 12 22 43 12 22 44 12 22 44 12 22 44 12 22 44 12 22 44 12
22 44 12 22 45 12 22 45 12 22 45 12 22 45 12 23 45 12 23 45 12 23 46
12 23 46 12 23 46 12 23 46 12 23 46 12 23 46 12 23 47 12 23 47 12 23
47 12 23 47 12 24 47 12 24 48 12 24 48 12 24 48 12 24 48 12 24 48 13
24 48 13 27 49 18 27 49 18 27 50 18 27 50 18 27 50 18 27 50 18 27 50
18 27 51 18 27 51 18 27 51 18 28 51 19 28 51 19 28 51 19 28 52 19 28
52 19 28 52 19 28 52 19 28 52 19 28 52 19 28 53 19 28 53 19 29 53 19
29 53 19 29 53 19 29 54 19 29 54 19 29 54 19 29 54 20 29 54 20 29 54
20 29 55 20 30 55 20 30 55 20 30 55 20 30 55 20 30 55 20 30 55 20 30
56 20 30 56 20 30 56 20 30 56 20 30 56 20 30 56 20 31 56 20 31 57 20
31 57 20 31 57 20 31 57 20 31 57 21 31 57 21 31 57 21 31 57 21 31 57
21 31 58 21 31 58 21 31 58 21 31 58 21 31 58 21 31 58 21 32 58 21 32
58 21 32 58 21 32 58 21 32 58 21 32 58 21 32 58 21 32 59 21 32 59 21
32 59 21 32 59 21 32 59 21 32 59 21 32 59 21 32 59 21 32 59 21 32 59
21 32 59 21 32 59 22 32 59 22 32 59 22 32 59 22 32 59 22 32 59 22 32
59 22 32 59 22 32 59 22 32 59 22 32 59 22 32 58 22 32 58 22 32 58 22
32 58 22 32 58 22 32 58 22 32 58 22 32 58 22 32 58 22 32 58 22 32 58
22 32 58 22 32 58 22 32 57 22 32 57 22 32 57 22 32 57 22 32 57 22 32
57 22 32 57 22 32 57 22 32 57 22 32 56 22 32 56 22 32 56 22 31 56 22
31 56 22 5 8 21 5 7 20 5 7 21 4 3 8 4 3 8 31 55 22 31 55 22 31 55 22
31 54 22 31 54 22 31 54 22 31 54 22 31 54 22 31 54 22 31 53 22 30 53
22 30 53 22 30 53 22 30 53 22 30 53 22 30 52 22 30 52 22 30 52 22 30
52 22 30 52 22 30 51 22 30 51 22 30 51 22 30 51 22 29 51 22 29 51 22
29 50 22 29 50 22 29 50 22 29 50 22 29 50 22 29 49 22 29 49 22 29 49
22 29 49 22 29 49 22 29 49 22 28 48 22 28 48 22 28 48 22 28 48 22 28
48 22 28 47 22 28 47 22 28 47 22 28 47 22 28 47 22 28 47 22 28 46 22
27 46 22 27 46 22 27 46 22 27 46 22 27 46 22 22 34 17 22 34 17 22 33
17 22 33 17 21 33 17 21 33 17 21 33 17 21 33 16 21 33 16 21 33 16 21
33 16 21 32 16 21 32 16 21 32 16 21 32 16 21 32 16 21 32 16 21 32 16
21 32 16 21 32 16 20 31 16 20 31 16 20 31 16 20 31 16 20 31 16 20 31
16 20 31 16 20 31 16 20 31 16 20 30 16 20 30 16 20 30 16 20 30 16 20
30 16 20 30 16 19 30 16 24 40 20 24 40 20 24 39 20 24 39 20 24 39 19
24 39 19 23 39 19 23 39 19 23 39 19 23 38 19 23 38 19 23 38 19 23 38
19 23 38 19 23 38 19 23 38 19 23 38 19 23 37 19 22 37 19 22 37 19 22
37 18 22 37 18 22 37 18 22 37 18 22 37 18 22 36 18 22 36 18 22 36 18
22 36 18 22 36 18 22 36 18 21 36 18 21 36 18 21 35 18 21 35 18 21 35
17 21 35 17 21 35 17 21 35 17 21 35 17 21 35 17 21 35 17 21 34 17 21
34 17 21 34 17 21 34 17 20 34 17 20 34 17 20 34 17 20 34 17 20 34 17
20 34 17 20 33 16 20 33 16 20 33 16 20 33 16 20 33 16 20 33 16 20 33
16 20 33 16 20 33 16 20 33 16 19 33 16 19 32 16 19 32 16 19 32 16 19
32 16 19 32 16 19 32 16 19 32 16 19 32 15 19 32 15 19 32 15 19 32 15
19 31 15 19 31 15 19 31 15 19 31 15 19 31 15 19 31 15 18 31 15 18 31
15 18 31 15 18 31 15 18 31 15 18 31 15 18 31 15 18 30 15 18 30 15 18
30 15 18 30 15 18 30 14 18 30 14 18 30 14 18 30 14 18 30 14 18 30 14
18 35 10 18 36 10 18 36 10 18 36 10 18 36 10 18 36 10 18 36 10 18 36
10 18 36 10 18 36 10 18 37 10 18 37 10 19 37 10 19 37 10 19 37 10 19
37 10 19 37 10 19 37 10 19 38 10 19 38 10 19 38 10 19 38 10 19 38 10
19 38 10 19 38 11 19 39 11 19 39 11 19 39 11 20 39 11 20 39 11 20 39
11 20 39 11 20 40 11 20 40 11 20 40 11 20 40 11 20 40 11 20 40 11 20
40 11 20 41 11 20 41 11 20 41 11 21 41 11 21 41 11 21 41 11 21 41 11
21 42 11 21 42 11 21 42 11 21 42 11 21 42 11 21 42 11 21 43 11 21 43
11 21 43 11 21 43 12 22 43 12 22 43 12 22 44 12 22 44 12 22 44 12 22
44 12 22 44 12 22 44 12 22 45 12 22 45 12 22 45 12 22 45 12 23 45 12
23 45 12 23 46 12 23 46 12 23 46 12 23 46 12 23 46 12 23 47 12 23 47
12 23 47 12 23 47 12 24 47 12 24 47 12 24 48 12 24 48 12 24 48 13 24
48 13 24 48 13 24 49 13 24 49 13 24 49 13 24 49 13 25 49 13 25 50 13
25 50 13 25 50 13 25 50 13 25 50 13 25 51 13 25 51 13 25 51 13 25 51
13 25 51 13 26 51 13 28 52 19 28 53 19 28 53 19 28 53 19 29 53 19 29
53 19 29 53 19 29 54 19 29 54 19 29 54 19 29 54 20 29 54 20 29 55 20
29 55 20 30 55 20 30 55 20 30 55 20 30 55 20 30 56 20 30 56 20 30 56
20 30 56 20 30 56 20 30 56 20 31 57 20 31 57 20 31 57 20 31 57 20 31
57 20 31 57 21 31 58 21 31 58 21 31 58 21 31 58 21 31 58 21 31 58 21
32 58 21 32 59 21 32 59 21 32 59 21 32 59 21 32 59 21 32 59 21 32 59
21 32 59 21 32 59 21 32 60 21 32 60 21 32 60 21 32 60 21 32 60 21 33
60 21 33 60 22 33 60 22 33 60 22 33 60 22 33 60 22 33 60 22 33 60 22
33 60 22 33 60 22 33 60 22 33 60 22 33 61 22 33 61 22 33 61 22 33 61
22 33 61 22 33 61 22 33 61 22 33 61 22 33 61 22 33 60 22 33 60 22 33
60 22 33 60 22 33 60 22 33 60 22 33 60 22 33 60 22 33 60 22 33 60 22
33 60 22 33 60 22 33 60 22 33 60 22 33 60 22 33 60 22 33 60 22 33 59
22 33 59 22 33 59 22 33 59 23 33 59 23 33 59 23 33 59 23 33 59 23 33
58 23 33 58 23 33 58 23 33 58 23 32 58 23 32 58 23 32 58 23 32 58 23
32 57 23 32 57 23 32 57 23 32 57 23 32 57 23 32 57 23 32 56 23 32 56
23 32 56 23 32 56 23 32 56 23 32 56 23 32 55 23 31 55 23 31 55 23 31
55 23 31 55 23 31 54 23 31 54 23 31 54 23 31 54 23 31 54 23 31 53 23
31 53 23 31 53 23 31 53 23 31 53 23 30 53 23 30 52 23 30 52 23 30 52
23 30 52 23 30 52 23 30 51 23 30 51 23 30 51 23 30 51 23 30 51 23 30
50 23 29 50 23 29 50 23 29 50 23 29 50 23 29 49 23 29 49 23 29 49 23
29 49 23 29 49 23 29 48 23 29 48 23 28 48 22 23 35 17 23 35 17 23 35
17 23 35 17 22 35 17 22 35 17 22 35 17 22 35 17 22 34 17 22 34 17 22
34 17 22 34 17 22 34 17 22 34 17 22 34 17 22 34 17 22 33 17 22 33 17
22 33 17 22 33 17 21 33 17 21 33 17 21 33 17 21 33 17 21 33 17 21 32
17 21 32 17 21 32 17 21 32 17 21 32 17 21 32 17 21 32 17 21 32 17 21
32 16 21 31 16 21 31 16 20 31 16 20 31 16 20 31 16 20 31 16 20 31 16
20 31 16 20 31 16 20 30 16 20 30 16 20 30 16 20 30 16 20 30 16 24 40
20 24 40 20 24 40 20 24 39 20 24 39 20 24 39 20 24 39 20 24 39 20 23
39 20 23 39 19 23 39 19 23 38 19 23 38 19 23 38 19 23 38 19 23 38 19
23 38 19 23 38 19 23 37 19 23 37 19 23 37 19 22 37 19 22 37 19 22 37
19 22 37 18 22 37 18 22 37 18 22 36 18 22 36 18 22 36 18 22 36 18 22
36 18 22 36 18 22 36 18 21 36 18 21 35 18 21 35 18 21 35 18 21 35 18
21 35 17 21 35 17 21 35 17 21 35 17 21 35 17 21 34 17 21 34 17 21 34
17 21 34 17 20 34 17 20 34 17 20 34 17 20 34 17 20 34 17 20 34 17 20
33 17 20 33 16 20 33 16 20 33 16 20 33 16 20 33 16 20 33 16 20 33 16
20 33 16 20 33 16 19 33 16 19 32 16 19 32 16 19 32 16 19 32 16 19 32
16 19 32 16 19 32 16 19 32 16 19 32 16 19 32 15 19 32 15 19 31 15 19
31 15 19 31 15 19 31 15 19 31 15 19 31 15 18 31 15 18 31 15 18 31 15
18 31 15 18 31 15 18 31 15 18 31 15 18 30 15 18 30 15 18 30 15 18 30
15 18 30 15
18 36 10 18 36 10 18 36 10 18 36 10 18 37 10 18 37 10 19 37 10 19 37
10 19 37 10 19 37 10 19 37 10 19 37 10 19 38 10 19 38 10 19 38 10 19
38 10 19 38 10 19 38 10 19 38 11 19 39 11 19 39 11 19 39 11 20 39 11
20 39 11 20 39 11 20 39 11 20 39 11 20 40 11 20 40 11 20 40 11 20 40
11 20 40 11 20 40 11 20 41 11 20 41 11 20 41 11 20 41 11 21 41 11 21
41 11 21 41 11 21 42 11 21 42 11 21 42 11 21 42 11 21 42 11 21 42 11
21 43 11 21 43 11 21 43 11 21 43 12 22 43 12 22 43 12 22 44 12 22 44
12 22 44 12 22 44 12 22 44 12 22 44 12 22 45 12 22 45 12 22 45 12 22
45 12 23 45 12 23 45 12 23 46 12 23 46 12 23 46 12 23 46 12 23 46 12
23 47 12 23 47 12 23 47 12 23 47 12 24 47 12 24 48 12 24 48 13 24 48
13 24 48 13 24 48 13 24 49 13 24 49 13 24 49 13 24 49 13 24 49 13 25
49 13 25 50 13 25 50 13 25 50 13 25 50 13 25 50 13 25 51 13 25 51 13
25 51 13 25 51 13 26 51 13 26 52 13 26 52 13 26 52 13 26 52 13 26 52
13 26 53 13 26 53 13 26 53 14 26 53 14 26 53 14 27 54 14 27 54 14 27
54 14 27 54 14 30 55 20 30 55 20 30 56 20 30 56 20 30 56 20 30 56 20
30 56 20 30 57 20 30 57 20 31 57 20 31 57 20 31 57 20 31 57 20 31 58
21 31 58 21 31 58 21 31 58 21 31 58 21 31 59 21 32 59 21 32 59 21 32
59 21 32 59 21 32 59 21 32 59 21 32 60 21 32 60 21 32 60 21 32 60 21
32 60 21 33 60 21 33 60 21 33 61 22 33 61 22 33 61 22 33 61 22 33 61
22 33 61 22 33 61 22 33 61 22 33 61 22 33 62 22 33 62 22 33 62 22 33
62 22 34 62 22 34 62 22 34 62 22 34 62 22 34 62 22 34 62 22 34 62 22
34 62 22 34 62 22 34 62 22 34 62 22 34 62 22 34 62 22 34 62 22 34 62
22 34 62 23 34 62 23 34 62 23 34 62 23 34 62 23 34 62 23 34 62 23 34
62 23 34 62 23 34 62 23 34 62 23 34 62 23 34 62 23 34 62 23 34 62 23
34 62 23 34 62 23 34 62 23 34 62 23 34 61 23 34 61 23 34 61 23 34 61
23 34 61 23 34 61 23 34 61 23 34 61 23 34 61 23 34 60 23 34 60 23 34
60 23 34 60 23 33 60 23 33 60 23 33 60 23 33 59 23 33 59 23 33 59 23
33 59 23 33 59 23 33 59 23 33 58 23 33 58 23 18 28 22 18 28 22 18 28
22 18 28 22 18 27 22 18 27 22 18 27 22 18 27 22 18 27 22 18 27 22 18
27 22 18 27 22 18 27 22 18 27 22 18 27 22 18 27 22 18 27 22 18 27 22
18 26 22 18 26 22 18 26 22 18 26 22 18 26 22 18 26 22 31 53 23 31 53
23 31 53 23 31 53 23 31 53 23 31 52 23 30 52 23 30 52 23 30 52 23 30
52 23 30 51 23 30 51 23 30 51 23 30 51 23 30 51 23 24 37 18 24 37 18
24 37 18 24 37 18 23 37 18 23 36 18 23 36 18 23 36 18 23 36 18 23 36
18 23 36 18 23 36 18 23 36 18 23 35 18 23 35 18 23 35 18 23 35 18 23
35 18 23 35 18 23 35 18 22 35 18 22 34 18 22 34 17 22 34 17 22 34 17
22 34 17 22 34 17 22 34 17 22 34 17 22 33 17 22 33 17 22 33 17 22 33
17 22 33 17 22 33 17 21 33 17 21 33 17 21 32 17 21 32 17 21 32 17 21
32 17 21 32 17 21 32 17 21 32 17 21 32 17 21 32 17 21 31 17 21 31 17
21 31 17 20 31 17 20 31 17 20 31 16 20 31 16 20 31 16 20 31 16 20 30
16 20 30 16 24 40 20 24 40 20 24 40 20 24 40 20 24 40 20 24 40 20 24
39 20 24 39 20 24 39 20 24 39 20 24 39 20 24 39 20 23 39 20 23 38 20
23 38 19 23 38 19 23 38 19 23 38 19 23 38 19 23 38 19 23 38 19 23 37
19 23 37 19 23 37 19 22 37 19 22 37 19 22 37 19 22 37 19 22 37 18 22
36 18 22 36 18 22 36 18 22 36 18 22 36 18 22 36 18 22 36 18 22 36 18
21 36 18 21 35 18 21 35 18 21 35 18 21 35 18 21 35 18 21 35 17 21 35
17 21 35 17 21 35 17 21 34 17 21 34 17 21 34 17 21 34 17 21 34 17 20
34 17 20 34 17 20 34 17 20 34 17 20 34 17 20 33 17 20 33 17 20 33 16
20 33 16 20 33 16 20 33 16 20 33 16 20 33 16 20 33 16 20 33 16 20 33
16 19 32 16 19 32 16 19 32 16 19 32 16 19 32 16 19 32 16 19 32 16 19
32 16 19 32 16 19 32 16 19 32 15 19 32 15 19 31 15 19 31 15 19 31 15
19 31 15 19 31 15 19 31 15 18 31 15 18 31 15 18 31 15 18 31 15 18 31
15 18 31 15
19 37 10 19 37 10 19 37 10 19 37 10 19 37 10 19 37 10 19 38 10 19 38
10 19 38 10 19 38 10 19 38 10 19 38 10 19 38 11 19 38 11 19 39 11 19
39 11 20 39 11 20 39 11 20 39 11 20 39 11 20 39 11 20 40 11 20 40 11
20 40 11 20 40 11 20 40 11 20 40 11 20 40 11 20 41 11 20 41 11 20 41
11 21 41 11 21 41 11 21 41 11 21 42 11 21 42 11 21 42 11 21 42 11 21
42 11 21 42 11 21 43 11 21 43 11 21 43 11 21 43 12 22 43 12 22 43 12
22 44 12 22 44 12 22 44 12 22 44 12 22 44 12 22 44 12 22 45 12 22 45
12 22 45 12 22 45 12 23 45 12 23 45 12 23 46 12 23 46 12 23 46 12 23
46 12 23 46 12 23 47 12 23 47 12 23 47 12 23 47 12 24 47 12 24 48 13
24 48 13 24 48 13 24 48 13 24 48 13 24 49 13 24 49 13 24 49 13 24 49
13 24 49 13 25 50 13 25 50 13 25 50 13 25 50 13 25 50 13 25 51 13 25
51 13 25 51 13 25 51 13 25 51 13 26 52 13 26 52 13 26 52 13 26 52 13
26 52 13 26 53 14 26 53 14 26 53 14 26 53 14 26 54 14 27 54 14 27 54
14 27 54 14 27 54 14 27 55 14 27 55 14 27 55 14 27 55 14 27 55 14 27
56 14 28 56 14 28 56 14 28 56 14 28 56 14 28 57 14 28 57 14 28 57 14
28 57 14 31 58 21 31 58 21 31 59 21 32 59 21 32 59 21 32 59 21 32 59
21 32 60 21 32 60 21 32 60 21 32 60 21 32 60 21 32 60 21 33 61 21 33
61 21 33 61 22 33 61 22 33 61 22 33 61 22 33 62 22 33 62 22 33 62 22
33 62 22 33 62 22 34 62 22 34 62 22 34 63 22 34 63 22 34 63 22 34 63
22 34 63 22 34 63 22 34 63 22 34 63 22 34 63 22 34 64 22 34 64 22 34
64 23 34 64 23 35 64 23 35 64 23 35 64 23 35 64 23 35 64 23 35 64 23
35 64 23 35 64 23 35 64 23 35 64 23 35 64 23 35 64 23 35 64 23 35 64
23 35 64 23 35 64 23 35 64 23 35 64 23 35 64 23 35 64 23 35 64 23 35
64 23 35 64 23 35 64 23 35 64 23 35 64 23 35 64 23 35 64 23 35 64 23
35 64 23 35 63 23 35 63 23 35 63 23 35 63 23 35 63 23 35 63 23 35 63
23 35 63 23 35 63 23 35 62 24 35 62 24 35 62 24 35 62 24 34 62 24 34
62 24 34 62 24 34 61 24 34 61 24 34 61 24 34 61 24 34 61 24 18 29 22
18 29 22 18 28 22 18 28 22 18 28 22 18 28 22 18 28 22 18 28 22 18 28
22 18 28 22 18 28 22 18 28 22 18 28 22 18 28 22 18 28 22 18 28 22 18
27 22 18 27 22 18 27 22 18 27 22 18 27 22 18 27 22 18 27 22 18 27 22
18 27 22 18 27 22 18 27 22 18 27 22 18 27 22 18 26 22 18 26 22 18 26
22 18 26 22 18 26 22 31 54 24 31 53 24 31 53 24 31 53 24 31 53 24 25
39 18 25 39 18 24 38 18 24 38 18 24 38 18 24 38 18 24 38 18 24 38 18
24 38 18 24 37 18 24 37 18 24 37 18 24 37 18 24 37 18 24 37 18 24 37
18 24 36 18 24 36 18 23 36 18 23 36 18 23 36 18 23 36 18 23 36 18 23
36 18 23 35 18 23 35 18 23 35 18 23 35 18 23 35 18 23 35 18 23 35 18
23 35 18 23 34 18 22 34 18 22 34 18 22 34 18 22 34 18 22 34 18 22 34
18 22 34 18 22 33 18 22 33 18 22 33 18 22 33 18 22 33 18 22 33 18 22
33 17 21 33 17 21 32 17 21 32 17 21 32 17 21 32 17 21 32 17 21 32 17
21 32 17 21 32 17 21 32 17 21 31 17 21 31 17 21 31 17 21 31 17 20 31
17 20 31 17 25 41 21 25 41 21 25 41 21 25 41 21 25 40 21 25 40 21 24
40 21 24 40 20 24 40 20 24 40 20 24 40 20 24 39 20 24 39 20 24 39 20
24 39 20 24 39 20 24 39 20 23 39 20 23 38 20 23 38 20 23 38 20 23 38
19 23 38 19 23 38 19 23 38 19 23 38 19 23 37 19 23 37 19 23 37 19 22
37 19 22 37 19 22 37 19 22 37 19 22 37 19 22 36 19 22 36 18 22 36 18
22 36 18 22 36 18 22 36 18 22 36 18 22 36 18 22 36 18 21 35 18 21 35
18 21 35 18 21 35 18 21 35 18 21 35 18 21 35 17 21 35 17 21 35 17 21
34 17 21 34 17 21 34 17 21 34 17 21 34 17 20 34 17 20 34 17 20 34 17
20 34 17 20 34 17 20 33 17 20 33 17 20 33 17 20 33 16 20 33 16 20 33
16 20 33 16 20 33 16 20 33 16 20 33 16 20 33 16 19 32 16 19 32 16 19
32 16 19 32 16 19 32 16 19 32 16 19 32 16 19 32 16 19 32 16 19 32 16
19 32 15 19 32 15 19 31 15 19 31 15 19 31 15 19 31 15 19 31 15 19 31
15 18 31 15
19 38 10 19 38 10 19 38 10 19 38 10 19 38 10 19 38 10 19 38 11 19 38
11 19 39 11 19 39 11 19 39 11 20 39 11 20 39 11 20 39 11 20 39 11 20
40 11 20 40 11 20 40 11 20 40 11 20 40 11 20 40 11 20 40 11 20 41 11
20 41 11 20 41 11 21 41 11 21 41 11 21 41 11 21 41 11 21 42 11 21 42
11 21 42 11 21 42 11 21 42 11 21 42 11 21 43 11 21 43 11 21 43 12 22
43 12 22 43 12 22 43 12 22 44 12 22 44 12 22 44 12 22 44 12 22 44 12
22 44 12 22 45 12 22 45 12 22 45 12 23 45 12 23 45 12 23 46 12 23 46
12 23 46 12 23 46 12 23 46 12 23 47 12 23 47 12 23 47 12 23 47 12 24
47 12 24 48 13 24 48 13 24 48 13 24 48 13 24 48 13 24 49 13 24 49 13
24 49 13 24 49 13 24 49 13 25 50 13 25 50 13 25 50 13 25 50 13 25 50
13 25 51 13 25 51 13 25 51 13 25 51 13 25 51 13 26 52 13 26 52 13 26
52 13 26 52 14 26 53 14 26 53 14 26 53 14 26 53 14 26 53 14 27 54 14
27 54 14 27 54 14 27 54 14 27 55 14 27 55 14 27 55 14 27 55 14 27 55
14 27 56 14 28 56 14 28 56 14 28 56 14 28 57 14 28 57 14 28 57 14 28
57 14 28 57 14 28 58 14 29 58 14 29 58 15 29 58 15 29 58 15 29 59 15
29 59 15 29 59 15 29 59 15 29 59 15 29 60 15 30 60 15 30 60 15 30 60
15 33 61 22 33 61 22 33 62 22 33 62 22 33 62 22 33 62 22 33 62 22 34
63 22 34 63 22 34 63 22 34 63 22 34 63 22 34 63 22 34 64 22 34 64 22
34 64 22 34 64 22 34 64 22 35 64 23 35 64 23 35 65 23 35 65 23 35 65
23 35 65 23 35 65 23 35 65 23 35 65 23 35 65 23 35 65 23 35 65 23 35
66 23 35 66 23 35 66 23 36 66 23 36 66 23 36 66 23 36 66 23 36 66 23
36 66 23 36 66 23 36 66 23 36 66 23 36 66 23 36 66 23 36 66 23 36 66
23 36 66 24 36 66 24 36 66 24 36 66 24 36 66 24 36 66 24 36 66 24 36
66 24 36 66 24 36 66 24 36 66 24 36 66 24 36 66 24 36 66 24 36 65 24
36 65 24 36 65 24 36 65 24 36 65 24 36 65 24 36 65 24 36 65 24 36 65
24 36 64 24 36 64 24 36 64 24 36 64 24 35 64 24 35 64 24 35 64 24 35
63 24 35 63 24 35 63 24 19 29 22 19 29 22 19 29 22 19 29 22 19 29 22
19 29 22 19 29 23 19 29 23 19 29 23 19 29 23 19 29 23 19 29 23 19 28
23 18 28 23 18 28 23 18 28 23 18 28 23 18 28 23 18 28 23 18 28 23 18
28 23 18 28 23 18 28 23 18 28 23 18 28 23 18 27 23 18 27 23 18 27 23
18 27 23 18 27 23 18 27 23 18 27 23 18 27 23 18 27 23 18 27 23 18 27
23 18 27 23 11 12 17 11 12 17 12 12 17 12 12 17 25 40 18 25 40 18 25
40 18 25 39 18 25 39 18 25 39 18 25 39 18 25 39 18 25 39 19 25 39 19
25 38 19 25 38 19 25 38 19 24 38 19 24 38 19 24 38 19 24 37 19 24 37
19 24 37 19 24 37 19 24 37 19 24 37 19 24 37 19 24 36 19 24 36 19 24
36 19 24 36 19 24 36 19 23 36 19 23 36 19 23 36 19 23 35 19 23 35 18
23 35 18 23 35 18 23 35 18 23 35 18 23 35 18 23 34 18 23 34 18 23 34
18 23 34 18 22 34 18 22 34 18 22 34 18 22 34 18 22 33 18 22 33 18 22
33 18 22 33 18 22 33 18 22 33 18 22 33 18 22 33 18 22 32 18 21 32 18
21 32 18 21 32 18 21 32 18 21 32 17 21 32 17 21 32 17 21 32 17 21 31
17 21 31 17 25 42 22 25 41 21 25 41 21 25 41 21 25 41 21 25 41 21 25
41 21 25 41 21 25 40 21 25 40 21 25 40 21 24 40 21 24 40 21 24 40 21
24 40 20 24 39 20 24 39 20 24 39 20 24 39 20 24 39 20 24 39 20 24 39
20 23 38 20 23 38 20 23 38 20 23 38 20 23 38 20 23 38 19 23 38 19 23
38 19 23 37 19 23 37 19 23 37 19 23 37 19 22 37 19 22 37 19 22 37 19
22 37 19 22 36 19 22 36 19 22 36 18 22 36 18 22 36 18 22 36 18 22 36
18 22 36 18 22 36 18 22 35 18 21 35 18 21 35 18 21 35 18 21 35 18 21
35 18 21 35 18 21 35 18 21 35 17 21 35 17 21 34 17 21 34 17 21 34 17
21 34 17 21 34 17 20 34 17 20 34 17 20 34 17 20 34 17 20 34 17 20 33
17 20 33 17 20 33 17 20 33 17 20 33 16 20 33 16 20 33 16 20 33 16 20
33 16 20 33 16 20 33 16 19 32 16 19 32 16 19 32 16 19 32 16 19 32 16
19 32 16 19 32 16 19 32 16 19 32 16 19 32 16 19 32 16 19 32 15 19 31
15 19 31 15
21 39 15 21 39 15 21 39 15 19 39 11 19 39 11 20 39 11 20 39 11 20 39
11 20 39 11 20 39 11 20 40 11 20 40 11 20 40 11 20 40 11 20 40 11 20
40 11 20 40 11 20 41 11 20 41 11 20 41 11 21 41 11 21 41 11 21 41 11
21 42 11 21 42 11 21 42 11 21 42 11 21 42 11 21 42 11 21 42 11 21 43
11 21 43 12 21 43 12 22 43 12 22 43 12 22 43 12 22 44 12 22 44 12 22
44 12 22 44 12 22 44 12 22 45 12 22 45 12 22 45 12 22 45 12 23 45 12
23 45 12 23 46 12 23 46 12 23 46 12 23 46 12 23 46 12 23 47 12 23 47
12 23 47 12 23 47 12 24 47 13 24 48 13 24 48 13 24 48 13 24 48 13 24
48 13 24 49 13 24 49 13 24 49 13 24 49 13 25 49 13 25 50 13 25 50 13
25 50 13 25 50 13 25 51 13 25 51 13 25 51 13 25 51 13 25 51 13 26 52
13 26 52 13 26 52 14 26 52 14 26 53 14 26 53 14 26 53 14 26 53 14 26
53 14 27 54 14 27 54 14 27 54 14 27 54 14 27 55 14 27 55 14 27 55 14
27 55 14 27 56 14 28 56 14 28 56 14 28 56 14 28 56 14 28 57 14 28 57
14 28 57 14 28 57 15 28 58 15 29 58 15 29 58 15 29 58 15 29 59 15 29
59 15 29 59 15 29 59 15 29 59 15 29 60 15 30 60 15 30 60 15 30 60 15
30 61 15 30 61 15 30 61 15 30 61 15 30 61 15 30 62 15 30 62 15 31 62
15 31 62 15 31 62 15 31 63 15 31 63 15 31 63 15 34 64 22 34 64 22 34
64 22 35 65 23 35 65 23 35 65 23 35 65 23 35 65 23 35 65 23 35 66 23
35 66 23 35 66 23 35 66 23 35 66 23 36 66 23 36 66 23 36 67 23 36 67
23 36 67 23 36 67 23 36 67 23 36 67 23 36 67 23 36 67 23 36 67 23 36
67 24 36 68 24 36 68 24 37 68 24 37 68 24 37 68 24 37 68 24 37 68 24
37 68 24 37 68 24 37 68 24 37 68 24 37 68 24 37 68 24 37 68 24 37 68
24 37 68 24 37 68 24 37 68 24 37 68 24 37 68 24 37 68 24 37 68 24 37
68 24 37 68 24 37 68 24 37 68 24 37 68 24 37 67 24 37 67 24 37 67 24
37 67 24 37 67 24 37 67 24 37 67 24 37 67 24 37 67 24 37 66 24 37 66
24 37 66 24 37 66 24 36 66 24 36 66 25 36 66 25 36 65 25 36 65 25 19
30 23 19 30 23 19 30 23 19 30 23 19 30 23 19 30 23 19 30 23 19 30 23
19 29 23 19 29 23 19 29 23 19 29 23 19 29 23 19 29 23 19 29 23 19 29
23 19 29 23 19 29 23 19 29 23 19 29 23 19 28 23 19 28 23 19 28 23 19
28 23 19 28 23 19 28 23 19 28 23 19 28 23 19 28 23 19 28 23 19 28 23
19 28 23 19 28 23 19 27 23 19 27 23 19 27 23 12 12 17 12 12 17 12 12
17 12 12 17 12 12 17 12 12 17 12 12 17 12 12 17 12 12 17 26 41 19 26
40 19 26 40 19 26 40 19 26 40 19 25 40 19 25 40 19 25 39 19 25 39 19
25 39 19 25 39 19 25 39 19 25 39 19 25 39 19 25 38 19 25 38 19 25 38
19 25 38 19 25 38 19 25 38 19 24 37 19 24 37 19 24 37 19 24 37 19 24
37 19 24 37 19 24 37 19 24 36 19 24 36 19 24 36 19 24 36 19 24 36 19
24 36 19 24 36 19 23 35 19 23 35 19 23 35 19 23 35 19 23 35 19 23 35
19 23 35 19 23 35 19 23 34 19 23 34 19 23 34 19 23 34 19 23 34 19 22
34 19 22 34 18 22 34 18 22 33 18 22 33 18 22 33 18 22 33 18 22 33 18
22 33 18 22 33 18 22 33 18 22 32 18 22 32 18 21 32 18 21 32 18 21 32
18 21 32 18 21 32 18 21 32 18 21 32 17 21 31 17 21 31 17 21 31 17 21
31 17 21 31 17 21 31 17 20 31 17 20 31 17 25 41 21 25 40 21 25 40 21
25 40 21 25 40 21 24 40 21 24 40 21 24 40 21 24 39 21 24 39 20 24 39
20 24 39 20 24 39 20 24 39 20 24 39 20 24 39 20 23 38 20 23 38 20 23
38 20 23 38 20 23 38 20 23 38 20 23 38 19 23 37 19 23 37 19 23 37 19
23 37 19 23 37 19 22 37 19 22 37 19 22 37 19 22 37 19 22 36 19 22 36
19 22 36 19 22 36 18 22 36 18 22 36 18 22 36 18 22 36 18 22 36 18 22
35 18 21 35 18 21 35 18 21 35 18 21 35 18 21 35 18 21 35 18 21 35 18
21 35 18 21 34 17 21 34 17 21 34 17 21 34 17 21 34 17 21 34 17 20 34
17 20 34 17 20 34 17 20 34 17 20 34 17 20 33 17 20 33 17 20 33 17 20
33 17 20 33 16 20 33 16 20 33 16 20 33 16 20 33 16 20 33 16 20 33 16
19 32 16 19 32 16 19 32 16 19 32 16 19 32 16 19 32 16 19 32 16 19 32
16 19 32 16
21 39 15 21 40 15 22 40 15 22 40 15 22 40 15 22 40 15 22 40 15 20 40
11 20 40 11 20 40 11 20 40 11 20 40 11 20 41 11 20 41 11 20 41 11 21
41 11 21 41 11 21 41 11 21 42 11 21 42 11 21 42 11 21 42 11 21 42 11
21 42 11 21 43 11 21 43 12 21 43 12 21 43 12 22 43 12 22 43 12 22 44
12 22 44 12 22 44 12 22 44 12 22 44 12 22 44 12 22 45 12 22 45 12 22
45 12 22 45 12 23 45 12 23 46 12 23 46 12 23 46 12 23 46 12 23 46 12
23 46 12 23 47 12 23 47 12 23 47 12 23 47 13 24 47 13 24 48 13 24 48
13 24 48 13 24 48 13 24 48 13 24 49 13 24 49 13 24 49 13 24 49 13 25
50 13 25 50 13 25 50 13 25 50 13 25 50 13 25 51 13 25 51 13 25 51 13
25 51 13 26 52 13 26 52 13 26 52 14 26 52 14 26 52 14 26 53 14 26 53
14 26 53 14 26 53 14 26 54 14 27 54 14 27 54 14 27 54 14 27 55 14 27
55 14 27 55 14 27 55 14 27 55 14 28 56 14 28 56 14 28 56 14 28 56 14
28 57 14 28 57 15 28 57 15 28 57 15 28 58 15 29 58 15 29 58 15 29 58
15 29 59 15 29 59 15 29 59 15 29 59 15 29 60 15 29 60 15 30 60 15 30
60 15 30 61 15 30 61 15 30 61 15 30 61 15 30 62 15 30 62 15 31 62 15
31 62 15 31 62 15 31 63 15 31 63 15 31 63 16 31 63 16 31 64 16 31 64
16 31 64 16 32 64 16 32 64 16 32 65 16 32 65 16 32 65 16 32 65 16 32
65 16 32 65 16 32 66 16 32 66 16 32 66 16 33 66 16 33 66 16 36 67 23
36 68 23 36 68 23 36 68 23 36 68 24 37 68 24 37 68 24 37 68 24 37 69
24 37 69 24 37 69 24 37 69 24 37 69 24 37 69 24 37 69 24 37 69 24 37
69 24 37 69 24 37 70 24 38 70 24 38 70 24 38 70 24 38 70 24 38 70 24
38 70 24 38 70 24 38 70 24 38 70 24 38 70 24 38 70 24 38 70 24 38 70
24 38 70 24 38 70 25 38 70 25 38 70 25 38 70 25 38 70 25 38 70 25 38
70 25 38 70 25 38 70 25 38 69 25 38 69 25 38 69 25 38 69 25 38 69 25
38 69 25 38 69 25 38 69 25 38 69 25 38 68 25 38 68 25 38 68 25 38 68
25 37 68 25 37 68 25 37 68 25 37 67 25 19 31 23 19 31 23 19 31 23 19
31 23 19 30 23 19 30 23 19 30 23 19 30 23 19 30 23 19 30 23 19 30 23
19 30 23 19 30 23 19 30 23 19 30 23 19 30 23 19 29 23 19 29 23 19 29
24 19 29 24 19 29 24 19 29 24 19 29 24 19 29 24 19 29 24 19 29 24 19
29 24 19 29 24 19 28 24 19 28 24 19 28 24 19 28 24 19 28 24 19 28 24
19 28 24 12 12 17 12 12 17 12 12 17 12 12 17 12 12 17 12 12 17 12 12
17 12 12 17 12 12 18 12 12 18 12 12 18 12 12 18 12 12 18 12 12 18 26
41 19 26 41 19 26 41 19 26 41 19 26 41 19 26 40 19 26 40 19 26 40 19
26 40 20 26 40 20 26 40 20 26 39 20 25 39 20 25 39 20 25 39 20 25 39
20 25 39 20 25 38 20 25 38 20 25 38 20 25 38 20 25 38 20 25 38 20 25
38 20 25 37 20 25 37 20 24 37 20 24 37 20 24 37 20 24 37 20 24 37 20
24 36 20 24 36 20 24 36 19 24 36 19 24 36 19 24 36 19 24 36 19 24 35
19 23 35 19 23 35 19 23 35 19 23 35 19 23 35 19 23 35 19 23 34 19 23
34 19 23 34 19 23 34 19 23 34 19 23 34 19 23 34 19 22 34 19 22 33 19
22 33 19 22 33 19 22 33 19 22 33 18 22 33 18 22 33 18 22 33 18 22 32
18 22 32 18 22 32 18 22 32 18 21 32 18 21 32 18 21 32 18 21 32 18 21
32 18 21 31 18 21 31 18 21 31 18 21 31 17 21 31 17 21 31 17 21 31 17
21 31 17 20 31 17 20 30 17 20 30 17 20 30 17 20 30 17 25 40 21 24 40
21 24 40 21 24 39 21 24 39 21 24 39 21 24 39 20 24 39 20 24 39 20 24
39 20 24 39 20 24 38 20 23 38 20 23 38 20 23 38 20 23 38 20 23 38 20
23 38 20 23 38 20 23 37 19 23 37 19 23 37 19 23 37 19 23 37 19 22 37
19 22 37 19 22 37 19 22 36 19 22 36 19 22 36 19 22 36 19 22 36 19 22
36 18 22 36 18 22 36 18 22 36 18 22 35 18 21 35 18 21 35 18 21 35 18
21 35 18 21 35 18 21 35 18 21 35 18 21 35 18 21 35 18 21 34 17 21 34
17 21 34 17 21 34 17 21 34 17 21 34 17 20 34 17 20 34 17 20 34 17 20
34 17 20 33 17 20 33 17 20 33 17 20 33 17 20 33 17 20 33 17 20 33 16
20 33 16 20 33 16 20 33 16 20 33 16 20 32 16 19 32 16 19 32 16 19 32
16 19 32 16
22 40 15 22 40 15 22 40 15 22 41 15 22 41 15 22 41 15 22 41 15 22 41
15 22 41 15 22 41 15 23 42 16 21 41 11 21 41 11 21 42 11 21 42 11 21
42 11 21 42 11 21 42 11 21 42 11 21 43 11 21 43 12 21 43 12 21 43 12
22 43 12 22 43 12 22 44 12 22 44 12 22 44 12 22 44 12 22 44 12 22 44
12 22 45 12 22 45 12 22 45 12 22 45 12 23 45 12 23 46 12 23 46 12 23
46 12 23 46 12 23 46 12 23 46 12 23 47 12 23 47 12 23 47 12 23 47 13
24 47 13 24 48 13 24 48 13 24 48 13 24 48 13 24 48 13 24 49 13 24 49
13 24 49 13 24 49 13 25 50 13 25 50 13 25 50 13 25 50 13 25 50 13 25
51 13 25 51 13 25 51 13 25 51 13 26 52 13 26 52 14 26 52 14 26 52 14
26 52 14 26 53 14 26 53 14 26 53 14 26 53 14 27 54 14 27 54 14 27 54
14 27 54 14 27 55 14 27 55 14 27 55 14 27 55 14 27 56 14 28 56 14 28
56 14 28 56 14 28 57 15 28 57 15 28 57 15 28 57 15 28 58 15 29 58 15
29 58 15 29 58 15 29 59 15 29 59 15 29 59 15 29 59 15 29 60 15 30 60
15 30 60 15 30 60 15 30 61 15 30 61 15 30 61 15 30 61 15 30 62 15 30
62 15 31 62 16 31 62 16 31 63 16 31 63 16 31 63 16 31 63 16 31 64 16
31 64 16 32 64 16 32 64 16 32 65 16 32 65 16 32 65 16 32 65 16 32 65
16 32 66 16 32 66 16 33 66 16 33 66 16 33 67 16 33 67 16 33 67 16 33
67 16 33 67 16 33 68 16 33 68 16 33 68 16 33 68 16 34 68 16 34 68 16
34 69 16 34 69 16 34 69 16 34 69 16 34 69 16 34 69 16 34 69 16 38 70
24 38 71 24 38 71 24 38 71 24 38 71 24 38 71 24 38 71 24 38 71 24 38
71 25 38 71 25 38 71 25 38 72 25 39 72 25 39 72 25 39 72 25 39 72 25
39 72 25 39 72 25 39 72 25 39 72 25 39 72 25 39 72 25 39 72 25 39 72
25 39 72 25 39 72 25 39 72 25 39 72 25 39 72 25 39 72 25 39 72 25 39
72 25 39 71 25 39 71 25 39 71 25 39 71 25 39 71 25 39 71 25 39 71 25
39 71 25 39 71 25 39 70 25 39 70 25 39 70 25 39 70 25 39 70 25 38 70
25 38 70 25 38 69 25 20 31 23 20 31 24 20 31 24 20 31 24 20 31 24 20
31 24 20 31 24 20 31 24 20 31 24 20 31 24 20 31 24 20 30 24 20 30 24
20 30 24 19 30 24 19 30 24 19 30 24 19 30 24 19 30 24 19 30 24 19 30
24 19 30 24 19 29 24 19 29 24 19 29 24 19 29 24 19 29 24 19 29 24 19
29 24 19 29 24 19 29 24 19 29 24 19 29 24 19 29 24 12 12 17 12 12 17
12 12 17 12 12 17 12 12 18 12 12 18 12 12 18 12 12 18 12 12 18 12 12
18 12 12 18 12 12 18 12 12 18 12 12 18 12 12 18 12 12 18 12 12 18 27
42 20 27 42 20 27 42 20 27 41 20 12 12 18 12 12 18 12 12 18 12 12 18
12 12 19 12 12 19 12 12 19 12 12 19 12 12 19 26 40 20 26 40 20 26 39
20 26 39 20 26 39 20 26 39 20 26 39 20 25 39 20 25 38 20 25 38 20 25
38 20 25 38 20 25 38 20 25 38 20 25 38 20 25 37 20 25 37 20 25 37 20
25 37 20 25 37 20 24 37 20 24 37 20 24 36 20 24 36 20 24 36 20 24 36
20 24 36 20 24 36 20 24 36 20 24 35 20 24 35 20 24 35 20 23 35 20 23
35 20 23 35 20 23 35 19 23 34 19 23 34 19 23 34 19 23 34 19 23 34 19
23 34 19 23 34 19 23 34 19 23 33 19 22 33 19 22 33 19 22 33 19 22 33
19 22 33 19 22 33 19 22 33 19 22 32 19 22 32 18 22 32 18 22 32 18 22
32 18 21 32 18 21 32 18 21 32 18 21 32 18 21 31 18 21 31 18 21 31 18
21 31 18 21 31 18 21 31 18 21 31 17 21 31 17 21 31 17 20 30 17 20 30
17 20 30 17 20 30 17 25 40 21 25 40 21 24 40 21 24 39 21 24 39 21 24
39 21 24 39 21 24 39 21 24 39 20 24 39 20 24 39 20 24 38 20 24 38 20
23 38 20 23 38 20 23 38 20 23 38 20 23 38 20 23 38 20 23 37 20 23 37
19 23 37 19 23 37 19 23 37 19 23 37 19 22 37 19 22 37 19 22 36 19 22
36 19 22 36 19 22 36 19 22 36 19 22 36 19 22 36 18 22 36 18 22 36 18
22 35 18 22 35 18 21 35 18 21 35 18 21 35 18 21 35 18 21 35 18 21 35
18 21 35 18 21 35 18 21 34 18 21 34 17 21 34 17 21 34 17 21 34 17 21
34 17 21 34 17 20 34 17 20 34 17 20 34 17 20 34 17 20 33 17 20 33 17
20 33 17 20 33 17 20 33 17 20 33 17 20 33 16 20 33 16 20 33 16 20 33
16 20 33 16
22 41 15 22 41 15 22 41 15 22 41 15 22 41 15 22 42 16 23 42 16 23 42
16 23 42 16 23 42 16 23 42 16 23 43 16 23 43 16 23 43 16 23 43 16 23
43 16 23 43 16 21 43 12 22 43 12 22 43 12 22 44 12 22 44 12 22 44 12
22 44 12 22 44 12 22 44 12 22 45 12 22 45 12 22 45 12 22 45 12 23 45
12 23 45 12 23 46 12 23 46 12 23 46 12 23 46 12 23 46 12 23 47 12 23
47 12 23 47 13 23 47 13 24 47 13 24 48 13 24 48 13 24 48 13 24 48 13
24 48 13 24 49 13 24 49 13 24 49 13 24 49 13 25 50 13 25 50 13 25 50
13 25 50 13 25 50 13 25 51 13 25 51 13 25 51 13 25 51 13 26 52 14 26
52 14 26 52 14 26 52 14 26 53 14 26 53 14 26 53 14 26 53 14 26 53 14
27 54 14 27 54 14 27 54 14 27 54 14 27 55 14 27 55 14 27 55 14 27 55
14 27 56 14 28 56 14 28 56 14 28 56 15 28 57 15 28 57 15 28 57 15 28
58 15 28 58 15 29 58 15 29 58 15 29 59 15 29 59 15 29 59 15 29 59 15
29 60 15 29 60 15 30 60 15 30 60 15 30 61 15 30 61 15 30 61 15 30 61
15 30 62 16 31 62 16 31 62 16 31 63 16 31 63 16 31 63 16 31 63 16 31
64 16 31 64 16 32 64 16 32 64 16 32 65 16 32 65 16 32 65 16 32 65 16
32 66 16 32 66 16 32 66 16 33 66 16 33 67 16 33 67 16 33 67 16 33 67
16 33 67 16 33 68 16 33 68 16 33 68 16 34 68 16 34 69 17 34 69 17 34
69 17 34 69 17 34 69 17 34 70 17 34 70 17 34 70 17 34 70 17 35 70 17
35 70 17 35 71 17 35 71 17 35 71 17 35 71 17 35 71 17 35 71 17 35 71
17 35 72 17 35 72 17 35 72 17 35 72 17 35 72 17 35 72 17 39 73 25 39
73 25 39 73 25 39 73 25 39 73 25 40 74 25 40 74 25 40 74 25 40 74 25
40 74 25 40 74 25 40 74 25 40 74 25 40 74 25 40 74 25 40 74 25 40 74
25 40 74 25 40 74 25 40 74 25 40 74 26 40 74 26 40 73 26 40 73 26 40
73 26 40 73 26 40 73 26 40 73 26 40 73 26 40 73 26 40 73 26 40 73 26
40 73 26 40 72 26 40 72 26 40 72 26 40 72 26 39 72 26 39 72 26 39 71
26 20 32 24 20 32 24 20 32 24 20 32 24 20 32 24 20 32 24 20 32 24 20
31 24 20 31 24 20 31 24 20 31 24 20 31 24 20 31 24 20 31 24 20 31 24
20 31 24 20 31 24 20 31 24 20 30 24 20 30 24 20 30 24 20 30 24 20 30
24 20 30 24 20 30 24 20 30 24 20 30 24 20 30 24 20 30 25 20 29 25 20
29 25 20 29 25 20 29 25 12 12 17 12 12 17 12 12 18 12 12 18 12 12 18
12 12 18 12 12 18 12 12 18 12 12 18 12 12 18 12 12 18 12 12 18 12 12
18 12 12 18 12 12 18 12 12 18 12 12 18 12 12 18 12 12 18 12 12 19 12
12 19 12 12 19 12 12 19 12 12 19 12 12 19 12 12 19 12 12 19 12 12 19
12 12 19 12 12 19 13 12 19 13 12 19 13 12 19 13 12 19 13 12 19 13 12
19 13 12 19 13 12 19 13 12 19 13 12 19 13 12 19 13 12 19 13 12 19 26
39 21 26 39 21 26 39 21 26 38 21 25 38 21 25 38 21 25 38 21 25 38 21
25 38 21 25 37 21 25 37 21 25 37 21 25 37 21 25 37 21 25 37 20 25 37
20 24 36 20 24 36 20 24 36 20 24 36 20 24 36 20 24 36 20 24 36 20 24
35 20 24 35 20 24 35 20 24 35 20 24 35 20 23 35 20 23 35 20 23 34 20
23 34 20 23 34 20 23 34 20 23 34 20 23 34 19 23 34 19 23 34 19 23 33
19 23 33 19 22 33 19 22 33 19 22 33 19 22 33 19 22 33 19 22 33 19 22
32 19 22 32 19 22 32 19 22 32 19 22 32 18 22 32 18 21 32 18 21 32 18
21 32 18 21 31 18 21 31 18 21 31 18 21 31 18 21 31 18 21 31 18 21 31
18 21 31 18 21 31 17 20 30 17 20 30 17 25 40 21 25 40 21 25 40 21 25
40 21 24 40 21 24 39 21 24 39 21 24 39 21 24 39 21 24 39 21 24 39 21
24 39 20 24 39 20 24 38 20 24 38 20 23 38 20 23 38 20 23 38 20 23 38
20 23 38 20 23 38 20 23 37 20 23 37 20 23 37 19 23 37 19 23 37 19 23
37 19 22 37 19 22 37 19 22 36 19 22 36 19 22 36 19 22 36 19 22 36 19
22 36 19 22 36 19 22 36 18 22 36 18 22 36 18 22 35 18 22 35 18 21 35
18 21 35 18 21 35 18 21 35 18 21 35 18 21 35 18 21 35 18 21 34 18 21
34 18 21 34 17 21 34 17 21 34 17 21 34 17 21 34 17 20 34 17 20 34 17
20 34 17 20 34 17 20 33 17 20 33 17 20 33 17 20 33 17 20 33 17 20 33
17 20 33 17
22 42 16 23 42 16 23 42 16 23 42 16 23 42 16 23 42 16 23 43 16 23 43
16 23 43 16 23 43 16 23 43 16 23 43 16 23 43 16 24 44 16 24 44 16 24
44 16 24 44 16 24 44 16 24 45 16 24 45 17 24 45 17 24 45 17 22 45 12
22 45 12 22 45 12 23 45 12 23 45 12 23 46 12 23 46 12 23 46 12 23 46
12 23 46 12 23 47 12 23 47 12 23 47 13 23 47 13 24 47 13 24 48 13 24
48 13 24 48 13 24 48 13 24 48 13 24 49 13 24 49 13 24 49 13 24 49 13
25 49 13 25 50 13 25 50 13 25 50 13 25 50 13 25 51 13 25 51 13 25 51
13 25 51 13 25 52 14 26 52 14 26 52 14 26 52 14 26 52 14 26 53 14 26
53 14 26 53 14 26 53 14 27 54 14 27 54 14 27 54 14 27 54 14 27 55 14
27 55 14 27 55 14 27 55 14 27 56 14 28 56 14 28 56 15 28 56 15 28 57
15 28 57 15 28 57 15 28 58 15 28 58 15 29 58 15 29 58 15 29 59 15 29
59 15 29 59 15 29 59 15 29 60 15 30 60 15 30 60 15 30 61 15 30 61 15
30 61 15 30 61 16 30 62 16 30 62 16 31 62 16 31 62 16 31 63 16 31 63
16 31 63 16 31 64 16 31 64 16 32 64 16 32 64 16 32 65 16 32 65 16 32
65 16 32 65 16 32 66 16 32 66 16 33 66 16 33 67 16 33 67 16 33 67 16
33 67 17 33 68 17 33 68 17 33 68 17 34 68 17 34 69 17 34 69 17 34 69
17 34 69 17 34 69 17 34 70 17 34 70 17 34 70 17 35 70 17 35 71 17 35
71 17 35 71 17 35 71 17 35 71 17 35 72 17 35 72 17 35 72 17 35 72 17
35 72 17 36 72 17 36 73 17 36 73 17 36 73 17 36 73 17 36 73 17 36 73
17 36 73 17 36 74 17 36 74 17 36 74 17 36 74 17 36 74 17 36 74 17 36
74 17 36 74 17 37 74 17 37 74 17 37 74 17 41 76 26 41 76 26 41 76 26
41 76 26 41 76 26 41 76 26 41 76 26 41 76 26 41 76 26 41 76 26 41 76
26 41 76 26 41 76 26 41 76 26 41 75 26 41 75 26 41 75 26 41 75 26 41
75 26 41 75 26 41 75 26 41 75 26 41 75 26 41 75 26 41 75 26 41 74 26
41 74 26 41 74 26 41 74 26 40 74 26 40 74 26 40 73 26 40 73 26 20 33
24 20 33 24 20 33 24 20 32 24 20 32 24 20 32 24 20 32 24 20 32 24 20
32 24 20 32 24 20 32 24 20 32 24 20 32 24 20 31 24 20 31 25 20 31 25
20 31 25 20 31 25 20 31 25 20 31 25 20 31 25 20 31 25 20 31 25 20 30
25 20 30 25 20 30 25 20 30 25 20 30 25 20 30 25 20 30 25 20 30 25 12
12 17 12 12 18 12 12 18 12 12 18 12 12 18 12 12 18 12 12 18 12 12 18
12 12 18 12 12 18 12 12 18 12 12 18 12 12 18 12 12 18 12 12 18 12 12
19 12 12 19 12 12 19 12 12 19 12 12 19 12 12 19 12 12 19 12 12 19 12
12 19 13 12 19 13 12 19 13 12 19 13 12 19 13 12 19 13 12 19 13 12 19
13 12 19 13 12 19 13 12 19 13 12 20 13 12 20 13 12 20 13 12 20 13 12
20 13 12 20 13 12 20 13 12 20 13 12 20 13 12 20 13 12 20 13 12 20 13
12 20 13 12 20 13 12 20 13 12 20 26 39 21 26 39 21 26 38 21 26 38 21
26 38 21 26 38 21 25 38 21 25 38 21 25 38 21 25 37 21 25 37 21 25 37
21 25 37 21 25 37 21 25 37 21 25 36 21 25 36 21 25 36 21 24 36 21 24
36 21 24 36 21 24 36 21 24 35 21 24 35 21 24 35 20 24 35 20 24 35 20
24 35 20 24 35 20 23 35 20 23 34 20 23 34 20 29 70 150 27 64 148 26 63
147 25 60 146 25 58 144 24 55 142 23 52 140 22 48 137 20 45 133 19 40
130 19 39 126 22 33 19 22 33 19 22 33 19 22 32 19 22 32 19 22 32 19 22
32 19 22 32 19 22 32 19 22 32 18 21 32 18 21 31 18 21 31 18 21 31 18
21 31 18 21 31 18 21 31 18 21 31 18 21 31 18 21 31 18 25 41 22 25 40
22 25 40 22 25 40 22 25 40 22 25 40 21 25 40 21 24 40 21 24 39 21 24
39 21 24 39 21 24 39 21 24 39 21 24 39 21 24 39 21 24 39 21 24 38 20
24 38 20 24 38 20 23 38 20 23 38 20 23 38 20 23 38 20 23 38 20 23 37
20 23 37 20 23 37 20 23 37 19 23 37 19 23 37 19 23 37 19 22 37 19 22
36 19 22 36 19 22 36 19 22 36 19 22 36 19 22 36 19 22 36 19 22 36 19
22 36 18 22 36 18 22 35 18 22 35 18 21 35 18 21 35 18 21 35 18 21 35
18 21 35 18 21 35 18 21 35 18 21 35 18 21 34 18 21 34 18 21 34 17 21
34 17 21 34 17 21 34 17 21 34 17 20 34 17 20 34 17 20 34 17 20 33 17
20 33 17 20 33 17
23 42 16 23 42 16 23 43 16 23 43 16 23 43 16 23 43 16 23 43 16 23 43
16 24 44 16 24 44 16 24 44 16 24 44 16 24 44 16 24 44 16 24 45 16 24
45 17 24 45 17 24 45 17 24 45 17 25 46 17 25 46 17 25 46 17 25 46 17
25 46 17 25 46 17 25 47 17 25 47 17 25 47 17 25 47 17 23 47 13 23 47
13 23 47 13 24 47 13 24 48 13 24 48 13 24 48 13 24 48 13 24 49 13 24
49 13 24 49 13 24 49 13 24 49 13 25 50 13 25 50 13 25 50 13 25 50 13
25 50 13 25 51 13 25 51 13 25 51 13 25 51 14 26 52 14 26 52 14 26 52
14 26 52 14 26 53 14 26 53 14 26 53 14 26 53 14 26 54 14 27 54 14 27
54 14 27 54 14 27 55 14 27 55 14 27 55 14 27 55 14 27 56 14 28 56 15
28 56 15 28 56 15 28 57 15 28 57 15 28 57 15 28 57 15 28 58 15 29 58
15 29 58 15 29 59 15 29 59 15 29 59 15 29 59 15 29 60 15 30 60 15 30
60 15 30 61 15 30 61 16 30 61 16 30 61 16 30 62 16 30 62 16 31 62 16
31 63 16 31 63 16 31 63 16 31 63 16 31 64 16 31 64 16 32 64 16 32 65
16 32 65 16 32 65 16 32 65 16 32 66 16 32 66 16 33 66 16 33 67 17 33
67 17 33 67 17 33 67 17 33 68 17 33 68 17 33 68 17 34 68 17 34 69 17
34 69 17 34 69 17 34 70 17 34 70 17 34 70 17 34 70 17 35 71 17 35 71
17 35 71 17 35 71 17 35 71 17 35 72 17 35 72 17 35 72 17 35 72 17 36
73 17 36 73 17 36 73 17 36 73 17 36 73 17 36 74 17 36 74 17 36 74 17
36 74 17 36 74 17 37 74 17 37 75 17 37 75 17 37 75 17 37 75 17 37 75
17 37 75 17 37 75 17 37 76 17 37 76 17 37 76 17 37 76 17 37 76 17 37
76 17 37 76 17 37 76 17 37 76 17 37 76 17 38 76 17 38 76 17 38 76 17
38 76 17 38 76 17 42 78 26 42 78 26 42 78 26 42 78 26 42 78 26 42 78
26 42 77 26 42 77 26 42 77 26 42 77 26 42 77 26 42 77 26 42 77 26 42
77 26 42 77 26 42 77 27 42 77 27 42 77 27 42 76 27 42 76 27 42 76 27
42 76 27 41 76 27 41 76 27 41 76 27 41 75 27 41 75 27 21 33 25 21 33
25 21 33 25 21 33 25 21 33 25 21 33 25 21 33 25 21 33 25 20 32 25 20
32 25 20 32 25 20 32 25 20 32 25 20 32 25 20 32 25 20 32 25 20 32 25
20 31 25 20 31 25 20 31 25 20 31 25 20 31 25 20 31 25 20 31 25 20 31
25 20 31 25 20 31 25 20 30 25 20 30 25 20 30 25 12 12 18 12 12 18 12
12 18 12 12 18 12 12 18 12 12 18 12 12 18 12 12 18 12 12 18 12 12 18
12 12 18 12 12 18 12 12 18 12 12 19 12 12 19 12 12 19 12 12 19 12 12
19 12 12 19 12 12 19 13 12 19 13 12 19 13 12 19 13 12 19 13 12 19 13
12 19 13 12 19 13 12 20 13 12 20 13 12 20 13 12 20 13 12 20 13 12 20
13 12 20 13 12 20 13 12 20 13 12 20 13 12 20 13 12 20 13 12 20 13 12
20 13 12 20 13 12 20 13 12 20 13 12 20 13 12 20 13 12 20 13 12 20 13
12 20 13 12 20 13 12 20 13 12 20 13 12 20 13 12 20 13 12 20 26 39 22
26 39 22 26 39 22 26 38 22 26 38 22 26 38 22 26 38 22 26 38 22 26 38
22 25 37 22 25 37 22 25 37 21 25 37 21 25 37 21 25 37 21 25 37 21 25
36 21 25 36 21 25 36 21 25 36 21 24 36 21 24 36 21 24 36 21 24 35 21
24 35 21 36 85 151 30 76 150 30 75 150 29 73 150 29 72 149 28 69 148
27 67 147 26 64 145 26 62 143 25 59 141 24 56 138 23 52 136 22 49 133
20 45 130 19 42 126 18 37 123 16 33 118 15 28 113 16 26 110 22 33 19
22 33 19 22 32 19 22 32 19 22 32 19 22 32 19 22 32 19 22 32 19 22 32
19 22 32 19 21 32 19 21 31 18 21 31 18 21 31 18 21 31 18 26 41 22 26
41 22 25 41 22 25 41 22 25 41 22 25 41 22 25 40 22 25 40 22 25 40 22
25 40 22 25 40 22 25 40 21 25 40 21 24 39 21 24 39 21 24 39 21 24 39
21 24 39 21 24 39 21 24 39 21 24 38 21 24 38 20 24 38 20 24 38 20 23
38 20 23 38 20 23 38 20 23 38 20 23 38 20 23 37 20 23 37 20 23 37 20
23 37 20 23 37 19 23 37 19 23 37 19 22 37 19 22 36 19 22 36 19 22 36
19 22 36 19 22 36 19 22 36 19 22 36 19 22 36 19 22 36 19 22 36 18 22
35 18 22 35 18 21 35 18 21 35 18 21 35 18 21 35 18 21 35 18 21 35 18
21 35 18 21 35 18 21 34 18 21 34 18 21 34 18 21 34 17 21 34 17 21 34
17 21 34 17 20 34 17 20 34 17
23 43 16 23 43 16 23 43 16 23 44 16 24 44 16 24 44 16 24 44 16 24 44
16 24 44 16 24 45 16 24 45 17 24 45 17 24 45 17 24 45 17 24 45 17 25
46 17 25 46 17 25 46 17 25 46 17 25 46 17 25 47 17 25 47 17 25 47 17
25 47 17 25 47 17 26 48 17 26 48 17 26 48 18 26 48 18 26 48 18 26 49
18 26 49 18 26 49 18 26 49 18 26 49 18 27 50 18 24 49 13 25 49 13 25
50 13 25 50 13 25 50 13 25 50 13 25 51 13 25 51 13 25 51 13 25 51 14
25 52 14 26 52 14 26 52 14 26 52 14 26 52 14 26 53 14 26 53 14 26 53
14 26 53 14 27 54 14 27 54 14 27 54 14 27 54 14 27 55 14 27 55 14 27
55 14 27 56 14 28 56 15 28 56 15 28 56 15 28 57 15 28 57 15 28 57 15
28 57 15 28 58 15 29 58 15 29 58 15 29 58 15 29 59 15 29 59 15 29 59
15 29 60 15 29 60 15 30 60 15 30 60 16 30 61 16 30 61 16 30 61 16 30
62 16 30 62 16 31 62 16 31 63 16 31 63 16 31 63 16 31 63 16 31 64 16
31 64 16 32 64 16 32 65 16 32 65 16 32 65 16 32 65 16 32 66 17 32 66
17 33 66 17 33 67 17 33 67 17 33 67 17 33 68 17 33 68 17 33 68 17 34
68 17 34 69 17 34 69 17 34 69 17 34 70 17 34 70 17 34 70 17 35 70 17
35 71 17 35 71 17 35 71 17 35 71 17 35 72 17 35 72 17 35 72 17 36 73
18 36 73 18 36 73 18 36 73 18 36 73 18 36 74 18 36 74 18 36 74 18 36
74 18 37 75 18 37 75 18 37 75 18 37 75 18 37 75 18 37 76 18 37 76 18
37 76 18 37 76 18 37 76 18 38 77 18 38 77 18 38 77 18 38 77 18 38 77
18 38 77 18 38 77 18 38 77 18 38 78 18 38 78 18 38 78 18 38 78 18 38
78 18 38 78 18 38 78 18 38 78 18 38 78 18 38 78 18 38 78 17 38 78 17
38 78 17 38 78 17 38 78 17 38 78 17 38 78 17 38 78 17 43 79 27 43 79
27 43 79 27 43 79 27 43 79 27 43 79 27 43 79 27 43 79 27 43 79 27 43
79 27 43 79 27 43 79 27 43 78 27 43 78 27 43 78 27 42 78 27 42 78 27
42 78 27 42 78 27 42 77 27 42 77 27 42 77 27 21 34 25 21 34 25 21 34
25 21 33 25 21 33 25 21 33 25 21 33 25 21 33 25 21 33 25 21 33 25 21
33 25 21 33 25 21 33 25 21 32 25 21 32 25 21 32 25 21 32 25 21 32 25
21 32 25 21 32 25 21 32 25 21 32 25 21 31 25 20 31 25 20 31 25 20 31
26 20 31 26 20 31 26 20 31 26 20 31 26 12 12 18 12 12 18 12 12 18 12
12 18 12 12 18 12 12 18 12 12 18 12 12 18 12 12 18 12 12 18 12 12 19
12 12 19 12 12 19 12 12 19 12 12 19 12 12 19 13 12 19 13 12 19 13 12
19 13 12 19 13 12 19 13 12 19 13 12 19 13 12 20 13 12 20 13 12 20 13
12 20 13 12 20 13 12 20 13 12 20 13 12 20 13 12 20 13 12 20 13 12 20
13 12 20 13 12 20 13 12 20 13 12 20 13 12 20 13 12 20 13 12 21 13 12
21 13 12 21 13 12 21 13 12 21 13 12 21 13 12 21 13 12 21 13 12 21 13
12 21 13 12 21 13 12 21 13 12 21 13 12 21 13 12 21 13 12 21 13 12 21
13 12 21 27 39 22 26 39 22 26 39 22 26 39 22 26 38 22 26 38 22 26 38
22 26 38 22 26 38 22 26 38 22 26 38 22 26 37 22 25 37 22 25 37 22 25
37 22 25 37 22 25 37 22 25 36 22 25 36 22 25 36 22 25 36 22 34 86 148
31 82 149 31 81 150 31 80 149 30 78 149 30 76 148 29 74 147 28 72 145
28 69 143 27 66 141 26 64 139 25 61 137 24 58 135 23 54 132 22 51 129
21 48 127 20 44 123 18 40 120 17 37 117 16 32 113 14 28 108 13 23 103
11 18 99 23 33 20 22 33 20 22 33 20 22 33 19 22 32 19 22 32 19 22 32
19 22 32 19 22 32 19 22 32 19 22 32 19 22 32 19 26 42 23 26 42 23 26
42 23 26 41 23 26 41 23 26 41 23 26 41 22 25 41 22 25 41 22 25 41 22
25 40 22 25 40 22 25 40 22 25 40 22 25 40 22 25 40 22 25 40 21 25 39
21 24 39 21 24 39 21 24 39 21 24 39 21 24 39 21 24 39 21 24 39 21 24
38 21 24 38 21 24 38 20 24 38 20 23 38 20 23 38 20 23 38 20 23 38 20
23 37 20 23 37 20 23 37 20 23 37 20 23 37 20 23 37 20 23 37 19 23 37
19 22 37 19 22 36 19 22 36 19 22 36 19 22 36 19 22 36 19 22 36 19 22
36 19 22 36 19 22 36 19 22 36 18 22 35 18 22 35 18 22 35 18 21 35 18
21 35 18 21 35 18 21 35 18 21 35 18 21 35 18 21 35 18 21 34 18 21 34
18 21 34 18 21 34 18 21 34 17
24 44 16 24 44 16 24 44 16 24 44 16 24 44 16 24 45 16 24 45 17 24 45
17 24 45 17 24 45 17 24 46 17 25 46 17 25 46 17 25 46 17 25 46 17 25
46 17 25 47 17 25 47 17 25 47 17 25 47 17 25 47 17 26 48 17 26 48 17
26 48 18 26 48 18 26 48 18 26 49 18 26 49 18 26 49 18 26 49 18 26 49
18 27 50 18 27 50 18 27 50 18 27 50 18 27 51 18 27 51 18 27 51 18 27
51 19 28 51 19 28 52 19 28 52 19 28 52 19 28 52 19 26 52 14 26 52 14
26 53 14 26 53 14 26 53 14 26 53 14 26 54 14 27 54 14 27 54 14 27 54
14 27 55 14 27 55 14 27 55 14 27 55 14 27 56 15 28 56 15 28 56 15 28
56 15 28 57 15 28 57 15 28 57 15 28 57 15 28 58 15 29 58 15 29 58 15
29 59 15 29 59 15 29 59 15 29 59 15 29 60 15 30 60 15 30 60 16 30 61
16 30 61 16 30 61 16 30 62 16 30 62 16 31 62 16 31 62 16 31 63 16 31
63 16 31 63 16 31 64 16 31 64 16 32 64 16 32 65 16 32 65 16 32 65 16
32 65 17 32 66 17 32 66 17 33 66 17 33 67 17 33 67 17 33 67 17 33 68
17 33 68 17 33 68 17 34 69 17 34 69 17 34 69 17 34 69 17 34 70 17 34
70 17 34 70 17 35 71 17 35 71 17 35 71 18 35 72 18 35 72 18 35 72 18
35 72 18 36 73 18 36 73 18 36 73 18 36 73 18 36 74 18 36 74 18 36 74
18 36 75 18 37 75 18 37 75 18 37 75 18 37 75 18 37 76 18 37 76 18 37
76 18 37 76 18 38 77 18 38 77 18 38 77 18 38 77 18 38 77 18 38 78 18
38 78 18 38 78 18 38 78 18 38 78 18 38 78 18 39 79 18 39 79 18 39 79
18 39 79 18 39 79 18 39 79 18 39 79 18 39 80 18 39 80 18 39 80 18 39
80 18 39 80 18 39 80 18 39 80 18 39 80 18 39 80 18 39 80 18 39 80 18
39 80 18 39 80 18 39 80 18 39 80 18 39 80 18 39 80 18 39 80 17 39 80
17 39 80 17 44 81 27 44 81 27 44 81 27 44 81 27 44 81 27 44 81 27 44
81 27 44 80 27 44 80 27 43 80 27 43 80 27 43 80 27 43 80 27 43 80 27
43 79 27 43 79 27 43 79 27 43 79 27 43 79 27 21 34 25 21 34 25 21 34
25 21 34 25 21 34 25 21 34 25 21 34 25 21 33 25 21 33 25 21 33 25 21
33 25 21 33 25 21 33 25 21 33 26 21 33 26 21 33 26 21 32 26 21 32 26
21 32 26 21 32 26 21 32 26 21 32 26 21 32 26 21 32 26 21 32 26 21 31
26 21 31 26 21 31 26 21 31 26 12 12 18 12 12 18 12 12 18 12 12 18 12
12 18 12 12 18 12 12 18 12 12 19 12 12 19 12 12 19 12 12 19 12 12 19
12 12 19 12 12 19 13 12 19 13 12 19 13 12 19 13 12 19 13 12 19 13 12
20 13 12 20 13 12 20 13 12 20 13 12 20 13 12 20 13 12 20 13 12 20 13
12 20 13 12 20 13 12 20 13 12 20 13 12 20 13 12 20 13 12 21 13 12 21
13 12 21 13 12 21 13 12 21 13 12 21 13 12 21 13 12 21 13 12 21 13 12
21 13 12 21 13 12 21 13 12 21 13 12 21 13 12 21 13 12 21 14 12 21 14
12 21 14 12 21 14 12 21 14 12 21 14 12 21 14 12 21 14 12 21 14 12 21
14 12 21 14 12 21 27 40 23 27 39 23 27 39 23 27 39 23 27 39 23 26 39
23 26 39 23 26 38 23 26 38 23 26 38 23 26 38 23 26 38 22 26 38 22 26
37 22 26 37 22 26 37 22 25 37 22 25 37 22 35 90 146 32 87 146 32 87
147 32 86 147 32 84 147 31 82 146 31 80 145 30 78 144 29 75 143 28 73
141 28 70 139 27 68 137 26 65 135 25 62 133 24 59 130 23 56 128 22 52
125 21 49 123 20 46 120 19 42 117 17 38 113 16 34 110 15 30 106 14 26
102 12 21 97 11 17 94 10 16 92 23 33 20 23 33 20 23 33 20 22 33 20 22
33 20 22 32 20 22 32 20 22 32 19 27 43 24 27 43 24 27 42 24 27 42 24
26 42 23 26 42 23 26 42 23 26 42 23 26 42 23 26 41 23 26 41 23 26 41
23 26 41 23 25 41 22 25 41 22 25 41 22 25 40 22 25 40 22 25 40 22 25
40 22 25 40 22 25 40 22 25 40 22 25 39 21 24 39 21 24 39 21 24 39 21
24 39 21 24 39 21 24 39 21 24 39 21 24 38 21 24 38 21 24 38 21 24 38
20 23 38 20 23 38 20 23 38 20 23 38 20 23 37 20 23 37 20 23 37 20 23
37 20 23 37 20 23 37 20 23 37 19 23 37 19 22 37 19 22 36 19 22 36 19
22 36 19 22 36 19 22 36 19 22 36 19 22 36 19 22 36 19 22 36 19 22 36
19 22 35 18 22 35 18 22 35 18 21 35 18 21 35 18 21 35 18 21 35 18 21
35 18 21 35 18 21 35 18 21 34 18
24 45 16 24 45 17 24 45 17 24 45 17 24 45 17 24 45 17 25 46 17 25 46
17 25 46 17 25 46 17 25 46 17 25 46 17 25 47 17 25 47 17 25 47 17 25
47 17 25 47 17 26 48 17 26 48 18 26 48 18 26 48 18 26 48 18 26 49 18
26 49 18 26 49 18 26 49 18 27 50 18 27 50 18 27 50 18 27 50 18 27 50
18 27 51 18 27 51 18 27 51 19 27 51 19 28 52 19 28 52 19 28 52 19 28
52 19 28 52 19 28 53 19 28 53 19 28 53 19 29 53 19 29 54 19 29 54 19
29 54 19 29 54 20 29 55 20 29 55 20 29 55 20 30 55 20 30 56 20 27 55
14 27 56 15 28 56 15 28 56 15 28 56 15 28 57 15 28 57 15 28 57 15 28
58 15 28 58 15 29 58 15 29 58 15 29 59 15 29 59 15 29 59 15 29 60 15
29 60 15 30 60 16 30 60 16 30 61 16 30 61 16 30 61 16 30 62 16 30 62
16 31 62 16 31 63 16 31 63 16 31 63 16 31 63 16 31 64 16 31 64 16 32
64 16 32 65 16 32 65 17 32 65 17 32 66 17 32 66 17 33 66 17 33 67 17
33 67 17 33 67 17 33 68 17 33 68 17 33 68 17 34 69 17 34 69 17 34 69
17 34 69 17 34 70 17 34 70 17 34 70 18 35 71 18 35 71 18 35 71 18 35
72 18 35 72 18 35 72 18 36 73 18 36 73 18 36 73 18 36 73 18 36 74 18
36 74 18 36 74 18 37 75 18 37 75 18 37 75 18 37 75 18 37 76 18 37 76
18 37 76 18 37 76 18 38 77 18 38 77 18 38 77 18 38 77 18 38 78 18 38
78 18 38 78 18 38 78 18 38 79 18 39 79 18 39 79 18 39 79 18 39 79 18
39 80 18 39 80 18 39 80 18 39 80 18 39 80 18 39 80 18 39 81 18 40 81
18 40 81 18 40 81 18 40 81 18 40 81 18 40 81 18 40 81 18 40 81 18 40
82 18 40 82 18 40 82 18 40 82 18 40 82 18 40 82 18 40 82 18 40 82 18
40 82 18 40 82 18 40 82 18 40 82 18 40 82 18 40 82 18 40 82 18 40 82
18 40 82 18 40 82 18 40 81 18 40 81 18 44 82 28 44 82 28 44 82 28 44
82 28 44 82 28 44 82 28 44 82 28 44 82 28 44 81 28 44 81 28 44 81 28
44 81 28 44 81 28 44 81 28 44 80 28 44 80 28 21 35 26 21 35 26 21 34
26 21 34 26 21 34 26 21 34 26 21 34 26 21 34 26 21 34 26 21 34 26 21
33 26 21 33 26 21 33 26 21 33 26 21 33 26 21 33 26 21 33 26 21 33 26
21 33 26 21 32 26 21 32 26 21 32 26 21 32 26 21 32 26 21 32 26 21 32
26 21 32 26 21 32 26 21 31 26 12 12 18 12 12 18 12 12 18 12 12 18 12
12 19 12 12 19 12 12 19 12 12 19 12 12 19 12 12 19 13 12 19 13 12 19
13 12 19 13 12 19 13 12 19 13 12 19 13 12 20 13 12 20 13 12 20 13 12
20 13 12 20 13 12 20 13 12 20 13 12 20 13 12 20 13 12 20 13 12 20 13
12 20 13 12 21 13 12 21 13 12 21 13 12 21 13 12 21 13 12 21 13 12 21
13 12 21 13 12 21 13 12 21 13 12 21 14 12 21 14 12 21 14 12 21 14 12
21 14 12 21 14 12 22 14 12 22 14 12 22 14 12 22 14 12 22 14 12 22 14
12 22 14 12 22 14 13 22 14 13 22 14 13 22 14 13 22 14 13 22 14 13 22
14 13 22 14 13 22 27 40 23 27 40 23 27 40 23 27 40 23 27 39 23 27 39
23 27 39 23 27 39 23 27 39 23 27 39 23 26 38 23 26 38 23 26 38 23 26
38 23 26 38 23 26 38 23 26 37 23 33 90 141 33 90 144 33 90 145 36 93
153 36 91 154 32 85 143 31 83 142 31 81 141 30 79 140 29 76 138 28 74
136 27 71 135 27 68 134 26 65 141 27 63 153 25 60 145 23 56 128 22 53
121 21 50 118 20 46 115 19 43 112 17 39 109 16 36 106 15 32 102 14 28
99 12 24 95 11 19 90 10 16 88 10 16 87 23 33 20 23 33 20 23 33 20 23
33 20 23 33 20 28 44 25 27 43 25 27 43 24 27 43 24 27 43 24 27 43 24
27 43 24 27 42 24 27 42 24 27 42 24 26 42 24 26 42 23 26 42 23 26 42
23 26 41 23 26 41 23 26 41 23 26 41 23 26 41 23 25 41 23 25 41 22 25
40 22 25 40 22 25 40 22 25 40 22 25 40 22 25 40 22 25 40 22 25 39 22
25 39 22 24 39 21 24 39 21 24 39 21 24 39 21 24 39 21 24 39 21 24 38
21 24 38 21 24 38 21 24 38 21 24 38 20 23 38 20 23 38 20 23 38 20 23
38 20 23 37 20 23 37 20 23 37 20 23 37 20 23 37 20 23 37 20 23 37 20
23 37 19 22 37 19 22 36 19 22 36 19 22 36 19 22 36 19 22 36 19 22 36
19 22 36 19 22 36 19 22 36 19 22 35 19 22 35 18 22 35 18 22 35 18 21
35 18 21 35 18 21 35 18 21 35 18
24 45 17 24 45 17 25 46 17 25 46 17 25 46 17 25 46 17 25 46 17 25 47
17 25 47 17 25 47 17 25 47 17 25 47 17 25 47 17 26 48 17 26 48 18 26
48 18 26 48 18 26 48 18 26 49 18 26 49 18 26 49 18 26 49 18 27 50 18
27 50 18 27 50 18 27 50 18 27 50 18 27 51 18 27 51 18 27 51 19 27 51
19 28 52 19 28 52 19 28 52 19 28 52 19 28 52 19 28 53 19 28 53 19 28
53 19 28 53 19 29 54 19 29 54 19 29 54 19 29 54 20 29 55 20 29 55 20
29 55 20 30 55 20 30 56 20 30 56 20 30 56 20 30 57 20 30 57 20 30 57
20 30 57 20 31 58 21 31 58 21 31 58 21 31 59 21 31 59 21 31 59 21 31
59 21 32 60 21 29 59 15 29 60 15 29 60 16 30 60 16 30 60 16 30 61 16
30 61 16 30 61 16 30 62 16 30 62 16 31 62 16 31 63 16 31 63 16 31 63
16 31 64 16 31 64 16 32 64 16 32 64 16 32 65 17 32 65 17 32 65 17 32
66 17 32 66 17 33 66 17 33 67 17 33 67 17 33 67 17 33 68 17 33 68 17
34 68 17 34 69 17 34 69 17 34 69 17 34 70 17 34 70 18 34 70 18 35 71
18 35 71 18 35 71 18 35 72 18 35 72 18 35 72 18 36 73 18 36 73 18 36
73 18 36 74 18 36 74 18 36 74 18 36 74 18 37 75 18 37 75 18 37 75 18
37 76 18 37 76 18 37 76 18 37 77 19 38 77 19 38 77 19 38 77 19 38 78
19 38 78 19 38 78 19 38 78 19 38 79 19 39 79 19 39 79 19 39 79 19 39
80 19 39 80 19 39 80 19 39 80 19 39 81 19 40 81 19 40 81 19 40 81 19
40 81 19 40 82 19 40 82 19 40 82 19 40 82 19 40 82 19 40 82 19 40 82
19 40 83 19 40 83 19 41 83 19 41 83 19 41 83 19 41 83 19 41 83 19 41
83 19 41 83 19 41 83 19 41 83 18 41 84 18 41 84 18 41 84 18 41 84 18
41 84 18 41 84 18 41 84 18 41 84 18 41 84 18 41 83 18 41 83 18 41 83
18 41 83 18 41 83 18 41 83 18 41 83 18 41 83 18 41 83 18 41 83 18 45
84 28 45 84 28 45 84 28 45 83 28 45 83 28 45 83 28 45 83 28 45 83 28
45 82 28 45 82 28 45 82 28 45 82 28 45 82 28 44 81 28 22 35 26 22 35
26 22 35 26 22 35 26 22 34 26 22 34 26 21 34 26 21 34 26 21 34 26 21
34 26 21 34 26 21 34 26 21 33 26 21 33 26 21 33 26 21 33 26 21 33 26
21 33 26 21 33 26 21 33 26 21 33 26 21 32 26 21 32 26 21 32 26 21 32
27 21 32 27 21 32 27 21 32 27 21 32 27 12 12 18 12 12 19 12 12 19 12
12 19 12 12 19 12 12 19 12 12 19 13 12 19 13 12 19 13 12 19 13 12 19
13 12 19 13 12 20 13 12 20 13 12 20 13 12 20 13 12 20 13 12 20 13 12
20 13 12 20 13 12 20 13 12 20 13 12 20 13 12 21 13 12 21 13 12 21 13
12 21 13 12 21 13 12 21 13 12 21 13 12 21 13 12 21 14 12 21 14 12 21
14 12 21 14 12 21 14 12 22 14 12 22 14 12 22 14 12 22 14 12 22 14 13
22 14 13 22 14 13 22 14 13 22 14 13 22 14 13 22 14 13 22 14 13 22 14
13 22 14 13 22 14 13 22 14 13 22 14 13 22 14 13 22 14 13 22 14 13 22
14 13 22 14 13 22 28 41 24 28 40 24 28 40 24 28 40 24 27 40 24 27 40
24 27 40 24 27 39 24 27 39 24 27 39 24 27 39 24 27 39 24 27 39 24 27
38 24 27 38 23 39 99 138 34 93 139 34 93 140 36 96 146 40 104 153 33
90 141 32 88 140 32 86 139 31 84 138 30 81 137 30 79 135 29 76 133 28
74 132 27 71 130 27 68 138 30 66 188 36 65 255 34 61 246 26 57 163 22
53 122 21 50 114 19 47 111 18 43 108 17 40 105 16 36 102 15 33 98 14
29 95 12 25 91 11 21 87 10 17 84 9 15 83 9 15 82 11 18 82 28 45 26 28
44 25 28 44 25 28 44 25 28 44 25 28 44 25 28 44 25 27 43 25 27 43 25
27 43 24 27 43 24 27 43 24 27 43 24 27 42 24 27 42 24 27 42 24 26 42
24 26 42 24 26 42 23 26 42 23 26 41 23 26 41 23 26 41 23 26 41 23 26
41 23 26 41 23 25 41 23 25 40 22 25 40 22 25 40 22 25 40 22 25 40 22
25 40 22 25 40 22 25 40 22 25 39 22 24 39 22 24 39 21 24 39 21 24 39
21 24 39 21 24 39 21 24 39 21 24 38 21 24 38 21 24 38 21 24 38 21 24
38 20 23 38 20 23 38 20 23 38 20 23 37 20 23 37 20 23 37 20 23 37 20
23 37 20 23 37 20 23 37 20 23 37 20 23 37 19 22 36 19 22 36 19 22 36
19 22 36 19 22 36 19 22 36 19 22 36 19 22 36 19 22 36 19 22 36 19 22
35 19 22 35 19 22 35 18 22 35 18
25 46 17 25 46 17 25 46 17 25 47 17 25 47 17 25 47 17 25 47 17 25 47
17 25 47 17 26 48 17 26 48 18 26 48 18 26 48 18 26 48 18 26 49 18 26
49 18 26 49 18 26 49 18 27 50 18 27 50 18 27 50 18 27 50 18 27 50 18
27 51 18 27 51 18 27 51 19 27 51 19 28 52 19 28 52 19 28 52 19 28 52
19 28 52 19 28 53 19 28 53 19 28 53 19 28 53 19 29 54 19 29 54 19 29
54 19 29 54 20 29 55 20 29 55 20 29 55 20 29 55 20 30 56 20 30 56 20
30 56 20 30 57 20 30 57 20 30 57 20 30 57 20 31 58 21 31 58 21 31 58
21 31 58 21 31 59 21 31 59 21 31 59 21 32 60 21 32 60 21 32 60 21 32
61 21 32 61 21 32 61 22 33 61 22 33 62 22 33 62 22 33 62 22 33 63 22
33 63 22 33 63 22 34 64 22 34 64 22 34 64 23 34 65 23 34 65 23 32 65
17 32 65 17 32 65 17 32 65 17 32 66 17 32 66 17 33 66 17 33 67 17 33
67 17 33 67 17 33 68 17 33 68 17 34 68 17 34 69 17 34 69 17 34 69 18
34 70 18 34 70 18 35 70 18 35 71 18 35 71 18 35 71 18 35 72 18 35 72
18 35 72 18 36 73 18 36 73 18 36 73 18 36 74 18 36 74 18 36 74 18 37
75 18 37 75 18 37 75 19 37 76 19 37 76 19 37 76 19 37 77 19 38 77 19
38 77 19 38 78 19 38 78 19 38 78 19 38 78 19 38 79 19 39 79 19 39 79
19 39 80 19 39 80 19 39 80 19 39 80 19 39 81 19 40 81 19 40 81 19 40
81 19 40 82 19 40 82 19 40 82 19 40 82 19 40 82 19 40 83 19 40 83 19
41 83 19 41 83 19 41 83 19 41 84 19 41 84 19 41 84 19 41 84 19 41 84
19 41 84 19 41 84 19 41 84 19 41 85 19 41 85 19 42 85 19 42 85 19 42
85 19 42 85 19 42 85 19 42 85 19 42 85 19 42 85 19 42 85 19 42 85 19
42 85 19 42 85 19 42 85 18 42 85 18 42 85 18 42 85 18 42 85 18 42 85
18 42 85 18 42 85 18 42 85 18 41 85 18 41 84 18 41 84 18 41 84 18 41
84 18 46 85 28 46 85 28 46 85 28 46 85 28 46 85 28 46 84 29 46 84 29
46 84 29 46 84 29 45 84 29 45 83 29 45 83 29 45 83 29 45 83 29 22 35
26 22 35 26 22 35 26 22 35 26 22 35 26 22 35 26 22 34 26 22 34 26 22
34 26 22 34 26 22 34 26 22 34 26 22 34 26 22 34 26 22 33 27 21 33 27
21 33 27 21 33 27 21 33 27 21 33 27 21 33 27 21 33 27 21 32 27 21 32
27 21 32 27 21 32 27 21 32 27 21 32 27 21 32 27 21 32 27 12 12 19 12
12 19 13 12 19 13 12 19 13 12 19 13 12 19 13 12 19 13 12 20 13 12 20
13 12 20 13 12 20 13 12 20 13 12 20 13 12 20 13 12 20 13 12 20 13 12
20 13 12 20 13 12 21 13 12 21 13 12 21 13 12 21 13 12 21 13 12 21 13
12 21 13 12 21 14 12 21 14 12 21 14 12 21 14 12 22 14 12 22 14 12 22
14 12 22 14 13 22 14 13 22 14 13 22 14 13 22 14 13 22 14 13 22 14 13
22 14 13 22 14 13 22 14 13 22 14 13 22 14 13 23 14 13 23 14 13 23 14
13 23 14 13 23 14 13 23 14 13 23 14 13 23 14 13 23 14 13 23 14 13 23
14 13 23 28 41 24 28 41 24 28 41 24 28 41 24 28 41 24 28 40 24 28 40
24 28 40 24 28 40 24 28 40 24 27 40 24 27 39 24 27 39 24 27 39 24 27
39 24 39 101 134 34 95 135 34 95 137 38 103 141 36 97 143 33 92 152 33
90 157 32 88 157 31 86 135 31 84 133 30 81 132 29 79 130 28 76 129 28
74 127 27 71 125 26 68 124 25 65 126 25 62 130 24 60 128 23 56 119 21
53 112 20 50 109 19 47 106 18 43 103 17 40 100 16 37 97 15 33 94 14 29
91 12 26 87 11 22 83 10 17 79 9 15 78 9 15 78 9 15 77 9 15 75 29 45 26
28 45 26 28 45 26 28 44 26 28 44 25 28 44 25 28 44 25 28 44 25 28 44
25 28 43 25 27 43 25 27 43 25 27 43 25 27 43 24 27 43 24 27 43 24 27
42 24 27 42 24 27 42 24 26 42 24 26 42 24 26 42 23 26 41 23 26 41 23
26 41 23 26 41 23 26 41 23 26 41 23 26 41 23 25 40 23 25 40 22 25 40
22 25 40 22 25 40 22 25 40 22 25 40 22 25 40 22 25 39 22 25 39 22 24
39 22 24 39 21 24 39 21 24 39 21 24 39 21 24 39 21 24 38 21 24 38 21
24 38 21 24 38 21 24 38 21 23 38 20 23 38 20 23 38 20 23 38 20 23 37
20 23 37 20 23 37 20 23 37 20 23 37 20 23 37 20 23 37 20 23 37 20 23
37 19 22 36 19 22 36 19 22 36 19 22 36 19 22 36 19 22 36 19 22 36 19
22 36 19 22 36 19 22 36 19
25 47 17 25 47 17 25 47 17 25 47 17 25 47 17 26 48 17 26 48 18 26 48
18 26 48 18 26 48 18 26 49 18 26 49 18 26 49 18 26 49 18 26 49 18 27
50 18 27 50 18 27 50 18 27 50 18 27 51 18 27 51 18 27 51 19 27 51 19
27 51 19 28 52 19 28 52 19 28 52 19 28 52 19 28 53 19 28 53 19 28 53
19 28 53 19 29 54 19 29 54 19 29 54 19 29 54 20 29 55 20 29 55 20 29
55 20 29 55 20 30 56 20 30 56 20 30 56 20 30 56 20 30 57 20 30 57 20
30 57 20 31 58 21 31 58 21 31 58 21 31 58 21 31 59 21 31 59 21 31 59
21 32 60 21 32 60 21 32 60 21 32 60 21 32 61 21 32 61 22 32 61 22 33
62 22 33 62 22 33 62 22 33 63 22 33 63 22 33 63 22 34 64 22 34 64 22
34 64 23 34 65 23 34 65 23 34 65 23 35 66 23 35 66 23 35 66 23 35 67
23 35 67 23 35 67 23 36 68 23 36 68 24 36 68 24 36 69 24 33 68 17 34
68 17 34 69 17 34 69 18 34 69 18 34 70 18 34 70 18 35 71 18 35 71 18
35 71 18 35 72 18 35 72 18 35 72 18 36 73 18 36 73 18 36 73 18 36 74
18 36 74 18 36 74 18 36 75 19 37 75 19 37 75 19 37 76 19 37 76 19 37
76 19 37 77 19 38 77 19 38 77 19 38 78 19 38 78 19 38 78 19 38 79 19
39 79 19 39 79 19 39 79 19 39 80 19 39 80 19 39 80 19 39 81 19 40 81
19 40 81 19 40 81 19 40 82 19 40 82 19 40 82 19 40 82 19 40 83 19 41
83 19 41 83 19 41 83 19 41 84 19 41 84 19 41 84 19 41 84 19 41 84 19
41 85 19 41 85 19 42 85 19 42 85 19 42 85 19 42 85 19 42 86 19 42 86
19 42 86 19 42 86 19 42 86 19 42 86 19 42 86 19 42 86 19 42 86 19 42
87 19 42 87 19 42 87 19 42 87 19 42 87 19 42 87 19 42 87 19 42 87 19
42 87 19 42 87 19 42 87 19 42 87 19 42 87 19 42 87 19 42 87 19 42 86
18 42 86 18 42 86 18 42 86 18 42 86 18 42 86 18 42 86 18 42 86 18 42
86 18 42 85 18 47 86 29 47 86 29 47 86 29 47 86 29 46 86 29 46 86 29
46 85 29 46 85 29 46 85 29 46 85 29 46 84 29 46 84 29 46 84 29 46 84
29 46 83 29 22 35 26 22 35 26 22 35 27 22 35 27 22 35 27 22 35 27 22
34 27 22 34 27 22 34 27 22 34 27 22 34 27 22 34 27 22 34 27 22 34 27
22 33 27 22 33 27 22 33 27 22 33 27 22 33 27 22 33 27 22 33 27 22 33
27 22 33 27 22 32 27 22 32 27 21 32 27 21 32 27 21 32 27 21 32 27 21
32 27 21 32 28 21 32 28 21 31 28 13 12 20 13 12 20 13 12 20 13 12 20
13 12 20 13 12 20 13 12 20 13 12 20 13 12 20 13 12 20 13 12 21 13 12
21 13 12 21 13 12 21 13 12 21 13 12 21 13 12 21 13 12 21 14 12 21 14
12 21 14 12 21 14 12 22 14 12 22 14 12 22 14 13 22 14 13 22 14 13 22
14 13 22 14 13 22 14 13 22 14 13 22 14 13 22 14 13 22 14 13 23 14 13
23 14 13 23 14 13 23 14 13 23 14 13 23 14 13 23 14 13 23 14 13 23 14
13 23 14 13 23 14 13 23 14 13 23 14 13 23 14 13 23 14 13 23 14 13 23
29 42 25 29 42 25 29 42 25 29 41 25 28 41 25 28 41 25 28 41 25 28 41
25 28 41 25 28 40 25 28 40 25 28 40 25 28 40 25 28 40 25 28 39 25 39
103 130 34 96 131 34 97 133 34 96 134 34 95 136 34 94 148 33 92 153 33
90 153 32 89 147 31 86 130 30 83 128 30 81 127 29 79 125 28 76 124 27
73 122 26 71 120 25 68 118 25 65 116 24 62 113 23 59 111 22 56 109 21
53 106 20 50 104 19 47 101 18 43 98 17 40 95 16 37 92 14 33 89 13 29
86 12 26 83 11 22 79 10 18 75 9 15 74 9 15 73 9 15 72 9 15 71 8 15 70
29 45 26 29 45 26 29 45 26 29 45 26 28 45 26 28 44 26 28 44 26 28 44
26 28 44 25 28 44 25 28 44 25 28 43 25 28 43 25 27 43 25 27 43 25 27
43 25 27 43 24 27 43 24 27 42 24 27 42 24 27 42 24 27 42 24 26 42 24
26 42 24 26 41 23 26 41 23 26 41 23 26 41 23 26 41 23 26 41 23 26 41
23 25 41 23 25 40 23 25 40 22 25 40 22 25 40 22 25 40 22 25 40 22 25
40 22 25 39 22 25 39 22 25 39 22 24 39 22 24 39 21 24 39 21 24 39 21
24 39 21 24 38 21 24 38 21 24 38 21 24 38 21 24 38 21 24 38 21 23 38
20 23 38 20 23 38 20 23 37 20 23 37 20 23 37 20 23 37 20 23 37 20 23
37 20 23 37 20 23 37 20 23 37 20 23 37 19 22 36 19 22 36 19 22 36 19
22 36 19 22 36 19 22 36 19
25 47 17 26 48 17 26 48 18 26 48 18 26 48 18 26 48 18 26 49 18 26 49
18 26 49 18 26 49 18 26 49 18 27 50 18 27 50 18 27 50 18 27 50 18 27
51 18 27 51 18 27 51 18 27 51 19 27 51 19 28 52 19 28 52 19 28 52 19
28 52 19 28 53 19 28 53 19 28 53 19 28 53 19 29 54 19 29 54 19 29 54
19 29 54 20 29 55 20 29 55 20 29 55 20 29 55 20 30 56 20 30 56 20 30
56 20 30 56 20 30 57 20 30 57 20 30 57 20 30 57 20 31 58 21 31 58 21
31 58 21 31 59 21 31 59 21 31 59 21 31 59 21 32 60 21 32 60 21 32 60
21 32 61 21 32 61 22 32 61 22 33 62 22 33 62 22 33 62 22 33 62 22 33
63 22 33 63 22 34 63 22 34 64 22 34 64 22 34 64 23 34 65 23 34 65 23
35 65 23 35 66 23 35 66 23 35 66 23 35 67 23 35 67 23 36 67 23 36 68
24 36 68 24 36 68 24 36 69 24 36 69 24 37 69 24 37 70 24 37 70 24 37
71 24 37 71 24 37 71 25 38 72 25 38 72 25 38 72 25 35 72 18 35 72 18
36 73 18 36 73 18 36 73 18 36 74 18 36 74 19 36 74 19 37 75 19 37 75
19 37 75 19 37 76 19 37 76 19 37 76 19 37 77 19 38 77 19 38 77 19 38
78 19 38 78 19 38 78 19 38 79 19 39 79 19 39 79 19 39 80 19 39 80 19
39 80 19 39 81 20 40 81 20 40 81 20 40 82 20 40 82 20 40 82 20 40 82
20 40 83 20 41 83 20 41 83 20 41 83 20 41 84 20 41 84 20 41 84 20 41
84 20 41 85 20 41 85 20 42 85 20 42 85 20 42 86 20 42 86 20 42 86 20
42 86 20 42 86 20 42 86 20 42 87 20 42 87 20 43 87 20 43 87 20 43 87
20 43 87 20 43 87 20 43 88 20 43 88 20 43 88 20 43 88 19 43 88 19 43
88 19 43 88 19 43 88 19 43 88 19 43 88 19 43 88 19 43 88 19 43 88 19
43 88 19 43 88 19 43 88 19 43 88 19 43 88 19 43 88 19 43 88 19 43 88
19 43 88 19 43 88 19 43 88 19 43 87 18 43 87 18 43 87 18 43 87 18 43
87 18 43 87 18 47 88 29 47 88 29 47 87 29 47 87 29 47 87 29 47 87 29
47 87 29 47 86 29 47 86 29 47 86 29 47 86 29 47 85 29 46 85 29 46 85
29 46 85 29 46 84 29 46 84 29 22 35 27 22 35 27 22 35 27 22 35 27 22
35 27 22 35 27 22 34 27 22 34 27 22 34 27 22 34 27 22 34 27 22 34 27
22 34 27 22 34 27 22 33 27 22 33 27 22 33 27 22 33 27 22 33 27 22 33
27 22 33 27 22 33 27 22 33 27 22 32 28 22 32 28 22 32 28 22 32 28 22
32 28 22 32 28 22 32 28 22 32 28 22 32 28 22 31 28 22 31 28 22 31 28
22 31 28 22 31 28 22 31 28 22 31 28 22 31 28 22 31 28 22 31 28 22 30
29 22 30 29 13 12 21 13 12 21 13 12 21 14 12 21 14 12 21 14 12 22 14
12 22 14 12 22 14 13 22 14 13 22 14 13 22 14 13 22 14 13 22 14 13 22
14 13 22 14 13 22 14 13 23 14 13 23 14 13 23 14 13 23 14 13 23 14 13
23 14 13 23 14 13 23 14 13 23 14 13 23 14 13 23 14 13 23 14 13 23 14
13 23 15 13 23 15 13 24 15 13 24 15 13 24 15 13 24 29 43 25 29 43 25
29 42 25 29 42 25 29 42 25 29 42 25 29 42 25 29 41 25 29 41 25 29 41
25 29 41 25 28 41 25 28 41 25 28 40 25 28 40 25 28 40 25 40 103 124 34
97 126 34 98 128 34 98 129 34 97 130 34 95 139 33 94 144 33 93 148 33
93 146 31 88 126 31 85 125 30 83 124 29 81 122 28 78 120 27 75 119 27
73 117 26 70 115 25 67 113 24 64 111 23 61 108 22 58 106 21 55 104 20
52 101 19 49 99 18 46 96 17 43 93 16 40 91 15 36 88 14 33 85 13 29 82
12 26 78 11 22 75 9 18 71 8 15 69 8 15 68 8 15 68 8 15 67 8 15 66 10
18 66 29 46 27 29 45 27 29 45 27 29 45 26 29 45 26 29 45 26 28 45 26
28 44 26 28 44 26 28 44 26 28 44 26 28 44 25 28 44 25 28 43 25 28 43
25 27 43 25 27 43 25 27 43 25 27 43 25 27 43 24 27 42 24 27 42 24 27
42 24 27 42 24 26 42 24 26 42 24 26 41 24 26 41 23 26 41 23 26 41 23
26 41 23 26 41 23 26 41 23 26 41 23 25 40 23 25 40 23 25 40 22 25 40
22 25 40 22 25 40 22 25 40 22 25 40 22 25 39 22 25 39 22 24 39 22 24
39 22 24 39 21 24 39 21 24 39 21 24 39 21 24 38 21 24 38 21 24 38 21
24 38 21 24 38 21 24 38 21 23 38 20 23 38 20 23 38 20 23 37 20 23 37
20 23 37 20 23 37 20 23 37 20 23 37 20 23 37 20 23 37 20 23 37 20 22
36 19 22 36 19 22 36 19
26 48 18 26 48 18 26 49 18 26 49 18 26 49 18 26 49 18 26 49 18 27 50
18 27 50 18 27 50 18 27 50 18 27 50 18 27 51 18 27 51 18 27 51 19 27
51 19 28 52 19 28 52 19 28 52 19 28 52 19 28 52 19 28 53 19 28 53 19
28 53 19 28 53 19 29 54 19 29 54 19 29 54 19 29 54 20 29 55 20 29 55
20 29 55 20 29 55 20 30 56 20 30 56 20 30 56 20 30 56 20 30 57 20 30
57 20 30 57 20 31 58 21 31 58 21 31 58 21 31 58 21 31 59 21 31 59 21
31 59 21 32 60 21 32 60 21 32 60 21 32 60 21 32 61 22 32 61 22 32 61
22 33 62 22 33 62 22 33 62 22 33 63 22 33 63 22 33 63 22 34 64 22 34
64 22 34 64 23 34 65 23 34 65 23 34 65 23 35 66 23 35 66 23 35 66 23
35 67 23 35 67 23 35 67 23 36 68 24 36 68 24 36 68 24 36 69 24 36 69
24 36 69 24 37 70 24 37 70 24 37 70 24 37 71 24 37 71 25 38 71 25 38
72 25 38 72 25 38 73 25 38 73 25 39 73 25 39 74 25 39 74 25 39 74 25
39 75 26 39 75 26 40 75 26 40 76 26 40 76 26 40 77 26 37 76 19 37 76
19 37 77 19 38 77 19 38 77 19 38 78 19 38 78 19 38 78 19 38 79 19 39
79 19 39 80 20 39 80 20 39 80 20 39 80 20 39 81 20 40 81 20 40 81 20
40 82 20 40 82 20 40 82 20 40 83 20 41 83 20 41 83 20 41 84 20 41 84
20 41 84 20 41 84 20 41 85 20 41 85 20 42 85 20 42 85 20 42 86 20 42
86 20 42 86 20 42 86 20 42 87 20 42 87 20 42 87 20 43 87 20 43 87 20
43 88 20 43 88 20 43 88 20 43 88 20 43 88 20 43 88 20 43 89 20 43 89
20 43 89 20 43 89 20 44 89 20 44 89 20 44 89 20 44 89 20 44 89 20 44
89 20 44 89 20 44 90 20 44 90 20 44 90 19 44 90 19 44 90 19 44 90 19
44 90 19 44 90 19 44 90 19 44 89 19 44 89 19 44 89 19 44 89 19 44 89
19 44 89 19 44 89 19 44 89 19 43 89 19 43 89 19 43 88 19 43 88 19 48
89 29 48 89 29 48 89 29 48 89 29 48 89 29 48 88 29 48 88 29 48 88 29
48 88 29 48 88 29 47 87 29 47 87 29 47 87 29 47 87 29 47 86 29 47 86
29 47 86 30 47 85 30 47 85 30 47 85 30 46 84 30 46 84 30 46 84 30 46
83 30 22 35 27 22 35 27 22 35 27 22 34 27 22 34 27 22 34 27 22 34 27
22 34 27 22 34 27 22 34 27 22 34 27 22 33 27 22 33 28 22 33 28 22 33
28 22 33 28 22 33 28 22 33 28 22 33 28 22 33 28 22 32 28 22 32 28 22
32 28 22 32 28 22 32 28 22 32 28 22 32 28 22 32 28 22 32 28 22 31 28
22 31 28 22 31 28 22 31 29 22 31 29 22 31 29 22 31 29 22 31 29 22 31
29 22 31 29 22 30 29 22 30 29 14 12 21 14 12 22 14 12 22 14 12 22 14
13 22 14 13 22 14 13 22 14 13 22 14 13 22 14 13 22 14 13 22 14 13 23
14 13 23 14 13 23 14 13 23 14 13 23 14 13 23 14 13 23 14 13 23 14 13
23 14 13 23 14 13 23 14 13 23 15 13 24 15 13 24 15 13 24 15 13 24 15
13 24 15 13 24 15 13 24 15 13 24 30 44 26 30 43 26 30 43 26 30 43 26
30 43 26 30 43 26 29 42 26 29 42 26 29 42 26 29 42 26 29 42 26 29 42
26 29 41 26 29 41 26 29 41 26 29 41 26 29 41 26 28 41 26 39 107 124 34
99 123 34 99 125 34 98 125 34 97 127 34 96 136 34 96 141 34 97 139 31
89 123 31 87 121 30 85 120 29 82 119 29 80 117 28 77 115 27 75 113 26
72 112 25 69 110 24 66 108 24 64 105 23 61 103 22 58 101 21 55 99 20
52 96 19 49 94 18 46 91 17 42 88 16 39 86 15 36 83 14 33 80 13 29 77
11 26 74 10 22 70 9 18 67 8 15 64 8 15 64 8 15 63 8 15 63 8 15 62 8 15
61 13 24 64 30 46 27 29 46 27 29 46 27 29 45 27 29 45 27 29 45 27 29
45 26 29 45 26 29 45 26 28 44 26 28 44 26 28 44 26 28 44 26 28 44 26
28 44 25 28 43 25 28 43 25 27 43 25 27 43 25 27 43 25 27 43 25 27 42
25 27 42 24 27 42 24 27 42 24 27 42 24 26 42 24 26 42 24 26 41 24 26
41 24 26 41 23 26 41 23 26 41 23 26 41 23 26 41 23 26 41 23 25 40 23
25 40 23 25 40 23 25 40 22 25 40 22 25 40 22 25 40 22 25 40 22 25 39
22 25 39 22 25 39 22 24 39 22 24 39 21 24 39 21 24 39 21 24 39 21 24
38 21 24 38 21 24 38 21 24 38 21 24 38 21 24 38 21 23 38 21 23 38 20
23 38 20 23 37 20 23 37 20 23 37 20 23 37 20 23 37 20 23 37 20 23 37
20 23 37 20 23 37 20
26 49 18 26 49 18 26 49 18 26 50 18 27 50 18 27 50 18 27 50 18 27 50
18 27 51 18 27 51 18 27 51 19 27 51 19 27 51 19 28 52 19 28 52 19 28
52 19 28 52 19 28 53 19 28 53 19 28 53 19 28 53 19 29 54 19 29 54 19
29 54 19 29 54 20 29 55 20 29 55 20 29 55 20 29 55 20 30 56 20 30 56
20 30 56 20 30 56 20 30 57 20 30 57 20 30 57 20 30 57 20 31 58 21 31
58 21 31 58 21 31 59 21 31 59 21 31 59 21 31 59 21 32 60 21 32 60 21
32 60 21 32 61 21 32 61 22 32 61 22 33 61 22 33 62 22 33 62 22 33 62
22 33 63 22 33 63 22 33 63 22 34 64 22 34 64 22 34 64 23 34 65 23 34
65 23 34 65 23 35 66 23 35 66 23 35 66 23 35 67 23 35 67 23 35 67 23
36 68 24 36 68 24 36 68 24 36 69 24 36 69 24 37 69 24 37 70 24 37 70
24 37 71 24 37 71 25 37 71 25 38 72 25 38 72 25 38 72 25 38 73 25 38
73 25 39 73 25 39 74 25 39 74 25 39 75 26 39 75 26 40 75 26 40 76 26
40 76 26 40 76 26 40 77 26 40 77 26 41 77 26 41 78 26 41 78 26 41 79
27 41 79 27 42 79 27 42 80 27 42 80 27 42 80 27 42 81 27 42 81 27 39
81 20 39 81 20 40 81 20 40 82 20 40 82 20 40 82 20 40 83 20 40 83 20
41 83 20 41 83 20 41 84 20 41 84 20 41 84 20 41 85 20 41 85 20 42 85
20 42 86 20 42 86 20 42 86 20 42 86 20 42 87 20 42 87 20 42 87 20 43
87 20 43 88 20 43 88 20 43 88 20 43 88 20 43 88 20 43 89 20 43 89 20
43 89 20 44 89 20 44 89 20 44 89 20 44 90 20 44 90 20 44 90 20 44 90
20 44 90 20 44 90 20 44 90 20 44 90 20 44 91 20 44 91 20 44 91 20 44
91 20 44 91 20 44 91 20 44 91 20 44 91 20 44 91 20 44 91 20 44 91 20
44 91 20 44 91 19 44 91 19 44 91 19 44 91 19 44 91 19 44 90 19 44 90
19 44 90 19 44 90 19 44 90 19 44 90 19 49 91 30 49 91 30 49 91 30 49
91 30 49 90 30 49 90 30 49 90 30 48 90 30 48 90 30 48 89 30 48 89 30
48 89 30 48 89 30 48 88 30 48 88 30 48 88 30 48 88 30 48 87 30 47 87
30 47 87 30 47 86 30 47 86 30 47 86 30 47 85 30 47 85 30 47 85 30 47
84 30 46 84 30 46 84 30 46 83 30 46 83 30 46 83 30 46 82 30 46 82 30
45 82 30 45 81 30 45 81 30 45 80 30 45 80 30 45 80 30 45 79 30 44 79
30 44 79 30 44 78 30 22 33 28 22 33 28 22 33 28 22 33 28 22 33 28 22
32 28 22 32 28 22 32 28 22 32 28 22 32 28 22 32 28 22 32 29 22 32 29
22 32 29 22 31 29 22 31 29 22 31 29 22 31 29 22 31 29 22 31 29 22 31
29 22 31 29 22 31 29 22 31 29 22 31 29 22 30 29 22 30 29 22 30 30 14
13 22 14 13 22 14 13 22 14 13 22 14 13 22 14 13 23 14 13 23 14 13 23
14 13 23 14 13 23 14 13 23 14 13 23 14 13 23 14 13 23 14 13 23 15 13
24 15 13 24 15 13 24 15 13 24 15 13 24 15 13 24 15 13 24 15 13 24 15
13 24 31 45 26 30 44 26 30 44 26 30 44 26 30 44 26 30 44 26 30 43 26
30 43 26 30 43 26 30 43 26 30 43 26 30 43 26 30 42 26 29 42 26 29 42
26 29 42 26 29 42 26 29 41 26 29 41 26 29 41 26 40 107 119 34 99 118
34 99 120 34 98 121 34 97 121 34 98 128 34 99 135 32 93 120 32 91 119
31 88 118 30 86 116 29 84 115 29 81 114 28 79 112 27 76 110 26 74 108
26 71 107 25 68 105 24 66 103 23 63 100 22 60 98 21 57 96 20 54 94 19
51 91 18 48 89 17 45 86 16 42 84 15 39 81 14 35 78 13 32 75 12 29 72
11 25 69 10 21 66 9 18 62 8 15 60 8 15 59 8 15 59 8 15 58 8 15 58 7 15
57 7 15 56 30 46 28 30 46 28 30 46 27 30 46 27 29 46 27 29 45 27 29 45
27 29 45 27 29 45 27 29 45 27 29 45 26 29 44 26 28 44 26 28 44 26 28
44 26 28 44 26 28 44 26 28 44 25 28 43 25 28 43 25 27 43 25 27 43 25
27 43 25 27 43 25 27 42 25 27 42 24 27 42 24 27 42 24 27 42 24 26 42
24 26 42 24 26 41 24 26 41 24 26 41 23 26 41 23 26 41 23 26 41 23 26
41 23 26 41 23 25 40 23 25 40 23 25 40 23 25 40 22 25 40 22 25 40 22
25 40 22 25 40 22 25 39 22 25 39 22 25 39 22 24 39 22 24 39 22 24 39
21 24 39 21 24 39 21 24 38 21 24 38 21 24 38 21 24 38 21 24 38 21 24
38 21 24 38 21 23 38 21 23 38 20 23 37 20 23 37 20 23 37 20 23 37 20
23 37 20 23 37 20
27 50 18 27 50 18 27 50 18 27 50 18 27 50 18 27 51 18 27 51 18 27 51
19 27 51 19 28 52 19 28 52 19 28 52 19 28 52 19 28 52 19 28 53 19 28
53 19 28 53 19 28 53 19 29 54 19 29 54 19 29 54 19 29 54 20 29 55 20
29 55 20 29 55 20 29 55 20 30 56 20 30 56 20 30 56 20 30 56 20 30 57
20 30 57 20 30 57 20 30 57 21 31 58 21 31 58 21 31 58 21 31 59 21 31
59 21 31 59 21 31 59 21 32 60 21 32 60 21 32 60 21 32 61 21 32 61 22
32 61 22 33 62 22 33 62 22 33 62 22 33 62 22 33 63 22 33 63 22 33 63
22 34 64 22 34 64 23 34 64 23 34 65 23 34 65 23 34 65 23 35 66 23 35
66 23 35 66 23 35 67 23 35 67 23 36 67 24 36 68 24 36 68 24 36 69 24
36 69 24 36 69 24 37 70 24 37 70 24 37 70 24 37 71 24 37 71 25 37 71
25 38 72 25 38 72 25 38 72 25 38 73 25 38 73 25 39 74 25 39 74 25 39
74 25 39 75 26 39 75 26 40 75 26 40 76 26 40 76 26 40 77 26 40 77 26
41 77 26 41 78 26 41 78 26 41 78 27 41 79 27 41 79 27 42 80 27 42 80
27 42 80 27 42 81 27 42 81 27 43 81 27 43 82 27 43 82 27 43 82 28 43
83 28 43 83 28 44 83 28 44 84 28 44 84 28 44 84 28 44 85 28 45 85 28
45 85 28 45 86 28 45 86 28 45 86 28 45 87 29 42 86 21 42 86 21 42 87
21 42 87 21 42 87 21 43 87 21 43 88 21 43 88 21 43 88 21 43 88 21 43
89 21 43 89 21 43 89 21 44 89 21 44 89 21 44 90 21 44 90 21 44 90 21
44 90 21 44 90 21 44 91 21 44 91 20 44 91 20 44 91 20 45 91 20 45 91
20 45 91 20 45 91 20 45 92 20 45 92 20 45 92 20 45 92 20 45 92 20 45
92 20 45 92 20 45 92 20 45 92 20 45 92 20 45 92 20 45 92 20 45 92 20
45 92 20 45 92 20 45 92 20 45 92 20 45 92 19 45 92 19 50 93 30 50 93
30 50 93 30 49 92 30 49 92 30 49 92 30 49 92 30 49 92 30 49 92 30 49
92 30 49 91 30 49 91 30 49 91 30 49 91 30 49 91 30 49 90 30 49 90 30
49 90 30 49 90 30 48 89 30 48 89 30 48 89 30 48 89 30 48 88 30 48 88
30 48 88 30 48 87 30 48 87 30 48 87 30 47 86 30 47 86 30 47 86 30 47
85 30 47 85 30 47 85 30 47 84 30 46 84 30 46 84 30 46 83 30 46 83 30
46 82 30 46 82 30 46 82 30 45 81 30 45 81 30 45 81 30 45 80 30 45 80
30 45 79 30 45 79 30 44 79 31 44 78 31 22 33 28 22 33 28 22 33 28 22
33 28 22 33 28 22 32 29 22 32 29 22 32 29 22 32 29 22 32 29 22 32 29
22 32 29 22 32 29 22 32 29 22 31 29 22 31 29 22 31 29 22 31 29 22 31
29 22 31 29 22 31 29 22 31 29 22 31 30 22 31 30 22 31 30 22 30 30 22
30 30 22 30 30 22 30 30 22 30 30 22 30 30 22 30 30 22 30 30 22 30 30
14 13 23 14 13 23 14 13 23 14 13 23 14 13 23 15 13 24 15 13 24 15 13
24 15 13 24 15 13 24 15 13 24 15 13 24 31 46 26 31 46 26 31 45 26 31
45 26 31 45 26 31 45 26 31 45 26 31 44 26 31 44 26 30 44 26 30 44 26
30 44 26 30 44 26 30 43 26 30 43 27 30 43 27 37 57 33 36 57 33 36 57
33 36 57 33 36 56 33 36 56 33 36 56 33 39 104 111 40 110 117 34 99 115
34 99 116 33 98 117 33 97 117 33 95 116 32 94 116 32 92 115 31 90 114
30 88 113 30 85 112 29 83 110 28 80 109 27 78 107 27 75 105 26 73 103
25 70 101 24 67 100 23 65 97 22 62 95 21 59 93 21 56 91 20 53 89 19 50
86 18 47 84 17 44 81 16 41 79 15 38 76 14 35 73 13 31 70 12 28 67 11
24 64 9 21 61 8 17 58 7 15 55 7 15 55 7 15 55 7 15 54 7 15 54 7 15 53
7 15 52 9 18 52 30 47 28 30 46 28 30 46 28 30 46 28 30 46 28 30 46 27
29 46 27 29 45 27 29 45 27 29 45 27 29 45 27 29 45 27 29 45 26 29 44
26 28 44 26 28 44 26 28 44 26 28 44 26 28 44 26 28 43 26 28 43 25 28
43 25 27 43 25 27 43 25 27 43 25 27 43 25 27 42 25 27 42 25 27 42 24
27 42 24 27 42 24 27 42 24 26 42 24 26 41 24 26 41 24 26 41 24 26 41
23 26 41 23 26 41 23 26 41 23 26 41 23 25 40 23 25 40 23 25 40 23 25
40 23 25 40 22 25 40 22 25 40 22 25 40 22 25 39 22 25 39 22 25 39 22
24 39 22 24 39 22 24 39 22 24 39 21 24 39 21 24 38 21 24 38 21 24 38
21 24 38 21 24 38 21 24 38 21 24 38 21 23 38 21 23 38 20 23 37 20 23
37 20 23 37 20
27 50 18 27 51 18 27 51 18 27 51 19 27 51 19 27 51 19 28 52 19 28 52
19 28 52 19 28 52 19 28 53 19 28 53 19 28 53 19 28 53 19 28 53 19 29
54 19 29 54 19 29 54 20 29 54 20 29 55 20 29 55 20 29 55 20 29 55 20
30 56 20 30 56 20 30 56 20 30 56 20 30 57 20 30 57 20 30 57 20 31 58
21 31 58 21 31 58 21 31 58 21 31 59 21 31 59 21 31 59 21 32 60 21 32
60 21 32 60 21 32 60 21 32 61 22 32 61 22 32 61 22 33 62 22 33 62 22
33 62 22 33 63 22 33 63 22 33 63 22 33 63 22 34 64 22 34 64 23 34 64
23 34 65 23 34 65 23 34 65 23 35 66 23 35 66 23 35 66 23 35 67 23 35
67 23 36 67 24 36 68 24 36 68 24 36 69 24 36 69 24 36 69 24 37 70 24
37 70 24 37 70 24 37 71 24 37 71 25 37 71 25 38 72 25 38 72 25 38 73
25 38 73 25 38 73 25 39 74 25 39 74 25 39 74 26 39 75 26 39 75 26 40
76 26 40 76 26 40 76 26 40 77 26 40 77 26 41 77 26 41 78 26 41 78 27
41 79 27 41 79 27 41 79 27 42 80 27 42 80 27 42 80 27 42 81 27 42 81
27 43 81 27 43 82 27 43 82 28 43 83 28 43 83 28 44 83 28 44 84 28 44
84 28 44 84 28 44 85 28 44 85 28 45 85 28 45 86 28 45 86 28 45 86 29
45 87 29 46 87 29 46 87 29 46 88 29 46 88 29 46 88 29 46 88 29 46 89
29 47 89 29 47 89 29 47 90 29 47 90 29 47 90 29 47 90 29 48 91 29 48
91 29 48 91 29 48 91 30 48 91 30 48 92 30 48 92 30 48 92 30 49 92 30
49 92 30 49 93 30 49 93 30 49 93 30 49 93 30 49 93 30 49 93 30 49 93
30 49 94 30 49 94 30 50 94 30 50 94 30 50 94 30 50 94 30 50 94 30 50
94 30 50 94 30 50 94 30 50 94 30 50 94 30 50 94 30 50 94 30 50 94 30
50 94 30 50 94 30 50 94 30 50 94 30 50 94 30 50 94 30 50 94 30 50 94
30 50 94 30 50 93 30 50 93 30 50 93 30 50 93 30 50 93 30 50 93 30 50
93 30 50 92 30 50 92 30 50 92 30 49 92 30 49 91 30 49 91 30 49 91 30
49 91 30 49 90 30 49 90 30 49 90 30 49 90 30 49 89 30 49 89 30 48 89
30 48 88 30 48 88 30 48 88 30 48 87 30 48 87 30 48 87 30 48 86 30 47
86 30 47 86 30 47 85 30 47 85 30 47 85 30 47 84 30 47 84 30 46 84 30
46 83 30 46 83 30 46 82 30 46 82 30 46 82 31 46 81 31 45 81 31 45 80
31 45 80 31 45 80 31 45 79 31 45 79 31 45 78 31 44 78 31 44 78 31 22
33 29 22 33 29 22 33 29 22 32 29 22 32 29 22 32 29 22 32 29 22 32 29
22 32 29 22 32 29 22 32 29 22 32 29 22 32 29 0 4 70 0 3 66 0 3 65 0 3
67 0 4 70 1 4 75 1 4 82 1 4 90 1 4 105 22 31 30 22 30 30 22 30 30 22
30 30 22 30 30 22 30 30 22 30 30 22 30 30 22 30 31 22 30 31 22 30 31
22 30 31 22 30 31 22 29 31 22 29 31 22 29 31 39 64 33 39 64 33 39 63
33 39 63 33 39 63 33 39 62 33 39 62 33 38 62 33 38 61 33 38 61 33 38
61 33 38 61 33 38 60 33 38 60 33 38 60 33 38 60 33 37 59 33 37 59 33
37 59 33 37 58 33 37 58 33 37 58 33 37 58 33 37 57 33 37 57 33 36 57
33 36 57 33 36 56 33 36 100 111 37 107 111 33 99 111 33 98 112 33 97
112 32 96 112 32 94 112 32 93 111 31 91 110 31 90 110 32 90 109 30 85
107 28 82 105 27 79 104 27 77 102 26 74 100 25 72 98 24 69 96 23 66 94
23 64 92 22 61 90 21 58 88 20 55 86 19 52 84 18 49 81 17 46 79 16 43
76 15 40 74 14 37 71 13 34 68 12 30 66 11 27 63 10 24 60 9 20 57 8 17
53 7 15 51 7 15 51 7 15 50 7 15 50 7 14 49 7 14 49 7 14 48 7 14 47 14
26 51 30 47 28 30 47 28 30 47 28 30 46 28 30 46 28 30 46 28 30 46 28
30 46 27 29 45 27 29 45 27 29 45 27 29 45 27 29 45 27 29 45 27 29 45
27 29 44 26 28 44 26 28 44 26 28 44 26 28 44 26 28 44 26 28 43 26 28
43 25 28 43 25 27 43 25 27 43 25 27 43 25 27 43 25 27 42 25 27 42 25
27 42 24 27 42 24 27 42 24 27 42 24 26 42 24 26 41 24 26 41 24 26 41
24 26 41 23 26 41 23 26 41 23 26 41 23 26 41 23 26 40 23 25 40 23 25
40 23 25 40 23 25 40 22 25 40 22 25 40 22 25 40 22 25 39 22 25 39 22
25 39 22 24 39 22 24 39 22 24 39 22 24 39 21 24 39 21 24 38 21 24 38
21 24 38 21 24 38 21 24 38 21 24 38 21 24 38 21 23 38 21 23 38 21
27 51 19 27 51 19 27 51 19 28 52 19 28 52 19 28 52 19 28 52 19 28 53
19 28 53 19 28 53 19 28 53 19 28 54 19 29 54 19 29 54 19 29 54 20 29
54 20 29 55 20 29 55 20 29 55 20 29 55 20 30 56 20 30 56 20 30 56 20
30 56 20 30 57 20 30 57 20 30 57 20 31 58 21 31 58 21 31 58 21 31 58
21 31 59 21 31 59 21 31 59 21 32 60 21 32 60 21 32 60 21 32 60 21 32
61 22 32 61 22 32 61 22 33 62 22 33 62 22 33 62 22 33 63 22 33 63 22
33 63 22 33 63 22 34 64 22 34 64 23 34 64 23 34 65 23 34 65 23 34 65
23 35 66 23 35 66 23 35 66 23 35 67 23 35 67 23 35 67 24 36 68 24 36
68 24 36 69 24 36 69 24 36 69 24 37 70 24 37 70 24 37 70 24 37 71 24
37 71 25 37 71 25 38 72 25 38 72 25 38 72 25 38 73 25 38 73 25 39 74
25 39 74 25 39 74 26 39 75 26 39 75 26 40 75 26 40 76 26 40 76 26 40
77 26 40 77 26 41 77 26 41 78 26 41 78 27 41 79 27 41 79 27 41 79 27
42 80 27 42 80 27 42 80 27 42 81 27 42 81 27 43 82 27 43 82 28 43 82
28 43 83 28 43 83 28 44 83 28 44 84 28 44 84 28 44 84 28 44 85 28 45
85 28 45 85 28 45 86 28 45 86 29 45 86 29 45 87 29 46 87 29 46 87 29
46 88 29 46 88 29 46 88 29 46 89 29 47 89 29 47 89 29 47 90 29 47 90
29 47 90 29 47 90 29 47 91 30 48 91 30 48 91 30 48 91 30 48 92 30 48
92 30 48 92 30 48 92 30 49 93 30 49 93 30 49 93 30 49 93 30 49 93 30
49 93 30 49 94 30 49 94 30 49 94 30 50 94 30 50 94 30 50 94 30 50 94
30 50 95 30 50 95 30 50 95 30 50 95 30 50 95 30 50 95 30 50 95 30 50
95 30 50 95 30 50 95 30 50 95 30 50 95 30 50 95 30 51 95 30 51 95 30
51 95 30 51 95 30 51 95 30 51 95 30 51 95 30 51 95 30 51 95 30 50 95
30 50 94 30 50 94 30 50 94 30 50 94 30 50 94 30 50 94 30 50 94 30 50
93 30 50 93 30 50 93 30 50 93 30 50 92 30 50 92 30 50 92 30 50 92 30
50 91 30 49 91 30 49 91 30 49 91 30 49 90 30 49 90 30 49 90 30 49 89
30 49 89 30 49 89 30 48 88 30 48 88 30 48 88 30 48 87 30 48 87 30 48
87 30 48 86 30 47 86 30 47 86 30 47 85 31 47 85 31 47 85 31 47 84 31
47 84 31 46 83 31 46 83 31 46 83 31 46 82 31 46 82 31 46 81 31 46 81
31 45 81 31 45 80 31 45 80 31 45 79 31 45 79 31 45 79 31 45 78 31 44
78 31 44 78 31 44 77 31 44 77 31 44 76 31 44 76 31 22 32 29 22 32 29
22 32 29 22 32 29 22 32 29 0 3 48 0 3 46 0 3 46 0 3 46 0 3 46 0 3 47 0
3 51 0 3 55 0 3 60 0 3 66 1 4 74 1 4 85 1 4 97 22 31 30 22 30 30 22 30
30 22 30 31 22 30 31 22 30 31 40 67 33 40 67 33 40 66 33 40 66 33 40
66 33 40 65 33 40 65 33 40 65 33 40 64 33 39 64 33 39 64 33 39 63 33
39 63 33 39 63 33 39 63 33 39 62 33 39 62 33 39 62 33 38 61 33 38 61
33 38 61 33 38 61 33 38 60 34 38 60 34 38 60 34 38 59 34 38 59 34 37
59 34 37 59 34 37 58 34 37 58 34 37 58 34 37 58 33 37 57 33 37 57 33
37 57 33 36 100 108 37 106 107 33 98 107 33 97 107 32 96 108 35 98 128
35 96 132 31 91 106 32 92 106 44 110 113 45 110 112 31 87 103 28 81
100 27 78 98 26 76 97 25 73 95 24 70 93 24 68 91 23 65 89 22 62 87 21
60 85 20 57 83 19 54 81 18 51 79 17 48 76 17 45 74 16 42 71 15 39 69
14 36 66 13 33 64 12 29 61 11 26 58 9 23 55 8 19 52 7 16 49 7 14 47 7
14 46 7 14 46 7 14 46 7 14 45 7 14 45 7 14 44 7 14 43 11 22 45 31 47
29 31 47 29 31 47 29 30 47 28 30 47 28 30 46 28 30 46 28 30 46 28 30
46 28 30 46 28 29 46 28 29 45 27 29 45 27 29 45 27 29 45 27 29 45 27
29 45 27 29 44 27 29 44 26 28 44 26 28 44 26 28 44 26 28 44 26 28 44
26 28 43 26 28 43 25 28 43 25 27 43 25 27 43 25 27 43 25 27 42 25 27
42 25 27 42 25 27 42 24 27 42 24 27 42 24 27 42 24 26 42 24 26 41 24
26 41 24 26 41 24 26 41 24 26 41 23 26 41 23 26 41 23 26 40 23 26 40
23 25 40 23 25 40 23 25 40 23 25 40 23 25 40 22 25 40 22 25 40 22 25
39 22 25 39 22 25 39 22 25 39 22 24 39 22 24 39 22 24 39 21 24 39 21
24 38 21 24 38 21 24 38 21 24 38 21 24 38 21 24 38 21
28 52 19 28 52 19 28 52 19 28 52 19 28 53 19 28 53 19 28 53 19 28 53
19 29 54 19 29 54 19 29 54 19 29 54 20 29 55 20 29 55 20 29 55 20 29
55 20 29 55 20 30 56 20 30 56 20 30 56 20 30 57 20 30 57 20 30 57 20
30 57 20 31 58 21 31 58 21 31 58 21 31 58 21 31 59 21 31 59 21 31 59
21 31 60 21 32 60 21 32 60 21 32 60 21 32 61 22 32 61 22 32 61 22 33
62 22 33 62 22 33 62 22 33 62 22 33 63 22 33 63 22 33 63 22 34 64 22
34 64 23 34 64 23 34 65 23 34 65 23 34 65 23 35 66 23 35 66 23 35 66
23 35 67 23 35 67 23 35 67 24 36 68 24 36 68 24 36 68 24 36 69 24 36
69 24 37 70 24 37 70 24 37 70 24 37 71 24 37 71 25 37 71 25 38 72 25
38 72 25 38 72 25 38 73 25 38 73 25 39 74 25 39 74 25 39 74 26 39 75
26 39 75 26 40 75 26 40 76 26 40 76 26 40 77 26 40 77 26 40 77 26 41
78 26 41 78 27 41 78 27 41 79 27 41 79 27 42 80 27 42 80 27 42 80 27
42 81 27 42 81 27 43 82 27 43 82 28 43 82 28 43 83 28 43 83 28 44 83
28 44 84 28 44 84 28 44 84 28 44 85 28 44 85 28 45 86 28 45 86 29 45
86 29 45 87 29 45 87 29 46 87 29 46 88 29 46 88 29 46 88 29 46 89 29
46 89 29 47 89 29 47 89 29 47 90 29 47 90 29 47 90 30 47 91 30 48 91
30 48 91 30 48 91 30 48 92 30 48 92 30 48 92 30 48 92 30 49 93 30 49
93 30 49 93 30 49 93 30 49 93 30 49 94 30 49 94 30 49 94 30 50 94 30
50 94 30 50 95 30 50 95 30 50 95 30 50 95 30 50 95 30 50 95 30 50 95
30 50 95 30 50 96 30 50 96 30 51 96 30 51 96 30 51 96 30 51 96 30 51
96 30 51 96 30 51 96 30 51 96 30 51 96 30 51 96 30 51 96 30 51 96 30
51 96 30 51 96 30 51 96 30 51 96 30 51 96 30 51 96 30 51 95 30 51 95
30 51 95 30 51 95 30 51 95 30 51 95 30 51 95 30 51 94 30 51 94 30 51
94 30 50 94 30 50 94 30 50 93 30 50 93 30 50 93 30 50 93 30 50 92 30
50 92 30 50 92 30 50 92 30 50 91 30 49 91 30 49 91 31 49 90 31 49 90
31 49 90 31 49 89 31 49 89 31 49 89 31 48 88 31 48 88 31 48 88 31 48
87 31 48 87 31 48 87 31 48 86 31 48 86 31 47 85 31 47 85 31 47 85 31
47 84 31 47 84 31 47 84 31 46 83 31 46 83 31 46 82 31 46 82 31 46 82
31 46 81 31 46 81 31 45 80 31 45 80 31 45 80 31 45 79 31 45 79 31 45
78 31 45 78 31 44 78 31 44 77 31 44 77 31 44 76 31 44 76 31 44 76 32
44 75 32 0 3 46 0 3 46 0 3 46 0 3 46 0 3 46 0 3 46 0 3 46 0 3 46 0 3
46 0 3 46 0 3 46 0 3 51 0 3 57 0 3 65 1 4 75 4 4 123 1 4 103 41 69 33
41 68 33 41 68 33 41 68 33 41 67 33 41 67 33 41 67 33 40 66 33 40 66
33 40 66 33 40 65 33 40 65 33 40 65 33 40 65 33 40 64 33 40 64 33 39
64 33 39 63 33 39 63 34 39 63 34 39 62 34 39 62 34 39 62 34 39 62 34
39 61 34 38 61 34 38 61 34 38 60 34 38 60 34 38 60 34 38 60 34 38 59
34 38 59 34 38 59 34 37 59 34 37 58 34 37 58 34 37 58 34 37 58 34 39
106 101 35 100 104 38 107 105 32 97 102 32 96 103 32 95 103 34 97 122
34 95 122 30 90 101 37 100 106 62 138 125 49 116 117 33 86 111 28 79
117 28 77 117 26 74 107 25 72 90 24 69 88 23 66 86 22 64 84 21 61 82
20 58 80 20 55 78 19 53 76 18 50 74 17 47 71 16 44 69 15 41 67 14 38
64 13 35 61 12 32 59 11 28 56 10 25 53 9 22 50 8 18 47 7 15 44 6 14 42
6 14 42 6 14 42 6 14 42 6 14 41 6 14 41 6 14 40 6 14 39 6 14 38 14 27
43 31 48 29 31 47 29 31 47 29 31 47 29 30 47 29 30 47 29 30 46 28 30
46 28 30 46 28 30 46 28 30 46 28 30 46 28 29 45 28 29 45 27 29 45 27
29 45 27 29 45 27 29 45 27 29 45 27 29 44 27 28 44 26 28 44 26 28 44
26 28 44 26 28 44 26 28 43 26 28 43 26 28 43 25 28 43 25 27 43 25 27
43 25 27 43 25 27 42 25 27 42 25 27 42 25 27 42 24 27 42 24 27 42 24
26 42 24 26 41 24 26 41 24 26 41 24 26 41 24 26 41 24 26 41 23 26 41
23 26 41 23 26 40 23 26 40 23 25 40 23 25 40 23 25 40 23 25 40 23 25
40 22 25 40 22 25 40 22 25 39 22 25 39 22 25 39 22 25 39 22 24 39 22
24 39 22 24 39 22 24 39 21 24 38 21 24 38 21 24 38 21
28 52 19 28 53 19 28 53 19 28 53 19 28 53 19 29 54 19 29 54 19 29 54
19 29 54 20 29 55 20 29 55 20 29 55 20 29 55 20 29 55 20 30 56 20 30
56 20 30 56 20 30 57 20 30 57 20 30 57 20 30 57 20 31 58 21 31 58 21
31 58 21 31 58 21 31 59 21 31 59 21 31 59 21 31 59 21 32 60 21 32 60
21 32 60 21 32 61 22 32 61 22 32 61 22 32 62 22 33 62 22 33 62 22 33
62 22 33 63 22 33 63 22 33 63 22 34 64 22 34 64 23 34 64 23 34 65 23
34 65 23 34 65 23 35 66 23 35 66 23 35 66 23 35 67 23 35 67 23 35 67
24 36 68 24 36 68 24 36 68 24 36 69 24 36 69 24 36 69 24 37 70 24 37
70 24 37 70 24 37 71 25 37 71 25 38 72 25 38 72 25 38 72 25 38 73 25
38 73 25 38 73 25 39 74 25 39 74 26 39 75 26 39 75 26 39 75 26 40 76
26 40 76 26 40 76 26 40 77 26 40 77 26 41 78 26 41 78 27 41 78 27 41
79 27 41 79 27 42 80 27 42 80 27 42 80 27 42 81 27 42 81 27 43 81 28
43 82 28 43 82 28 43 83 28 43 83 28 43 83 28 44 84 28 44 84 28 44 84
28 44 85 28 44 85 28 45 85 29 45 86 29 45 86 29 45 87 29 45 87 29 46
87 29 46 88 29 46 88 29 46 88 29 46 89 29 46 89 29 47 89 29 47 89 29
47 90 29 47 90 30 47 90 30 47 91 30 48 91 30 48 91 30 48 92 30 48 92
30 48 92 30 48 92 30 48 93 30 49 93 30 49 93 30 49 93 30 49 94 30 49
94 30 49 94 30 49 94 30 49 94 30 50 95 30 50 95 30 50 95 30 50 95 30
50 95 30 50 95 30 50 96 30 50 96 30 50 96 31 50 96 31 51 96 31 51 96
31 51 96 31 51 96 31 51 96 31 51 96 31 51 97 31 51 97 31 51 97 31 51
97 31 51 97 31 51 97 31 51 97 31 51 97 31 51 97 31 51 97 31 51 97 31
51 97 31 51 96 31 51 96 31 51 96 31 51 96 31 51 96 31 51 96 31 51 96
31 51 96 31 51 96 31 51 96 31 51 95 31 51 95 31 51 95 31 51 95 31 51
95 31 51 94 31 51 94 31 51 94 31 51 94 31 50 93 31 50 93 31 50 93 31
50 93 31 50 92 31 50 92 31 50 92 31 50 92 31 50 91 31 50 91 31 49 91
31 49 90 31 49 90 31 49 90 31 49 89 31 49 89 31 49 89 31 48 88 31 48
88 31 48 87 31 48 87 31 48 87 31 48 86 31 48 86 31 47 86 31 47 85 31
47 85 31 47 84 31 47 84 31 47 84 31 47 83 31 46 83 31 46 82 31 46 82
31 46 82 31 46 81 31 46 81 31 46 80 31 45 80 31 45 80 31 45 79 31 45
79 31 45 79 31 45 78 31 45 78 31 44 77 32 44 77 32 44 77 32 44 76 32 0
3 46 0 3 46 0 3 46 0 3 46 0 3 46 0 3 46 0 3 46 0 3 46 0 3 46 0 3 46 0
3 46 0 3 46 0 3 46 0 3 46 0 3 51 0 3 59 0 3 68 4 4 117 3 4 128 41 69
33 41 69 33 41 68 33 41 68 33 41 68 33 41 67 33 41 67 33 41 67 33 40
66 33 40 66 33 40 66 33 40 65 33 40 65 33 40 65 34 40 64 34 40 64 34
40 64 34 39 63 34 39 63 34 39 63 34 39 63 34 39 62 34 39 62 34 39 62
34 39 61 34 39 61 34 39 61 34 38 61 34 38 60 34 38 60 34 38 60 34 38
60 34 38 59 34 38 59 34 38 59 34 38 59 34 37 58 34 37 58 34 35 98 101
35 99 102 40 111 102 31 96 98 31 95 98 31 94 98 33 95 111 33 95 108 30
89 97 36 98 110 52 123 162 41 104 140 29 82 114 28 78 112 27 75 110 26
73 104 24 70 85 23 68 83 22 65 81 21 62 79 21 60 77 20 57 75 19 54 73
18 51 71 17 48 69 16 46 66 15 43 64 14 40 62 13 37 59 12 34 57 11 30
54 10 27 51 9 24 48 8 21 45 7 17 42 6 15 40 6 14 38 6 14 38 6 14 38 6
14 38 6 14 37 6 14 37 6 14 36 6 14 35 6 14 34 13 25 39 31 48 30 31 48
30 31 48 29 31 47 29 31 47 29 31 47 29 31 47 29 30 47 29 30 47 28 30
46 28 30 46 28 30 46 28 30 46 28 30 46 28 30 46 28 29 45 28 29 45 27
29 45 27 29 45 27 29 45 27 29 45 27 29 44 27 29 44 27 28 44 26 28 44
26 28 44 26 28 44 26 28 44 26 28 43 26 28 43 26 28 43 25 28 43 25 27
43 25 27 43 25 27 43 25 27 42 25 27 42 25 27 42 25 27 42 24 27 42 24
27 42 24 26 42 24 26 41 24 26 41 24 26 41 24 26 41 24 26 41 24 26 41
23 26 41 23 26 41 23 26 40 23 25 40 23 25 40 23 25 40 23 25 40 23 25
40 23 25 40 22 25 40 22 25 39 22 25 39 22 25 39 22 25 39 22 25 39 22
24 39 22 24 39 22 24 39 22 24 39 21
28 53 19 28 53 19 29 54 19 29 54 19 29 54 19 29 54 20 29 55 20 29 55
20 29 55 20 29 55 20 29 55 20 30 56 20 30 56 20 30 56 20 30 56 20 30
57 20 30 57 20 30 57 20 30 58 21 31 58 21 31 58 21 31 58 21 31 59 21
31 59 21 31 59 21 31 59 21 32 60 21 32 60 21 32 60 21 32 61 22 32 61
22 32 61 22 32 61 22 33 62 22 33 62 22 33 62 22 33 63 22 33 63 22 33
63 22 34 64 22 34 64 23 34 64 23 34 65 23 34 65 23 34 65 23 34 66 23
35 66 23 35 66 23 35 66 23 35 67 23 35 67 24 35 68 24 36 68 24 36 68
24 36 69 24 36 69 24 36 69 24 37 70 24 37 70 24 37 70 24 37 71 25 37
71 25 37 71 25 38 72 25 38 72 25 38 73 25 38 73 25 38 73 25 39 74 25
39 74 26 39 74 26 39 75 26 39 75 26 40 76 26 40 76 26 40 76 26 40 77
26 40 77 26 40 77 26 41 78 27 41 78 27 41 79 27 41 79 27 41 79 27 42
80 27 42 80 27 42 80 27 42 81 27 42 81 27 43 82 28 43 82 28 43 82 28
43 83 28 43 83 28 44 83 28 44 84 28 44 84 28 44 85 28 44 85 28 45 85
29 45 86 29 45 86 29 45 86 29 45 87 29 45 87 29 46 87 29 46 88 29 46
88 29 46 88 29 46 89 29 47 89 29 47 89 29 47 90 30 47 90 30 47 90 30
47 91 30 48 91 30 48 91 30 48 92 30 48 92 30 48 92 30 48 92 30 48 93
30 49 93 30 49 93 30 49 93 30 49 94 30 49 94 30 49 94 30 49 94 30 50
95 30 50 95 30 50 95 30 50 95 31 50 95 31 50 95 31 50 96 31 50 96 31
50 96 31 50 96 31 51 96 31 51 96 31 51 96 31 51 97 31 51 97 31 51 97
31 51 97 31 51 97 31 51 97 31 51 97 31 51 97 31 51 97 31 51 97 31 51
97 31 51 97 31 51 97 31 52 97 31 52 97 31 52 97 31 52 97 31 52 97 31
52 97 31 52 97 31 52 97 31 52 97 31 52 97 31 52 97 31 51 97 31 51 96
31 51 96 31 51 96 31 51 96 31 51 96 31 51 96 31 51 95 31 51 95 31 51
95 31 51 95 31 51 95 31 51 94 31 51 94 31 51 94 31 51 94 31 50 93 31
50 93 31 50 93 31 50 93 31 50 92 31 50 92 31 50 92 31 50 91 31 50 91
31 49 91 31 49 90 31 49 90 31 49 90 31 49 89 31 49 89 31 49 89 31 49
88 31 48 88 31 48 88 31 48 87 31 48 87 31 48 86 31 48 86 31 48 86 31
47 85 31 47 85 31 47 84 31 47 84 31 47 84 31 47 83 31 47 83 31 46 82
31 46 82 31 46 82 31 46 81 31 46 81 31 46 80 31 45 80 31 45 80 31 45
79 31 45 79 32 45 79 32 45 78 32 45 78 32 44 77 32 44 77 32 0 3 46 0 3
46 0 3 46 0 3 46 0 3 46 0 3 46 0 3 46 0 3 46 0 3 46 0 3 46 0 3 46 0 3
46 0 3 46 0 3 46 0 3 46 0 3 46 0 3 47 0 3 55 0 3 65 2 4 90 7 5 171 41
69 33 41 69 33 41 68 33 41 68 33 41 68 33 41 67 33 41 67 33 41 67 33
41 66 33 40 66 34 40 66 34 40 65 34 40 65 34 40 65 34 40 64 34 40 64
34 40 64 34 40 64 34 39 63 34 39 63 34 39 63 34 39 62 34 39 62 34 39
62 34 39 62 34 39 61 34 39 61 34 39 61 34 38 60 34 38 60 34 38 60 34
38 60 34 38 59 34 38 59 34 38 59 34 38 59 34 38 58 34 42 111 103 35 98
101 37 104 102 35 101 97 31 93 94 30 92 93 33 98 107 29 89 92 29 87 92
34 95 120 47 117 189 37 98 139 28 80 104 27 76 101 26 74 99 25 71 92
23 69 80 22 66 78 21 63 76 21 61 74 20 58 72 19 55 70 18 53 68 17 50
66 16 47 64 15 44 62 15 41 59 14 38 57 13 35 54 12 32 52 11 29 49 10
26 46 9 23 44 8 20 41 7 16 38 6 14 35 6 14 34 6 14 34 6 14 34 6 14 34
6 14 33 6 14 33 6 14 32 6 14 31 6 14 31 12 24 34 32 48 30 32 48 30 31
48 30 31 48 30 31 48 29 31 47 29 31 47 29 31 47 29 31 47 29 30 47 29
30 47 29 30 46 28 30 46 28 30 46 28 30 46 28 30 46 28 30 46 28 29 45
28 29 45 27 29 45 27 29 45 27 29 45 27 29 45 27 29 44 27 29 44 27 29
44 27 28 44 26 28 44 26 28 44 26 28 44 26 28 43 26 28 43 26 28 43 26
28 43 25 27 43 25 27 43 25 27 43 25 27 42 25 27 42 25 27 42 25 27 42
25 27 42 24 27 42 24 27 42 24 26 42 24 26 41 24 26 41 24 26 41 24 26
41 24 26 41 24 26 41 23 26 41 23 26 41 23 26 40 23 25 40 23 25 40 23
25 40 23 25 40 23 25 40 23 25 40 22 25 40 22 25 39 22 25 39 22 25 39
22 25 39 22 25 39 22 24 39 22
29 54 19 29 54 19 29 54 20 29 55 20 29 55 20 29 55 20 29 55 20 29 55
20 30 56 20 30 56 20 30 56 20 30 56 20 30 57 20 30 57 20 30 57 20 30
57 21 31 58 21 31 58 21 31 58 21 31 59 21 31 59 21 31 59 21 31 59 21
32 60 21 32 60 21 32 60 21 32 60 21 32 61 22 32 61 22 32 61 22 33 62
22 33 62 22 33 62 22 33 63 22 33 63 22 33 63 22 33 63 22 34 64 22 34
64 23 34 64 23 34 65 23 34 65 23 34 65 23 35 66 23 35 66 23 35 66 23
35 67 23 35 67 23 35 67 24 36 68 24 36 68 24 36 68 24 36 69 24 36 69
24 36 69 24 37 70 24 37 70 24 37 70 25 37 71 25 37 71 25 38 72 25 38
72 25 38 72 25 38 73 25 38 73 25 38 73 25 39 74 25 39 74 26 39 75 26
39 75 26 39 75 26 40 76 26 40 76 26 40 76 26 40 77 26 40 77 26 41 78
27 41 78 27 41 78 27 41 79 27 41 79 27 42 79 27 42 80 27 42 80 27 42
81 27 42 81 27 42 81 28 43 82 28 43 82 28 43 83 28 43 83 28 43 83 28
44 84 28 44 84 28 44 84 28 44 85 28 44 85 29 45 85 29 45 86 29 45 86
29 45 87 29 45 87 29 46 87 29 46 88 29 46 88 29 46 88 29 46 89 29 46
89 29 47 89 29 47 90 30 47 90 30 47 90 30 47 91 30 47 91 30 48 91 30
48 91 30 48 92 30 48 92 30 48 92 30 48 93 30 49 93 30 49 93 30 49 93
30 49 94 30 49 94 30 49 94 30 49 94 30 49 95 30 50 95 31 50 95 31 50
95 31 50 95 31 50 96 31 50 96 31 50 96 31 50 96 31 51 96 31 51 96 31
51 97 31 51 97 31 51 97 31 51 97 31 51 97 31 51 97 31 51 97 31 51 97
31 51 97 31 51 98 31 51 98 31 52 98 31 52 98 31 52 98 31 52 98 31 52
98 31 52 98 31 52 98 31 52 98 31 52 98 31 52 98 31 52 98 31 52 98 31
52 98 31 52 97 31 52 97 31 52 97 31 52 97 31 52 97 31 52 97 31 52 97
31 52 97 31 52 97 31 52 96 31 51 96 31 51 96 31 51 96 31 51 96 31 51
95 31 51 95 31 51 95 31 51 95 31 51 95 31 51 94 31 51 94 31 51 94 31
51 93 31 50 93 31 50 93 31 50 93 31 50 92 31 50 92 31 50 92 31 50 91
31 50 91 31 50 91 31 49 90 31 49 90 31 49 90 31 49 89 31 49 89 31 49
89 31 49 88 31 48 88 31 48 87 31 48 87 31 48 87 31 48 86 31 48 86 31
48 86 31 47 85 31 47 85 31 47 84 31 47 84 31 47 84 31 47 83 31 47 83
31 46 82 31 46 82 31 46 82 31 46 81 31 46 81 31 46 80 31 45 80 32 45
80 32 45 79 32 45 79 32 45 78 32 45 78 32 45 78 32 0 3 46 0 3 46 0 3
46 0 3 46 0 3 46 0 3 46 0 3 46 0 3 46 0 3 46 0 3 46 0 3 46 0 3 46 0 3
46 0 3 46 0 3 46 0 3 46 0 3 46 0 3 46 0 3 46 0 3 53 0 3 63 1 4 81 3 4
122 42 69 33 41 69 33 41 68 33 41 68 33 41 68 33 41 67 33 41 67 33 41
67 34 41 66 34 41 66 34 40 66 34 40 65 34 40 65 34 40 65 34 40 65 34
40 64 34 40 64 34 40 64 34 40 63 34 39 63 34 39 63 34 39 63 34 39 62
34 39 62 34 39 62 34 39 61 34 39 61 34 39 61 34 39 61 34 38 60 34 38
60 34 38 60 35 38 60 35 38 59 35 38 59 35 40 104 99 42 111 103 35 97
101 34 97 100 41 112 101 32 96 95 30 90 92 29 89 91 29 87 90 28 86 89
30 88 101 33 93 120 29 83 96 26 77 86 25 74 87 24 72 84 23 70 77 22 67
75 22 64 73 21 62 71 20 59 69 19 57 67 18 54 65 17 51 63 17 48 61 16
46 59 15 43 57 14 40 54 13 37 52 12 34 49 11 31 47 10 28 44 9 25 42 8
21 39 7 18 36 6 15 33 6 14 31 6 14 30 6 14 30 6 14 30 6 14 30 6 14 29
6 14 29 5 14 28 5 14 28 5 14 27 11 23 30 32 49 30 32 48 30 32 48 30 32
48 30 31 48 30 31 48 30 31 48 30 31 47 29 31 47 29 31 47 29 31 47 29
31 47 29 30 47 29 30 46 29 30 46 28 30 46 28 30 46 28 30 46 28 30 46
28 30 45 28 29 45 28 29 45 27 29 45 27 29 45 27 29 45 27 29 45 27 29
44 27 29 44 27 28 44 26 28 44 26 28 44 26 28 44 26 28 43 26 28 43 26
28 43 26 28 43 26 28 43 25 27 43 25 27 43 25 27 43 25 27 42 25 27 42
25 27 42 25 27 42 25 27 42 24 27 42 24 27 42 24 26 41 24 26 41 24 26
41 24 26 41 24 26 41 24 26 41 24 26 41 23 26 41 23 26 40 23 26 40 23
25 40 23 25 40 23 25 40 23 25 40 23 25 40 23 25 40 22 25 40 22 25 39
22 25 39 22 25 39 22
29 54 20 29 55 20 29 55 20 29 55 20 29 55 20 30 56 20 30 56 20 30 56
20 30 56 20 30 57 20 30 57 20 30 57 20 30 57 21 31 58 21 31 58 21 31
58 21 31 58 21 31 59 21 31 59 21 31 59 21 31 60 21 32 60 21 32 60 21
32 60 21 32 61 22 32 61 22 32 61 22 32 62 22 33 62 22 33 62 22 33 62
22 33 63 22 33 63 22 33 63 22 34 64 22 34 64 23 34 64 23 34 65 23 34
65 23 34 65 23 34 66 23 35 66 23 35 66 23 35 66 23 35 67 23 35 67 24
35 67 24 36 68 24 36 68 24 36 69 24 36 69 24 36 69 24 37 70 24 37 70
24 37 70 24 37 71 25 37 71 25 37 71 25 38 72 25 38 72 25 38 72 25 38
73 25 38 73 25 38 74 25 39 74 26 39 74 26 39 75 26 39 75 26 39 75 26
40 76 26 40 76 26 40 77 26 40 77 26 40 77 26 41 78 27 41 78 27 41 78
27 41 79 27 41 79 27 42 80 27 42 80 27 42 80 27 42 81 27 42 81 28 43
81 28 43 82 28 43 82 28 43 83 28 43 83 28 43 83 28 44 84 28 44 84 28
44 84 28 44 85 28 44 85 29 45 86 29 45 86 29 45 86 29 45 87 29 45 87
29 46 87 29 46 88 29 46 88 29 46 88 29 46 89 29 46 89 29 47 89 30 47
90 30 47 90 30 47 90 30 47 91 30 47 91 30 48 91 30 48 92 30 48 92 30
48 92 30 48 92 30 48 93 30 49 93 30 49 93 30 49 93 30 49 94 30 49 94
30 49 94 31 49 94 31 50 95 31 50 95 31 50 95 31 50 95 31 50 96 31 50
96 31 50 96 31 50 96 31 50 96 31 51 96 31 51 97 31 51 97 31 51 97 31
51 97 31 51 97 31 51 97 31 51 97 31 51 98 31 51 98 31 51 98 31 51 98
31 52 98 31 52 98 31 52 98 31 52 98 31 52 98 31 52 98 31 52 98 31 52
98 31 52 98 31 52 98 31 52 98 31 52 98 31 52 98 31 52 98 31 52 98 31
52 98 31 52 98 31 52 98 31 52 98 31 52 97 31 52 97 31 52 97 31 52 97
31 52 97 31 52 97 31 52 97 31 52 96 31 52 96 31 52 96 31 51 96 31 51
96 31 51 95 31 51 95 31 51 95 31 51 95 31 51 94 31 51 94 31 51 94 31
51 94 31 51 93 31 50 93 31 50 93 31 50 93 31 50 92 31 50 92 31 50 92
31 50 91 31 50 91 31 50 91 31 49 90 31 49 90 31 49 90 31 49 89 31 49
89 31 49 88 31 49 88 31 48 88 31 48 87 31 48 87 31 48 87 31 48 86 31
48 86 31 48 85 31 47 85 31 47 85 31 47 84 31 47 84 31 47 83 31 47 83
31 47 83 31 46 82 31 46 82 31 46 81 31 46 81 32 46 81 32 46 80 32 45
80 32 45 80 32 45 79 32 45 79 32 45 78 32 1 8 109 1 8 99 10 22 136 1 6
84 1 6 76 0 3 46 0 3 46 0 3 46 0 3 46 0 3 46 0 3 46 0 3 46 0 3 46 0 3
46 0 3 46 0 3 46 0 3 46 0 3 46 0 3 46 0 3 46 0 3 46 0 3 52 0 3 63 1 4
79 1 4 97 42 69 33 41 69 33 41 68 33 41 68 33 41 68 34 41 67 34 41 67
34 41 67 34 41 66 34 41 66 34 40 66 34 40 65 34 40 65 34 40 65 34 40
65 34 40 64 34 40 64 34 40 64 34 40 63 34 40 63 34 39 63 34 39 63 34
39 62 34 39 62 34 39 62 35 39 61 35 39 61 35 39 61 35 39 61 35 39 60
35 38 60 35 38 60 35 38 60 35 38 59 35 40 104 99 41 109 102 42 111 103
37 101 102 36 101 101 41 111 99 31 93 93 29 87 90 28 85 89 27 84 87 27
82 87 27 80 86 26 78 83 25 75 80 24 73 78 23 70 76 22 68 74 22 65 72
21 63 70 20 60 67 19 58 65 18 55 63 17 52 61 17 50 58 16 47 56 15 44
54 14 41 52 13 38 49 12 35 47 11 32 45 10 29 42 9 26 39 8 23 37 7 20
34 6 17 31 6 15 29 5 14 27 5 14 26 5 14 26 5 14 26 5 14 26 5 14 25 5
14 25 5 14 25 5 14 25 5 14 25 11 24 31 14 27 34 32 49 31 32 49 30 32
48 30 32 48 30 32 48 30 31 48 30 31 48 30 31 48 30 31 47 29 31 47 29
31 47 29 31 47 29 31 47 29 30 47 29 30 46 29 30 46 28 30 46 28 30 46
28 30 46 28 30 46 28 30 45 28 29 45 28 29 45 27 29 45 27 29 45 27 29
45 27 29 45 27 29 44 27 29 44 27 29 44 27 28 44 26 28 44 26 28 44 26
28 44 26 28 43 26 28 43 26 28 43 26 28 43 25 28 43 25 27 43 25 27 43
25 27 42 25 27 42 25 27 42 25 27 42 25 27 42 25 27 42 24 27 42 24 26
42 24 26 41 24 26 41 24 26 41 24 26 41 24 26 41 24 26 41 23 26 41 23
26 41 23 26 40 23 26 40 23 25 40 23 25 40 23 25 40 23 25 40 23 25 40
23 25 40 22 25 40 22
29 55 20 29 55 20 30 56 20 30 56 20 30 56 20 30 56 20 30 57 20 30 57
20 30 57 20 30 57 21 31 58 21 31 58 21 31 58 21 31 58 21 31 59 21 31
59 21 31 59 21 31 59 21 32 60 21 32 60 21 32 60 21 32 61 22 32 61 22
32 61 22 32 61 22 33 62 22 33 62 22 33 62 22 33 63 22 33 63 22 33 63
22 33 63 22 34 64 23 34 64 23 34 64 23 34 65 23 34 65 23 34 65 23 35
66 23 35 66 23 35 66 23 35 67 23 35 67 23 35 67 24 36 68 24 36 68 24
36 68 24 36 69 24 36 69 24 36 69 24 37 70 24 37 70 24 37 70 24 37 71
25 37 71 25 37 71 25 38 72 25 38 72 25 38 72 25 38 73 25 38 73 25 39
74 25 39 74 26 39 74 26 39 75 26 39 75 26 39 75 26 40 76 26 40 76 26
40 77 26 40 77 26 40 77 27 41 78 27 41 78 27 41 78 27 41 79 27 41 79
27 42 80 27 42 80 27 42 80 27 42 81 27 42 81 28 43 81 28 43 82 28 43
82 28 43 83 28 43 83 28 43 83 28 44 84 28 44 84 28 44 84 28 44 85 29
44 85 29 45 86 29 45 86 29 45 86 29 45 87 29 45 87 29 46 87 29 46 88
29 46 88 29 46 88 29 46 89 29 46 89 30 47 89 30 47 90 30 47 90 30 47
90 30 47 91 30 47 91 30 48 91 30 48 92 30 48 92 30 48 92 30 48 92 30
48 93 30 49 93 30 49 93 30 49 93 30 49 94 30 49 94 31 49 94 31 49 94
31 50 95 31 50 95 31 50 95 31 50 95 31 50 96 31 50 96 31 50 96 31 50
96 31 50 96 31 51 97 31 51 97 31 51 97 31 51 97 31 51 97 31 51 97 31
51 97 31 51 98 31 51 98 31 51 98 31 51 98 31 52 98 31 52 98 31 52 98
31 52 98 31 52 98 31 52 98 31 52 98 31 52 98 31 52 98 31 52 98 31 52
98 31 52 98 31 52 98 31 52 98 31 52 98 31 52 98 31 52 98 31 52 98 31
52 98 31 52 98 31 52 98 31 52 98 31 52 98 31 52 98 31 52 97 31 52 97
31 52 97 31 52 97 31 52 97 31 52 97 31 52 96 31 52 96 31 52 96 31 51
96 31 51 96 31 51 95 31 51 95 31 51 95 31 51 95 31 51 94 31 51 94 31
51 94 31 51 94 31 51 93 31 50 93 31 50 93 31 50 92 31 50 92 31 50 92
31 50 91 31 50 91 31 50 91 31 49 90 31 49 90 31 49 90 31 49 89 31 49
89 31 49 89 31 49 88 31 49 88 31 48 87 31 48 87 31 48 87 31 48 86 31
48 86 31 48 86 31 47 85 31 47 85 31 47 84 31 47 84 31 47 84 31 47 83
31 47 83 31 46 82 31 46 82 31 46 82 32 46 81 32 46 81 32 46 81 32 46
80 32 45 80 32 45 79 32 45 79 32 1 9 115 1 8 102 17 34 175 4 11 100 1
6 78 1 5 71 1 5 66 1 4 60 0 3 46 0 3 46 0 3 46 0 3 46 0 3 46 0 3 46 0
3 46 0 3 46 0 3 46 0 3 46 0 3 46 0 3 46 0 3 46 0 3 46 0 3 46 0 3 52 0
3 64 1 4 81 1 4 106 42 69 33 41 69 33 41 68 33 41 68 34 41 68 34 41 67
34 41 67 34 41 67 34 41 66 34 41 66 34 41 66 34 40 65 34 40 65 34 40
65 34 40 65 34 40 64 34 40 64 34 40 64 34 40 63 34 40 63 34 40 63 34
39 63 35 39 62 35 39 62 35 39 62 35 39 62 35 39 61 35 39 61 35 39 61
35 39 60 35 39 60 35 38 60 35 38 60 35 39 103 98 41 108 101 41 109 102
42 110 102 42 111 101 42 112 100 41 112 96 33 94 92 27 84 87 27 82 86
26 80 84 26 78 82 25 75 81 24 73 79 23 71 77 23 69 75 22 66 73 21 64
71 20 61 68 19 59 66 19 56 64 18 53 62 17 51 59 16 48 57 15 45 55 14
42 52 13 40 50 13 37 47 12 34 45 11 31 42 10 28 40 9 25 37 8 22 34 7
19 32 6 16 29 5 14 27 5 14 25 5 14 25 5 14 25 5 14 25 5 14 25 5 14 25
5 14 25 5 14 25 5 14 25 8 18 27 12 24 31 14 27 34 27 37 26 27 37 26 27
37 25 26 36 25 26 36 25 32 48 30 32 48 30 31 48 30 31 48 30 31 48 30
31 47 30 31 47 29 31 47 29 31 47 29 31 47 29 30 47 29 30 46 29 30 46
29 30 46 28 30 46 28 30 46 28 30 46 28 30 45 28 29 45 28 29 45 28 29
45 27 29 45 27 29 45 27 29 45 27 29 44 27 29 44 27 29 44 27 28 44 26
28 44 26 28 44 26 28 44 26 28 43 26 28 43 26 28 43 26 28 43 26 28 43
25 27 43 25 27 43 25 27 42 25 27 42 25 27 42 25 27 42 25 27 42 25 27
42 24 27 42 24 27 42 24 26 41 24 26 41 24 26 41 24 26 41 24 26 41 24
26 41 24 26 41 23 26 41 23 26 41 23 26 40 23 25 40 23 25 40 23 25 40
23 25 40 23 25 40 23
30 56 20 30 56 20 30 56 20 30 56 20 30 57 20 30 57 20 30 57 20 30 57
21 31 58 21 31 58 21 31 58 21 31 58 21 31 59 21 31 59 21 31 59 21 32
60 21 32 60 21 32 60 21 32 60 21 32 61 22 32 61 22 32 61 22 32 62 22
33 62 22 33 62 22 33 62 22 33 63 22 33 63 22 33 63 22 34 64 22 34 64
23 34 64 23 34 64 23 34 65 23 34 65 23 34 65 23 35 66 23 35 66 23 35
66 23 35 67 23 35 67 24 35 67 24 36 68 24 36 68 24 36 68 24 36 69 24
36 69 24 36 69 24 37 70 24 37 70 24 37 70 25 37 71 25 37 71 25 37 71
25 38 72 25 38 72 25 38 73 25 38 73 25 38 73 25 39 74 25 39 74 26 39
74 26 39 75 26 39 75 26 39 75 26 40 76 26 40 76 26 40 77 26 40 77 26
40 77 27 41 78 27 41 78 27 41 78 27 41 79 27 41 79 27 42 80 27 42 80
27 42 80 27 42 81 27 42 81 28 42 81 28 43 82 28 43 82 28 43 83 28 43
83 28 43 83 28 44 84 28 44 84 28 44 84 28 44 85 29 44 85 29 45 85 29
45 86 29 45 86 29 45 87 29 45 87 29 45 87 29 46 88 29 46 88 29 46 88
29 46 89 29 46 89 30 47 89 30 47 90 30 47 90 30 47 90 30 47 91 30 47
91 30 48 91 30 48 91 30 48 92 30 48 92 30 48 92 30 48 93 30 48 93 30
49 93 30 49 93 30 49 94 31 49 94 31 49 94 31 49 94 31 49 95 31 50 95
31 50 95 31 50 95 31 50 96 31 50 96 31 50 96 31 50 96 31 50 96 31 51
97 31 51 97 31 51 97 31 51 97 31 51 97 31 51 97 31 51 97 31 51 98 31
51 98 31 51 98 31 51 98 31 52 98 31 52 98 31 52 98 31 52 98 31 52 98
31 52 98 31 52 98 31 52 98 31 52 98 31 52 98 31 52 99 31 52 99 31 52
99 31 52 98 31 52 98 31 52 98 31 52 98 31 52 98 31 52 98 31 52 98 31
52 98 31 52 98 31 52 98 31 52 98 31 52 98 31 52 98 31 52 97 31 52 97
31 52 97 31 52 97 31 52 97 31 52 97 31 52 96 31 52 96 31 52 96 31 51
96 31 51 96 31 51 95 31 51 95 31 51 95 31 51 95 31 51 94 31 51 94 31
51 94 31 51 94 31 51 93 31 50 93 31 50 93 31 50 92 31 50 92 31 50 92
31 50 91 31 50 91 31 50 91 31 50 90 31 49 90 31 49 90 31 49 89 31 49
89 31 49 89 31 49 88 31 49 88 31 48 88 31 48 87 31 48 87 31 48 86 31
48 86 31 48 86 31 48 85 31 47 85 31 47 85 31 47 84 31 47 84 31 47 83
31 47 83 31 47 83 31 46 82 32 46 82 32 46 81 32 46 81 32 46 81 32 46
80 32 46 80 32 45 80 32 45 79 32 1 8 106 2 9 102 10 22 134 1 6 80 1 5
73 1 5 67 1 5 61 0 4 56 0 4 51 0 3 46 0 3 46 0 3 46 0 3 46 0 3 46 0 3
46 0 3 46 0 3 46 0 3 46 0 3 46 0 3 46 0 3 46 0 3 46 0 3 46 0 3 46 0 3
54 0 3 67 1 4 86 42 69 33 42 69 33 41 69 33 41 68 34 41 68 34 41 68 34
41 67 34 41 67 34 41 67 34 41 66 34 41 66 34 41 66 34 40 65 34 40 65
34 40 65 34 40 65 34 40 64 34 40 64 34 40 64 34 40 63 34 40 63 34 40
63 35 39 63 35 39 62 35 39 62 35 39 62 35 39 62 35 39 61 35 39 61 35
39 61 35 39 61 35 39 60 35 38 60 35 39 102 97 40 105 100 41 107 101 41
107 101 41 108 100 41 108 99 41 109 98 42 111 96 38 104 93 29 84 86 26
78 83 25 76 81 24 74 79 24 71 77 23 69 75 22 67 73 21 64 71 21 62 69
20 59 67 19 57 65 18 54 63 17 52 61 16 49 58 16 46 56 15 44 54 14 41
51 13 38 49 12 35 46 11 32 44 10 29 41 9 26 39 8 23 36 7 20 33 6 17 31
6 15 28 5 14 26 5 14 25 5 14 25 5 14 25 5 14 25 5 14 25 5 14 25 5 14
25 5 14 25 5 14 25 10 22 29 12 25 32 14 27 34 27 37 26 27 37 26 27 37
26 27 37 26 27 37 25 26 36 25 26 36 25 26 36 25 26 36 25 26 36 25 26
36 25 26 36 25 26 36 25 26 35 24 25 35 24 25 35 24 25 35 24 25 35 24
25 35 24 25 35 24 25 35 24 25 35 23 25 34 23 25 34 23 30 46 28 29 45
28 29 45 28 29 45 27 29 45 27 29 45 27 29 45 27 29 44 27 29 44 27 29
44 27 28 44 27 28 44 26 28 44 26 28 44 26 28 43 26 28 43 26 28 43 26
28 43 26 28 43 25 27 43 25 27 43 25 27 43 25 27 42 25 27 42 25 27 42
25 27 42 25 27 42 25 27 42 24 27 42 24 26 42 24 26 41 24 26 41 24 26
41 24 26 41 24 26 41 24 26 41 24 26 41 23 26 41 23 26 40 23 26 40 23
25 40 23 25 40 23
30 56 20 30 57 20 30 57 20 30 57 20 30 57 21 31 58 21 31 58 21 31 58
21 31 58 21 31 59 21 31 59 21 31 59 21 31 59 21 32 60 21 32 60 21 32
60 21 32 60 22 32 61 22 32 61 22 32 61 22 33 62 22 33 62 22 33 62 22
33 62 22 33 63 22 33 63 22 33 63 22 34 64 22 34 64 23 34 64 23 34 65
23 34 65 23 34 65 23 34 65 23 35 66 23 35 66 23 35 66 23 35 67 23 35
67 24 35 67 24 36 68 24 36 68 24 36 68 24 36 69 24 36 69 24 36 69 24
37 70 24 37 70 24 37 70 25 37 71 25 37 71 25 37 71 25 38 72 25 38 72
25 38 73 25 38 73 25 38 73 25 39 74 25 39 74 26 39 74 26 39 75 26 39
75 26 39 75 26 40 76 26 40 76 26 40 77 26 40 77 26 40 77 27 41 78 27
41 78 27 41 78 27 41 79 27 41 79 27 41 79 27 42 80 27 42 80 27 42 81
27 42 81 28 42 81 28 43 82 28 43 82 28 43 82 28 43 83 28 43 83 28 44
84 28 44 84 28 44 84 28 44 85 29 44 85 29 45 85 29 45 86 29 45 86 29
45 86 29 45 87 29 45 87 29 46 87 29 46 88 29 46 88 29 46 88 29 46 89
30 46 89 30 47 89 30 47 90 30 47 90 30 47 90 30 47 91 30 47 91 30 48
91 30 48 92 30 48 92 30 48 92 30 48 92 30 48 93 30 49 93 30 49 93 30
49 94 31 49 94 31 49 94 31 49 94 31 49 95 31 50 95 31 50 95 31 50 95
31 50 95 31 50 96 31 50 96 31 50 96 31 50 96 31 50 96 31 51 97 31 51
97 31 51 97 31 51 97 31 51 97 31 51 97 31 51 97 31 51 98 31 51 98 31
51 98 31 51 98 31 52 98 31 52 98 31 52 98 31 52 98 31 52 98 31 52 98
31 52 98 31 52 98 31 52 99 31 52 99 31 52 99 31 52 99 31 52 99 31 52
99 31 52 99 31 52 98 31 52 98 31 52 98 31 52 98 31 52 98 31 52 98 31
52 98 31 52 98 31 52 98 31 52 98 31 52 98 31 52 98 31 52 97 31 52 97
31 52 97 31 52 97 31 52 97 31 52 97 31 52 96 31 52 96 31 52 96 31 51
96 31 51 96 31 51 95 31 51 95 31 51 95 31 51 95 31 51 94 31 51 94 31
51 94 31 51 94 31 51 93 31 50 93 31 50 93 31 50 92 31 50 92 31 50 92
31 50 91 31 50 91 31 50 91 31 49 90 31 49 90 31 49 90 31 49 89 31 49
89 31 49 89 31 49 88 31 49 88 31 48 88 31 48 87 31 48 87 31 48 86 31
48 86 31 48 86 31 48 85 31 47 85 31 47 85 31 47 84 31 47 84 31 47 83
31 47 83 31 47 83 32 46 82 32 46 82 32 46 82 32 46 81 32 46 81 32 46
80 32 46 80 32 45 80 32 1 9 115 1 7 100 3 10 101 1 7 84 1 6 76 1 5 69
1 5 63 1 4 58 0 4 52 0 3 47 0 3 46 0 3 46 0 3 46 0 3 46 0 3 46 0 3 46
0 3 46 0 3 46 0 3 46 0 3 46 0 3 46 0 3 46 0 3 46 0 3 46 0 3 46 0 3 46
0 3 58 1 4 74 1 4 102 42 69 33 42 69 33 41 68 34 41 68 34 41 68 34 41
68 34 41 67 34 41 67 34 41 67 34 41 66 34 41 66 34 41 66 34 40 65 34
40 65 34 40 65 34 40 65 34 40 64 34 40 64 34 40 64 34 40 63 34 40 63
35 40 63 35 39 63 35 39 62 35 39 62 35 39 62 35 39 62 35 39 61 35 39
61 35 39 61 35 39 61 35 39 60 35 38 99 95 39 103 98 40 104 99 40 105
99 40 105 99 40 104 98 40 104 97 40 104 95 40 104 93 40 106 92 36 97
89 27 79 82 24 72 78 23 69 76 22 67 74 21 65 72 21 62 70 20 60 68 19
58 66 18 55 64 18 53 83 17 50 59 16 47 57 15 45 55 14 42 52 13 39 50
12 36 48 11 33 45 11 31 43 10 28 40 9 25 38 8 22 35 7 19 32 6 16 30 6
15 27 5 14 25 5 14 25 5 14 25 5 14 25 5 14 25 5 14 25 5 14 25 5 14 25
5 14 25 9 20 28 11 24 31 13 26 33 13 24 32 15 13 25 15 13 25 15 13 25
15 13 25 15 13 24 15 13 24 15 13 24 15 13 24 15 13 24 15 13 24 26 36
25 26 36 25 26 36 25 26 36 25 26 36 25 26 35 24 25 35 24 25 35 24 25
35 24 25 35 24 25 35 24 25 35 24 25 35 24 25 34 23 25 34 23 25 34 23
24 34 23 24 34 23 24 34 23 24 34 23 24 34 23 24 34 22 24 34 22 24 33
22 24 33 22 29 44 27 28 44 27 28 44 26 28 44 26 28 44 26 28 44 26 28
43 26 28 43 26 28 43 26 28 43 26 28 43 25 27 43 25 27 43 25 27 42 25
27 42 25 27 42 25 27 42 25 27 42 25 27 42 24 27 42 24 27 42 24 26 41
24 26 41 24 26 41 24 26 41 24 26 41 24 26 41 24 26 41 23 26 41 23 26
41 23 26 40 23
30 57 20 30 57 21 30 57 21 31 58 21 31 58 21 31 58 21 31 58 21 31 59
21 31 59 21 31 59 21 31 60 21 32 60 21 32 60 21 32 60 21 32 61 22 32
61 22 32 61 22 32 61 22 33 62 22 33 62 22 33 62 22 33 63 22 33 63 22
33 63 22 33 63 22 34 64 23 34 64 23 34 64 23 34 65 23 34 65 23 34 65
23 34 66 23 35 66 23 35 66 23 35 66 23 35 67 23 35 67 24 35 67 24 36
68 24 36 68 24 36 68 24 36 69 24 36 69 24 36 69 24 37 70 24 37 70 24
37 70 25 37 71 25 37 71 25 37 71 25 38 72 25 38 72 25 38 72 25 38 73
25 38 73 25 39 74 25 39 74 26 39 74 26 39 75 26 39 75 26 39 75 26 40
76 26 40 76 26 40 76 26 40 77 26 40 77 27 41 78 27 41 78 27 41 78 27
41 79 27 41 79 27 41 79 27 42 80 27 42 80 27 42 80 27 42 81 28 42 81
28 43 82 28 43 82 28 43 82 28 43 83 28 43 83 28 43 83 28 44 84 28 44
84 28 44 84 29 44 85 29 44 85 29 45 86 29 45 86 29 45 86 29 45 87 29
45 87 29 45 87 29 46 88 29 46 88 29 46 88 29 46 89 30 46 89 30 47 89
30 47 90 30 47 90 30 47 90 30 47 91 30 47 91 30 48 91 30 48 91 30 48
92 30 48 92 30 48 92 30 48 93 30 48 93 30 49 93 30 49 93 31 49 94 31
49 94 31 49 94 31 49 94 31 49 95 31 50 95 31 50 95 31 50 95 31 50 95
31 50 96 31 50 96 31 50 96 31 50 96 31 50 96 31 51 97 31 51 97 31 51
97 31 51 97 31 51 97 31 51 97 31 51 97 31 51 98 31 51 98 31 51 98 31
51 98 31 52 98 31 52 98 31 52 98 31 52 98 31 52 98 31 52 98 31 52 98
31 52 98 31 52 98 31 52 99 31 52 99 31 52 99 31 52 99 31 52 99 31 52
99 31 52 98 31 52 98 31 52 98 31 52 98 31 52 98 31 52 98 31 52 98 31
52 98 31 52 98 31 52 98 31 52 98 31 52 98 31 52 97 31 52 97 31 52 97
31 52 97 31 52 97 31 52 97 31 52 96 31 52 96 31 52 96 31 51 96 31 51
96 31 51 95 31 51 95 31 51 95 31 51 95 31 51 94 31 51 94 31 51 94 31
51 94 31 51 93 31 51 93 31 50 93 31 50 93 31 50 92 31 50 92 31 50 92
31 50 91 31 50 91 31 50 91 31 49 90 31 49 90 31 49 90 31 49 89 31 49
89 31 49 89 31 49 88 31 49 88 31 48 88 31 48 87 31 48 87 31 48 86 31
48 86 31 48 86 31 48 85 31 47 85 31 47 85 31 47 84 31 47 84 31 47 83
31 47 83 31 47 83 32 46 82 32 46 82 32 46 82 32 46 81 32 46 81 32 46
80 32 46 80 32 45 80 32 1 8 107 1 7 95 1 7 87 1 6 79 1 5 72 1 5 65 1 4
59 0 4 54 0 4 49 0 3 46 0 3 46 0 3 46 0 3 46 0 3 46 0 3 46 0 3 46 0 3
46 0 3 46 0 3 46 0 3 46 0 3 46 0 3 46 0 3 46 0 3 46 0 3 46 0 3 46 0 3
50 0 3 64 1 4 85 42 69 33 42 69 33 42 69 34 41 68 34 41 68 34 41 68 34
41 67 34 41 67 34 41 67 34 41 67 34 41 66 34 41 66 34 41 66 34 40 65
34 40 65 34 40 65 34 40 65 34 40 64 34 40 64 34 40 64 34 40 63 35 40
63 35 40 63 35 39 63 35 39 62 35 39 62 35 39 62 35 39 62 35 39 61 35
39 61 35 29 58 13 29 58 13 37 96 93 38 100 97 39 102 98 39 102 98 39
102 97 39 101 96 38 100 95 38 99 94 38 98 92 38 98 91 38 97 89 37 97
87 35 93 84 29 79 79 22 65 73 21 63 71 20 61 69 19 58 67 19 56 64 18
53 62 17 51 60 16 48 58 15 45 56 14 43 53 14 40 51 13 37 49 12 35 46
11 32 44 10 29 41 9 26 39 8 23 36 7 20 34 6 17 31 6 16 29 5 14 26 5 14
25 5 14 25 5 14 25 5 14 25 5 14 25 5 14 25 5 14 25 5 14 25 8 19 28 11
23 30 13 25 32 12 23 32 10 18 32 15 13 25 15 13 25 15 13 25 15 13 25
15 13 25 15 13 25 15 13 24 15 13 24 15 13 24 15 13 24 15 13 24 15 13
24 15 13 24 15 13 24 15 13 24 14 13 23 14 13 23 14 13 23 25 35 24 25
35 24 25 35 24 25 35 24 25 35 24 25 35 24 25 35 24 25 34 23 25 34 23
25 34 23 24 34 23 24 34 23 24 34 23 24 34 23 24 34 23 24 34 22 24 34
22 24 33 22 24 33 22 24 33 22 24 33 22 23 33 22 23 33 22 23 33 22 23
33 21 23 33 21 28 43 26 28 43 26 28 43 26 28 43 25 27 43 25 27 43 25
27 42 25 27 42 25 27 42 25 27 42 25 27 42 25 27 42 25 27 42 24 27 42
24 26 41 24 26 41 24 26 41 24 26 41 24 26 41 24 26 41 24 26 41 24 26
41 23
31 58 21 31 58 21 31 58 21 31 58 21 31 59 21 31 59 21 31 59 21 31 59
21 32 60 21 32 60 21 32 60 21 32 60 22 32 61 22 32 61 22 32 61 22 32
61 22 33 62 22 33 62 22 33 62 22 33 63 22 33 63 22 33 63 22 33 63 22
34 64 23 34 64 23 34 64 23 34 65 23 34 65 23 34 65 23 34 66 23 35 66
23 35 66 23 35 66 23 35 67 23 35 67 24 35 67 24 36 68 24 36 68 24 36
68 24 36 69 24 36 69 24 36 69 24 37 70 24 37 70 24 37 70 25 37 71 25
37 71 25 37 71 25 38 72 25 38 72 25 38 72 25 38 73 25 38 73 25 38 73
25 39 74 26 39 74 26 39 75 26 39 75 26 39 75 26 40 76 26 40 76 26 40
76 26 40 77 26 40 77 26 40 77 27 41 78 27 41 78 27 41 78 27 41 79 27
41 79 27 42 80 27 42 80 27 42 80 27 42 81 28 42 81 28 42 81 28 43 82
28 43 82 28 43 82 28 43 83 28 43 83 28 44 84 28 44 84 28 44 84 28 44
85 29 44 85 29 44 85 29 45 86 29 45 86 29 45 86 29 45 87 29 45 87 29
46 87 29 46 88 29 46 88 29 46 88 29 46 89 30 46 89 30 47 89 30 47 90
30 47 90 30 47 90 30 47 91 30 47 91 30 48 91 30 48 91 30 48 92 30 48
92 30 48 92 30 48 93 30 48 93 30 49 93 30 49 93 31 49 94 31 49 94 31
49 94 31 49 94 31 49 95 31 50 95 31 50 95 31 50 95 31 50 95 31 50 96
31 50 96 31 50 96 31 50 96 31 50 96 31 51 97 31 51 97 31 51 97 31 51
97 31 51 97 31 51 97 31 51 97 31 51 97 31 51 98 31 51 98 31 51 98 31
51 98 31 52 98 31 52 98 31 52 98 31 52 98 31 52 98 31 52 98 31 52 98
31 52 98 31 52 98 31 52 98 31 52 98 31 52 98 31 52 98 31 52 98 31 52
98 31 52 98 31 52 98 31 52 98 31 52 98 31 52 98 31 52 98 31 52 98 31
52 98 31 52 98 31 52 98 31 52 98 31 52 97 31 52 97 31 52 97 31 52 97
31 52 97 31 52 97 31 52 96 31 52 96 31 52 96 31 51 96 31 51 96 31 51
95 31 51 95 31 51 95 31 51 95 31 51 95 31 51 94 31 51 94 31 51 94 31
51 94 31 51 93 31 50 93 31 50 93 31 50 92 31 50 92 31 50 92 31 50 91
31 50 91 31 50 91 31 50 91 31 49 90 31 49 90 31 49 90 31 49 89 31 49
89 31 49 89 31 49 88 31 48 88 31 48 87 31 48 87 31 48 87 31 48 86 31
48 86 31 48 86 31 48 85 31 47 85 31 47 85 31 47 84 31 47 84 31 47 83
31 47 83 31 47 83 32 46 82 32 46 82 32 46 82 32 46 81 32 46 81 32 46
81 32 46 80 32 45 80 32 1 8 102 1 7 91 1 6 82 1 6 75 1 5 68 1 5 62 0 4
56 0 4 51 0 3 46 0 3 46 0 3 46 0 3 46 0 3 46 0 3 46 0 3 46 0 3 46 0 3
46 0 3 46 0 3 46 0 3 46 0 3 46 0 3 46 0 3 46 0 3 46 0 3 46 0 3 46 0 3
46 0 3 56 1 4 74 42 69 33 42 69 33 42 69 33 41 69 34 41 68 34 41 68 34
41 68 34 41 67 34 41 67 34 41 67 34 41 66 34 41 66 34 41 66 34 40 66
34 40 65 34 40 65 34 40 65 34 40 64 34 40 64 34 40 64 34 40 64 34 40
63 34 40 63 35 40 63 35 39 63 35 39 62 35 39 62 35 39 62 35 39 62 35
39 61 35 29 58 13 29 58 13 33 91 83 37 97 94 38 99 96 38 99 96 38 99
95 38 98 95 37 97 93 37 96 92 37 95 91 36 93 89 36 92 87 35 90 86 35
89 84 34 87 81 33 85 79 31 80 76 26 71 72 21 61 67 18 54 63 17 51 61
16 49 59 16 46 56 15 43 54 14 41 52 13 38 50 12 35 47 11 33 45 10 30
42 9 27 40 9 24 38 8 21 35 7 18 32 6 16 30 6 15 28 5 14 25 5 14 25 5
14 25 5 14 25 5 14 25 5 14 25 5 14 25 8 18 27 9 20 29 12 24 31 13 25
32 12 23 32 9 17 32 10 18 33 15 13 25 15 13 25 15 13 25 15 13 25 15 13
25 15 13 25 15 13 25 15 13 25 15 13 24 15 13 24 15 13 24 15 13 24 15
13 24 15 13 24 15 13 24 15 13 24 15 13 24 14 13 23 14 13 23 14 13 23
14 13 23 14 13 23 14 13 23 14 13 23 14 13 23 25 35 24 25 35 24 25 34
23 25 34 23 25 34 23 24 34 23 24 34 23 24 34 23 24 34 23 24 34 23 24
34 22 24 34 22 24 33 22 24 33 22 24 33 22 24 33 22 23 33 22 23 33 22
23 33 22 23 33 21 23 33 21 23 33 21 23 32 21 23 32 21 23 32 21 23 32
21 27 43 25 27 43 25 27 42 25 27 42 25 27 42 25 27 42 25 27 42 25 27
42 24 27 42 24 26 42 24 26 41 24 26 41 24 26 41 24 26 41 24 26 41 24
31 58 21 31 58 21 31 59 21 31 59 21 31 59 21 31 59 21 32 60 21 32 60
21 32 60 21 32 60 22 32 61 22 32 61 22 32 61 22 32 62 22 33 62 22 33
62 22 33 62 22 33 63 22 33 63 22 33 63 22 33 63 22 34 64 23 34 64 23
34 64 23 34 65 23 34 65 23 34 65 23 34 66 23 35 66 23 35 66 23 35 66
23 35 67 23 35 67 24 35 67 24 36 68 24 36 68 24 36 68 24 36 69 24 36
69 24 36 69 24 37 70 24 37 70 24 37 70 25 37 71 25 37 71 25 37 71 25
38 72 25 38 72 25 38 72 25 38 73 25 38 73 25 38 73 25 39 74 26 39 74
26 39 74 26 39 75 26 39 75 26 39 75 26 40 76 26 40 76 26 40 77 26 40
77 26 40 77 27 41 78 27 41 78 27 41 78 27 41 79 27 41 79 27 41 79 27
42 80 27 42 80 27 42 80 27 42 81 28 42 81 28 43 82 28 43 82 28 43 82
28 43 83 28 43 83 28 43 83 28 44 84 28 44 84 28 44 84 29 44 85 29 44
85 29 45 85 29 45 86 29 45 86 29 45 86 29 45 87 29 45 87 29 46 87 29
46 88 29 46 88 29 46 88 30 46 89 30 46 89 30 47 89 30 47 90 30 47 90
30 47 90 30 47 91 30 47 91 30 48 91 30 48 91 30 48 92 30 48 92 30 48
92 30 48 92 30 48 93 30 49 93 31 49 93 31 49 93 31 49 94 31 49 94 31
49 94 31 49 94 31 49 95 31 50 95 31 50 95 31 50 95 31 50 95 31 50 96
31 50 96 31 50 96 31 50 96 31 50 96 31 51 97 31 51 97 31 51 97 31 51
97 31 51 97 31 51 97 31 51 97 31 51 97 31 51 98 31 51 98 31 51 98 31
51 98 31 51 98 31 52 98 31 52 98 31 52 98 31 52 98 31 52 98 31 52 98
31 52 98 31 52 98 31 52 98 31 52 98 31 52 98 31 52 98 31 52 98 31 52
98 31 52 98 31 52 98 31 52 98 31 52 98 31 52 98 31 52 98 31 52 98 31
52 98 31 52 98 31 52 97 31 52 97 31 52 97 31 52 97 31 52 97 31 52 97
31 52 97 31 52 96 31 52 96 31 51 96 31 51 96 31 51 96 31 51 95 31 51
95 31 51 95 31 51 95 31 51 95 31 51 94 31 51 94 31 51 94 31 51 94 31
51 93 31 50 93 31 50 93 31 50 92 31 50 92 31 50 92 31 50 92 31 50 91
31 50 91 31 50 91 31 49 90 31 49 90 31 49 90 31 49 89 31 49 89 31 49
89 31 49 88 31 49 88 31 48 88 31 48 87 31 48 87 31 48 87 31 48 86 31
48 86 31 48 86 31 47 85 31 47 85 31 47 84 31 47 84 31 47 84 31 47 83
31 47 83 31 47 83 31 46 82 32 46 82 32 46 82 32 46 81 32 46 81 32 46
80 32 46 80 32 45 80 32 1 7 97 1 6 87 1 6 79 1 5 71 1 5 65 1 4 59 0 4
53 0 3 47 0 3 46 0 3 46 0 3 46 0 3 46 0 3 46 0 3 46 0 3 46 0 3 46 0 3
46 0 3 46 0 3 46 0 3 46 0 3 46 0 3 46 0 3 46 0 3 46 0 3 46 0 3 46 0 3
46 0 3 49 0 3 66 42 70 33 42 69 33 42 69 33 42 69 33 41 68 34 41 68 34
41 68 34 41 67 34 41 67 34 41 67 34 41 67 34 41 66 34 41 66 34 41 66
34 40 65 34 40 65 34 40 65 34 40 65 34 40 64 34 40 64 34 40 64 34 40
64 34 40 63 34 40 63 34 39 63 35 39 63 35 39 62 35 39 62 35 39 62 35
29 59 13 29 59 13 29 58 13 29 58 13 34 93 85 37 96 93 37 96 94 37 96
93 37 95 93 36 94 92 36 93 90 36 92 89 35 90 88 35 88 86 34 87 84 33
85 82 33 83 80 32 81 78 31 78 76 30 76 74 29 73 71 27 69 68 21 57 65
19 53 60 18 49 58 16 45 54 13 39 51 12 36 48 11 34 46 11 31 43 10 28
41 9 25 39 8 22 36 7 19 34 6 17 31 6 16 29 5 14 27 5 14 25 5 14 25 5
14 25 5 14 25 8 18 27 9 19 28 10 21 29 10 22 30 12 25 32 13 26 32 12
23 32 9 17 32 9 18 32 10 18 33 15 13 25 15 13 25 15 13 25 15 13 25 15
13 25 15 13 25 15 13 25 15 13 25 15 13 25 15 13 24 15 13 24 15 13 24
15 13 24 15 13 24 15 13 24 15 13 24 15 13 24 15 13 24 14 13 23 14 13
23 14 13 23 14 13 23 14 13 23 14 13 23 14 13 23 14 13 23 14 13 23 14
13 22 14 13 22 14 13 22 14 13 22 25 34 23 24 34 23 24 34 23 24 34 23
24 34 23 24 34 23 24 34 22 24 34 22 24 33 22 24 33 22 24 33 22 24 33
22 23 33 22 23 33 22 23 33 22 23 33 21 23 33 21 23 33 21 23 32 21 23
32 21 23 32 21 23 32 21 23 32 21 22 32 21 22 32 21 22 32 20 27 42 25
27 42 25 27 42 25 27 42 24 27 42 24 27 42 24 26 41 24 26 41 24 26 41
24
31 59 21 31 59 21 31 59 21 31 59 21 32 60 21 32 60 21 32 60 21 32 61
22 32 61 22 32 61 22 32 61 22 33 62 22 33 62 22 33 62 22 33 62 22 33
63 22 33 63 22 33 63 22 33 64 22 34 64 23 34 64 23 34 64 23 34 65 23
34 65 23 34 65 23 34 66 23 35 66 23 35 66 23 35 66 23 35 67 23 35 67
24 35 67 24 36 68 24 36 68 24 36 68 24 36 69 24 36 69 24 36 69 24 37
70 24 37 70 24 37 70 25 37 71 25 37 71 25 37 71 25 37 72 25 38 72 25
38 72 25 38 73 25 38 73 25 38 73 25 39 74 26 39 74 26 39 74 26 39 75
26 39 75 26 39 75 26 40 76 26 40 76 26 40 76 26 40 77 26 40 77 27 40
77 27 41 78 27 41 78 27 41 78 27 41 79 27 41 79 27 42 80 27 42 80 27
42 80 27 42 81 28 42 81 28 42 81 28 43 82 28 43 82 28 43 82 28 43 83
28 43 83 28 43 83 28 44 84 28 44 84 28 44 84 29 44 85 29 44 85 29 45
85 29 45 86 29 45 86 29 45 86 29 45 87 29 45 87 29 46 87 29 46 88 29
46 88 29 46 88 30 46 89 30 46 89 30 47 89 30 47 90 30 47 90 30 47 90
30 47 90 30 47 91 30 47 91 30 48 91 30 48 92 30 48 92 30 48 92 30 48
92 30 48 93 30 48 93 30 49 93 31 49 93 31 49 94 31 49 94 31 49 94 31
49 94 31 49 94 31 49 95 31 50 95 31 50 95 31 50 95 31 50 95 31 50 96
31 50 96 31 50 96 31 50 96 31 50 96 31 51 96 31 51 97 31 51 97 31 51
97 31 51 97 31 51 97 31 51 97 31 51 97 31 51 97 31 51 97 31 51 98 31
51 98 31 51 98 31 51 98 31 52 98 31 52 98 31 52 98 31 52 98 31 52 98
31 52 98 31 52 98 31 52 98 31 52 98 31 52 98 31 52 98 31 52 98 31 52
98 31 52 98 31 52 98 31 52 98 31 52 98 31 52 98 31 52 97 31 52 97 31
52 97 31 52 97 31 52 97 31 52 97 31 52 97 31 52 97 31 52 97 31 52 96
31 51 96 31 51 96 31 51 96 31 51 96 31 51 96 31 51 95 31 51 95 31 51
95 31 51 95 31 51 94 31 51 94 31 51 94 31 51 94 31 51 93 31 50 93 31
50 93 31 50 93 31 50 92 31 50 92 31 50 92 31 50 92 31 50 91 31 50 91
31 50 91 31 49 90 31 49 90 31 49 90 31 49 89 31 49 89 31 49 89 31 49
88 31 49 88 31 48 88 31 48 87 31 48 87 31 48 87 31 48 86 31 48 86 31
48 86 31 48 85 31 47 85 31 47 85 31 47 84 31 47 84 31 47 84 31 47 83
31 47 83 31 46 83 31 46 82 31 46 82 32 46 81 32 46 81 32 46 81 32 46
80 32 46 80 32 45 80 32 1 7 93 1 6 83 1 6 75 1 5 68 1 5 61 0 4 55 0 4
50 0 3 46 0 3 46 0 3 46 0 3 46 0 3 46 0 3 46 0 3 46 0 3 46 0 3 46 0 3
46 0 3 46 0 3 46 0 3 46 0 3 46 0 3 46 0 3 46 0 3 46 0 3 46 0 3 46 0 3
46 0 3 46 0 3 60 1 4 91 42 69 33 42 69 33 42 69 33 41 68 33 41 68 33
41 68 34 41 68 34 41 67 34 41 67 34 41 67 34 41 66 34 41 66 34 41 66
34 40 66 34 40 65 34 40 65 34 40 65 34 40 65 34 40 64 34 40 64 34 40
64 34 40 63 34 40 63 34 40 63 34 39 63 34 39 62 35 39 62 35 39 62 35
39 62 35 29 59 13 29 59 13 29 58 13 32 89 82 33 92 85 36 93 91 36 93
91 36 92 91 35 91 90 35 90 89 35 89 87 34 87 86 34 85 84 33 83 83 32
81 81 32 79 79 31 77 77 30 75 75 29 73 73 28 70 71 27 68 68 26 65 66
25 62 63 24 59 61 23 55 58 21 52 56 16 41 52 15 38 50 14 35 47 13 32
44 12 29 41 11 26 38 10 23 36 9 21 33 9 20 31 8 17 28 9 21 29 10 21 29
10 21 29 10 22 30 11 22 30 11 23 30 13 26 32 13 26 33 13 27 33 14 27
33 9 17 32 9 18 32 10 18 32 15 13 26 15 13 25 15 13 25 15 13 25 15 13
25 15 13 25 15 13 25 15 13 25 15 13 25 15 13 25 15 13 25 15 13 24 15
13 24 15 13 24 15 13 24 15 13 24 15 13 24 15 13 24 15 13 24 15 13 24
15 13 24 14 13 23 14 13 23 14 13 23 14 13 23 14 13 23 14 13 23 14 13
23 14 13 23 14 13 23 14 13 22 14 13 22 14 13 22 14 13 22 14 13 22 14
13 22 14 12 22 24 34 23 24 34 23 24 34 23 24 34 22 24 34 22 24 33 22
24 33 22 24 33 22 24 33 22 23 33 22 23 33 22 23 33 22 23 33 21 23 33
21 23 33 21 23 32 21 23 32 21 23 32 21 23 32 21 23 32 21 22 32 21 22
32 21 22 32 20 22 32 20 22 32 20 22 32 20 27 42 24 27 42 24 27 42 24
26 41 24
31 59 21 31 60 21 32 60 21 32 60 21 32 60 21 32 61 22 32 61 22 32 61
22 32 61 22 33 62 22 33 62 22 33 62 22 33 62 22 33 63 22 33 63 22 33
63 22 33 64 22 34 64 23 34 64 23 34 64 23 34 65 23 34 65 23 34 65 23
34 66 23 35 66 23 35 66 23 35 66 23 35 67 23 35 67 24 35 67 24 36 68
24 36 68 24 36 68 24 36 69 24 36 69 24 36 69 24 36 69 24 37 70 24 37
70 24 37 70 25 37 71 25 37 71 25 37 71 25 38 72 25 38 72 25 38 72 25
38 73 25 38 73 25 38 73 25 39 74 26 39 74 26 39 74 26 39 75 26 39 75
26 39 75 26 40 76 26 40 76 26 40 76 26 40 77 26 40 77 27 41 78 27 41
78 27 41 78 27 41 79 27 41 79 27 41 79 27 42 80 27 42 80 27 42 80 27
42 81 28 42 81 28 42 81 28 43 82 28 43 82 28 43 82 28 43 83 28 43 83
28 43 83 28 44 84 28 44 84 28 44 84 29 44 85 29 44 85 29 45 85 29 45
86 29 45 86 29 45 86 29 45 87 29 45 87 29 46 87 29 46 88 29 46 88 29
46 88 30 46 89 30 46 89 30 46 89 30 47 89 30 47 90 30 47 90 30 47 90
30 47 91 30 47 91 30 48 91 30 48 91 30 48 92 30 48 92 30 48 92 30 48
92 30 48 93 30 49 93 31 49 93 31 49 93 31 49 94 31 49 94 31 49 94 31
49 94 31 49 94 31 49 95 31 50 95 31 50 95 31 50 95 31 50 95 31 50 96
31 50 96 31 50 96 31 50 96 31 50 96 31 50 96 31 51 96 31 51 97 31 51
97 31 51 97 31 51 97 31 51 97 31 51 97 31 51 97 31 51 97 31 51 97 31
51 97 31 51 97 31 51 97 31 51 98 31 51 98 31 51 98 31 52 98 31 52 98
31 52 98 31 52 98 31 52 98 31 52 98 31 52 98 31 52 98 31 52 98 31 52
98 31 52 97 31 52 97 31 52 97 31 52 97 31 52 97 31 52 97 31 52 97 31
52 97 31 52 97 31 52 97 31 52 97 31 51 96 31 51 96 31 51 96 31 51 96
31 51 96 31 51 96 31 51 95 31 51 95 31 51 95 31 51 95 31 51 95 31 51
95 31 51 94 31 51 94 31 51 94 31 51 94 31 50 93 31 50 93 31 50 93 31
50 93 31 50 92 31 50 92 31 50 92 31 50 92 31 50 91 31 50 91 31 49 91
31 49 90 31 49 90 31 49 90 31 49 89 31 49 89 31 49 89 31 49 89 31 49
88 31 48 88 31 48 88 31 48 87 31 48 87 31 48 87 31 48 86 31 48 86 31
48 86 31 47 85 31 47 85 31 47 84 31 47 84 31 47 84 31 47 83 31 47 83
31 46 83 31 46 82 31 46 82 31 46 82 31 46 81 31 46 81 32 46 81 32 46
80 32 45 80 32 45 80 32 1 7 90 1 6 80 1 5 72 1 5 65 1 4 59 0 4 53 0 3
47 0 3 46 0 3 46 0 3 46 0 3 46 0 3 46 0 3 46 0 3 46 0 3 46 0 3 46 0 3
46 0 3 46 0 3 46 0 3 46 0 3 46 0 3 46 0 3 46 0 3 46 0 3 46 0 3 46 0 3
46 0 3 46 0 3 54 1 4 82 42 69 33 42 69 33 42 69 33 41 69 33 41 68 33
41 68 33 41 68 33 41 67 34 41 67 34 41 67 34 41 67 34 41 66 34 41 66
34 40 66 34 40 65 34 40 65 34 40 65 34 40 65 34 40 64 34 40 64 34 40
64 34 40 64 34 40 63 34 40 63 34 39 63 34 39 63 34 39 62 34 39 62 34
39 62 34 29 59 13 29 59 13 29 59 13 29 58 13 32 88 82 32 89 83 32 89
83 35 89 88 35 88 88 34 87 87 34 86 85 33 84 84 33 82 82 32 81 81 31
79 79 31 77 77 30 74 75 29 72 73 28 70 71 28 67 69 27 65 67 26 62 65
25 60 63 24 57 60 23 54 58 22 51 56 21 48 53 20 45 51 19 42 48 16 35
44 15 32 41 14 29 39 13 27 36 12 26 34 12 24 32 12 24 31 12 24 31 12
24 31 12 24 31 12 24 31 14 27 33 14 27 33 14 27 33 14 27 34 14 28 34 9
17 32 9 18 32 10 18 32 10 18 33 15 13 26 15 13 25 15 13 25 15 13 25 15
13 25 15 13 25 15 13 25 15 13 25 15 13 25 15 13 25 15 13 25 15 13 25
15 13 24 15 13 24 15 13 24 15 13 24 15 13 24 15 13 24 15 13 24 15 13
24 15 13 24 15 13 24 14 13 23 14 13 23 14 13 23 14 13 23 14 13 23 14
13 23 14 13 23 14 13 23 14 13 23 14 13 22 14 13 22 14 13 22 14 13 22
14 13 22 14 13 22 14 13 22 14 12 22 14 12 22 14 12 22 14 12 21 24 34
22 24 33 22 24 33 22 24 33 22 24 33 22 23 33 22 23 33 22 23 33 22 23
33 22 23 33 21 23 33 21 23 33 21 23 32 21 23 32 21 23 32 21 23 32 21
23 32 21 22 32 21 22 32 21 22 32 20 22 32 20 22 32 20 22 32 20 22 32
20 22 31 20
32 60 21 32 60 21 32 60 21 32 61 22 32 61 22 32 61 22 32 61 22 33 62
22 33 62 22 33 62 22 33 62 22 33 63 22 33 63 22 33 63 22 33 63 22 34
64 23 34 64 23 34 64 23 34 65 23 34 65 23 34 65 23 34 65 23 35 66 23
35 66 23 35 66 23 35 67 23 35 67 24 35 67 24 35 68 24 36 68 24 36 68
24 36 68 24 36 69 24 36 69 24 36 69 24 37 70 24 37 70 24 37 70 25 37
71 25 37 71 25 37 71 25 38 72 25 38 72 25 38 72 25 38 73 25 38 73 25
38 73 25 39 74 26 39 74 26 39 74 26 39 75 26 39 75 26 39 75 26 40 76
26 40 76 26 40 76 26 40 77 26 40 77 27 40 77 27 41 78 27 41 78 27 41
78 27 41 79 27 41 79 27 41 79 27 42 80 27 42 80 27 42 80 27 42 81 28
42 81 28 42 81 28 43 82 28 43 82 28 43 82 28 43 83 28 43 83 28 43 83
28 44 84 28 44 84 28 44 84 29 44 85 29 44 85 29 44 85 29 45 86 29 45
86 29 45 86 29 45 87 29 45 87 29 45 87 29 46 88 29 46 88 29 46 88 29
46 88 30 46 89 30 46 89 30 47 89 30 47 90 30 47 90 30 47 90 30 47 90
30 47 91 30 47 91 30 48 91 30 48 91 30 48 92 30 48 92 30 48 92 30 48
92 30 48 93 30 49 93 31 49 93 31 49 93 31 49 94 31 49 94 31 49 94 31
49 94 31 49 94 31 49 95 31 50 95 31 50 95 31 50 95 31 50 95 31 50 95
31 50 96 31 50 96 31 50 96 31 50 96 31 50 96 31 50 96 31 51 96 31 51
96 31 51 97 31 51 97 31 51 97 31 51 97 31 51 97 31 51 97 31 51 97 31
51 97 31 51 97 31 51 97 31 51 97 31 51 97 31 51 97 31 51 97 31 51 97
31 51 97 31 51 97 31 51 97 31 51 97 31 51 97 31 51 97 31 52 97 31 52
97 31 52 97 31 52 97 31 51 97 31 51 97 31 51 97 31 51 97 31 51 97 31
51 96 31 51 96 31 51 96 31 51 96 31 51 96 31 51 96 31 51 96 31 51 96
31 51 95 31 51 95 31 51 95 31 51 95 31 51 95 31 51 94 31 51 94 31 51
94 31 51 94 31 51 94 31 50 93 31 50 93 31 50 93 31 50 93 31 50 92 31
50 92 31 50 92 31 50 92 31 50 91 31 50 91 31 50 91 31 49 91 31 49 90
31 49 90 31 49 90 31 49 89 31 49 89 31 49 89 31 49 89 31 48 88 31 48
88 31 48 88 31 48 87 31 48 87 31 48 87 31 48 86 31 48 86 31 48 86 31
47 85 31 47 85 31 47 85 31 47 84 31 47 84 31 47 84 31 47 83 31 47 83
31 46 83 31 46 82 31 46 82 31 46 82 31 46 81 31 46 81 31 46 81 31 45
80 32 45 80 32 45 79 32 1 6 87 1 6 78 1 5 69 1 5 62 0 4 56 0 4 50 0 3
46 0 3 46 0 3 46 0 3 46 0 3 46 0 3 46 0 3 46 0 3 46 0 3 46 0 3 46 0 3
46 0 3 46 0 3 46 0 3 46 0 3 46 0 3 46 0 3 46 0 3 46 0 3 46 0 3 46 0 3
46 0 3 46 0 3 50 1 4 79 42 70 33 42 69 33 41 69 33 41 69 33 41 68 33
41 68 33 41 68 33 41 68 33 41 67 33 41 67 34 41 67 34 41 66 34 41 66
34 40 66 34 40 66 34 40 65 34 40 65 34 40 65 34 40 65 34 40 64 34 40
64 34 40 64 34 40 63 34 40 63 34 39 63 34 39 63 34 39 62 34 39 62 34
39 62 34 39 62 34 29 59 13 29 59 13 29 59 13 29 58 13 31 85 80 31 86
80 31 85 80 31 84 79 33 84 84 33 83 83 32 81 82 32 79 80 31 78 79 30
76 77 30 74 75 29 72 74 28 69 72 28 67 70 27 65 68 26 62 66 25 60 64
24 57 61 23 55 59 22 52 57 21 49 54 21 46 52 20 43 50 19 41 47 18 38
45 17 35 42 16 33 40 15 31 38 15 30 35 14 29 34 14 28 34 14 28 34 14
28 34 14 28 34 14 28 34 14 28 34 14 28 34 14 28 34 14 28 34 11 21 34
10 18 32 10 18 32 10 18 33 10 18 33 15 13 26 15 13 26 15 13 25 15 13
25 15 13 25 15 13 25 15 13 25 15 13 25 15 13 25 15 13 25 15 13 25 15
13 25 15 13 25 15 13 24 15 13 24 15 13 24 15 13 24 15 13 24 15 13 24
15 13 24 15 13 24 15 13 24 15 13 24 14 13 23 14 13 23 14 13 23 14 13
23 14 13 23 14 13 23 14 13 23 14 13 23 14 13 23 14 13 23 14 13 22 14
13 22 14 13 22 14 13 22 14 13 22 14 13 22 14 12 22 14 12 22 14 12 22
14 12 21 14 12 21 14 12 21 24 33 22 24 33 22 24 33 22 24 33 22 23 33
22 23 33 22 23 33 22 23 33 22 23 33 21 23 33 21 23 33 21 23 32 21 23
32 21 23 32 21 23 32 21 23 32 21 22 32 21 22 32 21 22 32 20 22 32 20
22 32 20 22 32 20
32 60 22 32 61 22 32 61 22 32 61 22 32 61 22 33 62 22 33 62 22 33 62
22 33 62 22 33 63 22 33 63 22 33 63 22 33 63 22 34 64 23 34 64 23 34
64 23 34 65 23 34 65 23 34 65 23 34 65 23 35 66 23 35 66 23 35 66 23
35 67 23 35 67 24 35 67 24 35 67 24 36 68 24 36 68 24 36 68 24 36 69
24 36 69 24 36 69 24 36 70 24 37 70 24 37 70 25 37 70 25 37 71 25 37
71 25 37 71 25 38 72 25 38 72 25 38 72 25 38 73 25 38 73 25 38 73 25
39 74 26 39 74 26 39 74 26 39 75 26 39 75 26 39 75 26 40 76 26 40 76
26 40 76 26 40 77 26 40 77 27 40 77 27 41 78 27 41 78 27 41 78 27 41
79 27 41 79 27 41 79 27 42 80 27 42 80 27 42 80 27 42 81 28 42 81 28
42 81 28 43 82 28 43 82 28 43 82 28 43 83 28 43 83 28 43 83 28 44 84
28 44 84 28 44 84 29 44 85 29 44 85 29 44 85 29 45 86 29 45 86 29 45
86 29 45 86 29 45 87 29 45 87 29 46 87 29 46 88 29 46 88 29 46 88 30
46 89 30 46 89 30 46 89 30 47 89 30 47 90 30 47 90 30 47 90 30 47 90
30 47 91 30 47 91 30 48 91 30 48 91 30 48 92 30 48 92 30 48 92 30 48
92 30 48 93 30 48 93 30 49 93 31 49 93 31 49 93 31 49 94 31 49 94 31
49 94 31 49 94 31 49 94 31 49 95 31 50 95 31 50 95 31 50 95 31 50 95
31 50 95 31 50 95 31 50 96 31 50 96 31 50 96 31 50 96 31 50 96 31 50
96 31 51 96 31 51 96 31 51 96 31 51 96 31 51 97 31 51 97 31 51 97 31
51 97 31 51 97 31 51 97 31 51 97 31 51 97 31 51 97 31 51 97 31 51 97
31 51 97 31 51 97 31 51 97 31 51 97 31 51 97 31 51 97 31 51 97 31 51
97 31 51 97 31 51 97 31 51 96 31 51 96 31 51 96 31 51 96 31 51 96 31
51 96 31 51 96 31 51 96 31 51 96 31 51 96 31 51 95 31 51 95 31 51 95
31 51 95 31 51 95 31 51 95 31 51 94 31 51 94 31 51 94 31 51 94 31 50
94 31 50 93 31 50 93 31 50 93 31 50 93 31 50 93 31 50 92 31 50 92 31
50 92 31 50 92 31 50 91 31 49 91 31 49 91 31 49 90 31 49 90 31 49 90
31 49 90 31 49 89 31 49 89 31 49 89 31 49 88 31 48 88 31 48 88 31 48
88 31 48 87 31 48 87 31 48 87 31 48 86 31 48 86 31 47 86 31 47 85 31
47 85 31 47 85 31 47 84 31 47 84 31 47 84 31 47 83 31 46 83 31 46 83
31 46 82 31 46 82 31 46 82 31 46 81 31 46 81 31 46 81 31 46 80 31 45
80 31 45 80 31 45 79 32 1 6 85 1 6 75 1 5 67 1 4 60 0 4 53 0 3 47 0 3
46 0 3 46 0 3 46 0 3 46 0 3 46 0 3 46 0 3 46 0 3 46 0 3 46 0 3 46 0 3
46 0 3 46 0 3 46 0 3 46 0 3 46 0 3 46 0 3 46 0 3 46 0 3 46 0 3 46 0 3
46 0 3 46 0 3 47 1 4 82 42 70 33 42 69 33 41 69 33 41 69 33 41 68 33
41 68 33 41 68 33 41 68 33 41 67 33 41 67 33 41 67 33 41 66 33 40 66
34 40 66 34 40 66 34 40 65 34 40 65 34 40 65 34 40 65 34 40 64 34 40
64 34 40 64 34 40 64 34 40 63 34 39 63 34 39 63 34 39 63 34 39 62 34
39 62 34 39 62 34 39 62 34 29 59 13 29 59 13 29 58 13 29 58 13 30 82
77 30 82 77 30 81 77 29 80 76 29 79 75 28 77 74 31 77 78 30 75 77 29
73 75 29 71 73 28 69 72 27 67 70 27 64 68 26 62 66 25 60 64 24 57 62
23 55 60 23 52 57 22 50 55 21 47 53 20 44 51 19 41 48 18 39 46 17 36
44 16 34 41 16 32 39 16 31 37 15 30 35 15 29 34 15 29 34 15 29 34 15
29 34 15 29 34 15 29 34 15 29 34 15 28 34 15 28 34 11 21 34 10 18 32
10 18 33 10 18 33 10 18 33 7 17 27 6 10 5 15 13 26 15 13 25 15 13 25
15 13 25 15 13 25 15 13 25 15 13 25 15 13 25 15 13 25 15 13 25 15 13
25 15 13 25 15 13 25 15 13 24 15 13 24 15 13 24 15 13 24 15 13 24 15
13 24 15 13 24 15 13 24 15 13 24 15 13 24 14 13 23 14 13 23 14 13 23
14 13 23 14 13 23 14 13 23 14 13 23 14 13 23 14 13 23 14 13 23 14 13
22 14 13 22 14 13 22 14 13 22 14 13 22 14 13 22 14 13 22 14 12 22 14
12 22 14 12 22 14 12 21 14 12 21 13 12 21 13 12 21 13 12 21 24 33 22
24 33 22 23 33 22 23 33 22 23 33 22 23 33 21 23 33 21 23 33 21 23 33
21 23 32 21 23 32 21 23 32 21 23 32 21 23 32 21 22 32 21 22 32 21 22
32 20 22 32 20
32 61 22 32 61 22 32 61 22 33 62 22 33 62 22 33 62 22 33 62 22 33 63
22 33 63 22 33 63 22 33 63 22 34 64 23 34 64 23 34 64 23 34 64 23 34
65 23 34 65 23 34 65 23 35 66 23 35 66 23 35 66 23 35 66 23 35 67 23
35 67 24 35 67 24 36 68 24 36 68 24 36 68 24 36 68 24 36 69 24 36 69
24 36 69 24 37 70 24 37 70 24 37 70 25 37 71 25 37 71 25 37 71 25 38
72 25 38 72 25 38 72 25 38 72 25 38 73 25 38 73 25 38 73 26 39 74 26
39 74 26 39 74 26 39 75 26 39 75 26 39 75 26 40 76 26 40 76 26 40 76
26 40 77 26 40 77 27 40 77 27 41 78 27 41 78 27 41 78 27 41 79 27 41
79 27 41 79 27 42 80 27 42 80 27 42 80 27 42 81 28 42 81 28 42 81 28
43 82 28 43 82 28 43 82 28 43 83 28 43 83 28 43 83 28 44 84 28 44 84
28 44 84 29 44 84 29 44 85 29 44 85 29 45 85 29 45 86 29 45 86 29 45
86 29 45 87 29 45 87 29 45 87 29 46 87 29 46 88 29 46 88 29 46 88 30
46 89 30 46 89 30 46 89 30 47 89 30 47 90 30 47 90 30 47 90 30 47 90
30 47 91 30 47 91 30 48 91 30 48 91 30 48 92 30 48 92 30 48 92 30 48
92 30 48 92 30 48 93 30 49 93 30 49 93 31 49 93 31 49 93 31 49 94 31
49 94 31 49 94 31 49 94 31 49 94 31 49 94 31 50 95 31 50 95 31 50 95
31 50 95 31 50 95 31 50 95 31 50 95 31 50 95 31 50 96 31 50 96 31 50
96 31 50 96 31 50 96 31 51 96 31 51 96 31 51 96 31 51 96 31 51 96 31
51 96 31 51 96 31 51 96 31 51 96 31 51 96 31 51 96 31 51 96 31 51 96
31 51 96 31 51 96 31 51 96 31 51 96 31 51 96 31 51 96 31 51 96 31 51
96 31 51 96 31 51 96 31 51 96 31 51 96 31 51 96 31 51 96 31 51 96 31
51 96 31 51 95 31 51 95 31 51 95 31 51 95 31 51 95 31 51 95 31 51 95
31 51 94 31 51 94 31 51 94 31 50 94 31 50 94 31 50 94 31 50 93 31 50
93 31 50 93 31 50 93 31 50 92 31 50 92 31 50 92 31 50 92 31 50 92 31
50 91 31 49 91 31 49 91 31 49 91 31 49 90 31 49 90 31 49 90 31 49 89
31 49 89 31 49 89 31 49 89 31 48 88 31 48 88 31 48 88 31 48 87 31 48
87 31 48 87 31 48 87 31 48 86 31 48 86 31 47 86 31 47 85 31 47 85 31
47 85 31 47 84 31 47 84 31 47 84 31 47 83 31 46 83 31 46 83 31 46 82
31 46 82 31 46 82 31 46 81 31 46 81 31 46 81 31 45 80 31 45 80 31 45
80 31 45 80 31 45 79 31 1 6 84 1 5 73 1 5 65 1 4 58 0 4 51 0 3 46 0 3
46 0 3 46 0 3 46 0 3 46 0 3 46 0 3 46 0 3 46 0 3 46 0 3 46 0 3 46 0 3
46 0 3 46 0 3 46 0 3 46 0 3 46 0 3 46 0 3 46 0 3 46 0 3 46 0 3 46 0 3
46 0 3 46 0 3 46 42 70 33 42 70 33 41 69 33 41 69 33 41 69 33 41 68 33
41 68 33 41 68 33 41 68 33 41 67 33 41 67 33 41 67 33 41 67 33 40 66
33 40 66 33 40 66 33 40 65 34 40 65 34 40 65 34 40 65 34 40 64 34 40
64 34 40 64 34 40 64 34 39 63 34 39 63 34 39 63 34 39 63 34 39 62 34
39 62 34 39 62 34 39 62 34 39 62 34 29 59 13 29 59 13 29 58 13 29 58
13 29 58 13 29 78 74 28 77 73 28 76 72 27 74 71 27 73 70 26 71 69 26
69 67 25 67 65 27 66 70 27 64 68 26 62 66 25 59 64 24 57 62 24 55 60
23 52 58 22 50 56 21 47 54 20 44 51 19 42 49 18 39 47 17 36 44 17 34
42 16 33 40 16 32 38 16 30 36 15 30 34 15 29 34 15 29 34 15 29 34 15
29 34 15 29 34 15 29 34 15 29 34 15 29 34 11 21 34 10 18 33 10 18 33
10 18 33 10 18 33 7 17 27 6 10 5 6 10 5 6 10 5 15 13 25 15 13 25 15 13
25 15 13 25 15 13 25 15 13 25 15 13 25 15 13 25 15 13 25 15 13 25 15
13 25 15 13 25 15 13 24 15 13 24 15 13 24 15 13 24 15 13 24 15 13 24
15 13 24 15 13 24 15 13 24 15 13 24 15 13 24 14 13 23 14 13 23 14 13
23 14 13 23 14 13 23 14 13 23 14 13 23 14 13 23 14 13 23 14 13 23 14
13 22 14 13 22 14 13 22 14 13 22 14 13 22 14 13 22 14 13 22 14 12 22
14 12 22 14 12 22 14 12 21 14 12 21 14 12 21 13 12 21 13 12 21 13 12
21 13 12 21 24 33 22 23 33 22 23 33 22 23 33 22 23 33 21 23 33 21 23
33 21 23 33 21 23 32 21 23 32 21 23 32 21 23 32 21 23 32 21 22 32 21
22 32 21
32 61 22 32 62 22 33 62 22 33 62 22 33 62 22 33 63 22 33 63 22 33 63
22 33 63 22 34 64 23 34 64 23 34 64 23 34 64 23 34 65 23 34 65 23 34
65 23 34 65 23 35 66 23 35 66 23 35 66 23 35 67 23 35 67 24 35 67 24
35 67 24 36 68 24 36 68 24 36 68 24 36 69 24 36 69 24 36 69 24 36 70
24 37 70 24 37 70 25 37 70 25 37 71 25 37 71 25 37 71 25 38 72 25 38
72 25 38 72 25 38 73 25 38 73 25 38 73 25 38 74 26 39 74 26 39 74 26
39 74 26 39 75 26 39 75 26 39 75 26 40 76 26 40 76 26 40 76 26 40 77
26 40 77 27 40 77 27 41 78 27 41 78 27 41 78 27 41 79 27 41 79 27 41
79 27 42 80 27 42 80 27 42 80 27 42 81 28 42 81 28 42 81 28 43 81 28
43 82 28 43 82 28 43 82 28 43 83 28 43 83 28 43 83 28 44 84 28 44 84
28 44 84 29 44 85 29 44 85 29 44 85 29 45 85 29 45 86 29 45 86 29 45
86 29 45 87 29 45 87 29 45 87 29 46 87 29 46 88 29 46 88 29 46 88 30
46 89 30 46 89 30 46 89 30 47 89 30 47 90 30 47 90 30 47 90 30 47 90
30 47 91 30 47 91 30 48 91 30 48 91 30 48 91 30 48 92 30 48 92 30 48
92 30 48 92 30 48 92 30 48 93 30 49 93 30 49 93 31 49 93 31 49 93 31
49 94 31 49 94 31 49 94 31 49 94 31 49 94 31 49 94 31 50 94 31 50 95
31 50 95 31 50 95 31 50 95 31 50 95 31 50 95 31 50 95 31 50 95 31 50
95 31 50 95 31 50 96 31 50 96 31 50 96 31 50 96 31 50 96 31 51 96 31
51 96 31 51 96 31 51 96 31 51 96 31 51 96 31 51 96 31 51 96 31 51 96
31 51 96 31 51 96 31 51 96 31 51 96 31 51 96 31 51 96 31 51 96 31 51
96 31 51 96 31 51 96 31 51 95 31 51 95 31 51 95 31 51 95 31 51 95 31
51 95 31 51 95 31 51 95 31 51 95 31 51 94 31 51 94 31 50 94 31 50 94
31 50 94 31 50 94 31 50 94 31 50 93 31 50 93 31 50 93 31 50 93 31 50
93 31 50 92 31 50 92 31 50 92 31 50 92 31 50 92 31 49 91 31 49 91 31
49 91 31 49 91 31 49 90 31 49 90 31 49 90 31 49 90 31 49 89 31 49 89
31 49 89 31 48 88 31 48 88 31 48 88 31 48 88 31 48 87 31 48 87 31 48
87 31 48 86 31 48 86 31 47 86 31 47 86 31 47 85 31 47 85 31 47 85 31
47 84 31 47 84 31 47 84 31 47 83 31 46 83 31 46 83 31 46 82 31 46 82
31 46 82 31 46 82 31 46 81 31 46 81 31 45 81 31 45 80 31 45 80 31 45
80 31 45 79 31 45 79 31 1 6 83 1 5 71 1 5 63 0 4 56 0 4 49 0 3 46 0 3
46 0 3 46 0 3 46 0 3 46 0 3 46 0 3 46 0 3 46 0 3 46 0 3 46 0 3 46 0 3
46 0 3 46 0 3 46 0 3 46 0 3 46 0 3 46 0 3 46 0 3 46 0 3 46 0 3 46 0 3
46 0 3 46 0 3 46 42 70 33 42 70 33 41 69 33 41 69 33 41 69 33 41 68 33
41 68 33 41 68 33 41 68 33 41 67 33 41 67 33 41 67 33 40 67 33 40 66
33 40 66 33 40 66 33 40 66 33 40 65 33 40 65 33 40 65 33 40 65 34 40
64 34 40 64 34 40 64 34 39 64 34 39 63 34 39 63 34 39 63 34 39 63 34
39 62 34 39 62 34 39 62 34 39 62 34 39 61 34 29 59 13 29 58 13 29 58
13 29 58 13 29 58 13 29 58 13 27 72 70 26 71 69 26 70 68 25 68 66 25
66 65 24 64 63 24 62 61 23 60 60 22 58 58 22 56 56 21 54 54 23 52 58
22 50 56 21 47 54 20 45 52 19 42 49 19 39 47 18 37 45 17 35 43 17 33
41 16 32 39 16 31 36 15 30 35 15 30 35 15 30 35 15 29 35 15 29 35 15
29 35 15 29 35 15 29 35 15 29 35 11 21 34 10 18 33 10 18 33 10 18 33 7
17 27 7 17 27 7 17 27 6 10 5 6 10 5 6 10 5 6 10 5 15 13 25 15 13 25 15
13 25 15 13 25 15 13 25 15 13 25 15 13 25 15 13 25 15 13 25 15 13 25
15 13 25 15 13 25 15 13 24 15 13 24 15 13 24 15 13 24 15 13 24 15 13
24 15 13 24 15 13 24 15 13 24 15 13 24 15 13 24 14 13 23 14 13 23 14
13 23 14 13 23 14 13 23 14 13 23 14 13 23 14 13 23 14 13 23 14 13 23
14 13 22 14 13 22 14 13 22 14 13 22 14 13 22 14 13 22 14 13 22 14 12
22 14 12 22 14 12 22 14 12 21 14 12 21 14 12 21 13 12 21 13 12 21 13
12 21 13 12 21 13 12 21 23 33 22 23 33 22 23 33 22 23 33 22 23 33 21
23 33 21 23 33 21 23 33 21 23 32 21 23 32 21 23 32 21 23 32 21 23 32
21
33 62 22 33 62 22 33 62 22 33 62 22 33 63 22 33 63 22 33 63 22 33 64
23 34 64 23 34 64 23 34 64 23 34 65 23 34 65 23 34 65 23 34 65 23 35
66 23 35 66 23 35 66 23 35 66 23 35 67 24 35 67 24 35 67 24 36 68 24
36 68 24 36 68 24 36 68 24 36 69 24 36 69 24 36 69 24 37 70 24 37 70
24 37 70 25 37 71 25 37 71 25 37 71 25 37 71 25 38 72 25 38 72 25 38
72 25 38 73 25 38 73 25 38 73 25 39 74 26 39 74 26 39 74 26 39 74 26
39 75 26 39 75 26 39 75 26 40 76 26 40 76 26 40 76 26 40 77 26 40 77
27 40 77 27 41 78 27 41 78 27 41 78 27 41 79 27 41 79 27 41 79 27 42
79 27 42 80 27 42 80 27 42 80 28 42 81 28 42 81 28 42 81 28 43 82 28
43 82 28 43 82 28 43 83 28 43 83 28 43 83 28 44 83 28 44 84 28 44 84
28 44 84 29 44 85 29 44 85 29 44 85 29 45 86 29 45 86 29 45 86 29 45
86 29 45 87 29 45 87 29 45 87 29 46 87 29 46 88 29 46 88 29 46 88 30
46 88 30 46 89 30 46 89 30 47 89 30 47 89 30 47 90 30 47 90 30 47 90
30 47 90 30 47 91 30 47 91 30 48 91 30 48 91 30 48 91 30 48 92 30 48
92 30 48 92 30 48 92 30 48 92 30 48 93 30 49 93 30 49 93 30 49 93 31
49 93 31 49 93 31 49 94 31 49 94 31 49 94 31 49 94 31 49 94 31 49 94
31 49 94 31 50 94 31 50 94 31 50 95 31 50 95 31 50 95 31 50 95 31 50
95 31 50 95 31 50 95 31 50 95 31 50 95 31 50 95 31 50 95 31 50 95 31
50 95 31 50 95 31 50 95 31 50 95 31 50 95 31 50 95 31 50 95 31 51 95
31 51 95 31 51 95 31 51 95 31 51 95 31 51 95 31 51 95 31 51 95 31 51
95 31 51 95 31 51 95 31 51 95 31 50 95 31 50 95 31 50 95 31 50 94 31
50 94 31 50 94 31 50 94 31 50 94 31 50 94 31 50 94 31 50 94 31 50 93
31 50 93 31 50 93 31 50 93 31 50 93 31 50 93 31 50 92 31 50 92 31 50
92 31 50 92 31 50 92 31 49 91 31 49 91 31 49 91 31 49 91 31 49 91 31
49 90 31 49 90 31 49 90 31 49 90 31 49 89 31 49 89 31 49 89 31 48 89
31 48 88 31 48 88 31 48 88 31 48 87 31 48 87 31 48 87 31 48 87 31 48
86 31 47 86 31 47 86 31 47 85 31 47 85 31 47 85 31 47 85 31 47 84 31
47 84 31 47 84 31 46 83 31 46 83 31 46 83 31 46 82 31 46 82 31 46 82
31 46 82 31 46 81 31 46 81 31 45 81 31 45 80 31 45 80 31 45 80 31 45
79 31 45 79 31 45 79 31 1 6 85 1 5 70 1 5 61 0 4 54 0 3 47 0 3 46 0 3
46 0 3 46 0 3 46 0 3 46 0 3 46 0 3 46 0 3 46 0 3 46 0 3 46 0 3 46 0 3
46 0 3 46 0 3 46 0 3 46 0 3 46 0 3 46 0 3 46 0 3 46 0 3 46 0 3 46 0 3
46 0 3 46 0 3 48 42 70 32 41 70 32 41 69 33 41 69 33 41 69 33 41 68 33
41 68 33 41 68 33 41 68 33 41 67 33 41 67 33 41 67 33 40 67 33 40 66
33 40 66 33 40 66 33 40 66 33 40 65 33 40 65 33 40 65 33 40 65 33 40
64 33 40 64 33 39 64 33 39 64 34 39 63 34 39 63 34 39 63 34 39 63 34
39 62 34 39 62 34 39 62 34 39 62 34 39 61 34 39 61 34 38 61 34 29 58
13 29 58 13 29 58 13 29 58 13 29 57 13 28 57 13 25 66 65 24 65 64 24
63 62 23 61 61 23 59 59 22 57 57 21 55 56 21 53 54 20 51 52 19 49 50
18 46 48 18 44 46 17 41 44 16 39 42 15 36 39 14 34 37 14 33 35 16 32
39 16 31 37 16 30 35 16 30 35 15 30 35 15 30 35 15 30 35 15 30 35 15
29 35 15 29 35 15 29 35 9 21 28 7 17 27 7 17 27 7 17 27 7 17 27 7 17
27 7 17 27 6 10 5 6 10 5 6 10 5 6 10 5 6 10 5 6 10 5 15 13 25 15 13 25
15 13 25 15 13 25 15 13 25 15 13 25 15 13 25 15 13 25 15 13 25 15 13
25 15 13 25 15 13 24 15 13 24 15 13 24 15 13 24 15 13 24 15 13 24 15
13 24 15 13 24 15 13 24 15 13 24 15 13 24 15 13 23 14 13 23 14 13 23
14 13 23 14 13 23 14 13 23 14 13 23 14 13 23 14 13 23 14 13 23 14 13
23 14 13 22 14 13 22 14 13 22 14 13 22 14 13 22 14 13 22 14 13 22 14
12 22 14 12 22 14 12 22 14 12 22 14 12 21 14 12 21 13 12 21 13 12 21
13 12 21 13 12 21 13 12 21 13 12 21 23 33 22 23 33 22 23 33 22 23 33
21 23 33 21 23 33 21 23 33 21 23 33 21 23 32 21 23 32 21 23 32 21
33 62 22 33 62 22 33 63 22 33 63 22 33 63 22 33 63 22 34 64 23 34 64
23 34 64 23 34 64 23 34 65 23 34 65 23 34 65 23 34 66 23 35 66 23 35
66 23 35 66 23 35 67 23 35 67 24 35 67 24 35 67 24 36 68 24 36 68 24
36 68 24 36 69 24 36 69 24 36 69 24 36 69 24 37 70 24 37 70 25 37 70
25 37 71 25 37 71 25 37 71 25 37 71 25 38 72 25 38 72 25 38 72 25 38
73 25 38 73 25 38 73 25 39 74 26 39 74 26 39 74 26 39 74 26 39 75 26
39 75 26 39 75 26 40 76 26 40 76 26 40 76 26 40 77 26 40 77 27 40 77
27 41 78 27 41 78 27 41 78 27 41 78 27 41 79 27 41 79 27 41 79 27 42
80 27 42 80 27 42 80 27 42 81 28 42 81 28 42 81 28 43 82 28 43 82 28
43 82 28 43 82 28 43 83 28 43 83 28 43 83 28 44 84 28 44 84 28 44 84
29 44 84 29 44 85 29 44 85 29 44 85 29 45 86 29 45 86 29 45 86 29 45
86 29 45 87 29 45 87 29 45 87 29 46 87 29 46 88 29 46 88 29 46 88 29
46 88 30 46 89 30 46 89 30 47 89 30 47 89 30 47 90 30 47 90 30 47 90
30 47 90 30 47 90 30 47 91 30 47 91 30 48 91 30 48 91 30 48 91 30 48
92 30 48 92 30 48 92 30 48 92 30 48 92 30 48 92 30 48 93 30 49 93 30
49 93 30 49 93 30 49 93 30 49 93 31 49 93 31 49 94 31 49 94 31 49 94
31 49 94 31 49 94 31 49 94 31 50 94 31 50 94 31 50 94 31 50 94 31 50
94 31 50 95 31 50 95 31 50 95 31 50 95 31 50 95 31 50 95 31 50 95 31
50 95 31 50 95 31 50 95 31 50 95 31 50 95 31 50 95 31 50 95 31 50 95
31 50 95 31 50 95 31 50 95 31 50 95 31 50 95 31 50 95 31 50 95 31 50
94 31 50 94 31 50 94 31 50 94 31 50 94 31 50 94 31 50 94 31 50 94 31
50 94 31 50 94 31 50 94 31 50 93 31 50 93 31 50 93 31 50 93 31 50 93
31 50 93 31 50 93 31 50 92 31 50 92 31 50 92 31 50 92 31 49 92 31 49
91 31 49 91 31 49 91 31 49 91 31 49 91 31 49 90 31 49 90 31 49 90 31
49 90 31 49 90 31 49 89 31 49 89 31 48 89 31 48 89 31 48 88 31 48 88
31 48 88 31 48 88 31 48 87 31 48 87 31 48 87 31 48 86 31 47 86 31 47
86 31 47 86 31 47 85 31 47 85 31 47 85 31 47 84 31 47 84 31 47 84 31
46 84 31 46 83 31 46 83 31 46 83 31 46 82 31 46 82 31 46 82 31 46 82
31 46 81 31 45 81 31 45 81 31 45 80 31 45 80 31 45 80 31 45 79 31 45
79 31 45 79 31 45 79 31 44 78 31 1 5 70 1 4 60 0 4 53 0 3 46 0 3 46 0
3 46 0 3 46 0 3 46 0 3 46 0 3 46 0 3 46 0 3 46 0 3 46 0 3 46 0 3 46 0
3 46 0 3 46 0 3 46 0 3 46 0 3 46 0 3 46 0 3 46 0 3 46 0 3 46 0 3 46 0
3 46 0 3 46 42 70 32 41 70 32 41 70 32 41 69 32 41 69 32 41 69 32 41
68 33 41 68 33 41 68 33 41 68 33 41 67 33 41 67 33 40 67 33 40 67 33
40 66 33 40 66 33 40 66 33 40 66 33 40 65 33 40 65 33 40 65 33 40 65
33 40 64 33 39 64 33 39 64 33 39 64 33 39 63 33 39 63 33 39 63 33 39
63 33 39 62 33 39 62 34 39 62 34 39 62 34 39 62 34 38 61 34 38 61 34
38 61 34 38 61 34 29 58 13 29 58 13 29 58 13 28 57 13 28 57 13 28 57
13 28 57 13 22 58 58 22 56 57 21 54 55 20 52 53 20 50 51 19 48 50 18
46 48 17 43 46 17 41 44 16 38 42 15 36 39 15 34 37 14 33 35 14 32 33
13 31 31 13 30 29 13 29 29 13 29 29 13 29 29 13 29 29 13 29 29 13 29
29 13 29 29 9 21 28 9 21 28 7 17 27 7 17 27 7 17 27 7 17 27 7 17 27 7
17 27 6 10 5 6 10 5 6 10 5 6 10 5 6 10 5 6 10 5 6 10 5 15 13 25 15 13
25 15 13 25 15 13 25 15 13 25 15 13 25 15 13 25 15 13 25 15 13 25 15
13 25 15 13 25 15 13 24 15 13 24 15 13 24 15 13 24 15 13 24 15 13 24
15 13 24 15 13 24 15 13 24 15 13 24 15 13 24 15 13 24 14 13 23 14 13
23 14 13 23 14 13 23 14 13 23 14 13 23 14 13 23 14 13 23 14 13 23 14
13 23 14 13 23 14 13 22 14 13 22 14 13 22 14 13 22 14 13 22 14 13 22
14 13 22 14 12 22 14 12 22 14 12 22 14 12 22 14 12 21 14 12 21 13 12
21 13 12 21 13 12 21 13 12 21 13 12 21 13 12 21 23 33 22 23 33 22 23
33 22 23 33 21 23 33 21 23 33 21 23 33 21 23 33 21 23 32 21 23 32 21
33 63 22 33 63 22 33 63 22 33 63 22 34 64 23 34 64 23 34 64 23 34 64
23 34 65 23 34 65 23 34 65 23 34 65 23 35 66 23 35 66 23 35 66 23 35
66 23 35 67 24 35 67 24 35 67 24 36 68 24 36 68 24 36 68 24 36 68 24
36 69 24 36 69 24 36 69 24 36 69 24 37 70 24 37 70 25 37 70 25 37 71
25 37 71 25 37 71 25 37 72 25 38 72 25 38 72 25 38 72 25 38 73 25 38
73 25 38 73 25 39 74 26 39 74 26 39 74 26 39 74 26 39 75 26 39 75 26
39 75 26 40 76 26 40 76 26 40 76 26 40 77 26 40 77 27 40 77 27 40 77
27 41 78 27 41 78 27 41 78 27 41 79 27 41 79 27 41 79 27 42 80 27 42
80 27 42 80 27 42 80 28 42 81 28 42 81 28 42 81 28 43 82 28 43 82 28
43 82 28 43 82 28 43 83 28 43 83 28 43 83 28 44 84 28 44 84 28 44 84
29 44 84 29 44 85 29 44 85 29 44 85 29 45 85 29 45 86 29 45 86 29 45
86 29 45 87 29 45 87 29 45 87 29 46 87 29 46 88 29 46 88 29 46 88 29
46 88 30 46 88 30 46 89 30 46 89 30 47 89 30 47 89 30 47 90 30 47 90
30 47 90 30 47 90 30 47 90 30 47 91 30 47 91 30 48 91 30 48 91 30 48
91 30 48 91 30 48 92 30 48 92 30 48 92 30 48 92 30 48 92 30 48 92 30
49 92 30 49 93 30 49 93 30 49 93 30 49 93 30 49 93 30 49 93 30 49 93
30 49 93 31 49 94 31 49 94 31 49 94 31 49 94 31 49 94 31 49 94 31 50
94 31 50 94 31 50 94 31 50 94 31 50 94 31 50 94 31 50 94 31 50 94 31
50 94 31 50 94 31 50 94 31 50 94 31 50 94 31 50 94 31 50 94 31 50 94
31 50 94 31 50 94 31 50 94 31 50 94 31 50 94 31 50 94 31 50 94 31 50
94 31 50 94 31 50 94 31 50 94 31 50 94 31 50 93 31 50 93 31 50 93 31
50 93 31 50 93 31 50 93 31 50 93 31 50 93 31 50 93 31 50 92 31 50 92
31 49 92 31 49 92 31 49 92 31 49 92 31 49 91 31 49 91 31 49 91 31 49
91 31 49 91 31 49 90 31 49 90 31 49 90 31 49 90 31 49 90 31 49 89 31
48 89 31 48 89 31 48 89 31 48 89 31 48 88 31 48 88 31 48 88 31 48 88
31 48 87 31 48 87 31 48 87 31 48 87 31 47 86 31 47 86 31 47 86 31 47
85 31 47 85 31 47 85 31 47 85 31 47 84 31 47 84 31 46 84 31 46 84 31
46 83 31 46 83 31 46 83 31 46 82 31 46 82 31 46 82 31 46 81 31 46 81
31 45 81 31 45 81 31 45 80 31 45 80 31 45 80 31 45 79 31 45 79 31 45
79 31 45 79 31 44 78 31 44 78 31 1 5 73 1 4 60 0 4 52 0 3 46 0 3 46 0
3 46 0 3 46 0 3 46 0 3 46 0 3 46 0 3 46 0 3 46 0 3 46 0 3 46 0 3 46 0
3 46 0 3 46 0 3 46 0 3 46 0 3 46 0 3 46 0 3 46 0 3 46 0 3 46 0 3 46 0
3 46 0 3 46 41 70 32 41 70 32 41 69 32 41 69 32 41 69 32 41 69 32 41
68 32 41 68 32 41 68 32 41 68 32 41 67 33 40 67 33 40 67 33 40 67 33
40 66 33 40 66 33 40 66 33 40 66 33 40 65 33 40 65 33 40 65 33 40 65
33 40 64 33 39 64 33 39 64 33 39 64 33 39 63 33 39 63 33 39 63 33 39
63 33 39 63 33 39 62 33 39 62 33 39 62 33 39 62 33 38 61 33 38 61 33
38 61 33 38 61 33 38 61 34 38 60 34 38 60 34 29 57 13 28 57 13 28 57
13 28 57 13 28 57 13 28 56 13 28 56 13 19 49 51 19 47 49 18 45 47 17
43 45 16 40 43 16 38 41 15 36 39 15 34 37 14 33 35 14 32 34 14 31 32
13 30 30 13 29 29 13 29 29 13 29 29 13 29 29 13 29 29 13 29 29 9 21 29
9 21 29 7 17 27 7 17 27 7 17 27 7 17 27 7 17 27 7 17 27 7 17 27 6 10 5
6 10 5 6 10 5 6 10 5 6 10 5 6 10 5 6 10 5 6 10 5 6 10 5 15 13 25 15 13
25 15 13 25 15 13 25 15 13 25 15 13 25 15 13 25 15 13 25 15 13 25 15
13 24 15 13 24 15 13 24 15 13 24 15 13 24 15 13 24 15 13 24 15 13 24
15 13 24 15 13 24 15 13 24 15 13 24 15 13 24 14 13 23 14 13 23 14 13
23 14 13 23 14 13 23 14 13 23 14 13 23 14 13 23 14 13 23 14 13 23 14
13 23 14 13 22 14 13 22 14 13 22 14 13 22 14 13 22 14 13 22 14 13 22
14 13 22 14 12 22 14 12 22 14 12 22 14 12 22 14 12 21 14 12 21 13 12
21 13 12 21 13 12 21 13 12 21 13 12 21 13 12 21 24 33 22 23 33 22 23
33 22 23 33 22 23 33 21 23 33 21 23 33 21 23 33 21 23 33 21
33 63 22 33 63 22 33 63 23 34 64 23 34 64 23 34 64 23 34 64 23 34 65
23 34 65 23 34 65 23 34 65 23 35 66 23 35 66 23 35 66 23 35 67 23 35
67 24 35 67 24 35 67 24 36 68 24 36 68 24 36 68 24 36 68 24 36 69 24
36 69 24 36 69 24 37 70 24 37 70 24 37 70 25 37 70 25 37 71 25 37 71
25 37 71 25 38 72 25 38 72 25 38 72 25 38 72 25 38 73 25 38 73 25 38
73 25 39 74 26 39 74 26 39 74 26 39 74 26 39 75 26 39 75 26 39 75 26
40 76 26 40 76 26 40 76 26 40 76 26 40 77 26 40 77 27 40 77 27 41 78
27 41 78 27 41 78 27 41 79 27 41 79 27 41 79 27 41 79 27 42 80 27 42
80 27 42 80 27 42 81 28 42 81 28 42 81 28 43 81 28 43 82 28 43 82 28
43 82 28 43 82 28 43 83 28 43 83 28 44 83 28 44 84 28 44 84 28 44 84
29 44 84 29 44 85 29 44 85 29 44 85 29 45 85 29 45 86 29 45 86 29 45
86 29 45 86 29 45 87 29 45 87 29 46 87 29 46 87 29 46 88 29 46 88 29
46 88 29 46 88 30 46 88 30 46 89 30 46 89 30 47 89 30 47 89 30 47 89
30 47 90 30 47 90 30 47 90 30 47 90 30 47 90 30 47 91 30 48 91 30 48
91 30 48 91 30 48 91 30 48 91 30 48 92 30 48 92 30 48 92 30 48 92 30
48 92 30 48 92 30 48 92 30 49 92 30 49 93 30 49 93 30 49 93 30 49 93
30 49 93 30 49 93 30 49 93 30 49 93 30 49 93 30 49 93 30 49 93 30 49
93 30 49 93 30 49 94 30 49 94 30 49 94 31 49 94 31 49 94 31 50 94 31
50 94 31 50 94 31 50 94 31 50 94 31 50 94 31 50 94 31 50 94 31 50 94
31 50 94 31 50 94 31 50 94 31 50 93 31 50 93 31 50 93 30 50 93 30 50
93 30 50 93 30 50 93 30 50 93 30 50 93 30 50 93 30 50 93 30 50 93 30
50 93 30 49 92 30 49 92 30 49 92 30 49 92 30 49 92 30 49 92 30 49 92
30 49 91 30 49 91 30 49 91 30 49 91 30 49 91 30 49 91 30 49 90 30 49
90 30 49 90 30 49 90 30 49 90 30 49 89 30 48 89 30 48 89 30 48 89 30
48 89 30 48 88 30 48 88 30 48 88 30 48 88 30 48 88 30 48 87 30 48 87
30 48 87 30 47 87 30 47 86 30 47 86 30 47 86 30 47 86 30 47 85 30 47
85 30 47 85 30 47 84 31 47 84 31 46 84 31 46 84 31 46 83 31 46 83 31
46 83 31 46 83 31 46 82 31 46 82 31 46 82 31 46 81 31 45 81 31 45 81
31 45 81 31 45 80 31 45 80 31 45 80 31 45 79 31 45 79 31 45 79 31 44
79 31 44 78 31 44 78 31 44 78 31 44 77 31 1 5 61 0 4 51 0 3 46 0 3 46
0 3 46 0 3 46 0 3 46 0 3 46 0 3 46 0 3 46 0 3 46 0 3 46 0 3 46 0 3 46
0 3 46 0 3 46 0 3 46 0 3 46 0 3 46 0 3 46 0 3 46 0 3 46 0 3 46 0 3 46
0 3 46 41 70 32 41 70 32 41 70 32 41 69 32 41 69 32 41 69 32 41 69 32
41 68 32 41 68 32 41 68 32 41 68 32 40 67 32 40 67 32 40 67 32 40 67
32 40 66 33 40 66 33 40 66 33 40 66 33 40 65 33 40 65 33 40 65 33 40
65 33 39 64 33 39 64 33 39 64 33 39 64 33 39 63 33 39 63 33 39 63 33
39 63 33 39 63 33 39 62 33 39 62 33 39 62 33 38 62 33 38 61 33 38 61
33 38 61 33 38 61 33 38 61 33 38 60 33 38 60 33 38 60 33 38 60 33 28
57 13 28 57 13 28 57 13 28 57 13 28 56 13 28 56 13 28 56 13 28 56 13
28 56 12 28 55 12 15 35 39 15 34 37 14 33 35 14 32 33 14 31 32 13 30
30 13 30 29 13 29 29 13 29 29 13 29 29 9 21 29 9 21 29 9 21 29 7 17 27
7 17 27 7 17 27 7 17 27 7 17 27 7 17 27 7 17 27 6 10 5 6 10 5 6 10 5 6
10 5 6 10 5 6 10 5 6 10 5 6 10 5 6 10 5 6 10 5 15 13 25 15 13 25 15 13
25 15 13 25 15 13 25 15 13 25 15 13 25 15 13 25 15 13 25 15 13 24 15
13 24 15 13 24 15 13 24 15 13 24 15 13 24 15 13 24 15 13 24 15 13 24
15 13 24 15 13 24 15 13 24 15 13 24 15 13 24 14 13 23 14 13 23 14 13
23 14 13 23 14 13 23 14 13 23 14 13 23 14 13 23 14 13 23 14 13 23 14
13 23 14 13 23 14 13 22 14 13 22 14 13 22 14 13 22 14 13 22 14 13 22
14 13 22 14 13 22 14 12 22 14 12 22 14 12 22 14 12 21 14 12 21 14 12
21 13 12 21 13 12 21 13 12 21 13 12 21 24 33 22 24 33 22 24 33 22 23
33 22 23 33 22 23 33 22 23 33 21 23 33 21 23 33 21 23 33 21
33 63 22 34 64 23 34 64 23 34 64 23 34 64 23 34 65 23 34 65 23 34 65
23 34 65 23 35 66 23 35 66 23 35 66 23 35 66 23 35 67 23 35 67 24 35
67 24 35 67 24 36 68 24 36 68 24 36 68 24 36 68 24 36 69 24 36 69 24
36 69 24 37 70 24 37 70 24 37 70 25 37 70 25 37 71 25 37 71 25 37 71
25 38 72 25 38 72 25 38 72 25 38 72 25 38 73 25 38 73 25 38 73 25 39
73 26 39 74 26 39 74 26 39 74 26 39 75 26 39 75 26 39 75 26 40 75 26
40 76 26 40 76 26 40 76 26 40 77 26 40 77 27 40 77 27 41 77 27 41 78
27 41 78 27 41 78 27 41 79 27 41 79 27 41 79 27 42 79 27 42 80 27 42
80 27 42 80 27 42 81 28 42 81 28 42 81 28 43 81 28 43 82 28 43 82 28
43 82 28 43 82 28 43 83 28 43 83 28 44 83 28 44 84 28 44 84 28 44 84
28 44 84 29 44 85 29 44 85 29 44 85 29 45 85 29 45 86 29 45 86 29 45
86 29 45 86 29 45 86 29 45 87 29 45 87 29 46 87 29 46 87 29 46 88 29
46 88 29 46 88 29 46 88 29 46 88 30 46 89 30 46 89 30 47 89 30 47 89
30 47 89 30 47 90 30 47 90 30 47 90 30 47 90 30 47 90 30 47 90 30 47
91 30 48 91 30 48 91 30 48 91 30 48 91 30 48 91 30 48 91 30 48 92 30
48 92 30 48 92 30 48 92 30 48 92 30 48 92 30 48 92 30 49 92 30 49 92
30 49 92 30 49 93 30 49 93 30 49 93 30 49 93 30 49 93 30 49 93 30 49
93 30 49 93 30 49 93 30 49 93 30 49 93 30 49 93 30 49 93 30 49 93 30
49 93 30 49 93 30 49 93 30 49 93 30 49 93 30 49 93 30 49 93 30 49 93
30 49 93 30 49 93 30 49 93 30 49 93 30 49 93 30 49 93 30 49 93 30 49
93 30 49 93 30 49 92 30 49 92 30 49 92 30 49 92 30 49 92 30 49 92 30
49 92 30 49 92 30 49 92 30 49 92 30 49 91 30 49 91 30 49 91 30 49 91
30 49 91 30 49 91 30 49 91 30 49 90 30 49 90 30 49 90 30 49 90 30 48
90 30 48 89 30 48 89 30 48 89 30 48 89 30 48 89 30 48 88 30 48 88 30
48 88 30 48 88 30 48 88 30 48 87 30 48 87 30 48 87 30 47 87 30 47 86
30 47 86 30 47 86 30 47 86 30 47 86 30 47 85 30 47 85 30 47 85 30 47
85 30 47 84 30 46 84 30 46 84 30 46 83 30 46 83 30 46 83 30 46 83 30
46 82 30 46 82 30 46 82 31 46 82 31 45 81 31 45 81 31 45 81 31 45 80
31 45 80 31 45 80 31 45 80 31 45 79 31 45 79 31 45 79 31 44 79 31 44
78 31 44 78 31 44 78 31 44 77 31 44 77 31 44 77 31 0 4 52 0 3 46 0 3
46 0 3 46 0 3 46 0 3 46 0 3 46 0 3 46 0 3 46 0 3 46 0 3 46 0 3 46 0 3
46 0 3 46 0 3 46 0 3 46 0 3 46 0 3 46 0 3 46 0 3 46 0 3 46 0 3 46 0 3
46 0 3 46 41 70 32 41 70 32 41 70 32 41 69 32 41 69 32 41 69 32 41 69
32 41 68 32 41 68 32 41 68 32 40 68 32 40 67 32 40 67 32 40 67 32 40
67 32 40 66 32 40 66 32 40 66 32 40 66 32 40 65 32 40 65 33 40 65 33
39 65 33 39 64 33 39 64 33 39 64 33 39 64 33 39 63 33 39 63 33 39 63
33 39 63 33 39 63 33 39 62 33 39 62 33 38 62 33 38 62 33 38 62 33 38
61 33 38 61 33 38 61 33 38 61 33 38 60 33 38 60 33 38 60 33 38 60 33
38 60 33 38 59 33 37 59 33 28 57 13 28 56 13 28 56 13 28 56 13 28 56
13 28 56 12 28 55 12 27 55 12 27 55 12 27 55 12 27 55 12 27 54 12 27
54 12 13 25 11 13 25 11 6 10 5 7 17 27 7 17 27 7 17 27 7 17 27 7 17 27
6 10 5 6 10 5 6 10 5 6 10 5 6 10 5 6 10 5 6 10 5 6 10 5 6 10 5 6 10 5
6 10 5 6 10 5 6 10 5 6 10 5 6 10 5 6 10 5 15 13 25 15 13 25 15 13 25
15 13 25 15 13 25 15 13 25 15 13 25 15 13 25 15 13 24 15 13 24 15 13
24 15 13 24 15 13 24 15 13 24 15 13 24 15 13 24 15 13 24 15 13 24 15
13 24 15 13 24 15 13 24 15 13 24 15 13 24 14 13 23 14 13 23 14 13 23
14 13 23 14 13 23 14 13 23 14 13 23 14 13 23 14 13 23 14 13 23 14 13
23 14 13 23 14 13 22 14 13 22 14 13 22 14 13 22 14 13 22 14 13 22 14
13 22 14 13 22 14 13 22 14 12 22 14 12 22 14 12 22 14 12 21 14 12 21
14 12 21 13 12 21 13 12 21 13 12 21 24 34 22 24 34 22 24 33 22 24 33
22 24 33 22 23 33 22 23 33 22 23 33 21 23 33 21 28 44 26
34 64 23 34 64 23 34 64 23 34 64 23 34 65 23 34 65 23 34 65 23 34 65
23 35 66 23 35 66 23 35 66 23 35 66 23 35 67 24 35 67 24 35 67 24 35
67 24 36 68 24 36 68 24 36 68 24 36 69 24 36 69 24 36 69 24 36 69 24
37 70 24 37 70 24 37 70 25 37 70 25 37 71 25 37 71 25 37 71 25 37 71
25 38 72 25 38 72 25 38 72 25 38 73 25 38 73 25 38 73 25 38 73 26 39
74 26 39 74 26 39 74 26 39 75 26 39 75 26 39 75 26 39 75 26 40 76 26
40 76 26 40 76 26 40 76 26 40 77 27 40 77 27 40 77 27 41 78 27 41 78
27 41 78 27 41 78 27 41 79 27 41 79 27 41 79 27 42 80 27 42 80 27 42
80 27 42 80 28 42 81 28 42 81 28 42 81 28 43 81 28 43 82 28 43 82 28
43 82 28 43 82 28 43 83 28 43 83 28 43 83 28 44 83 28 44 84 28 44 84
28 44 84 29 44 84 29 44 85 29 44 85 29 45 85 29 45 85 29 45 86 29 45
86 29 45 86 29 45 86 29 45 87 29 45 87 29 45 87 29 46 87 29 46 87 29
46 88 29 46 88 29 46 88 29 46 88 29 46 88 30 46 89 30 46 89 30 47 89
30 47 89 30 47 89 30 47 89 30 47 90 30 47 90 30 47 90 30 47 90 30 47
90 30 47 90 30 47 90 30 48 91 30 48 91 30 48 91 30 48 91 30 48 91 30
48 91 30 48 91 30 48 91 30 48 91 30 48 92 30 48 92 30 48 92 30 48 92
30 48 92 30 48 92 30 49 92 30 49 92 30 49 92 30 49 92 30 49 92 30 49
92 30 49 92 30 49 92 30 49 92 30 49 92 30 49 92 30 49 92 30 49 92 30
49 92 30 49 92 30 49 92 30 49 92 30 49 92 30 49 92 30 49 92 30 49 92
30 49 92 30 49 92 30 49 92 30 49 92 30 49 92 30 49 92 30 49 92 30 49
92 30 49 92 30 49 92 30 49 92 30 49 92 30 49 92 30 49 91 30 49 91 30
49 91 30 49 91 30 49 91 30 49 91 30 49 91 30 49 91 30 49 90 30 49 90
30 49 90 30 49 90 30 48 90 30 48 90 30 48 90 30 48 89 30 48 89 30 48
89 30 48 89 30 48 89 30 48 88 30 48 88 30 48 88 30 48 88 30 48 88 30
48 87 30 48 87 30 47 87 30 47 87 30 47 87 30 47 86 30 47 86 30 47 86
30 47 86 30 47 85 30 47 85 30 47 85 30 47 85 30 47 85 30 46 84 30 46
84 30 46 84 30 46 84 30 46 83 30 46 83 30 46 83 30 46 83 30 46 82 30
46 82 30 46 82 30 45 81 30 45 81 30 45 81 30 45 81 30 45 80 30 45 80
30 45 80 30 45 80 31 45 79 31 45 79 31 44 79 31 44 79 31 44 78 31 44
78 31 44 78 31 44 77 31 44 77 31 44 77 31 44 77 31 1 4 59 0 3 46 0 3
46 0 3 46 0 3 46 0 3 46 0 3 46 0 3 46 0 3 46 0 3 46 0 3 46 0 3 46 0 3
46 0 3 46 0 3 46 0 3 46 0 3 46 0 3 46 0 3 46 0 3 46 0 3 46 0 3 46 0 3
46 41 70 32 41 70 32 41 70 32 41 69 32 41 69 32 41 69 32 41 69 32 41
68 32 41 68 32 41 68 32 40 68 32 40 67 32 40 67 32 40 67 32 40 67 32
40 66 32 40 66 32 40 66 32 40 66 32 40 66 32 40 65 32 40 65 32 39 65
32 39 65 32 39 64 32 39 64 32 39 64 32 39 64 33 39 63 33 39 63 33 39
63 33 39 63 33 39 63 33 39 62 33 38 62 33 38 62 33 38 62 33 38 62 33
38 61 33 38 61 33 38 61 33 38 61 33 38 61 33 38 60 33 38 60 33 38 60
33 38 60 33 37 59 33 37 59 33 37 59 33 37 59 33 37 59 33 37 59 33 28
56 13 28 56 13 28 56 12 28 55 12 27 55 12 27 55 12 27 55 12 27 55 12
27 54 12 27 54 12 27 54 12 27 54 12 27 54 12 27 53 12 27 53 12 26 53
12 12 25 11 12 25 11 12 25 11 12 25 11 12 25 11 12 24 10 6 10 5 6 10 5
6 10 5 6 10 5 6 10 5 6 10 5 6 10 5 6 10 5 6 10 5 6 10 5 15 13 25 15 13
25 15 13 25 15 13 25 15 13 25 15 13 25 15 13 25 15 13 24 15 13 24 15
13 24 15 13 24 15 13 24 15 13 24 15 13 24 15 13 24 15 13 24 15 13 24
15 13 24 15 13 24 15 13 24 15 13 24 15 13 24 15 13 24 15 13 24 14 13
23 14 13 23 14 13 23 14 13 23 14 13 23 14 13 23 14 13 23 14 13 23 14
13 23 14 13 23 14 13 23 14 13 23 14 13 23 14 13 22 14 13 22 14 13 22
14 13 22 14 13 22 14 13 22 14 13 22 14 13 22 14 12 22 14 12 22 14 12
22 14 12 22 14 12 21 14 12 21 14 12 21 24 34 22 24 34 22 24 34 22 24
34 22 29 45 27 29 45 27 29 45 27 29 44 26 28 44 26 28 44 26 28 44 26
28 44 26
34 64 23 34 64 23 34 65 23 34 65 23 34 65 23 34 65 23 34 65 23 35 66
23 35 66 23 35 66 23 35 66 23 35 67 24 35 67 24 35 67 24 35 67 24 36
68 24 36 68 24 36 68 24 36 69 24 36 69 24 36 69 24 36 69 24 37 70 24
37 70 24 37 70 25 37 70 25 37 71 25 37 71 25 37 71 25 37 71 25 38 72
25 38 72 25 38 72 25 38 73 25 38 73 25 38 73 25 38 73 26 39 74 26 39
74 26 39 74 26 39 74 26 39 75 26 39 75 26 39 75 26 40 76 26 40 76 26
40 76 26 40 76 26 40 77 26 40 77 27 40 77 27 41 77 27 41 78 27 41 78
27 41 78 27 41 78 27 41 79 27 41 79 27 41 79 27 42 80 27 42 80 27 42
80 27 42 80 28 42 81 28 42 81 28 42 81 28 43 81 28 43 82 28 43 82 28
43 82 28 43 82 28 43 83 28 43 83 28 43 83 28 44 83 28 44 84 28 44 84
28 44 84 28 44 84 29 44 85 29 44 85 29 44 85 29 45 85 29 45 85 29 45
86 29 45 86 29 45 86 29 45 86 29 45 86 29 45 87 29 45 87 29 46 87 29
46 87 29 46 87 29 46 88 29 46 88 29 46 88 29 46 88 29 46 88 29 46 89
30 46 89 30 47 89 30 47 89 30 47 89 30 47 89 30 47 89 30 47 90 30 47
90 30 47 90 30 47 90 30 47 90 30 47 90 30 47 90 30 48 90 30 48 91 30
48 91 30 48 91 30 48 91 30 48 91 30 48 91 30 48 91 30 48 91 30 48 91
30 48 91 30 48 91 30 48 91 30 48 92 30 48 92 30 48 92 30 48 92 30 48
92 30 48 92 30 49 92 30 49 92 30 49 92 30 49 92 30 49 92 30 49 92 30
49 92 30 49 92 30 49 92 30 49 92 30 49 92 30 49 92 30 49 92 30 49 92
30 49 92 30 49 92 30 49 92 30 49 92 30 49 92 30 49 91 30 49 91 30 49
91 30 49 91 30 49 91 30 49 91 30 49 91 30 49 91 30 49 91 30 49 91 30
49 91 30 49 90 30 48 90 30 48 90 30 48 90 30 48 90 30 48 90 30 48 90
30 48 90 30 48 89 30 48 89 30 48 89 30 48 89 30 48 89 30 48 89 30 48
88 30 48 88 30 48 88 30 48 88 30 48 88 30 48 87 30 47 87 30 47 87 30
47 87 30 47 87 30 47 86 30 47 86 30 47 86 30 47 86 30 47 86 30 47 85
30 47 85 30 47 85 30 47 85 30 46 84 30 46 84 30 46 84 30 46 84 30 46
84 30 46 83 30 46 83 30 46 83 30 46 83 30 46 82 30 46 82 30 45 82 30
45 82 30 45 81 30 45 81 30 45 81 30 45 81 30 45 80 30 45 80 30 45 80
30 45 79 30 45 79 30 44 79 30 44 79 30 44 78 30 44 78 30 44 78 31 44
78 31 44 77 31 44 77 31 44 77 31 44 77 31 43 76 31 43 76 31 0 4 52 0 3
46 0 3 46 0 3 46 0 3 46 0 3 46 0 3 46 0 3 46 0 3 46 0 3 46 0 3 46 0 3
46 0 3 46 0 3 46 0 3 46 0 3 46 0 3 46 0 3 46 0 3 46 0 3 46 0 3 46 41
70 31 41 70 31 41 70 31 41 70 31 41 69 31 41 69 32 41 69 32 41 69 32
41 68 32 40 68 32 40 68 32 40 68 32 40 67 32 40 67 32 40 67 32 40 67
32 40 66 32 40 66 32 40 66 32 40 66 32 40 66 32 39 65 32 39 65 32 39
65 32 39 65 32 39 64 32 39 64 32 39 64 32 39 64 32 39 63 32 39 63 32
39 63 32 39 63 32 39 63 32 38 62 33 38 62 33 38 62 33 38 62 33 38 62
33 38 61 33 38 61 33 38 61 33 38 61 33 38 61 33 38 60 33 38 60 33 38
60 33 37 60 33 37 60 33 37 59 33 37 59 33 37 59 33 37 59 33 37 59 33
37 58 33 37 58 33 37 58 33 37 58 33 37 58 33 27 55 12 27 55 12 27 55
12 27 55 12 27 54 12 27 54 12 27 54 12 27 54 12 27 54 12 27 53 12 27
53 12 26 53 12 26 53 12 26 53 12 26 53 12 26 52 12 26 52 12 26 52 12
26 52 12 26 52 12 12 24 10 12 24 10 12 24 10 12 24 10 12 24 10 21 26
31 21 26 30 21 26 30 21 26 30 21 26 30 21 26 30 21 26 30 21 26 30 21
26 30 21 26 30 21 26 30 15 13 24 15 13 24 15 13 24 15 13 24 15 13 24
15 13 24 15 13 24 15 13 24 15 13 24 15 13 24 15 13 24 15 13 24 15 13
24 15 13 24 14 13 23 14 13 23 14 13 23 14 13 23 14 13 23 14 13 23 14
13 23 14 13 23 14 13 23 14 13 23 14 13 23 14 13 23 14 13 23 14 13 23
14 13 22 14 13 22 14 13 22 14 13 22 19 24 27 19 24 27 19 24 27 19 24
27 19 24 27 19 24 27 19 24 27 30 46 28 30 46 28 30 46 27 29 46 27 29
45 27 29 45 27 29 45 27 29 45 27 29 45 27 29 45 27 29 45 27 29 45 27
29 44 26 29 44 26 28 44 26 28 44 26
34 64 23 34 65 23 34 65 23 34 65 23 34 65 23 35 66 23 35 66 23 35 66
23 35 66 23 35 67 23 35 67 24 35 67 24 35 67 24 36 68 24 36 68 24 36
68 24 36 68 24 36 69 24 36 69 24 36 69 24 36 69 24 37 70 24 37 70 24
37 70 25 37 70 25 37 71 25 37 71 25 37 71 25 37 71 25 38 72 25 38 72
25 38 72 25 38 72 25 38 73 25 38 73 25 38 73 25 39 73 26 39 74 26 39
74 26 39 74 26 39 75 26 39 75 26 39 75 26 39 75 26 40 76 26 40 76 26
40 76 26 40 76 26 40 77 26 40 77 27 40 77 27 41 77 27 41 78 27 41 78
27 41 78 27 41 79 27 41 79 27 41 79 27 41 79 27 42 80 27 42 80 27 42
80 27 42 80 28 42 81 28 42 81 28 42 81 28 43 81 28 43 82 28 43 82 28
43 82 28 43 82 28 43 83 28 43 83 28 43 83 28 44 83 28 44 83 28 44 84
28 44 84 28 44 84 28 44 84 29 44 85 29 44 85 29 44 85 29 45 85 29 45
85 29 45 86 29 45 86 29 45 86 29 45 86 29 45 86 29 45 87 29 45 87 29
46 87 29 46 87 29 46 87 29 46 87 29 46 88 29 46 88 29 46 88 29 46 88
29 46 88 29 46 88 29 46 89 30 47 89 30 47 89 30 47 89 30 47 89 30 47
89 30 47 89 30 47 90 30 47 90 30 47 90 30 47 90 30 47 90 30 47 90 30
47 90 30 48 90 30 48 90 30 48 90 30 48 91 30 48 91 30 48 91 30 48 91
30 48 91 30 48 91 30 48 91 30 48 91 30 48 91 30 48 91 30 48 91 30 48
91 30 48 91 30 48 91 30 48 91 30 48 91 30 48 91 30 48 91 30 48 91 30
48 91 30 48 91 30 48 91 30 48 91 30 48 91 30 48 91 30 48 91 30 48 91
30 48 91 30 48 91 30 48 91 30 48 91 30 48 91 30 48 91 30 48 91 30 48
91 30 48 91 30 48 90 30 48 90 30 48 90 30 48 90 30 48 90 30 48 90 30
48 90 30 48 90 30 48 90 30 48 90 30 48 89 30 48 89 30 48 89 30 48 89
30 48 89 30 48 89 30 48 89 30 48 88 30 48 88 30 48 88 30 48 88 30 48
88 30 47 88 30 47 87 30 47 87 30 47 87 30 47 87 30 47 87 30 47 87 30
47 86 30 47 86 30 47 86 30 47 86 30 47 86 30 47 85 30 47 85 30 47 85
30 46 85 30 46 84 30 46 84 30 46 84 30 46 84 30 46 84 30 46 83 30 46
83 30 46 83 30 46 83 30 46 82 30 46 82 30 45 82 30 45 82 30 45 81 30
45 81 30 45 81 30 45 81 30 45 80 30 45 80 30 45 80 30 45 80 30 44 79
30 44 79 30 44 79 30 44 79 30 44 78 30 44 78 30 44 78 30 44 78 30 44
77 30 44 77 30 44 77 30 43 77 30 43 76 30 43 76 31 43 76 31 43 76 31
43 75 31 0 3 46 0 3 46 0 3 46 0 3 46 0 3 46 0 3 46 0 3 46 0 3 46 0 3
46 0 3 46 0 3 46 0 3 46 0 3 46 0 3 46 0 3 46 0 3 46 0 3 46 0 3 46 41
70 31 41 70 31 41 70 31 41 70 31 41 69 31 41 69 31 41 69 31 41 69 31
41 68 31 40 68 31 40 68 31 40 68 32 40 68 32 40 67 32 40 67 32 40 67
32 40 67 32 40 66 32 40 66 32 40 66 32 40 66 32 39 65 32 39 65 32 39
65 32 39 65 32 39 65 32 39 64 32 39 64 32 39 64 32 39 64 32 39 63 32
39 63 32 39 63 32 39 63 32 38 63 32 38 62 32 38 62 32 38 62 32 38 62
32 38 62 32 38 61 32 38 61 32 38 61 32 38 61 32 38 61 32 38 60 32 38
60 33 37 60 33 37 60 33 37 60 33 37 59 33 37 59 33 37 59 33 37 59 33
37 59 33 37 58 33 37 58 33 37 58 33 37 58 33 37 58 33 36 58 33 36 57
33 36 57 33 36 57 33 36 57 33 36 57 32 36 56 32 27 54 12 27 54 12 27
54 12 27 53 12 26 53 12 26 53 12 26 53 12 26 53 12 26 53 12 26 52 12
26 52 12 26 52 12 26 52 12 35 54 32 35 54 32 35 54 32 35 54 32 34 53
32 34 53 32 34 53 32 34 53 32 34 53 32 34 53 32 34 52 32 34 52 31 21
26 30 21 26 30 21 26 30 21 26 30 21 26 30 21 26 30 21 26 30 21 26 30
21 26 30 21 26 29 21 26 29 21 26 29 20 26 29 20 26 29 20 25 29 20 25
29 20 25 29 20 25 29 20 25 29 20 25 29 20 25 29 20 25 29 20 25 28 20
25 28 20 25 28 20 25 28 20 25 28 20 25 28 20 25 28 20 25 28 20 25 28
20 25 28 20 25 28 19 25 27 19 25 27 19 24 27 19 24 27 30 47 28 30 47
28 30 47 28 30 46 28 30 46 28 30 46 28 30 46 28 30 46 28 30 46 28 30
46 27 29 46 27 29 46 27 29 45 27 29 45 27 29 45 27 29 45 27 29 45 27
29 45 27 29 45 27 29 45 26 29 44 26 28 44 26
34 65 23 34 65 23 34 65 23 34 65 23 35 66 23 35 66 23 35 66 23 35 66
23 35 67 23 35 67 24 35 67 24 35 67 24 36 68 24 36 68 24 36 68 24 36
68 24 36 69 24 36 69 24 36 69 24 36 69 24 37 70 24 37 70 24 37 70 25
37 70 25 37 71 25 37 71 25 37 71 25 37 71 25 38 72 25 38 72 25 38 72
25 38 72 25 38 73 25 38 73 25 38 73 25 38 73 26 39 74 26 39 74 26 39
74 26 39 74 26 39 75 26 39 75 26 39 75 26 40 75 26 40 76 26 40 76 26
40 76 26 40 76 26 40 77 27 40 77 27 40 77 27 41 77 27 41 78 27 41 78
27 41 78 27 41 79 27 41 79 27 41 79 27 41 79 27 42 80 27 42 80 27 42
80 27 42 80 27 42 80 28 42 81 28 42 81 28 42 81 28 43 81 28 43 82 28
43 82 28 43 82 28 43 82 28 43 83 28 43 83 28 43 83 28 44 83 28 44 83
28 44 84 28 44 84 28 44 84 28 44 84 29 44 85 29 44 85 29 44 85 29 45
85 29 45 85 29 45 86 29 45 86 29 45 86 29 45 86 29 45 86 29 45 86 29
45 87 29 45 87 29 46 87 29 46 87 29 46 87 29 46 87 29 46 88 29 46 88
29 46 88 29 46 88 29 46 88 29 46 88 29 46 88 29 47 89 30 47 89 30 47
89 30 47 89 30 47 89 30 47 89 30 47 89 30 47 89 30 47 89 30 47 90 30
47 90 30 47 90 30 47 90 30 47 90 30 47 90 30 47 90 30 48 90 30 48 90
30 48 90 30 48 90 30 48 90 30 48 90 30 48 90 30 48 90 30 48 91 30 48
91 30 48 91 30 48 91 30 48 91 30 48 91 30 48 91 30 48 91 30 48 91 30
48 91 30 48 91 30 48 91 30 48 91 30 48 91 30 48 91 30 48 90 30 48 90
30 48 90 30 48 90 30 48 90 30 48 90 30 48 90 30 48 90 30 48 90 30 48
90 30 48 90 30 48 90 30 48 90 30 48 90 30 48 90 30 48 89 30 48 89 30
48 89 30 48 89 30 48 89 30 48 89 30 48 89 30 48 89 30 48 89 30 48 88
30 48 88 30 48 88 30 48 88 30 47 88 30 47 88 30 47 87 30 47 87 30 47
87 30 47 87 30 47 87 30 47 87 30 47 86 30 47 86 30 47 86 30 47 86 30
47 86 30 47 86 30 47 85 30 47 85 30 46 85 30 46 85 30 46 85 30 46 84
30 46 84 30 46 84 30 46 84 30 46 83 30 46 83 30 46 83 30 46 83 30 46
83 30 46 82 30 45 82 30 45 82 30 45 82 30 45 81 30 45 81 30 45 81 30
45 81 30 45 80 30 45 80 30 45 80 30 45 80 30 44 79 30 44 79 30 44 79
30 44 79 30 44 78 30 44 78 30 44 78 30 44 78 30 44 77 30 44 77 30 44
77 30 43 77 30 43 76 30 43 76 30 43 76 30 43 76 30 43 75 30 43 75 30
43 75 30 43 75 30 0 3 46 0 3 46 0 3 46 0 3 46 0 3 46 0 3 46 0 3 46 0 3
46 0 3 46 0 3 46 0 3 46 0 3 46 0 3 46 0 3 46 0 3 46 41 71 31 41 71 31
41 70 31 41 70 31 41 70 31 41 70 31 41 69 31 41 69 31 41 69 31 41 69
31 40 68 31 40 68 31 40 68 31 40 68 31 40 67 31 40 67 31 40 67 31 40
67 31 40 67 32 40 66 32 40 66 32 40 66 32 39 66 32 39 65 32 39 65 32
39 65 32 39 65 32 39 65 32 39 64 32 39 64 32 39 64 32 39 64 32 39 63
32 39 63 32 39 63 32 38 63 32 38 63 32 38 62 32 38 62 32 38 62 32 38
62 32 38 62 32 38 61 32 38 61 32 38 61 32 38 61 32 38 61 32 38 60 32
37 60 32 37 60 32 37 60 32 37 60 32 37 59 32 37 59 32 37 59 32 37 59
32 37 59 32 37 58 32 37 58 32 37 58 32 37 58 32 36 58 32 36 58 32 36
57 32 36 57 32 36 57 32 36 57 32 36 57 32 36 57 32 36 56 32 36 56 32
36 56 32 36 56 32 36 56 32 35 55 32 35 55 32 35 55 32 35 55 32 35 55
32 35 55 32 35 54 32 35 54 32 35 54 32 35 54 32 35 54 32 35 54 32 34
53 32 34 53 32 34 53 32 34 53 32 34 53 32 34 53 31 34 53 31 34 52 31
34 52 31 34 52 31 34 52 31 33 52 31 33 52 31 33 51 31 33 51 31 33 51
31 33 51 31 33 51 31 33 51 31 33 51 31 33 50 30 33 50 30 32 50 30 32
50 30 32 50 30 32 50 30 32 50 30 32 49 30 32 49 30 32 49 30 32 49 30
32 49 30 32 49 29 31 49 29 31 48 29 31 48 29 31 48 29 31 48 29 31 48
29 31 48 29 31 48 29 31 48 29 31 47 29 31 47 29 30 47 28 30 47 28 30
47 28 30 47 28 30 47 28 30 47 28 30 46 28 30 46 28 30 46 28 30 46 28
30 46 27 30 46 27 29 46 27 29 46 27 29 45 27 29 45 27 29 45 27 29 45
27 29 45 27 29 45 27 29 45 27 29 45 26 29 45 26
34 65 23 34 65 23 34 65 23 35 66 23 35 66 23 35 66 23 35 66 23 35 67
23 35 67 24 35 67 24 35 67 24 36 68 24 36 68 24 36 68 24 36 68 24 36
68 24 36 69 24 36 69 24 36 69 24 37 69 24 37 70 24 37 70 25 37 70 25
37 70 25 37 71 25 37 71 25 37 71 25 38 71 25 38 72 25 38 72 25 38 72
25 38 72 25 38 73 25 38 73 25 38 73 25 39 73 26 39 74 26 39 74 26 39
74 26 39 74 26 39 75 26 39 75 26 39 75 26 40 76 26 40 76 26 40 76 26
40 76 26 40 77 26 40 77 27 40 77 27 40 77 27 41 78 27 41 78 27 41 78
27 41 78 27 41 78 27 41 79 27 41 79 27 41 79 27 42 79 27 42 80 27 42
80 27 42 80 27 42 80 28 42 81 28 42 81 28 42 81 28 43 81 28 43 82 28
43 82 28 43 82 28 43 82 28 43 82 28 43 83 28 43 83 28 43 83 28 44 83
28 44 83 28 44 84 28 44 84 28 44 84 28 44 84 29 44 84 29 44 85 29 44
85 29 45 85 29 45 85 29 45 85 29 45 86 29 45 86 29 45 86 29 45 86 29
45 86 29 45 86 29 45 87 29 46 87 29 46 87 29 46 87 29 46 87 29 46 87
29 46 87 29 46 88 29 46 88 29 46 88 29 46 88 29 46 88 29 46 88 29 46
88 29 47 88 29 47 89 29 47 89 30 47 89 30 47 89 30 47 89 30 47 89 30
47 89 30 47 89 30 47 89 30 47 89 30 47 89 30 47 89 30 47 90 30 47 90
30 47 90 30 47 90 30 47 90 30 47 90 30 48 90 30 48 90 30 48 90 30 48
90 30 48 90 30 48 90 30 48 90 30 48 90 30 48 90 30 48 90 30 48 90 30
48 90 30 48 90 30 48 90 30 48 90 30 48 90 30 48 90 30 48 90 30 48 90
30 48 90 30 48 90 30 48 90 30 48 90 30 48 90 30 48 89 30 48 89 30 48
89 30 48 89 30 48 89 30 48 89 30 48 89 30 48 89 30 48 89 30 48 89 30
48 89 30 48 88 30 48 88 30 47 88 30 47 88 30 47 88 30 47 88 30 47 88
30 47 88 30 47 87 30 47 87 30 47 87 30 47 87 30 47 87 30 47 87 30 47
87 30 47 86 30 47 86 30 47 86 30 47 86 30 47 86 30 47 86 30 47 85 30
46 85 30 46 85 30 46 85 30 46 85 30 46 84 30 46 84 30 46 84 30 46 84
30 46 84 30 46 83 30 46 83 30 46 83 30 46 83 30 45 83 30 45 82 30 45
82 30 45 82 30 45 82 30 45 81 30 45 81 30 45 81 30 45 81 30 45 80 30
45 80 30 45 80 30 44 80 30 44 80 30 44 79 30 44 79 30 44 79 30 44 79
30 44 78 30 44 78 30 44 78 30 44 78 30 44 77 30 44 77 30 43 77 30 43
77 30 43 76 30 43 76 30 43 76 30 43 76 30 43 75 30 43 75 30 43 75 30
43 75 30 43 74 30 42 74 30 42 74 30 0 3 46 0 3 46 0 3 46 0 3 46 0 3 46
0 3 46 0 3 46 0 3 46 0 3 46 0 3 46 0 3 46 41 71 31 41 71 31 41 71 31
41 70 31 41 70 31 41 70 31 41 70 31 41 69 31 41 69 31 41 69 31 40 69
31 40 68 31 40 68 31 40 68 31 40 68 31 40 68 31 40 67 31 40 67 31 40
67 31 40 67 31 40 66 31 40 66 31 39 66 31 39 66 31 39 66 31 39 65 32
39 65 32 39 65 32 39 65 32 39 64 32 39 64 32 39 64 32 39 64 32 39 64
32 39 63 32 38 63 32 38 63 32 38 63 32 38 63 32 38 62 32 38 62 32 38
62 32 38 62 32 38 62 32 38 61 32 38 61 32 38 61 32 38 61 32 38 61 32
37 60 32 37 60 32 37 60 32 37 60 32 37 60 32 37 59 32 37 59 32 37 59
32 37 59 32 37 59 32 37 59 32 37 58 32 37 58 32 36 58 32 36 58 32 36
58 32 36 57 32 36 57 32 36 57 32 36 57 32 36 57 32 36 57 32 36 56 32
36 56 32 36 56 32 36 56 32 35 56 32 35 56 32 35 55 32 35 55 32 35 55
32 35 55 32 35 55 32 35 55 32 35 54 32 35 54 32 35 54 32 35 54 32 35
54 32 34 54 32 34 53 32 34 53 31 34 53 31 34 53 31 34 53 31 34 53 31
34 52 31 34 52 31 34 52 31 34 52 31 33 52 31 33 52 31 33 52 31 33 51
31 33 51 31 33 51 31 33 51 31 33 51 31 33 51 30 33 51 30 33 50 30 33
50 30 32 50 30 32 50 30 32 50 30 32 50 30 32 50 30 32 49 30 32 49 30
32 49 30 32 49 30 32 49 29 32 49 29 31 49 29 31 48 29 31 48 29 31 48
29 31 48 29 31 48 29 31 48 29 31 48 29 31 48 29 31 47 29 31 47 28 30
47 28 30 47 28 30 47 28 30 47 28 30 47 28 30 47 28 30 46 28 30 46 28
30 46 28 30 46 28 30 46 27 30 46 27 29 46 27 29 46 27 29 45 27 29 45
27 29 45 27 29 45 27 29 45 27 29 45 27 29 45 27 29 45 26
34 65 23 34 65 23 35 66 23 35 66 23 35 66 23 35 66 23 35 67 23 35 67
24 35 67 24 35 67 24 36 67 24 36 68 24 36 68 24 36 68 24 36 68 24 36
69 24 36 69 24 36 69 24 36 69 24 37 70 24 37 70 25 37 70 25 37 70 25
37 71 25 37 71 25 37 71 25 37 71 25 38 72 25 38 72 25 38 72 25 38 72
25 38 73 25 38 73 25 38 73 25 38 73 26 39 74 26 39 74 26 39 74 26 39
74 26 39 75 26 39 75 26 39 75 26 39 75 26 40 76 26 40 76 26 40 76 26
40 76 26 40 77 26 40 77 27 40 77 27 40 77 27 41 77 27 41 78 27 41 78
27 41 78 27 41 78 27 41 79 27 41 79 27 41 79 27 42 79 27 42 80 27 42
80 27 42 80 27 42 80 27 42 80 28 42 81 28 42 81 28 43 81 28 43 81 28
43 82 28 43 82 28 43 82 28 43 82 28 43 82 28 43 83 28 43 83 28 44 83
28 44 83 28 44 83 28 44 84 28 44 84 28 44 84 28 44 84 28 44 84 29 44
85 29 44 85 29 45 85 29 45 85 29 45 85 29 45 85 29 45 86 29 45 86 29
45 86 29 45 86 29 45 86 29 45 86 29 45 86 29 46 87 29 46 87 29 46 87
29 46 87 29 46 87 29 46 87 29 46 87 29 46 88 29 46 88 29 46 88 29 46
88 29 46 88 29 46 88 29 46 88 29 46 88 29 47 88 29 47 88 29 47 89 29
47 89 29 47 89 29 47 89 29 47 89 30 47 89 30 47 89 30 47 89 30 47 89
30 47 89 30 47 89 30 47 89 30 47 89 30 47 89 30 47 89 30 47 89 30 47
89 30 47 89 30 47 89 30 47 89 30 47 89 30 47 89 30 47 89 30 47 89 30
47 89 30 47 89 30 47 89 30 48 89 30 48 89 30 48 89 30 48 89 30 48 89
30 48 89 30 48 89 30 48 89 30 47 89 30 47 89 30 47 89 30 47 89 30 47
89 30 47 89 30 47 88 30 47 88 30 47 88 30 47 88 30 47 88 30 47 88 30
47 88 30 47 88 30 47 88 30 47 88 30 47 87 30 47 87 30 47 87 30 47 87
30 47 87 30 47 87 30 47 87 30 47 87 30 47 86 30 47 86 30 47 86 30 47
86 30 47 86 30 47 86 30 46 85 30 46 85 30 46 85 30 46 85 30 46 85 30
46 85 30 46 84 30 46 84 30 46 84 30 46 84 30 46 84 30 46 83 30 46 83
30 46 83 30 46 83 30 45 83 30 45 82 30 45 82 30 45 82 30 45 82 30 45
82 30 45 81 30 45 81 30 45 81 30 45 81 30 45 80 30 45 80 30 45 80 30
44 80 30 44 80 30 44 79 30 44 79 30 44 79 30 44 79 30 44 78 30 44 78
30 44 78 30 44 78 30 44 77 30 43 77 30 43 77 30 43 77 30 43 77 30 43
76 30 43 76 30 43 76 30 43 76 30 43 75 30 43 75 30 43 75 30 43 75 30
42 74 30 42 74 30 42 74 30 42 74 30 42 73 30 42 73 30 42 73 30 42 73
30 42 72 30 42 72 30 42 72 30 41 72 30 41 72 30 41 71 31 41 71 31 41
71 31 41 71 31 41 70 31 41 70 31 41 70 31 41 70 31 41 69 31 41 69 31
40 69 31 40 69 31 40 69 31 40 68 31 40 68 31 40 68 31 40 68 31 40 67
31 40 67 31 40 67 31 40 67 31 40 67 31 40 66 31 39 66 31 39 66 31 39
66 31 39 65 31 39 65 31 39 65 31 39 65 31 39 65 31 39 64 31 39 64 31
39 64 31 39 64 32 39 64 32 38 63 32 38 63 32 38 63 32 38 63 32 38 63
32 38 62 32 38 62 32 38 62 32 38 62 32 38 62 32 38 61 32 38 61 32 38
61 32 38 61 32 37 61 32 37 60 32 37 60 32 37 60 32 37 60 32 37 60 32
37 59 32 37 59 32 37 59 32 37 59 32 37 59 32 37 59 32 37 58 32 36 58
32 36 58 32 36 58 32 36 58 32 36 57 32 36 57 32 36 57 32 36 57 32 36
57 32 36 57 32 36 56 32 36 56 32 36 56 32 36 56 32 35 56 32 35 56 32
35 55 32 35 55 32 35 55 32 35 55 32 35 55 32 35 55 32 35 54 32 35 54
32 35 54 32 35 54 31 34 54 31 34 54 31 34 54 31 34 53 31 34 53 31 34
53 31 34 53 31 34 53 31 34 53 31 34 52 31 34 52 31 34 52 31 33 52 31
33 52 31 33 52 31 33 52 31 33 51 31 33 51 31 33 51 31 33 51 30 33 51
30 33 51 30 33 51 30 33 50 30 32 50 30 32 50 30 32 50 30 32 50 30 32
50 30 32 50 30 32 49 30 32 49 30 32 49 30 32 49 29 32 49 29 32 49 29
31 49 29 31 49 29 31 48 29 31 48 29 31 48 29 31 48 29 31 48 29 31 48
29 31 48 29 31 47 28 31 47 28 30 47 28 30 47 28 30 47 28 30 47 28 30
47 28 30 47 28 30 46 28 30 46 28 30 46 28 30 46 27 30 46 27 30 46 27
29 46 27 29 46 27 29 46 27 29 45 27 29 45 27 29 45 27 29 45 27 29 45
27 29 45 27
34 65 23 35 66 23 35 66 23 35 66 23 35 66 23 35 67 23 35 67 24 35 67
24 35 67 24 36 67 24 36 68 24 36 68 24 36 68 24 36 68 24 36 69 24 36
69 24 36 69 24 36 69 24 37 70 24 37 70 24 37 70 25 37 70 25 37 71 25
37 71 25 37 71 25 37 71 25 38 71 25 38 72 25 38 72 25 38 72 25 38 72
25 38 73 25 38 73 25 38 73 25 39 73 26 39 74 26 39 74 26 39 74 26 39
74 26 39 75 26 39 75 26 39 75 26 39 75 26 40 76 26 40 76 26 40 76 26
40 76 26 40 77 26 40 77 27 40 77 27 40 77 27 41 77 27 41 78 27 41 78
27 41 78 27 41 78 27 41 79 27 41 79 27 41 79 27 42 79 27 42 79 27 42
80 27 42 80 27 42 80 27 42 80 28 42 81 28 42 81 28 42 81 28 43 81 28
43 81 28 43 82 28 43 82 28 43 82 28 43 82 28 43 82 28 43 83 28 43 83
28 44 83 28 44 83 28 44 83 28 44 84 28 44 84 28 44 84 28 44 84 28 44
84 28 44 84 29 44 85 29 44 85 29 45 85 29 45 85 29 45 85 29 45 85 29
45 86 29 45 86 29 45 86 29 45 86 29 45 86 29 45 86 29 45 86 29 45 86
29 46 87 29 46 87 29 46 87 29 46 87 29 46 87 29 46 87 29 46 87 29 46
87 29 46 87 29 46 88 29 46 88 29 46 88 29 46 88 29 46 88 29 46 88 29
46 88 29 47 88 29 47 88 29 47 88 29 47 88 29 47 88 29 47 88 29 47 88
29 47 89 29 47 89 29 47 89 29 47 89 29 47 89 29 47 89 29 47 89 29 47
89 29 47 89 29 47 89 30 47 89 30 47 89 30 47 89 30 47 89 30 47 89 30
47 89 30 47 89 30 47 89 30 47 89 30 47 89 30 47 89 30 47 89 30 47 88
30 47 88 30 47 88 30 47 88 30 47 88 30 47 88 30 47 88 30 47 88 30 47
88 30 47 88 30 47 88 30 47 88 30 47 88 30 47 88 30 47 87 30 47 87 30
47 87 30 47 87 30 47 87 30 47 87 30 47 87 30 47 87 30 47 87 30 47 86
30 47 86 30 47 86 30 47 86 30 47 86 30 46 86 30 46 86 30 46 85 30 46
85 30 46 85 30 46 85 30 46 85 30 46 85 30 46 85 30 46 84 30 46 84 30
46 84 30 46 84 30 46 84 30 46 83 30 46 83 30 46 83 30 45 83 30 45 83
30 45 82 30 45 82 30 45 82 30 45 82 30 45 82 30 45 81 30 45 81 30 45
81 30 45 81 30 45 81 30 45 80 30 45 80 30 44 80 30 44 80 30 44 80 30
44 79 30 44 79 30 44 79 30 44 79 30 44 78 30 44 78 30 44 78 30 44 78
30 44 78 30 43 77 30 43 77 30 43 77 30 43 77 30 43 76 30 43 76 30 43
76 30 43 76 30 43 76 30 43 75 30 43 75 30 43 75 30 42 75 30 42 74 30
42 74 30 42 74 30 42 74 30 42 73 30 42 73 30 42 73 30 42 73 30 42 72
30 42 72 30 41 72 30 41 72 30 41 72 30 41 71 30 41 71 30 41 71 30 41
71 30 41 70 30 41 70 30 41 70 31 41 70 31 41 70 31 41 69 31 40 69 31
40 69 31 40 69 31 40 68 31 40 68 31 40 68 31 40 68 31 40 68 31 40 67
31 40 67 31 40 67 31 40 67 31 39 66 31 39 66 31 39 66 31 39 66 31 39
66 31 39 65 31 39 65 31 39 65 31 39 65 31 39 65 31 39 64 31 39 64 31
39 64 31 39 64 31 38 64 31 38 63 31 38 63 31 38 63 31 38 63 31 38 63
31 38 62 31 38 62 32 38 62 32 38 62 32 38 62 32 38 61 32 38 61 32 37
61 32 37 61 32 37 61 32 37 60 32 37 60 32 37 60 32 37 60 32 37 60 32
37 59 32 37 59 32 37 59 32 37 59 32 37 59 32 37 59 32 36 58 32 36 58
32 36 58 32 36 58 32 36 58 32 36 58 32 36 57 32 36 57 32 36 57 32 36
57 32 36 57 32 36 57 32 36 56 32 36 56 32 35 56 32 35 56 32 35 56 32
35 56 32 35 55 32 35 55 32 35 55 32 35 55 31 35 55 31 35 55 31 35 54
31 35 54 31 35 54 31 34 54 31 34 54 31 34 54 31 34 53 31 34 53 31 34
53 31 34 53 31 34 53 31 34 53 31 34 53 31 34 52 31 34 52 31 33 52 31
33 52 31 33 52 31 33 52 31 33 52 31 33 51 30 33 51 30 33 51 30 33 51
30 33 51 30 33 51 30 33 51 30 32 50 30 32 50 30 32 50 30 32 50 30 32
50 30 32 50 30 32 50 30 32 49 30 32 49 29 32 49 29 32 49 29 32 49 29
31 49 29 31 49 29 31 49 29 31 48 29 31 48 29 31 48 29 31 48 29 31 48
29 31 48 29 31 48 28 31 47 28 31 47 28 30 47 28 30 47 28 30 47 28 30
47 28 30 47 28 30 47 28 30 47 28 30 46 28 30 46 28 30 46 27 30 46 27
30 46 27 29 46 27 29 46 27 29 46 27 29 45 27 29 45 27 29 45 27 29 45
27 29 45 27
35 66 23 35 66 23 35 66 23 35 66 23 35 67 23 35 67 24 35 67 24 35 67
24 35 67 24 36 68 24 36 68 24 36 68 24 36 68 24 36 69 24 36 69 24 36
69 24 36 69 24 37 69 24 37 70 24 37 70 25 37 70 25 37 70 25 37 71 25
37 71 25 37 71 25 37 71 25 38 72 25 38 72 25 38 72 25 38 72 25 38 73
25 38 73 25 38 73 25 38 73 26 39 73 26 39 74 26 39 74 26 39 74 26 39
74 26 39 75 26 39 75 26 39 75 26 40 75 26 40 76 26 40 76 26 40 76 26
40 76 26 40 76 26 40 77 27 40 77 27 40 77 27 41 77 27 41 78 27 41 78
27 41 78 27 41 78 27 41 78 27 41 79 27 41 79 27 41 79 27 42 79 27 42
80 27 42 80 27 42 80 27 42 80 27 42 80 28 42 81 28 42 81 28 42 81 28
43 81 28 43 81 28 43 82 28 43 82 28 43 82 28 43 82 28 43 82 28 43 83
28 43 83 28 43 83 28 44 83 28 44 83 28 44 83 28 44 84 28 44 84 28 44
84 28 44 84 28 44 84 28 44 84 29 44 85 29 44 85 29 45 85 29 45 85 29
45 85 29 45 85 29 45 85 29 45 86 29 45 86 29 45 86 29 45 86 29 45 86
29 45 86 29 45 86 29 45 86 29 46 86 29 46 87 29 46 87 29 46 87 29 46
87 29 46 87 29 46 87 29 46 87 29 46 87 29 46 87 29 46 87 29 46 87 29
46 88 29 46 88 29 46 88 29 46 88 29 46 88 29 46 88 29 46 88 29 47 88
29 47 88 29 47 88 29 47 88 29 47 88 29 47 88 29 47 88 29 47 88 29 47
88 29 47 88 29 47 88 29 47 88 29 47 88 29 47 88 29 47 88 29 47 88 29
47 88 29 47 88 29 47 88 29 47 88 29 47 88 29 47 88 29 47 88 29 47 88
29 47 88 29 47 88 29 47 88 29 47 88 29 47 88 29 47 87 29 47 87 29 47
87 29 47 87 29 47 87 29 47 87 29 47 87 29 47 87 29 47 87 29 47 87 29
47 87 29 47 87 29 47 86 29 47 86 29 46 86 29 46 86 29 46 86 29 46 86
29 46 86 29 46 86 29 46 85 29 46 85 29 46 85 29 46 85 29 46 85 29 46
85 29 46 85 29 46 84 29 46 84 29 46 84 29 46 84 29 46 84 29 46 84 29
46 83 29 46 83 29 45 83 29 45 83 29 45 83 29 45 83 29 45 82 29 45 82
29 45 82 29 45 82 29 45 82 29 45 81 29 45 81 29 45 81 29 45 81 29 45
81 30 44 80 30 44 80 30 44 80 30 44 80 30 44 80 30 44 79 30 44 79 30
44 79 30 44 79 30 44 78 30 44 78 30 44 78 30 44 78 30 43 78 30 43 77
30 43 77 30 43 77 30 43 77 30 43 77 30 43 76 30 43 76 30 43 76 30 43
76 30 43 75 30 43 75 30 42 75 30 42 75 30 42 74 30 42 74 30 42 74 30
42 74 30 42 74 30 42 73 30 42 73 30 42 73 30 42 73 30 42 72 30 41 72
30 41 72 30 41 72 30 41 72 30 41 71 30 41 71 30 41 71 30 41 71 30 41
70 30 41 70 30 41 70 30 41 70 30 41 70 30 40 69 30 40 69 30 40 69 30
40 69 30 40 68 31 40 68 31 40 68 31 40 68 31 40 68 31 40 67 31 40 67
31 40 67 31 40 67 31 39 67 31 39 66 31 39 66 31 39 66 31 39 66 31 39
65 31 39 65 31 39 65 31 39 65 31 39 65 31 39 64 31 39 64 31 39 64 31
38 64 31 38 64 31 38 63 31 38 63 31 38 63 31 38 63 31 38 63 31 38 62
31 38 62 31 38 62 31 38 62 31 38 62 31 38 62 31 38 61 31 37 61 31 37
61 31 37 61 31 37 61 31 37 60 31 37 60 31 37 60 31 37 60 31 37 60 32
37 59 32 37 59 32 37 59 32 37 59 32 37 59 32 36 59 32 36 58 32 36 58
32 36 58 32 36 58 32 36 58 32 36 58 32 36 57 32 36 57 32 36 57 32 36
57 32 36 57 32 36 57 31 36 56 31 35 56 31 35 56 31 35 56 31 35 56 31
35 56 31 35 55 31 35 55 31 35 55 31 35 55 31 35 55 31 35 55 31 35 54
31 35 54 31 34 54 31 34 54 31 34 54 31 34 54 31 34 54 31 34 53 31 34
53 31 34 53 31 34 53 31 34 53 31 34 53 31 34 52 31 34 52 31 33 52 31
33 52 31 33 52 31 33 52 30 33 52 30 33 51 30 33 51 30 33 51 30 33 51
30 33 51 30 33 51 30 33 51 30 32 51 30 32 50 30 32 50 30 32 50 30 32
50 30 32 50 30 32 50 30 32 50 29 32 49 29 32 49 29 32 49 29 32 49 29
31 49 29 31 49 29 31 49 29 31 49 29 31 48 29 31 48 29 31 48 29 31 48
29 31 48 29 31 48 28 31 48 28 31 48 28 30 47 28 30 47 28 30 47 28 30
47 28 30 47 28 30 47 28 30 47 28 30 47 28 30 46 28 30 46 27 30 46 27
30 46 27 30 46 27 29 46 27 29 46 27 29 46 27 29 45 27 29 45 27 29 45
27 29 45 27
35 66 23 35 66 23 35 66 23 35 66 23 35 67 24 35 67 24 35 67 24 35 67
24 36 68 24 36 68 24 36 68 24 36 68 24 36 68 24 36 69 24 36 69 24 36
69 24 36 69 24 37 70 24 37 70 24 37 70 25 37 70 25 37 71 25 37 71 25
37 71 25 37 71 25 38 71 25 38 72 25 38 72 25 38 72 25 38 72 25 38 73
25 38 73 25 38 73 25 38 73 26 39 73 26 39 74 26 39 74 26 39 74 26 39
74 26 39 75 26 39 75 26 39 75 26 40 75 26 40 76 26 40 76 26 40 76 26
40 76 26 40 76 26 40 77 26 40 77 27 40 77 27 41 77 27 41 78 27 41 78
27 41 78 27 41 78 27 41 78 27 41 79 27 41 79 27 41 79 27 42 79 27 42
79 27 42 80 27 42 80 27 42 80 27 42 80 27 42 80 28 42 81 28 42 81 28
42 81 28 43 81 28 43 81 28 43 82 28 43 82 28 43 82 28 43 82 28 43 82
28 43 82 28 43 83 28 43 83 28 44 83 28 44 83 28 44 83 28 44 83 28 44
84 28 44 84 28 44 84 28 44 84 28 44 84 28 44 84 28 44 84 29 44 85 29
45 85 29 45 85 29 45 85 29 45 85 29 45 85 29 45 85 29 45 85 29 45 86
29 45 86 29 45 86 29 45 86 29 45 86 29 45 86 29 45 86 29 45 86 29 46
86 29 46 86 29 46 87 29 46 87 29 46 87 29 46 87 29 46 87 29 46 87 29
46 87 29 46 87 29 46 87 29 46 87 29 46 87 29 46 87 29 46 87 29 46 87
29 46 87 29 46 87 29 46 87 29 46 87 29 46 87 29 46 87 29 46 87 29 46
87 29 46 87 29 46 87 29 47 87 29 47 87 29 47 87 29 47 87 29 47 87 29
47 87 29 47 87 29 47 87 29 47 87 29 47 87 29 47 87 29 47 87 29 47 87
29 47 87 29 47 87 29 47 87 29 47 87 29 47 87 29 47 87 29 47 87 29 46
87 29 46 87 29 46 87 29 46 86 29 46 86 29 46 86 29 46 86 29 46 86 29
46 86 29 46 86 29 46 86 29 46 86 29 46 86 29 46 85 29 46 85 29 46 85
29 46 85 29 46 85 29 46 85 29 46 85 29 46 85 29 46 84 29 46 84 29 46
84 29 46 84 29 46 84 29 46 84 29 46 83 29 45 83 29 45 83 29 45 83 29
45 83 29 45 83 29 45 83 29 45 82 29 45 82 29 45 82 29 45 82 29 45 82
29 45 81 29 45 81 29 45 81 29 45 81 29 45 81 29 44 80 29 44 80 29 44
80 29 44 80 29 44 80 29 44 80 29 44 79 29 44 79 29 44 79 29 44 79 29
44 78 29 44 78 29 44 78 29 43 78 29 43 78 30 43 77 30 43 77 30 43 77
30 43 77 30 43 77 30 43 76 30 43 76 30 43 76 30 43 76 30 43 75 30 43
75 30 42 75 30 42 75 30 42 75 30 42 74 30 42 74 30 42 74 30 42 74 30
42 74 30 42 73 30 42 73 30 42 73 30 42 73 30 41 72 30 41 72 30 41 72
30 41 72 30 41 72 30 41 71 30 41 71 30 41 71 30 41 71 30 41 70 30 41
70 30 41 70 30 41 70 30 40 70 30 40 69 30 40 69 30 40 69 30 40 69 30
40 69 30 40 68 30 40 68 30 40 68 30 40 68 30 40 67 30 40 67 30 40 67
31 39 67 31 39 67 31 39 66 31 39 66 31 39 66 31 39 66 31 39 66 31 39
65 31 39 65 31 39 65 31 39 65 31 39 65 31 39 64 31 39 64 31 38 64 31
38 64 31 38 64 31 38 63 31 38 63 31 38 63 31 38 63 31 38 63 31 38 62
31 38 62 31 38 62 31 38 62 31 38 62 31 38 61 31 37 61 31 37 61 31 37
61 31 37 61 31 37 61 31 37 60 31 37 60 31 37 60 31 37 60 31 37 60 31
37 59 31 37 59 31 37 59 31 37 59 31 36 59 31 36 59 31 36 58 31 36 58
31 36 58 31 36 58 31 36 58 31 36 58 31 36 57 31 36 57 31 36 57 31 36
57 31 36 57 31 36 57 31 35 56 31 35 56 31 35 56 31 35 56 31 35 56 31
35 56 31 35 55 31 35 55 31 35 55 31 35 55 31 35 55 31 35 55 31 35 55
31 35 54 31 34 54 31 34 54 31 34 54 31 34 54 31 34 54 31 34 53 31 34
53 31 34 53 31 34 53 31 34 53 31 34 53 31 34 53 31 34 52 31 33 52 31
33 52 30 33 52 30 33 52 30 33 52 30 33 52 30 33 51 30 33 51 30 33 51
30 33 51 30 33 51 30 33 51 30 32 51 30 32 50 30 32 50 30 32 50 30 32
50 30 32 50 30 32 50 29 32 50 29 32 50 29 32 49 29 32 49 29 32 49 29
32 49 29 31 49 29 31 49 29 31 49 29 31 49 29 31 48 29 31 48 29 31 48
29 31 48 28 31 48 28 31 48 28 31 48 28 31 48 28 30 47 28 30 47 28 30
47 28 30 47 28 30 47 28 30 47 28 30 47 28 30 47 28 30 46 27 30 46 27
30 46 27 30 46 27 29 46 27 29 46 27 29 46 27 29 46 27 29 46 27 29 45
27 29 45 27
35 66 23 35 66 23 35 66 23 35 67 24 35 67 24 35 67 24 35 67 24 36 68
24 36 68 24 36 68 24 36 68 24 36 68 24 36 69 24 36 69 24 36 69 24 36
69 24 37 70 24 37 70 24 37 70 25 37 70 25 37 70 25 37 71 25 37 71 25
37 71 25 37 71 25 38 72 25 38 72 25 38 72 25 38 72 25 38 72 25 38 73
25 38 73 25 38 73 25 38 73 26 39 74 26 39 74 26 39 74 26 39 74 26 39
74 26 39 75 26 39 75 26 39 75 26 40 75 26 40 75 26 40 76 26 40 76 26
40 76 26 40 76 26 40 77 26 40 77 27 40 77 27 41 77 27 41 77 27 41 78
27 41 78 27 41 78 27 41 78 27 41 78 27 41 79 27 41 79 27 41 79 27 42
79 27 42 79 27 42 80 27 42 80 27 42 80 27 42 80 27 42 80 27 42 81 28
42 81 28 42 81 28 43 81 28 43 81 28 43 81 28 43 82 28 43 82 28 43 82
28 43 82 28 43 82 28 43 82 28 43 83 28 43 83 28 44 83 28 44 83 28 44
83 28 44 83 28 44 83 28 44 84 28 44 84 28 44 84 28 44 84 28 44 84 28
44 84 28 44 84 29 45 85 29 45 85 29 45 85 29 45 85 29 45 85 29 45 85
29 45 85 29 45 85 29 45 85 29 45 86 29 45 86 29 45 86 29 45 86 29 45
86 29 45 86 29 45 86 29 45 86 29 46 86 29 46 86 29 46 86 29 46 86 29
46 86 29 46 86 29 46 87 29 46 87 29 46 87 29 46 87 29 46 87 29 46 87
29 46 87 29 46 87 29 46 87 29 46 87 29 46 87 29 46 87 29 46 87 29 46
87 29 46 87 29 46 87 29 46 87 29 46 87 29 46 87 29 46 87 29 46 87 29
46 87 29 46 87 29 46 87 29 46 87 29 46 87 29 46 87 29 46 87 29 46 87
29 46 86 29 46 86 29 46 86 29 46 86 29 46 86 29 46 86 29 46 86 29 46
86 29 46 86 29 46 86 29 46 86 29 46 86 29 46 86 29 46 86 29 46 85 29
46 85 29 46 85 29 46 85 29 46 85 29 46 85 29 46 85 29 46 85 29 46 85
29 46 84 29 46 84 29 46 84 29 46 84 29 46 84 29 46 84 29 45 84 29 45
84 29 45 83 29 45 83 29 45 83 29 45 83 29 45 83 29 45 83 29 45 82 29
45 82 29 45 82 29 45 82 29 45 82 29 45 82 29 45 81 29 45 81 29 45 81
29 45 81 29 44 81 29 44 81 29 44 80 29 44 80 29 44 80 29 44 80 29 44
80 29 44 79 29 44 79 29 44 79 29 44 79 29 44 79 29 44 78 29 44 78 29
43 78 29 43 78 29 43 78 29 43 77 29 43 77 29 43 77 29 43 77 29 43 77
29 43 76 29 43 76 29 43 76 29 43 76 29 43 76 29 42 75 30 42 75 30 42
75 30 42 75 30 42 74 30 42 74 30 42 74 30 42 74 30 42 74 30 42 73 30
42 73 30 42 73 30 42 73 30 41 73 30 41 72 30 41 72 30 41 72 30 41 72
30 41 72 30 41 71 30 41 71 30 41 71 30 41 71 30 41 70 30 41 70 30 41
70 30 40 70 30 40 70 30 40 69 30 40 69 30 40 69 30 40 69 30 40 69 30
40 68 30 40 68 30 40 68 30 40 68 30 40 67 30 40 67 30 39 67 30 39 67
30 39 67 30 39 66 30 39 66 30 39 66 30 39 66 30 39 66 30 39 65 31 39
65 31 39 65 31 39 65 31 39 65 31 39 64 31 38 64 31 38 64 31 38 64 31
38 64 31 38 64 31 38 63 31 38 63 31 38 63 31 38 63 31 38 63 31 38 62
31 38 62 31 38 62 31 38 62 31 37 62 31 37 61 31 37 61 31 37 61 31 37
61 31 37 61 31 37 61 31 37 60 31 37 60 31 37 60 31 37 60 31 37 60 31
37 59 31 37 59 31 37 59 31 36 59 31 36 59 31 36 59 31 36 58 31 36 58
31 36 58 31 36 58 31 36 58 31 36 58 31 36 57 31 36 57 31 36 57 31 36
57 31 36 57 31 35 57 31 35 56 31 35 56 31 35 56 31 35 56 31 35 56 31
35 56 31 35 56 31 35 55 31 35 55 31 35 55 31 35 55 31 35 55 31 35 55
31 34 54 31 34 54 31 34 54 31 34 54 31 34 54 31 34 54 31 34 54 31 34
53 31 34 53 31 34 53 31 34 53 31 34 53 30 34 53 30 34 53 30 33 52 30
33 52 30 33 52 30 33 52 30 33 52 30 33 52 30 33 52 30 33 51 30 33 51
30 33 51 30 33 51 30 33 51 30 32 51 30 32 51 30 32 50 30 32 50 30 32
50 30 32 50 29 32 50 29 32 50 29 32 50 29 32 50 29 32 49 29 32 49 29
32 49 29 31 49 29 31 49 29 31 49 29 31 49 29 31 49 29 31 48 29 31 48
29 31 48 28 31 48 28 31 48 28 31 48 28 31 48 28 31 48 28 30 47 28 30
47 28 30 47 28 30 47 28 30 47 28 30 47 28 30 47 28 30 47 27 30 46 27
30 46 27 30 46 27 30 46 27 29 46 27 29 46 27 29 46 27 29 46 27 29 46
27 29 45 27
35 66 23 35 66 23 35 67 24 35 67 24 35 67 24 35 67 24 36 67 24 36 68
24 36 68 24 36 68 24 36 68 24 36 69 24 36 69 24 36 69 24 36 69 24 37
69 24 37 70 24 37 70 24 37 70 25 37 70 25 37 70 25 37 71 25 37 71 25
37 71 25 37 71 25 38 72 25 38 72 25 38 72 25 38 72 25 38 72 25 38 73
25 38 73 25 38 73 25 38 73 26 39 74 26 39 74 26 39 74 26 39 74 26 39
74 26 39 75 26 39 75 26 39 75 26 39 75 26 40 75 26 40 76 26 40 76 26
40 76 26 40 76 26 40 76 26 40 77 26 40 77 27 40 77 27 41 77 27 41 77
27 41 78 27 41 78 27 41 78 27 41 78 27 41 78 27 41 79 27 41 79 27 41
79 27 42 79 27 42 79 27 42 80 27 42 80 27 42 80 27 42 80 27 42 80 27
42 80 28 42 81 28 42 81 28 43 81 28 43 81 28 43 81 28 43 81 28 43 82
28 43 82 28 43 82 28 43 82 28 43 82 28 43 82 28 43 83 28 43 83 28 44
83 28 44 83 28 44 83 28 44 83 28 44 83 28 44 84 28 44 84 28 44 84 28
44 84 28 44 84 28 44 84 28 44 84 28 44 84 28 45 84 29 45 85 29 45 85
29 45 85 29 45 85 29 45 85 29 45 85 29 45 85 29 45 85 29 45 85 29 45
85 29 45 85 29 45 85 29 45 86 29 45 86 29 45 86 29 45 86 29 45 86 29
45 86 29 45 86 29 46 86 29 46 86 29 46 86 29 46 86 29 46 86 29 46 86
29 46 86 29 46 86 29 46 86 29 46 86 29 46 86 29 46 86 29 46 86 29 46
86 29 46 86 29 46 86 29 46 86 29 46 86 29 46 86 29 46 86 29 46 86 29
46 86 29 46 86 29 46 86 29 46 86 29 46 86 29 46 86 29 46 86 29 46 86
29 46 86 29 46 86 29 46 86 29 46 86 29 46 86 29 46 86 29 46 85 29 46
85 29 46 85 29 46 85 29 46 85 29 46 85 29 46 85 29 46 85 29 46 85 29
46 85 29 46 85 29 46 85 29 46 84 29 46 84 29 46 84 29 46 84 29 45 84
29 45 84 29 45 84 29 45 84 29 45 83 29 45 83 29 45 83 29 45 83 29 45
83 29 45 83 29 45 83 29 45 82 29 45 82 29 45 82 29 45 82 29 45 82 29
45 82 29 45 82 29 45 81 29 45 81 29 44 81 29 44 81 29 44 81 29 44 81
29 44 80 29 44 80 29 44 80 29 44 80 29 44 80 29 44 80 29 44 79 29 44
79 29 44 79 29 44 79 29 44 79 29 44 78 29 43 78 29 43 78 29 43 78 29
43 78 29 43 77 29 43 77 29 43 77 29 43 77 29 43 77 29 43 76 29 43 76
29 43 76 29 43 76 29 43 76 29 42 75 29 42 75 29 42 75 29 42 75 29 42
75 29 42 74 29 42 74 29 42 74 29 42 74 29 42 74 29 42 73 30 42 73 30
42 73 30 41 73 30 41 72 30 41 72 30 41 72 30 41 72 30 41 72 30 41 71
30 41 71 30 41 71 30 41 71 30 41 71 30 41 70 30 41 70 30 40 70 30 40
70 30 40 70 30 40 69 30 40 69 30 40 69 30 40 69 30 40 69 30 40 68 30
40 68 30 40 68 30 40 68 30 40 68 30 39 67 30 39 67 30 39 67 30 39 67
30 39 67 30 39 66 30 39 66 30 39 66 30 39 66 30 39 66 30 39 65 30 39
65 30 39 65 30 39 65 30 38 65 30 38 64 30 38 64 30 38 64 31 38 64 31
38 64 31 38 63 31 38 63 31 38 63 31 38 63 31 38 63 31 38 62 31 38 62
31 38 62 31 38 62 31 37 62 31 37 62 31 37 61 31 37 61 31 37 61 31 37
61 31 37 61 31 37 61 31 37 60 31 37 60 31 37 60 31 37 60 31 37 60 31
37 59 31 37 59 31 36 59 31 36 59 31 36 59 31 36 59 31 36 58 31 36 58
31 36 58 31 36 58 31 36 58 31 36 58 31 36 57 31 36 57 31 36 57 31 36
57 31 35 57 31 35 57 31 35 56 31 35 56 31 35 56 31 35 56 31 35 56 31
35 56 31 35 56 31 35 55 31 35 55 31 35 55 31 35 55 31 35 55 31 35 55
31 34 54 31 34 54 31 34 54 31 34 54 31 34 54 31 34 54 31 34 54 31 34
53 30 34 53 30 34 53 30 34 53 30 34 53 30 34 53 30 33 53 30 33 52 30
33 52 30 33 52 30 33 52 30 33 52 30 33 52 30 33 52 30 33 51 30 33 51
30 33 51 30 33 51 30 33 51 30 32 51 30 32 51 30 32 51 30 32 50 29 32
50 29 32 50 29 32 50 29 32 50 29 32 50 29 32 50 29 32 49 29 32 49 29
32 49 29 31 49 29 31 49 29 31 49 29 31 49 29 31 49 29 31 48 29 31 48
28 31 48 28 31 48 28 31 48 28 31 48 28 31 48 28 31 48 28 30 48 28 30
47 28 30 47 28 30 47 28 30 47 28 30 47 28 30 47 28 30 47 27 30 47 27
30 46 27 30 46 27 30 46 27 30 46 27 29 46 27 29 46 27 29 46 27 29 46
27 29 46 27
35 66 23 35 67 24 35 67 24 35 67 24 35 67 24 35 67 24 36 68 24 36 68
24 36 68 24 36 68 24 36 68 24 36 69 24 36 69 24 36 69 24 36 69 24 37
69 24 37 70 24 37 70 25 37 70 25 37 70 25 37 71 25 37 71 25 37 71 25
37 71 25 38 71 25 38 72 25 38 72 25 38 72 25 38 72 25 38 72 25 38 73
25 38 73 25 38 73 25 39 73 26 39 73 26 39 74 26 39 74 26 39 74 26 39
74 26 39 75 26 39 75 26 39 75 26 39 75 26 40 75 26 40 76 26 40 76 26
40 76 26 40 76 26 40 76 26 40 77 26 40 77 27 40 77 27 41 77 27 41 77
27 41 78 27 41 78 27 41 78 27 41 78 27 41 78 27 41 78 27 41 79 27 41
79 27 41 79 27 42 79 27 42 79 27 42 80 27 42 80 27 42 80 27 42 80 27
42 80 27 42 80 27 42 81 28 42 81 28 42 81 28 43 81 28 43 81 28 43 81
28 43 81 28 43 82 28 43 82 28 43 82 28 43 82 28 43 82 28 43 82 28 43
82 28 43 83 28 44 83 28 44 83 28 44 83 28 44 83 28 44 83 28 44 83 28
44 83 28 44 84 28 44 84 28 44 84 28 44 84 28 44 84 28 44 84 28 44 84
28 44 84 28 45 84 28 45 84 29 45 85 29 45 85 29 45 85 29 45 85 29 45
85 29 45 85 29 45 85 29 45 85 29 45 85 29 45 85 29 45 85 29 45 85 29
45 85 29 45 85 29 45 85 29 45 85 29 45 85 29 45 86 29 45 86 29 45 86
29 45 86 29 45 86 29 45 86 29 46 86 29 46 86 29 46 86 29 46 86 29 46
86 29 46 86 29 46 86 29 46 86 29 46 86 29 46 86 29 46 86 29 46 86 29
46 86 29 46 86 29 46 85 29 46 85 29 46 85 29 46 85 29 46 85 29 46 85
29 46 85 29 46 85 29 46 85 29 46 85 29 46 85 29 46 85 29 46 85 29 46
85 29 46 85 29 46 85 29 46 85 29 45 84 29 45 84 29 45 84 29 45 84 29
45 84 29 45 84 29 45 84 29 45 84 29 45 84 29 45 84 29 45 83 29 45 83
29 45 83 29 45 83 29 45 83 29 45 83 29 45 83 29 45 83 29 45 82 29 45
82 29 45 82 29 45 82 29 45 82 29 45 82 29 45 82 29 45 81 29 44 81 29
44 81 29 44 81 29 44 81 29 44 81 29 44 81 29 44 80 29 44 80 29 44 80
29 44 80 29 44 80 29 44 80 29 44 79 29 44 79 29 44 79 29 44 79 29 44
79 29 43 78 29 43 78 29 43 78 29 43 78 29 43 78 29 43 78 29 43 77 29
43 77 29 43 77 29 43 77 29 43 77 29 43 76 29 43 76 29 43 76 29 43 76
29 42 76 29 42 75 29 42 75 29 42 75 29 42 75 29 42 75 29 42 74 29 42
74 29 42 74 29 42 74 29 42 74 29 42 73 29 42 73 29 41 73 29 41 73 29
41 73 29 41 72 29 41 72 29 41 72 29 41 72 29 41 72 30 41 71 30 41 71
30 41 71 30 41 71 30 41 71 30 41 70 30 40 70 30 40 70 30 40 70 30 40
70 30 40 69 30 40 69 30 40 69 30 40 69 30 40 69 30 40 68 30 40 68 30
40 68 30 40 68 30 39 68 30 39 67 30 39 67 30 39 67 30 39 67 30 39 67
30 39 66 30 39 66 30 39 66 30 39 66 30 39 66 30 39 65 30 39 65 30 39
65 30 39 65 30 38 65 30 38 64 30 38 64 30 38 64 30 38 64 30 38 64 30
38 64 30 38 63 30 38 63 30 38 63 30 38 63 30 38 63 30 38 62 30 38 62
31 37 62 31 37 62 31 37 62 31 37 62 31 37 61 31 37 61 31 37 61 31 37
61 31 37 61 31 37 60 31 37 60 31 37 60 31 37 60 31 37 60 31 37 60 31
36 59 31 36 59 31 36 59 31 36 59 31 36 59 31 36 59 31 36 58 31 36 58
31 36 58 31 36 58 31 36 58 31 36 58 31 36 57 31 36 57 31 36 57 31 35
57 31 35 57 31 35 57 31 35 57 31 35 56 31 35 56 31 35 56 31 35 56 31
35 56 31 35 56 31 35 55 31 35 55 31 35 55 31 35 55 31 35 55 31 34 55
31 34 55 31 34 54 31 34 54 30 34 54 30 34 54 30 34 54 30 34 54 30 34
54 30 34 53 30 34 53 30 34 53 30 34 53 30 34 53 30 33 53 30 33 53 30
33 52 30 33 52 30 33 52 30 33 52 30 33 52 30 33 52 30 33 52 30 33 51
30 33 51 30 33 51 30 33 51 30 32 51 30 32 51 30 32 51 29 32 51 29 32
50 29 32 50 29 32 50 29 32 50 29 32 50 29 32 50 29 32 50 29 32 49 29
32 49 29 32 49 29 31 49 29 31 49 29 31 49 29 31 49 29 31 49 29 31 48
28 31 48 28 31 48 28 31 48 28 31 48 28 31 48 28 31 48 28 31 48 28 30
48 28 30 47 28 30 47 28 30 47 28 30 47 28 30 47 28 30 47 27 30 47 27
30 47 27 30 47 27 30 46 27 30 46 27 30 46 27 29 46 27 29 46 27 29 46
27 29 46 27
35 66 23 35 67 24 35 67 24 35 67 24 35 67 24 36 67 24 36 68 24 36 68
24 36 68 24 36 68 24 36 68 24 36 69 24 36 69 24 36 69 24 36 69 24 37
70 24 37 70 24 37 70 25 37 70 25 37 70 25 37 71 25 37 71 25 37 71 25
37 71 25 38 71 25 38 72 25 38 72 25 38 72 25 38 72 25 38 72 25 38 73
25 38 73 25 38 73 25 38 73 26 39 73 26 39 74 26 39 74 26 39 74 26 39
74 26 39 74 26 39 75 26 39 75 26 39 75 26 40 75 26 40 75 26 40 76 26
40 76 26 40 76 26 40 76 26 40 76 26 40 77 26 40 77 27 40 77 27 41 77
27 41 77 27 41 78 27 41 78 27 41 78 27 41 78 27 41 78 27 41 78 27 41
79 27 41 79 27 41 79 27 42 79 27 42 79 27 42 79 27 42 80 27 42 80 27
42 80 27 42 80 27 42 80 27 42 80 27 42 81 28 42 81 28 43 81 28 43 81
28 43 81 28 43 81 28 43 81 28 43 82 28 43 82 28 43 82 28 43 82 28 43
82 28 43 82 28 43 82 28 43 82 28 44 83 28 44 83 28 44 83 28 44 83 28
44 83 28 44 83 28 44 83 28 44 83 28 44 83 28 44 84 28 44 84 28 44 84
28 44 84 28 44 84 28 44 84 28 44 84 28 44 84 28 45 84 28 45 84 28 45
84 28 45 84 28 45 84 29 45 85 29 45 85 29 45 85 29 45 85 29 45 85 29
45 85 29 45 85 29 45 85 29 45 85 29 45 85 29 45 85 29 45 85 29 45 85
29 45 85 29 45 85 29 45 85 29 45 85 29 45 85 29 45 85 29 45 85 29 45
85 29 45 85 29 45 85 29 45 85 29 45 85 29 45 85 29 45 85 29 45 85 29
45 85 29 45 85 29 45 85 29 45 85 29 45 85 29 45 85 29 45 85 29 45 85
29 45 85 29 45 85 29 45 85 29 45 84 29 45 84 29 45 84 29 45 84 29 45
84 29 45 84 29 45 84 29 45 84 29 45 84 29 45 84 29 45 84 29 45 84 29
45 84 29 45 83 29 45 83 29 45 83 29 45 83 29 45 83 29 45 83 29 45 83
29 45 83 29 45 83 29 45 82 29 45 82 29 45 82 29 45 82 29 45 82 29 45
82 29 45 82 29 44 82 29 44 81 29 44 81 29 44 81 29 44 81 29 44 81 29
44 81 29 44 81 29 44 80 29 44 80 29 44 80 29 44 80 29 44 80 29 44 80
29 44 79 29 44 79 29 44 79 29 44 79 29 43 79 29 43 79 29 43 78 29 43
78 29 43 78 29 43 78 29 43 78 29 43 77 29 43 77 29 43 77 29 43 77 29
43 77 29 43 77 29 43 76 29 43 76 29 42 76 29 42 76 29 42 76 29 42 75
29 42 75 29 42 75 29 42 75 29 42 75 29 42 74 29 42 74 29 42 74 29 42
74 29 42 74 29 42 73 29 42 73 29 41 73 29 41 73 29 41 73 29 41 73 29
41 72 29 41 72 29 41 72 29 41 72 29 41 72 29 41 71 29 41 71 29 41 71
29 41 71 29 40 71 29 40 70 29 40 70 29 40 70 30 40 70 30 40 70 30 40
69 30 40 69 30 40 69 30 40 69 30 40 69 30 40 68 30 40 68 30 40 68 30
39 68 30 39 68 30 39 67 30 39 67 30 39 67 30 39 67 30 39 67 30 39 66
30 39 66 30 39 66 30 39 66 30 39 66 30 39 65 30 39 65 30 39 65 30 38
65 30 38 65 30 38 65 30 38 64 30 38 64 30 38 64 30 38 64 30 38 64 30
38 63 30 38 63 30 38 63 30 38 63 30 38 63 30 38 63 30 38 62 30 37 62
30 37 62 30 37 62 30 37 62 30 37 61 30 37 61 30 37 61 30 37 61 30 37
61 30 37 61 30 37 60 30 37 60 30 37 60 30 37 60 31 37 60 31 36 60 31
36 59 31 36 59 31 36 59 31 36 59 31 36 59 31 36 59 31 36 58 31 36 58
31 36 58 31 36 58 31 36 58 31 36 58 31 36 57 31 36 57 31 35 57 31 35
57 31 35 57 31 35 57 31 35 57 31 35 56 31 35 56 31 35 56 31 35 56 31
35 56 30 35 56 30 35 55 30 35 55 30 35 55 30 35 55 30 34 55 30 34 55
30 34 55 30 34 54 30 34 54 30 34 54 30 34 54 30 34 54 30 34 54 30 34
54 30 34 53 30 34 53 30 34 53 30 34 53 30 33 53 30 33 53 30 33 53 30
33 52 30 33 52 30 33 52 30 33 52 30 33 52 30 33 52 30 33 52 30 33 52
30 33 51 30 33 51 30 33 51 29 32 51 29 32 51 29 32 51 29 32 51 29 32
50 29 32 50 29 32 50 29 32 50 29 32 50 29 32 50 29 32 50 29 32 50 29
32 49 29 32 49 29 31 49 29 31 49 29 31 49 29 31 49 29 31 49 28 31 49
28 31 48 28 31 48 28 31 48 28 31 48 28 31 48 28 31 48 28 31 48 28 30
48 28 30 48 28 30 47 28 30 47 28 30 47 28 30 47 28 30 47 27 30 47 27
30 47 27 30 47 27 30 47 27 30 46 27 30 46 27 29 46 27 29 46 27 29 46
27 29 46 27
35 67 24 35 67 24 35 67 24 35 67 24 35 67 24 36 68 24 36 68 24 36 68
24 36 68 24 36 68 24 36 69 24 36 69 24 36 69 24 36 69 24 37 69 24 37
70 24 37 70 24 37 70 25 37 70 25 37 70 25 37 71 25 37 71 25 37 71 25
37 71 25 38 71 25 38 72 25 38 72 25 38 72 25 38 72 25 38 72 25 38 73
25 38 73 25 38 73 25 38 73 26 39 73 26 39 74 26 39 74 26 39 74 26 39
74 26 39 74 26 39 75 26 39 75 26 39 75 26 39 75 26 40 75 26 40 76 26
40 76 26 40 76 26 40 76 26 40 76 26 40 76 26 40 77 26 40 77 27 40 77
27 41 77 27 41 77 27 41 78 27 41 78 27 41 78 27 41 78 27 41 78 27 41
78 27 41 79 27 41 79 27 41 79 27 42 79 27 42 79 27 42 79 27 42 79 27
42 80 27 42 80 27 42 80 27 42 80 27 42 80 27 42 80 27 42 81 28 42 81
28 43 81 28 43 81 28 43 81 28 43 81 28 43 81 28 43 81 28 43 82 28 43
82 28 43 82 28 43 82 28 43 82 28 43 82 28 43 82 28 43 82 28 44 82 28
44 83 28 44 83 28 44 83 28 44 83 28 44 83 28 44 83 28 44 83 28 44 83
28 44 83 28 44 83 28 44 83 28 44 84 28 44 84 28 44 84 28 44 84 28 44
84 28 44 84 28 44 84 28 44 84 28 45 84 28 45 84 28 45 84 28 45 84 28
45 84 28 45 84 28 45 84 28 45 84 28 45 84 29 45 84 29 45 84 29 45 84
29 45 84 29 45 84 29 45 84 29 45 84 29 45 84 29 45 84 29 45 84 29 45
84 29 45 84 29 45 84 29 45 84 29 45 84 29 45 84 29 45 84 29 45 84 29
45 84 29 45 84 29 45 84 29 45 84 29 45 84 29 45 84 29 45 84 29 45 84
29 45 84 29 45 84 29 45 84 29 45 84 29 45 84 29 45 84 29 45 84 29 45
84 29 45 84 29 45 83 29 45 83 29 45 83 29 45 83 29 45 83 29 45 83 29
45 83 29 45 83 29 45 83 29 45 83 29 45 83 29 45 82 29 45 82 29 45 82
29 45 82 29 45 82 29 44 82 29 44 82 29 44 82 29 44 81 29 44 81 29 44
81 29 44 81 29 44 81 29 44 81 29 44 81 29 44 81 29 44 80 29 44 80 29
44 80 29 44 80 29 44 80 29 44 80 29 44 80 29 44 79 29 44 79 29 44 79
29 43 79 29 43 79 29 43 79 29 43 78 29 43 78 29 43 78 29 43 78 29 43
78 29 43 78 29 43 77 29 43 77 29 43 77 29 43 77 29 43 77 29 43 77 29
43 76 29 42 76 29 42 76 29 42 76 29 42 76 29 42 75 29 42 75 29 42 75
29 42 75 29 42 75 29 42 74 29 42 74 29 42 74 29 42 74 29 42 74 29 42
74 29 41 73 29 41 73 29 41 73 29 41 73 29 41 73 29 41 72 29 41 72 29
41 72 29 41 72 29 41 72 29 41 71 29 41 71 29 41 71 29 41 71 29 40 71
29 40 70 29 40 70 29 40 70 29 40 70 29 40 70 29 40 70 29 40 69 29 40
69 29 40 69 29 40 69 29 40 69 29 40 68 29 40 68 30 39 68 30 39 68 30
39 68 30 39 67 30 39 67 30 39 67 30 39 67 30 39 67 30 39 66 30 39 66
30 39 66 30 39 66 30 39 66 30 39 66 30 39 65 30 38 65 30 38 65 30 38
65 30 38 65 30 38 64 30 38 64 30 38 64 30 38 64 30 38 64 30 38 64 30
38 63 30 38 63 30 38 63 30 38 63 30 38 63 30 37 62 30 37 62 30 37 62
30 37 62 30 37 62 30 37 62 30 37 61 30 37 61 30 37 61 30 37 61 30 37
61 30 37 61 30 37 60 30 37 60 30 37 60 30 36 60 30 36 60 30 36 60 30
36 59 30 36 59 30 36 59 30 36 59 30 36 59 30 36 59 30 36 58 30 36 58
30 36 58 30 36 58 30 36 58 30 36 58 30 36 57 30 35 57 30 35 57 30 35
57 30 35 57 30 35 57 30 35 57 30 35 56 30 35 56 30 35 56 30 35 56 30
35 56 30 35 56 30 35 55 30 35 55 30 35 55 30 34 55 30 34 55 30 34 55
30 34 55 30 34 54 30 34 54 30 34 54 30 34 54 30 34 54 30 34 54 30 34
54 30 34 53 30 34 53 30 34 53 30 34 53 30 33 53 30 33 53 30 33 53 30
33 53 30 33 52 30 33 52 30 33 52 30 33 52 30 33 52 30 33 52 30 33 52
30 33 51 29 33 51 29 33 51 29 32 51 29 32 51 29 32 51 29 32 51 29 32
51 29 32 50 29 32 50 29 32 50 29 32 50 29 32 50 29 32 50 29 32 50 29
32 50 29 32 49 29 31 49 29 31 49 29 31 49 29 31 49 28 31 49 28 31 49
28 31 49 28 31 48 28 31 48 28 31 48 28 31 48 28 31 48 28 31 48 28 30
48 28 30 48 28 30 48 28 30 47 28 30 47 28 30 47 27 30 47 27 30 47 27
30 47 27 30 47 27 30 47 27 30 47 27 30 46 27 30 46 27 29 46 27 29 46
27 29 46 27
35 67 24 35 67 24 35 67 24 35 67 24 36 67 24 36 68 24 36 68 24 36 68
24 36 68 24 36 68 24 36 69 24 36 69 24 36 69 24 36 69 24 37 69 24 37
70 24 37 70 25 37 70 25 37 70 25 37 70 25 37 71 25 37 71 25 37 71 25
37 71 25 38 71 25 38 72 25 38 72 25 38 72 25 38 72 25 38 72 25 38 73
25 38 73 25 38 73 25 38 73 25 39 73 26 39 74 26 39 74 26 39 74 26 39
74 26 39 74 26 39 74 26 39 75 26 39 75 26 39 75 26 40 75 26 40 75 26
40 76 26 40 76 26 40 76 26 40 76 26 40 76 26 40 76 26 40 77 26 40 77
27 40 77 27 41 77 27 41 77 27 41 77 27 41 78 27 41 78 27 41 78 27 41
78 27 41 78 27 41 78 27 41 79 27 41 79 27 42 79 27 42 79 27 42 79 27
42 79 27 42 79 27 42 80 27 42 80 27 42 80 27 42 80 27 42 80 27 42 80
27 42 80 28 42 81 28 43 81 28 43 81 28 43 81 28 43 81 28 43 81 28 43
81 28 43 81 28 43 82 28 43 82 28 43 82 28 43 82 28 43 82 28 43 82 28
43 82 28 43 82 28 43 82 28 44 82 28 44 83 28 44 83 28 44 83 28 44 83
28 44 83 28 44 83 28 44 83 28 44 83 28 44 83 28 44 83 28 44 83 28 44
83 28 44 83 28 44 83 28 44 83 28 44 84 28 44 84 28 44 84 28 44 84 28
44 84 28 44 84 28 44 84 28 45 84 28 45 84 28 45 84 28 45 84 28 45 84
28 45 84 28 45 84 28 45 84 28 45 84 28 45 84 28 45 84 28 45 84 28 45
84 28 45 84 28 45 84 28 45 84 28 45 84 28 45 84 28 45 84 28 45 84 29
45 84 29 45 84 29 45 84 29 45 84 29 45 84 29 45 84 29 45 84 29 45 83
29 45 83 29 45 83 29 45 83 29 45 83 29 45 83 29 45 83 29 45 83 29 45
83 29 45 83 29 45 83 29 45 83 29 45 83 29 45 83 29 45 83 29 45 82 29
45 82 29 44 82 29 44 82 29 44 82 29 44 82 29 44 82 29 44 82 29 44 82
29 44 82 29 44 81 29 44 81 29 44 81 29 44 81 29 44 81 29 44 81 29 44
81 29 44 81 29 44 80 29 44 80 29 44 80 29 44 80 29 44 80 29 44 80 29
44 80 29 44 79 29 44 79 29 43 79 29 43 79 29 43 79 29 43 79 29 43 79
29 43 78 29 43 78 29 43 78 29 43 78 29 43 78 29 43 78 29 43 77 29 43
77 29 43 77 29 43 77 29 43 77 29 43 77 29 43 76 29 42 76 29 42 76 29
42 76 29 42 76 29 42 76 29 42 75 29 42 75 29 42 75 29 42 75 29 42 75
29 42 74 29 42 74 29 42 74 29 42 74 29 42 74 29 41 74 29 41 73 29 41
73 29 41 73 29 41 73 29 41 73 29 41 72 29 41 72 29 41 72 29 41 72 29
41 72 29 41 72 29 41 71 29 41 71 29 41 71 29 40 71 29 40 71 29 40 70
29 40 70 29 40 70 29 40 70 29 40 70 29 40 69 29 40 69 29 40 69 29 40
69 29 40 69 29 40 69 29 40 68 29 39 68 29 39 68 29 39 68 29 39 68 29
39 67 29 39 67 29 39 67 29 39 67 29 39 67 30 39 66 30 39 66 30 39 66
30 39 66 30 39 66 30 39 66 30 38 65 30 38 65 30 38 65 30 38 65 30 38
65 30 38 64 30 38 64 30 38 64 30 38 64 30 38 64 30 38 64 30 38 63 30
38 63 30 38 63 30 38 63 30 37 63 30 37 63 30 37 62 30 37 62 30 37 62
30 37 62 30 37 62 30 37 62 30 37 61 30 37 61 30 37 61 30 37 61 30 37
61 30 37 60 30 37 60 30 37 60 30 36 60 30 36 60 30 36 60 30 36 60 30
36 59 30 36 59 30 36 59 30 36 59 30 36 59 30 36 59 30 36 58 30 36 58
30 36 58 30 36 58 30 36 58 30 36 58 30 35 57 30 35 57 30 35 57 30 35
57 30 35 57 30 35 57 30 35 57 30 35 56 30 35 56 30 35 56 30 35 56 30
35 56 30 35 56 30 35 56 30 35 55 30 34 55 30 34 55 30 34 55 30 34 55
30 34 55 30 34 55 30 34 54 30 34 54 30 34 54 30 34 54 30 34 54 30 34
54 30 34 54 30 34 53 30 34 53 30 33 53 30 33 53 30 33 53 30 33 53 30
33 53 30 33 52 30 33 52 30 33 52 30 33 52 30 33 52 29 33 52 29 33 52
29 33 52 29 33 51 29 33 51 29 32 51 29 32 51 29 32 51 29 32 51 29 32
51 29 32 51 29 32 50 29 32 50 29 32 50 29 32 50 29 32 50 29 32 50 29
32 50 29 32 50 29 31 49 29 31 49 28 31 49 28 31 49 28 31 49 28 31 49
28 31 49 28 31 49 28 31 48 28 31 48 28 31 48 28 31 48 28 31 48 28 31
48 28 30 48 28 30 48 28 30 48 28 30 47 28 30 47 27 30 47 27 30 47 27
30 47 27 30 47 27 30 47 27 30 47 27 30 47 27 30 46 27 30 46 27 29 46
27 29 46 27
35 67 24 35 67 24 35 67 24 35 67 24 36 68 24 36 68 24 36 68 24 36 68
24 36 68 24 36 68 24 36 69 24 36 69 24 36 69 24 36 69 24 37 69 24 37
70 24 37 70 25 37 70 25 37 70 25 37 70 25 37 71 25 37 71 25 37 71 25
37 71 25 38 71 25 38 72 25 38 72 25 38 72 25 38 72 25 38 72 25 38 72
25 38 73 25 38 73 25 38 73 25 39 73 26 39 73 26 39 74 26 39 74 26 39
74 26 39 74 26 39 74 26 39 75 26 39 75 26 39 75 26 39 75 26 40 75 26
40 75 26 40 76 26 40 76 26 40 76 26 40 76 26 40 76 26 40 76 26 40 77
26 40 77 27 40 77 27 41 77 27 41 77 27 41 77 27 41 78 27 41 78 27 41
78 27 41 78 27 41 78 27 41 78 27 41 78 27 41 79 27 41 79 27 42 79 27
42 79 27 42 79 27 42 79 27 42 79 27 42 80 27 42 80 27 42 80 27 42 80
27 42 80 27 42 80 27 42 80 27 42 80 28 42 81 28 43 81 28 43 81 28 43
81 28 43 81 28 43 81 28 43 81 28 43 81 28 43 81 28 43 82 28 43 82 28
43 82 28 43 82 28 43 82 28 43 82 28 43 82 28 43 82 28 43 82 28 44 82
28 44 82 28 44 82 28 44 83 28 44 83 28 44 83 28 44 83 28 44 83 28 44
83 28 44 83 28 44 83 28 44 83 28 44 83 28 44 83 28 44 83 28 44 83 28
44 83 28 44 83 28 44 83 28 44 83 28 44 83 28 44 83 28 44 83 28 44 83
28 44 83 28 44 83 28 44 83 28 44 83 28 44 83 28 44 83 28 44 83 28 44
83 28 44 83 28 44 83 28 44 83 28 45 83 28 45 83 28 45 83 28 45 83 28
45 83 28 45 83 28 45 83 28 45 83 28 45 83 28 45 83 28 45 83 28 44 83
28 44 83 28 44 83 28 44 83 28 44 83 28 44 83 28 44 83 28 44 82 28 44
82 28 44 82 28 44 82 28 44 82 28 44 82 28 44 82 28 44 82 28 44 82 28
44 82 28 44 82 28 44 82 28 44 81 28 44 81 28 44 81 28 44 81 28 44 81
28 44 81 28 44 81 28 44 81 28 44 81 28 44 81 28 44 80 28 44 80 28 44
80 28 44 80 28 44 80 28 44 80 28 44 80 28 44 80 28 43 79 28 43 79 28
43 79 29 43 79 29 43 79 29 43 79 29 43 79 29 43 78 29 43 78 29 43 78
29 43 78 29 43 78 29 43 78 29 43 77 29 43 77 29 43 77 29 43 77 29 43
77 29 43 77 29 42 77 29 42 76 29 42 76 29 42 76 29 42 76 29 42 76 29
42 76 29 42 75 29 42 75 29 42 75 29 42 75 29 42 75 29 42 74 29 42 74
29 42 74 29 42 74 29 41 74 29 41 74 29 41 73 29 41 73 29 41 73 29 41
73 29 41 73 29 41 73 29 41 72 29 41 72 29 41 72 29 41 72 29 41 72 29
41 71 29 41 71 29 40 71 29 40 71 29 40 71 29 40 71 29 40 70 29 40 70
29 40 70 29 40 70 29 40 70 29 40 69 29 40 69 29 40 69 29 40 69 29 40
69 29 40 68 29 39 68 29 39 68 29 39 68 29 39 68 29 39 68 29 39 67 29
39 67 29 39 67 29 39 67 29 39 67 29 39 66 29 39 66 29 39 66 29 39 66
29 39 66 29 38 66 29 38 65 29 38 65 29 38 65 30 38 65 30 38 65 30 38
65 30 38 64 30 38 64 30 38 64 30 38 64 30 38 64 30 38 63 30 38 63 30
38 63 30 38 63 30 37 63 30 37 63 30 37 62 30 37 62 30 37 62 30 37 62
30 37 62 30 37 62 30 37 61 30 37 61 30 37 61 30 37 61 30 37 61 30 37
61 30 37 60 30 36 60 30 36 60 30 36 60 30 36 60 30 36 60 30 36 59 30
36 59 30 36 59 30 36 59 30 36 59 30 36 59 30 36 59 30 36 58 30 36 58
30 36 58 30 36 58 30 35 58 30 35 58 30 35 57 30 35 57 30 35 57 30 35
57 30 35 57 30 35 57 30 35 57 30 35 56 30 35 56 30 35 56 30 35 56 30
35 56 30 35 56 30 35 56 30 34 55 30 34 55 30 34 55 30 34 55 30 34 55
30 34 55 30 34 55 30 34 54 30 34 54 30 34 54 30 34 54 30 34 54 30 34
54 30 34 54 30 34 53 30 34 53 30 33 53 30 33 53 30 33 53 30 33 53 30
33 53 30 33 52 29 33 52 29 33 52 29 33 52 29 33 52 29 33 52 29 33 52
29 33 52 29 33 51 29 33 51 29 32 51 29 32 51 29 32 51 29 32 51 29 32
51 29 32 51 29 32 50 29 32 50 29 32 50 29 32 50 29 32 50 29 32 50 29
32 50 29 32 50 29 31 49 28 31 49 28 31 49 28 31 49 28 31 49 28 31 49
28 31 49 28 31 49 28 31 49 28 31 48 28 31 48 28 31 48 28 31 48 28 31
48 28 30 48 28 30 48 28 30 48 28 30 48 27 30 47 27 30 47 27 30 47 27
30 47 27 30 47 27 30 47 27 30 47 27 30 47 27 30 47 27 30 46 27 29 46
27 29 46 27
35 67 24 35 67 24 35 67 24 36 67 24 36 68 24 36 68 24 36 68 24 36 68
24 36 68 24 36 69 24 36 69 24 36 69 24 36 69 24 36 69 24 37 69 24 37
70 24 37 70 25 37 70 25 37 70 25 37 70 25 37 71 25 37 71 25 37 71 25
37 71 25 38 71 25 38 72 25 38 72 25 38 72 25 38 72 25 38 72 25 38 72
25 38 73 25 38 73 25 38 73 25 39 73 25 39 73 26 39 74 26 39 74 26 39
74 26 39 74 26 39 74 26 39 74 26 39 75 26 39 75 26 39 75 26 40 75 26
40 75 26 40 75 26 40 76 26 40 76 26 40 76 26 40 76 26 40 76 26 40 76
26 40 77 26 40 77 26 40 77 27 41 77 27 41 77 27 41 77 27 41 77 27 41
78 27 41 78 27 41 78 27 41 78 27 41 78 27 41 78 27 41 78 27 41 79 27
41 79 27 42 79 27 42 79 27 42 79 27 42 79 27 42 79 27 42 80 27 42 80
27 42 80 27 42 80 27 42 80 27 42 80 27 42 80 27 42 80 27 42 80 27 43
81 28 43 81 28 43 81 28 43 81 28 43 81 28 43 81 28 43 81 28 43 81 28
43 81 28 43 81 28 43 81 28 43 82 28 43 82 28 43 82 28 43 82 28 43 82
28 43 82 28 43 82 28 43 82 28 43 82 28 44 82 28 44 82 28 44 82 28 44
82 28 44 82 28 44 82 28 44 82 28 44 82 28 44 83 28 44 83 28 44 83 28
44 83 28 44 83 28 44 83 28 44 83 28 44 83 28 44 83 28 44 83 28 44 83
28 44 83 28 44 83 28 44 83 28 44 83 28 44 83 28 44 83 28 44 83 28 44
83 28 44 83 28 44 83 28 44 83 28 44 83 28 44 83 28 44 83 28 44 83 28
44 83 28 44 83 28 44 83 28 44 82 28 44 82 28 44 82 28 44 82 28 44 82
28 44 82 28 44 82 28 44 82 28 44 82 28 44 82 28 44 82 28 44 82 28 44
82 28 44 82 28 44 82 28 44 82 28 44 82 28 44 81 28 44 81 28 44 81 28
44 81 28 44 81 28 44 81 28 44 81 28 44 81 28 44 81 28 44 81 28 44 81
28 44 80 28 44 80 28 44 80 28 44 80 28 44 80 28 44 80 28 43 80 28 43
80 28 43 79 28 43 79 28 43 79 28 43 79 28 43 79 28 43 79 28 43 79 28
43 79 28 43 78 28 43 78 28 43 78 28 43 78 28 43 78 28 43 78 28 43 78
28 43 77 28 43 77 28 43 77 28 43 77 28 43 77 28 42 77 28 42 77 28 42
76 28 42 76 28 42 76 28 42 76 28 42 76 28 42 76 29 42 75 29 42 75 29
42 75 29 42 75 29 42 75 29 42 75 29 42 74 29 42 74 29 42 74 29 41 74
29 41 74 29 41 74 29 41 73 29 41 73 29 41 73 29 41 73 29 41 73 29 41
73 29 41 72 29 41 72 29 41 72 29 41 72 29 41 72 29 41 71 29 40 71 29
40 71 29 40 71 29 40 71 29 40 71 29 40 70 29 40 70 29 40 70 29 40 70
29 40 70 29 40 70 29 40 69 29 40 69 29 40 69 29 40 69 29 40 69 29 39
68 29 39 68 29 39 68 29 39 68 29 39 68 29 39 68 29 39 67 29 39 67 29
39 67 29 39 67 29 39 67 29 39 66 29 39 66 29 39 66 29 39 66 29 38 66
29 38 66 29 38 65 29 38 65 29 38 65 29 38 65 29 38 65 29 38 65 29 38
64 29 38 64 29 38 64 29 38 64 29 38 64 29 38 64 29 38 63 30 38 63 30
37 63 30 37 63 30 37 63 30 37 63 30 37 62 30 37 62 30 37 62 30 37 62
30 37 62 30 37 62 30 37 61 30 37 61 30 37 61 30 37 61 30 37 61 30 37
61 30 36 60 30 36 60 30 36 60 30 36 60 30 36 60 30 36 60 30 36 59 30
36 59 30 36 59 30 36 59 30 36 59 30 36 59 30 36 58 30 36 58 30 36 58
30 36 58 30 35 58 30 35 58 30 35 58 30 35 57 30 35 57 30 35 57 30 35
57 30 35 57 30 35 57 30 35 57 30 35 56 30 35 56 30 35 56 30 35 56 30
35 56 30 35 56 30 34 56 30 34 55 30 34 55 30 34 55 30 34 55 30 34 55
30 34 55 30 34 55 30 34 54 30 34 54 30 34 54 30 34 54 30 34 54 30 34
54 30 34 54 30 34 53 30 33 53 30 33 53 29 33 53 29 33 53 29 33 53 29
33 53 29 33 53 29 33 52 29 33 52 29 33 52 29 33 52 29 33 52 29 33 52
29 33 52 29 33 52 29 32 51 29 32 51 29 32 51 29 32 51 29 32 51 29 32
51 29 32 51 29 32 51 29 32 50 29 32 50 29 32 50 29 32 50 29 32 50 29
32 50 28 32 50 28 31 50 28 31 49 28 31 49 28 31 49 28 31 49 28 31 49
28 31 49 28 31 49 28 31 49 28 31 49 28 31 48 28 31 48 28 31 48 28 31
48 28 30 48 28 30 48 28 30 48 28 30 48 27 30 48 27 30 47 27 30 47 27
30 47 27 30 47 27 30 47 27 30 47 27 30 47 27 30 47 27 30 47 27 30 46
27 29 46 27
35 67 24 35 67 24 35 67 24 36 67 24 36 68 24 36 68 24 36 68 24 36 68
24 36 68 24 36 69 24 36 69 24 36 69 24 36 69 24 37 69 24 37 69 24 37
70 24 37 70 25 37 70 25 37 70 25 37 70 25 37 71 25 37 71 25 37 71 25
37 71 25 38 71 25 38 71 25 38 72 25 38 72 25 38 72 25 38 72 25 38 72
25 38 73 25 38 73 25 38 73 25 38 73 25 39 73 26 39 73 26 39 74 26 39
74 26 39 74 26 39 74 26 39 74 26 39 74 26 39 75 26 39 75 26 39 75 26
40 75 26 40 75 26 40 75 26 40 76 26 40 76 26 40 76 26 40 76 26 40 76
26 40 76 26 40 76 26 40 77 26 40 77 27 41 77 27 41 77 27 41 77 27 41
77 27 41 77 27 41 78 27 41 78 27 41 78 27 41 78 27 41 78 27 41 78 27
41 78 27 41 79 27 41 79 27 42 79 27 42 79 27 42 79 27 42 79 27 42 79
27 42 79 27 42 80 27 42 80 27 42 80 27 42 80 27 42 80 27 42 80 27 42
80 27 42 80 27 42 80 27 43 80 27 43 81 28 43 81 28 43 81 28 43 81 28
43 81 28 43 81 28 43 81 28 43 81 28 43 81 28 43 81 28 43 81 28 43 81
28 43 81 28 43 81 28 43 82 28 43 82 28 43 82 28 43 82 28 43 82 28 43
82 28 43 82 28 43 82 28 44 82 28 44 82 28 44 82 28 44 82 28 44 82 28
44 82 28 44 82 28 44 82 28 44 82 28 44 82 28 44 82 28 44 82 28 44 82
28 44 82 28 44 82 28 44 82 28 44 82 28 44 82 28 44 82 28 44 82 28 44
82 28 44 82 28 44 82 28 44 82 28 44 82 28 44 82 28 44 82 28 44 82 28
44 82 28 44 82 28 44 82 28 44 82 28 44 82 28 44 82 28 44 82 28 44 82
28 44 82 28 44 82 28 44 82 28 44 82 28 44 81 28 44 81 28 44 81 28 44
81 28 44 81 28 44 81 28 44 81 28 44 81 28 44 81 28 44 81 28 44 81 28
44 81 28 44 81 28 44 80 28 44 80 28 44 80 28 44 80 28 44 80 28 43 80
28 43 80 28 43 80 28 43 80 28 43 80 28 43 79 28 43 79 28 43 79 28 43
79 28 43 79 28 43 79 28 43 79 28 43 79 28 43 78 28 43 78 28 43 78 28
43 78 28 43 78 28 43 78 28 43 78 28 43 78 28 43 77 28 43 77 28 43 77
28 42 77 28 42 77 28 42 77 28 42 77 28 42 76 28 42 76 28 42 76 28 42
76 28 42 76 28 42 76 28 42 76 28 42 75 28 42 75 28 42 75 28 42 75 28
42 75 28 42 75 28 42 74 28 41 74 28 41 74 28 41 74 28 41 74 28 41 74
28 41 73 28 41 73 29 41 73 29 41 73 29 41 73 29 41 73 29 41 72 29 41
72 29 41 72 29 41 72 29 41 72 29 40 72 29 40 71 29 40 71 29 40 71 29
40 71 29 40 71 29 40 70 29 40 70 29 40 70 29 40 70 29 40 70 29 40 70
29 40 69 29 40 69 29 40 69 29 40 69 29 39 69 29 39 69 29 39 68 29 39
68 29 39 68 29 39 68 29 39 68 29 39 68 29 39 67 29 39 67 29 39 67 29
39 67 29 39 67 29 39 66 29 39 66 29 39 66 29 38 66 29 38 66 29 38 66
29 38 65 29 38 65 29 38 65 29 38 65 29 38 65 29 38 65 29 38 64 29 38
64 29 38 64 29 38 64 29 38 64 29 38 64 29 38 63 29 37 63 29 37 63 29
37 63 29 37 63 29 37 63 29 37 62 29 37 62 29 37 62 29 37 62 29 37 62
29 37 62 29 37 61 30 37 61 30 37 61 30 37 61 30 37 61 30 36 61 30 36
60 30 36 60 30 36 60 30 36 60 30 36 60 30 36 60 30 36 60 30 36 59 30
36 59 30 36 59 30 36 59 30 36 59 30 36 59 30 36 58 30 36 58 30 36 58
30 35 58 30 35 58 30 35 58 30 35 58 30 35 57 30 35 57 30 35 57 30 35
57 30 35 57 30 35 57 30 35 57 30 35 56 30 35 56 30 35 56 30 35 56 30
35 56 30 34 56 30 34 56 30 34 55 30 34 55 30 34 55 30 34 55 30 34 55
30 34 55 30 34 55 30 34 54 30 34 54 30 34 54 29 34 54 29 34 54 29 34
54 29 34 54 29 33 54 29 33 53 29 33 53 29 33 53 29 33 53 29 33 53 29
33 53 29 33 53 29 33 52 29 33 52 29 33 52 29 33 52 29 33 52 29 33 52
29 33 52 29 33 52 29 32 51 29 32 51 29 32 51 29 32 51 29 32 51 29 32
51 29 32 51 29 32 51 29 32 50 29 32 50 29 32 50 29 32 50 28 32 50 28
32 50 28 32 50 28 31 50 28 31 50 28 31 49 28 31 49 28 31 49 28 31 49
28 31 49 28 31 49 28 31 49 28 31 49 28 31 49 28 31 48 28 31 48 28 31
48 28 31 48 28 30 48 28 30 48 27 30 48 27 30 48 27 30 48 27 30 47 27
30 47 27 30 47 27 30 47 27 30 47 27 30 47 27 30 47 27 30 47 27 30 47
27 29 46 27
35 67 24 35 67 24 36 67 24 36 67 24 36 68 24 36 68 24 36 68 24 36 68
24 36 68 24 36 69 24 36 69 24 36 69 24 36 69 24 37 69 24 37 69 24 37
70 24 37 70 25 37 70 25 37 70 25 37 70 25 37 71 25 37 71 25 37 71 25
37 71 25 38 71 25 38 71 25 38 72 25 38 72 25 38 72 25 38 72 25 38 72
25 38 72 25 38 73 25 38 73 25 38 73 25 39 73 25 39 73 26 39 73 26 39
74 26 39 74 26 39 74 26 39 74 26 39 74 26 39 74 26 39 75 26 39 75 26
39 75 26 40 75 26 40 75 26 40 75 26 40 75 26 40 76 26 40 76 26 40 76
26 40 76 26 40 76 26 40 76 26 40 77 26 40 77 26 40 77 27 41 77 27 41
77 27 41 77 27 41 77 27 41 77 27 41 78 27 41 78 27 41 78 27 41 78 27
41 78 27 41 78 27 41 78 27 41 78 27 41 79 27 42 79 27 42 79 27 42 79
27 42 79 27 42 79 27 42 79 27 42 79 27 42 79 27 42 80 27 42 80 27 42
80 27 42 80 27 42 80 27 42 80 27 42 80 27 42 80 27 42 80 27 43 80 27
43 80 28 43 81 28 43 81 28 43 81 28 43 81 28 43 81 28 43 81 28 43 81
28 43 81 28 43 81 28 43 81 28 43 81 28 43 81 28 43 81 28 43 81 28 43
81 28 43 81 28 43 81 28 43 81 28 43 81 28 43 82 28 43 82 28 43 82 28
43 82 28 43 82 28 43 82 28 43 82 28 44 82 28 44 82 28 44 82 28 44 82
28 44 82 28 44 82 28 44 82 28 44 82 28 44 82 28 44 82 28 44 82 28 44
82 28 44 82 28 44 82 28 44 82 28 44 82 28 44 82 28 44 82 28 44 82 28
44 81 28 44 81 28 44 81 28 44 81 28 44 81 28 44 81 28 44 81 28 44 81
28 44 81 28 44 81 28 44 81 28 44 81 28 44 81 28 44 81 28 44 81 28 44
81 28 44 81 28 44 81 28 44 81 28 44 80 28 43 80 28 43 80 28 43 80 28
43 80 28 43 80 28 43 80 28 43 80 28 43 80 28 43 80 28 43 80 28 43 79
28 43 79 28 43 79 28 43 79 28 43 79 28 43 79 28 43 79 28 43 79 28 43
79 28 43 78 28 43 78 28 43 78 28 43 78 28 43 78 28 43 78 28 43 78 28
43 78 28 43 77 28 43 77 28 42 77 28 42 77 28 42 77 28 42 77 28 42 77
28 42 77 28 42 76 28 42 76 28 42 76 28 42 76 28 42 76 28 42 76 28 42
76 28 42 75 28 42 75 28 42 75 28 42 75 28 42 75 28 42 75 28 41 74 28
41 74 28 41 74 28 41 74 28 41 74 28 41 74 28 41 74 28 41 73 28 41 73
28 41 73 28 41 73 28 41 73 28 41 73 28 41 72 28 41 72 28 41 72 28 41
72 28 40 72 28 40 72 28 40 71 28 40 71 28 40 71 29 40 71 29 40 71 29
40 71 29 40 70 29 40 70 29 40 70 29 40 70 29 40 70 29 40 70 29 40 69
29 40 69 29 40 69 29 39 69 29 39 69 29 39 68 29 39 68 29 39 68 29 39
68 29 39 68 29 39 68 29 39 67 29 39 67 29 39 67 29 39 67 29 39 67 29
39 67 29 39 66 29 39 66 29 38 66 29 38 66 29 38 66 29 38 66 29 38 65
29 38 65 29 38 65 29 38 65 29 38 65 29 38 65 29 38 64 29 38 64 29 38
64 29 38 64 29 38 64 29 38 64 29 37 63 29 37 63 29 37 63 29 37 63 29
37 63 29 37 63 29 37 62 29 37 62 29 37 62 29 37 62 29 37 62 29 37 62
29 37 62 29 37 61 29 37 61 29 37 61 29 37 61 29 36 61 29 36 61 29 36
60 29 36 60 29 36 60 29 36 60 29 36 60 29 36 60 29 36 59 29 36 59 29
36 59 29 36 59 29 36 59 29 36 59 29 36 59 30 36 58 30 35 58 30 35 58
30 35 58 30 35 58 30 35 58 30 35 58 30 35 57 30 35 57 30 35 57 30 35
57 30 35 57 30 35 57 30 35 57 30 35 56 30 35 56 29 35 56 29 35 56 29
34 56 29 34 56 29 34 56 29 34 55 29 34 55 29 34 55 29 34 55 29 34 55
29 34 55 29 34 55 29 34 54 29 34 54 29 34 54 29 34 54 29 34 54 29 34
54 29 34 54 29 33 54 29 33 53 29 33 53 29 33 53 29 33 53 29 33 53 29
33 53 29 33 53 29 33 53 29 33 52 29 33 52 29 33 52 29 33 52 29 33 52
29 33 52 29 32 52 29 32 52 29 32 51 29 32 51 29 32 51 29 32 51 29 32
51 29 32 51 29 32 51 29 32 51 28 32 50 28 32 50 28 32 50 28 32 50 28
32 50 28 32 50 28 31 50 28 31 50 28 31 49 28 31 49 28 31 49 28 31 49
28 31 49 28 31 49 28 31 49 28 31 49 28 31 49 28 31 48 28 31 48 28 31
48 28 31 48 28 30 48 27 30 48 27 30 48 27 30 48 27 30 48 27 30 47 27
30 47 27 30 47 27 30 47 27 30 47 27 30 47 27 30 47 27 30 47 27 30 47
27 30 47 27
35 67 24 35 67 24 36 67 24 36 68 24 36 68 24 36 68 24 36 68 24 36 68
24 36 68 24 36 69 24 36 69 24 36 69 24 36 69 24 37 69 24 37 69 24 37
70 24 37 70 25 37 70 25 37 70 25 37 70 25 37 70 25 37 71 25 37 71 25
37 71 25 37 71 25 38 71 25 38 71 25 38 72 25 38 72 25 38 72 25 38 72
25 38 72 25 38 72 25 38 73 25 38 73 25 38 73 25 39 73 25 39 73 26 39
73 26 39 74 26 39 74 26 39 74 26 39 74 26 39 74 26 39 74 26 39 75 26
39 75 26 39 75 26 40 75 26 40 75 26 40 75 26 40 75 26 40 76 26 40 76
26 40 76 26 40 76 26 40 76 26 40 76 26 40 76 26 40 77 26 40 77 26 41
77 27 41 77 27 41 77 27 41 77 27 41 77 27 41 77 27 41 78 27 41 78 27
41 78 27 41 78 27 41 78 27 41 78 27 41 78 27 41 78 27 41 78 27 42 79
27 42 79 27 42 79 27 42 79 27 42 79 27 42 79 27 42 79 27 42 79 27 42
79 27 42 79 27 42 80 27 42 80 27 42 80 27 42 80 27 42 80 27 42 80 27
42 80 27 42 80 27 42 80 27 43 80 27 43 80 27 43 80 27 43 80 28 43 80
28 43 81 28 43 81 28 43 81 28 43 81 28 43 81 28 43 81 28 43 81 28 43
81 28 43 81 28 43 81 28 43 81 28 43 81 28 43 81 28 43 81 28 43 81 28
43 81 28 43 81 28 43 81 28 43 81 28 43 81 28 43 81 28 43 81 28 43 81
28 43 81 28 43 81 28 43 81 28 43 81 28 43 81 28 43 81 28 43 81 28 43
81 28 43 81 28 43 81 28 43 81 28 43 81 28 43 81 28 43 81 28 43 81 28
43 81 28 43 81 28 43 81 28 43 81 28 43 81 28 43 81 28 43 81 28 43 81
28 43 81 28 43 81 28 43 80 28 43 80 28 43 80 28 43 80 28 43 80 28 43
80 28 43 80 28 43 80 28 43 80 28 43 80 28 43 80 28 43 80 28 43 80 28
43 80 28 43 79 28 43 79 28 43 79 28 43 79 28 43 79 28 43 79 28 43 79
28 43 79 28 43 79 28 43 79 28 43 79 28 43 78 28 43 78 28 43 78 28 43
78 28 43 78 28 43 78 28 43 78 28 43 78 28 42 78 28 42 77 28 42 77 28
42 77 28 42 77 28 42 77 28 42 77 28 42 77 28 42 77 28 42 76 28 42 76
28 42 76 28 42 76 28 42 76 28 42 76 28 42 76 28 42 75 28 42 75 28 42
75 28 42 75 28 42 75 28 42 75 28 41 75 28 41 74 28 41 74 28 41 74 28
41 74 28 41 74 28 41 74 28 41 73 28 41 73 28 41 73 28 41 73 28 41 73
28 41 73 28 41 73 28 41 72 28 41 72 28 41 72 28 40 72 28 40 72 28 40
72 28 40 71 28 40 71 28 40 71 28 40 71 28 40 71 28 40 71 28 40 70 28
40 70 28 40 70 28 40 70 28 40 70 28 40 70 28 40 69 28 40 69 29 39 69
29 39 69 29 39 69 29 39 69 29 39 68 29 39 68 29 39 68 29 39 68 29 39
68 29 39 68 29 39 67 29 39 67 29 39 67 29 39 67 29 39 67 29 39 67 29
38 66 29 38 66 29 38 66 29 38 66 29 38 66 29 38 66 29 38 65 29 38 65
29 38 65 29 38 65 29 38 65 29 38 65 29 38 64 29 38 64 29 38 64 29 38
64 29 38 64 29 37 64 29 37 63 29 37 63 29 37 63 29 37 63 29 37 63 29
37 63 29 37 63 29 37 62 29 37 62 29 37 62 29 37 62 29 37 62 29 37 62
29 37 61 29 37 61 29 37 61 29 36 61 29 36 61 29 36 61 29 36 60 29 36
60 29 36 60 29 36 60 29 36 60 29 36 60 29 36 60 29 36 59 29 36 59 29
36 59 29 36 59 29 36 59 29 36 59 29 36 59 29 35 58 29 35 58 29 35 58
29 35 58 29 35 58 29 35 58 29 35 58 29 35 57 29 35 57 29 35 57 29 35
57 29 35 57 29 35 57 29 35 57 29 35 56 29 35 56 29 35 56 29 34 56 29
34 56 29 34 56 29 34 56 29 34 55 29 34 55 29 34 55 29 34 55 29 34 55
29 34 55 29 34 55 29 34 54 29 34 54 29 34 54 29 34 54 29 34 54 29 34
54 29 33 54 29 33 54 29 33 53 29 33 53 29 33 53 29 33 53 29 33 53 29
33 53 29 33 53 29 33 53 29 33 52 29 33 52 29 33 52 29 33 52 29 33 52
29 33 52 29 32 52 29 32 52 29 32 51 29 32 51 29 32 51 29 32 51 29 32
51 29 32 51 28 32 51 28 32 51 28 32 50 28 32 50 28 32 50 28 32 50 28
32 50 28 32 50 28 31 50 28 31 50 28 31 50 28 31 49 28 31 49 28 31 49
28 31 49 28 31 49 28 31 49 28 31 49 28 31 49 28 31 49 28 31 48 28 31
48 28 31 48 27 30 48 27 30 48 27 30 48 27 30 48 27 30 48 27 30 48 27
30 47 27 30 47 27 30 47 27 30 47 27 30 47 27 30 47 27 30 47 27 30 47
27 30 47 27
35 67 24 35 67 24 36 67 24 36 68 24 36 68 24 36 68 24 36 68 24 36 68
24 36 68 24 36 69 24 36 69 24 36 69 24 36 69 24 37 69 24 37 69 24 37
70 24 37 70 24 37 70 25 37 70 25 37 70 25 37 70 25 37 71 25 37 71 25
37 71 25 37 71 25 38 71 25 38 71 25 38 72 25 38 72 25 38 72 25 38 72
25 38 72 25 38 72 25 38 73 25 38 73 25 38 73 25 38 73 25 39 73 25 39
73 26 39 73 26 39 74 26 39 74 26 39 74 26 39 74 26 39 74 26 39 74 26
39 74 26 39 75 26 39 75 26 40 75 26 40 75 26 40 75 26 40 75 26 40 75
26 40 76 26 40 76 26 40 76 26 40 76 26 40 76 26 40 76 26 40 76 26 40
77 26 40 77 26 41 77 27 41 77 27 41 77 27 41 77 27 41 77 27 41 77 27
41 77 27 41 78 27 41 78 27 41 78 27 41 78 27 41 78 27 41 78 27 41 78
27 41 78 27 41 78 27 42 79 27 42 79 27 42 79 27 42 79 27 42 79 27 42
79 27 42 79 27 42 79 27 42 79 27 42 79 27 42 79 27 42 79 27 42 80 27
42 80 27 42 80 27 42 80 27 42 80 27 42 80 27 42 80 27 42 80 27 42 80
27 43 80 27 43 80 27 43 80 27 43 80 27 43 80 27 43 80 28 43 80 28 43
80 28 43 80 28 43 80 28 43 80 28 43 80 28 43 81 28 43 81 28 43 81 28
43 81 28 43 81 28 43 81 28 43 81 28 43 81 28 43 81 28 43 81 28 43 81
28 43 81 28 43 81 28 43 81 28 43 81 28 43 81 28 43 81 28 43 81 28 43
81 28 43 81 28 43 81 28 43 81 28 43 81 28 43 80 28 43 80 28 43 80 28
43 80 28 43 80 28 43 80 28 43 80 28 43 80 28 43 80 28 43 80 28 43 80
28 43 80 28 43 80 28 43 80 28 43 80 28 43 80 28 43 80 28 43 80 28 43
80 28 43 80 28 43 80 28 43 79 28 43 79 28 43 79 28 43 79 28 43 79 28
43 79 28 43 79 28 43 79 28 43 79 28 43 79 28 43 79 28 43 79 28 43 78
28 43 78 28 43 78 28 43 78 28 43 78 28 43 78 28 43 78 28 42 78 28 42
78 28 42 78 28 42 77 28 42 77 28 42 77 28 42 77 28 42 77 28 42 77 28
42 77 28 42 77 28 42 76 28 42 76 28 42 76 28 42 76 28 42 76 28 42 76
28 42 76 28 42 76 28 42 75 28 42 75 28 42 75 28 42 75 28 41 75 28 41
75 28 41 75 28 41 74 28 41 74 28 41 74 28 41 74 28 41 74 28 41 74 28
41 74 28 41 73 28 41 73 28 41 73 28 41 73 28 41 73 28 41 73 28 41 72
28 41 72 28 41 72 28 40 72 28 40 72 28 40 72 28 40 72 28 40 71 28 40
71 28 40 71 28 40 71 28 40 71 28 40 71 28 40 70 28 40 70 28 40 70 28
40 70 28 40 70 28 40 70 28 40 69 28 39 69 28 39 69 28 39 69 28 39 69
28 39 69 28 39 69 28 39 68 28 39 68 28 39 68 28 39 68 28 39 68 28 39
68 28 39 67 29 39 67 29 39 67 29 39 67 29 39 67 29 38 67 29 38 66 29
38 66 29 38 66 29 38 66 29 38 66 29 38 66 29 38 65 29 38 65 29 38 65
29 38 65 29 38 65 29 38 65 29 38 64 29 38 64 29 38 64 29 38 64 29 37
64 29 37 64 29 37 63 29 37 63 29 37 63 29 37 63 29 37 63 29 37 63 29
37 63 29 37 62 29 37 62 29 37 62 29 37 62 29 37 62 29 37 62 29 37 61
29 37 61 29 36 61 29 36 61 29 36 61 29 36 61 29 36 61 29 36 60 29 36
60 29 36 60 29 36 60 29 36 60 29 36 60 29 36 60 29 36 59 29 36 59 29
36 59 29 36 59 29 36 59 29 35 59 29 35 58 29 35 58 29 35 58 29 35 58
29 35 58 29 35 58 29 35 58 29 35 57 29 35 57 29 35 57 29 35 57 29 35
57 29 35 57 29 35 57 29 35 57 29 35 56 29 35 56 29 34 56 29 34 56 29
34 56 29 34 56 29 34 56 29 34 55 29 34 55 29 34 55 29 34 55 29 34 55
29 34 55 29 34 55 29 34 54 29 34 54 29 34 54 29 34 54 29 34 54 29 33
54 29 33 54 29 33 54 29 33 53 29 33 53 29 33 53 29 33 53 29 33 53 29
33 53 29 33 53 29 33 53 29 33 52 29 33 52 29 33 52 29 33 52 29 33 52
29 32 52 29 32 52 29 32 52 29 32 51 29 32 51 28 32 51 28 32 51 28 32
51 28 32 51 28 32 51 28 32 51 28 32 51 28 32 50 28 32 50 28 32 50 28
32 50 28 31 50 28 31 50 28 31 50 28 31 50 28 31 50 28 31 49 28 31 49
28 31 49 28 31 49 28 31 49 28 31 49 28 31 49 28 31 49 28 31 49 27 31
48 27 31 48 27 30 48 27 30 48 27 30 48 27 30 48 27 30 48 27 30 48 27
30 48 27 30 47 27 30 47 27 30 47 27 30 47 27 30 47 27 30 47 27 30 47
27 30 47 27
35 67 24 35 67 24 36 67 24 36 68 24 36 68 24 36 68 24 36 68 24 36 68
24 36 68 24 36 69 24 36 69 24 36 69 24 36 69 24 37 69 24 37 69 24 37
70 24 37 70 24 37 70 25 37 70 25 37 70 25 37 70 25 37 70 25 37 71 25
37 71 25 37 71 25 38 71 25 38 71 25 38 71 25 38 72 25 38 72 25 38 72
25 38 72 25 38 72 25 38 72 25 38 73 25 38 73 25 38 73 25 38 73 25 39
73 25 39 73 26 39 73 26 39 74 26 39 74 26 39 74 26 39 74 26 39 74 26
39 74 26 39 74 26 39 75 26 39 75 26 39 75 26 40 75 26 40 75 26 40 75
26 40 75 26 40 75 26 40 76 26 40 76 26 40 76 26 40 76 26 40 76 26 40
76 26 40 76 26 40 76 26 40 77 26 41 77 27 41 77 27 41 77 27 41 77 27
41 77 27 41 77 27 41 77 27 41 77 27 41 78 27 41 78 27 41 78 27 41 78
27 41 78 27 41 78 27 41 78 27 41 78 27 41 78 27 42 78 27 42 78 27 42
79 27 42 79 27 42 79 27 42 79 27 42 79 27 42 79 27 42 79 27 42 79 27
42 79 27 42 79 27 42 79 27 42 79 27 42 79 27 42 79 27 42 80 27 42 80
27 42 80 27 42 80 27 42 80 27 42 80 27 42 80 27 42 80 27 42 80 27 43
80 27 43 80 27 43 80 27 43 80 27 43 80 27 43 80 27 43 80 27 43 80 28
43 80 28 43 80 28 43 80 28 43 80 28 43 80 28 43 80 28 43 80 28 43 80
28 43 80 28 43 80 28 43 80 28 43 80 28 43 80 28 43 80 28 43 80 28 43
80 28 43 80 28 43 80 28 43 80 28 43 80 28 43 80 28 43 80 28 43 80 28
43 80 28 43 80 28 43 80 28 43 80 28 43 80 28 43 80 28 43 80 28 43 80
28 43 80 28 43 79 28 43 79 28 43 79 28 43 79 28 43 79 28 43 79 28 43
79 28 43 79 28 43 79 28 43 79 28 43 79 28 43 79 28 43 79 28 43 79 28
43 79 28 43 78 28 43 78 28 43 78 28 43 78 28 43 78 28 42 78 28 42 78
28 42 78 28 42 78 28 42 78 28 42 78 28 42 77 28 42 77 28 42 77 28 42
77 28 42 77 28 42 77 28 42 77 28 42 77 28 42 77 28 42 76 28 42 76 28
42 76 28 42 76 28 42 76 28 42 76 28 42 76 28 42 76 28 42 75 28 42 75
28 42 75 28 42 75 28 41 75 28 41 75 28 41 75 28 41 75 28 41 74 28 41
74 28 41 74 28 41 74 28 41 74 28 41 74 28 41 74 28 41 73 28 41 73 28
41 73 28 41 73 28 41 73 28 41 73 28 41 73 28 41 72 28 41 72 28 40 72
28 40 72 28 40 72 28 40 72 28 40 72 28 40 71 28 40 71 28 40 71 28 40
71 28 40 71 28 40 71 28 40 70 28 40 70 28 40 70 28 40 70 28 40 70 28
40 70 28 39 70 28 39 69 28 39 69 28 39 69 28 39 69 28 39 69 28 39 69
28 39 68 28 39 68 28 39 68 28 39 68 28 39 68 28 39 68 28 39 67 28 39
67 28 39 67 28 39 67 28 39 67 28 38 67 28 38 67 28 38 66 28 38 66 28
38 66 28 38 66 28 38 66 29 38 66 29 38 65 29 38 65 29 38 65 29 38 65
29 38 65 29 38 65 29 38 64 29 38 64 29 38 64 29 37 64 29 37 64 29 37
64 29 37 64 29 37 63 29 37 63 29 37 63 29 37 63 29 37 63 29 37 63 29
37 62 29 37 62 29 37 62 29 37 62 29 37 62 29 37 62 29 37 62 29 36 61
29 36 61 29 36 61 29 36 61 29 36 61 29 36 61 29 36 60 29 36 60 29 36
60 29 36 60 29 36 60 29 36 60 29 36 60 29 36 59 29 36 59 29 36 59 29
36 59 29 36 59 29 35 59 29 35 59 29 35 58 29 35 58 29 35 58 29 35 58
29 35 58 29 35 58 29 35 58 29 35 57 29 35 57 29 35 57 29 35 57 29 35
57 29 35 57 29 35 57 29 35 56 29 35 56 29 34 56 29 34 56 29 34 56 29
34 56 29 34 56 29 34 56 29 34 55 29 34 55 29 34 55 29 34 55 29 34 55
29 34 55 29 34 55 29 34 55 29 34 54 29 34 54 29 34 54 29 33 54 29 33
54 29 33 54 29 33 54 29 33 53 29 33 53 29 33 53 29 33 53 29 33 53 29
33 53 29 33 53 29 33 53 29 33 52 29 33 52 29 33 52 29 33 52 29 33 52
29 32 52 28 32 52 28 32 52 28 32 52 28 32 51 28 32 51 28 32 51 28 32
51 28 32 51 28 32 51 28 32 51 28 32 51 28 32 50 28 32 50 28 32 50 28
32 50 28 31 50 28 31 50 28 31 50 28 31 50 28 31 50 28 31 49 28 31 49
28 31 49 28 31 49 28 31 49 28 31 49 28 31 49 28 31 49 27 31 49 27 31
49 27 31 48 27 30 48 27 30 48 27 30 48 27 30 48 27 30 48 27 30 48 27
30 48 27 30 48 27 30 47 27 30 47 27 30 47 27 30 47 27 30 47 27 30 47
27 30 47 27
35 67 24 35 67 24 36 67 24 36 68 24 36 68 24 36 68 24 36 68 24 36 68
24 36 68 24 36 68 24 36 69 24 36 69 24 36 69 24 36 69 24 37 69 24 37
69 24 37 70 24 37 70 25 37 70 25 37 70 25 37 70 25 37 70 25 37 71 25
37 71 25 37 71 25 37 71 25 38 71 25 38 71 25 38 71 25 38 72 25 38 72
25 38 72 25 38 72 25 38 72 25 38 72 25 38 73 25 38 73 25 38 73 25 38
73 25 39 73 25 39 73 26 39 73 26 39 74 26 39 74 26 39 74 26 39 74 26
39 74 26 39 74 26 39 74 26 39 74 26 39 75 26 39 75 26 40 75 26 40 75
26 40 75 26 40 75 26 40 75 26 40 75 26 40 76 26 40 76 26 40 76 26 40
76 26 40 76 26 40 76 26 40 76 26 40 76 26 40 77 26 41 77 26 41 77 27
41 77 27 41 77 27 41 77 27 41 77 27 41 77 27 41 77 27 41 77 27 41 78
27 41 78 27 41 78 27 41 78 27 41 78 27 41 78 27 41 78 27 41 78 27 41
78 27 41 78 27 42 78 27 42 78 27 42 78 27 42 79 27 42 79 27 42 79 27
42 79 27 42 79 27 42 79 27 42 79 27 42 79 27 42 79 27 42 79 27 42 79
27 42 79 27 42 79 27 42 79 27 42 79 27 42 79 27 42 79 27 42 79 27 42
79 27 42 79 27 42 79 27 42 80 27 42 80 27 42 80 27 42 80 27 42 80 27
42 80 27 43 80 27 43 80 27 43 80 27 43 80 27 43 80 27 43 80 27 43 80
27 43 80 27 43 80 27 43 80 27 43 80 27 43 80 28 43 80 28 43 80 28 43
80 28 43 80 28 43 80 28 43 80 28 43 79 28 43 79 28 43 79 28 43 79 28
43 79 28 43 79 28 43 79 28 43 79 28 43 79 28 43 79 28 43 79 28 43 79
28 43 79 28 43 79 28 43 79 28 43 79 28 43 79 28 43 79 28 43 79 28 43
79 28 43 79 28 43 78 28 42 78 28 42 78 28 42 78 28 42 78 28 42 78 28
42 78 28 42 78 28 42 78 28 42 78 28 42 78 28 42 78 28 42 78 28 42 77
28 42 77 28 42 77 28 42 77 28 42 77 28 42 77 28 42 77 28 42 77 28 42
77 28 42 77 28 42 76 28 42 76 28 42 76 28 42 76 28 42 76 28 42 76 28
42 76 28 42 76 28 42 76 28 42 75 28 42 75 28 41 75 28 41 75 28 41 75
28 41 75 28 41 75 28 41 75 28 41 74 28 41 74 28 41 74 28 41 74 28 41
74 28 41 74 28 41 74 28 41 74 28 41 73 28 41 73 28 41 73 28 41 73 28
41 73 28 41 73 28 41 73 28 40 72 28 40 72 28 40 72 28 40 72 28 40 72
28 40 72 28 40 72 28 40 71 28 40 71 28 40 71 28 40 71 28 40 71 28 40
71 28 40 70 28 40 70 28 40 70 28 40 70 28 40 70 28 39 70 28 39 70 28
39 69 28 39 69 28 39 69 28 39 69 28 39 69 28 39 69 28 39 68 28 39 68
28 39 68 28 39 68 28 39 68 28 39 68 28 39 68 28 39 67 28 39 67 28 39
67 28 38 67 28 38 67 28 38 67 28 38 66 28 38 66 28 38 66 28 38 66 28
38 66 28 38 66 28 38 66 28 38 65 28 38 65 28 38 65 28 38 65 28 38 65
28 38 65 28 38 64 28 38 64 28 37 64 28 37 64 29 37 64 29 37 64 29 37
64 29 37 63 29 37 63 29 37 63 29 37 63 29 37 63 29 37 63 29 37 62 29
37 62 29 37 62 29 37 62 29 37 62 29 37 62 29 36 62 29 36 61 29 36 61
29 36 61 29 36 61 29 36 61 29 36 61 29 36 61 29 36 60 29 36 60 29 36
60 29 36 60 29 36 60 29 36 60 29 36 60 29 36 59 29 36 59 29 36 59 29
35 59 29 35 59 29 35 59 29 35 59 29 35 58 29 35 58 29 35 58 29 35 58
29 35 58 29 35 58 29 35 58 29 35 57 29 35 57 29 35 57 29 35 57 29 35
57 29 35 57 29 35 57 29 34 56 29 34 56 29 34 56 29 34 56 29 34 56 29
34 56 29 34 56 29 34 56 29 34 55 29 34 55 29 34 55 29 34 55 29 34 55
29 34 55 29 34 55 29 34 55 29 34 54 29 34 54 29 33 54 29 33 54 29 33
54 29 33 54 29 33 54 29 33 54 29 33 53 29 33 53 29 33 53 29 33 53 29
33 53 29 33 53 29 33 53 29 33 53 28 33 52 28 33 52 28 33 52 28 32 52
28 32 52 28 32 52 28 32 52 28 32 52 28 32 51 28 32 51 28 32 51 28 32
51 28 32 51 28 32 51 28 32 51 28 32 51 28 32 51 28 32 50 28 32 50 28
32 50 28 31 50 28 31 50 28 31 50 28 31 50 28 31 50 28 31 50 28 31 49
28 31 49 28 31 49 28 31 49 28 31 49 27 31 49 27 31 49 27 31 49 27 31
49 27 31 48 27 30 48 27 30 48 27 30 48 27 30 48 27 30 48 27 30 48 27
30 48 27 30 48 27 30 48 27 30 47 27 30 47 27 30 47 27 30 47 27 30 47
27 30 47 27
35 67 24 35 67 24 36 67 24 36 68 24 36 68 24 36 68 24 36 68 24 36 68
24 36 68 24 36 68 24 36 69 24 36 69 24 36 69 24 36 69 24 37 69 24 37
69 24 37 70 24 37 70 24 37 70 25 37 70 25 37 70 25 37 70 25 37 70 25
37 71 25 37 71 25 37 71 25 38 71 25 38 71 25 38 71 25 38 72 25 38 72
25 38 72 25 38 72 25 38 72 25 38 72 25 38 72 25 38 73 25 38 73 25 38
73 25 38 73 25 39 73 25 39 73 26 39 73 26 39 73 26 39 74 26 39 74 26
39 74 26 39 74 26 39 74 26 39 74 26 39 74 26 39 74 26 39 75 26 39 75
26 40 75 26 40 75 26 40 75 26 40 75 26 40 75 26 40 75 26 40 76 26 40
76 26 40 76 26 40 76 26 40 76 26 40 76 26 40 76 26 40 76 26 40 76 26
40 77 26 41 77 26 41 77 27 41 77 27 41 77 27 41 77 27 41 77 27 41 77
27 41 77 27 41 77 27 41 77 27 41 77 27 41 78 27 41 78 27 41 78 27 41
78 27 41 78 27 41 78 27 41 78 27 41 78 27 41 78 27 42 78 27 42 78 27
42 78 27 42 78 27 42 78 27 42 78 27 42 79 27 42 79 27 42 79 27 42 79
27 42 79 27 42 79 27 42 79 27 42 79 27 42 79 27 42 79 27 42 79 27 42
79 27 42 79 27 42 79 27 42 79 27 42 79 27 42 79 27 42 79 27 42 79 27
42 79 27 42 79 27 42 79 27 42 79 27 42 79 27 42 79 27 42 79 27 42 79
27 42 79 27 42 79 27 42 79 27 42 79 27 42 79 27 42 79 27 42 79 27 42
79 27 42 79 27 42 79 27 42 79 27 42 79 27 42 79 27 42 79 27 42 79 27
42 79 27 42 79 27 42 79 27 42 79 27 42 79 27 42 79 27 42 79 27 42 79
27 42 79 27 42 78 27 42 78 28 42 78 28 42 78 28 42 78 28 42 78 28 42
78 28 42 78 28 42 78 28 42 78 28 42 78 28 42 78 28 42 78 28 42 78 28
42 78 28 42 77 28 42 77 28 42 77 28 42 77 28 42 77 28 42 77 28 42 77
28 42 77 28 42 77 28 42 77 28 42 77 28 42 77 28 42 76 28 42 76 28 42
76 28 42 76 28 42 76 28 42 76 28 42 76 28 42 76 28 42 76 28 41 75 28
41 75 28 41 75 28 41 75 28 41 75 28 41 75 28 41 75 28 41 75 28 41 75
28 41 74 28 41 74 28 41 74 28 41 74 28 41 74 28 41 74 28 41 74 28 41
74 28 41 73 28 41 73 28 41 73 28 41 73 28 41 73 28 41 73 28 40 73 28
40 72 28 40 72 28 40 72 28 40 72 28 40 72 28 40 72 28 40 72 28 40 71
28 40 71 28 40 71 28 40 71 28 40 71 28 40 71 28 40 71 28 40 70 28 40
70 28 40 70 28 40 70 28 39 70 28 39 70 28 39 70 28 39 69 28 39 69 28
39 69 28 39 69 28 39 69 28 39 69 28 39 69 28 39 68 28 39 68 28 39 68
28 39 68 28 39 68 28 39 68 28 39 67 28 39 67 28 39 67 28 38 67 28 38
67 28 38 67 28 38 67 28 38 66 28 38 66 28 38 66 28 38 66 28 38 66 28
38 66 28 38 65 28 38 65 28 38 65 28 38 65 28 38 65 28 38 65 28 38 65
28 37 64 28 37 64 28 37 64 28 37 64 28 37 64 28 37 64 28 37 64 28 37
63 28 37 63 28 37 63 28 37 63 28 37 63 28 37 63 28 37 62 28 37 62 28
37 62 29 37 62 29 37 62 29 37 62 29 36 62 29 36 61 29 36 61 29 36 61
29 36 61 29 36 61 29 36 61 29 36 61 29 36 60 29 36 60 29 36 60 29 36
60 29 36 60 29 36 60 29 36 60 29 36 59 29 36 59 29 36 59 29 35 59 29
35 59 29 35 59 29 35 59 29 35 58 29 35 58 29 35 58 29 35 58 29 35 58
29 35 58 29 35 58 29 35 58 29 35 57 29 35 57 29 35 57 29 35 57 29 35
57 29 35 57 29 34 57 29 34 56 29 34 56 29 34 56 29 34 56 29 34 56 29
34 56 29 34 56 29 34 56 29 34 55 29 34 55 29 34 55 29 34 55 29 34 55
29 34 55 29 34 55 29 34 55 29 34 54 29 33 54 29 33 54 29 33 54 29 33
54 29 33 54 29 33 54 29 33 54 29 33 53 29 33 53 28 33 53 28 33 53 28
33 53 28 33 53 28 33 53 28 33 53 28 33 52 28 33 52 28 33 52 28 32 52
28 32 52 28 32 52 28 32 52 28 32 52 28 32 52 28 32 51 28 32 51 28 32
51 28 32 51 28 32 51 28 32 51 28 32 51 28 32 51 28 32 50 28 32 50 28
32 50 28 31 50 28 31 50 28 31 50 28 31 50 28 31 50 28 31 50 28 31 49
28 31 49 28 31 49 27 31 49 27 31 49 27 31 49 27 31 49 27 31 49 27 31
49 27 31 49 27 30 48 27 30 48 27 30 48 27 30 48 27 30 48 27 30 48 27
30 48 27 30 48 27 30 48 27 30 48 27 30 47 27 30 47 27 30 47 27 30 47
27 30 47 26
35 67 24 35 67 24 36 67 24 36 67 24 36 68 24 36 68 24 36 68 24 36 68
24 36 68 24 36 68 24 36 69 24 36 69 24 36 69 24 36 69 24 37 69 24 37
69 24 37 69 24 37 70 24 37 70 25 37 70 25 37 70 25 37 70 25 37 70 25
37 71 25 37 71 25 37 71 25 37 71 25 38 71 25 38 71 25 38 71 25 38 72
25 38 72 25 38 72 25 38 72 25 38 72 25 38 72 25 38 72 25 38 72 25 38
73 25 38 73 25 38 73 25 39 73 25 39 73 26 39 73 26 39 73 26 39 74 26
39 74 26 39 74 26 39 74 26 39 74 26 39 74 26 39 74 26 39 74 26 39 74
26 39 75 26 40 75 26 40 75 26 40 75 26 40 75 26 40 75 26 40 75 26 40
75 26 40 75 26 40 76 26 40 76 26 40 76 26 40 76 26 40 76 26 40 76 26
40 76 26 40 76 26 40 76 26 40 76 26 41 77 26 41 77 27 41 77 27 41 77
27 41 77 27 41 77 27 41 77 27 41 77 27 41 77 27 41 77 27 41 77 27 41
77 27 41 77 27 41 78 27 41 78 27 41 78 27 41 78 27 41 78 27 41 78 27
41 78 27 41 78 27 41 78 27 42 78 27 42 78 27 42 78 27 42 78 27 42 78
27 42 78 27 42 78 27 42 78 27 42 78 27 42 78 27 42 78 27 42 78 27 42
79 27 42 79 27 42 79 27 42 79 27 42 79 27 42 79 27 42 79 27 42 79 27
42 79 27 42 79 27 42 79 27 42 79 27 42 79 27 42 79 27 42 79 27 42 79
27 42 79 27 42 79 27 42 79 27 42 79 27 42 79 27 42 79 27 42 79 27 42
79 27 42 79 27 42 79 27 42 79 27 42 79 27 42 78 27 42 78 27 42 78 27
42 78 27 42 78 27 42 78 27 42 78 27 42 78 27 42 78 27 42 78 27 42 78
27 42 78 27 42 78 27 42 78 27 42 78 27 42 78 27 42 78 27 42 78 27 42
78 27 42 78 27 42 78 27 42 77 27 42 77 27 42 77 27 42 77 27 42 77 27
42 77 27 42 77 27 42 77 27 42 77 27 42 77 27 42 77 27 42 77 27 42 77
27 42 76 27 42 76 27 42 76 27 42 76 27 42 76 27 42 76 27 42 76 27 41
76 27 41 76 27 41 76 28 41 75 28 41 75 28 41 75 28 41 75 28 41 75 28
41 75 28 41 75 28 41 75 28 41 75 28 41 74 28 41 74 28 41 74 28 41 74
28 41 74 28 41 74 28 41 74 28 41 74 28 41 74 28 41 73 28 41 73 28 41
73 28 41 73 28 41 73 28 40 73 28 40 73 28 40 72 28 40 72 28 40 72 28
40 72 28 40 72 28 40 72 28 40 72 28 40 72 28 40 71 28 40 71 28 40 71
28 40 71 28 40 71 28 40 71 28 40 71 28 40 70 28 40 70 28 40 70 28 39
70 28 39 70 28 39 70 28 39 70 28 39 69 28 39 69 28 39 69 28 39 69 28
39 69 28 39 69 28 39 69 28 39 68 28 39 68 28 39 68 28 39 68 28 39 68
28 39 68 28 39 68 28 39 67 28 38 67 28 38 67 28 38 67 28 38 67 28 38
67 28 38 66 28 38 66 28 38 66 28 38 66 28 38 66 28 38 66 28 38 66 28
38 65 28 38 65 28 38 65 28 38 65 28 38 65 28 38 65 28 37 65 28 37 64
28 37 64 28 37 64 28 37 64 28 37 64 28 37 64 28 37 64 28 37 63 28 37
63 28 37 63 28 37 63 28 37 63 28 37 63 28 37 63 28 37 62 28 37 62 28
37 62 28 37 62 28 36 62 28 36 62 28 36 61 28 36 61 28 36 61 28 36 61
28 36 61 28 36 61 28 36 61 28 36 60 28 36 60 28 36 60 28 36 60 28 36
60 29 36 60 29 36 60 29 36 60 29 36 59 29 35 59 29 35 59 29 35 59 29
35 59 29 35 59 29 35 59 29 35 58 29 35 58 29 35 58 29 35 58 29 35 58
29 35 58 29 35 58 29 35 57 29 35 57 29 35 57 29 35 57 29 35 57 29 35
57 29 34 57 29 34 57 29 34 56 29 34 56 29 34 56 29 34 56 29 34 56 29
34 56 29 34 56 29 34 56 29 34 55 29 34 55 29 34 55 29 34 55 29 34 55
29 34 55 29 34 55 28 34 55 28 33 54 28 33 54 28 33 54 28 33 54 28 33
54 28 33 54 28 33 54 28 33 54 28 33 53 28 33 53 28 33 53 28 33 53 28
33 53 28 33 53 28 33 53 28 33 53 28 33 52 28 33 52 28 32 52 28 32 52
28 32 52 28 32 52 28 32 52 28 32 52 28 32 52 28 32 51 28 32 51 28 32
51 28 32 51 28 32 51 28 32 51 28 32 51 28 32 51 28 32 51 28 32 50 28
31 50 28 31 50 28 31 50 28 31 50 28 31 50 28 31 50 28 31 50 28 31 50
27 31 49 27 31 49 27 31 49 27 31 49 27 31 49 27 31 49 27 31 49 27 31
49 27 31 49 27 30 49 27 30 48 27 30 48 27 30 48 27 30 48 27 30 48 27
30 48 27 30 48 27 30 48 27 30 48 27 30 47 27 30 47 27 30 47 27 30 47
26 30 47 26
35 67 24 35 67 24 36 67 24 36 67 24 36 68 24 36 68 24 36 68 24 36 68
24 36 68 24 36 68 24 36 68 24 36 69 24 36 69 24 36 69 24 37 69 24 37
69 24 37 69 24 37 70 24 37 70 24 37 70 25 37 70 25 37 70 25 37 70 25
37 70 25 37 71 25 37 71 25 37 71 25 37 71 25 38 71 25 38 71 25 38 71
25 38 71 25 38 72 25 38 72 25 38 72 25 38 72 25 38 72 25 38 72 25 38
72 25 38 73 25 38 73 25 38 73 25 39 73 25 39 73 25 39 73 26 39 73 26
39 73 26 39 74 26 39 74 26 39 74 26 39 74 26 39 74 26 39 74 26 39 74
26 39 74 26 39 74 26 39 75 26 40 75 26 40 75 26 40 75 26 40 75 26 40
75 26 40 75 26 40 75 26 40 75 26 40 75 26 40 76 26 40 76 26 40 76 26
40 76 26 40 76 26 40 76 26 40 76 26 40 76 26 40 76 26 40 76 26 41 76
26 41 77 26 41 77 27 41 77 27 41 77 27 41 77 27 41 77 27 41 77 27 41
77 27 41 77 27 41 77 27 41 77 27 41 77 27 41 77 27 41 77 27 41 77 27
41 78 27 41 78 27 41 78 27 41 78 27 41 78 27 41 78 27 41 78 27 41 78
27 41 78 27 41 78 27 42 78 27 42 78 27 42 78 27 42 78 27 42 78 27 42
78 27 42 78 27 42 78 27 42 78 27 42 78 27 42 78 27 42 78 27 42 78 27
42 78 27 42 78 27 42 78 27 42 78 27 42 78 27 42 78 27 42 78 27 42 78
27 42 78 27 42 78 27 42 78 27 42 78 27 42 78 27 42 78 27 42 78 27 42
78 27 42 78 27 42 78 27 42 78 27 42 78 27 42 78 27 42 78 27 42 78 27
42 78 27 42 78 27 42 78 27 42 78 27 42 78 27 42 78 27 42 78 27 42 78
27 42 78 27 42 78 27 42 77 27 42 77 27 42 77 27 42 77 27 42 77 27 42
77 27 42 77 27 42 77 27 42 77 27 42 77 27 42 77 27 42 77 27 42 77 27
42 77 27 42 77 27 42 76 27 42 76 27 42 76 27 42 76 27 42 76 27 42 76
27 41 76 27 41 76 27 41 76 27 41 76 27 41 76 27 41 76 27 41 75 27 41
75 27 41 75 27 41 75 27 41 75 27 41 75 27 41 75 27 41 75 27 41 75 27
41 75 27 41 74 27 41 74 27 41 74 27 41 74 27 41 74 27 41 74 27 41 74
27 41 74 27 41 73 27 41 73 27 41 73 27 41 73 27 40 73 27 40 73 27 40
73 28 40 73 28 40 73 28 40 72 28 40 72 28 40 72 28 40 72 28 40 72 28
40 72 28 40 72 28 40 71 28 40 71 28 40 71 28 40 71 28 40 71 28 40 71
28 40 71 28 40 71 28 40 70 28 40 70 28 39 70 28 39 70 28 39 70 28 39
70 28 39 70 28 39 69 28 39 69 28 39 69 28 39 69 28 39 69 28 39 69 28
39 69 28 39 68 28 39 68 28 39 68 28 39 68 28 39 68 28 39 68 28 39 68
28 38 67 28 38 67 28 38 67 28 38 67 28 38 67 28 38 67 28 38 67 28 38
66 28 38 66 28 38 66 28 38 66 28 38 66 28 38 66 28 38 66 28 38 65 28
38 65 28 38 65 28 38 65 28 38 65 28 37 65 28 37 65 28 37 64 28 37 64
28 37 64 28 37 64 28 37 64 28 37 64 28 37 64 28 37 63 28 37 63 28 37
63 28 37 63 28 37 63 28 37 63 28 37 63 28 37 62 28 37 62 28 37 62 28
36 62 28 36 62 28 36 62 28 36 62 28 36 61 28 36 61 28 36 61 28 36 61
28 36 61 28 36 61 28 36 61 28 36 60 28 36 60 28 36 60 28 36 60 28 36
60 28 36 60 28 36 60 28 35 59 28 35 59 28 35 59 28 35 59 28 35 59 28
35 59 28 35 59 28 35 58 28 35 58 28 35 58 28 35 58 28 35 58 28 35 58
28 35 58 28 35 58 28 35 57 28 35 57 28 35 57 28 35 57 28 34 57 28 34
57 28 34 57 28 34 57 28 34 56 28 34 56 28 34 56 28 34 56 28 34 56 28
34 56 28 34 56 28 34 56 28 34 55 28 34 55 28 34 55 28 34 55 28 34 55
28 34 55 28 34 55 28 33 55 28 33 54 28 33 54 28 33 54 28 33 54 28 33
54 28 33 54 28 33 54 28 33 54 28 33 53 28 33 53 28 33 53 28 33 53 28
33 53 28 33 53 28 33 53 28 33 53 28 33 52 28 32 52 28 32 52 28 32 52
28 32 52 28 32 52 28 32 52 28 32 52 28 32 52 28 32 51 28 32 51 28 32
51 28 32 51 28 32 51 28 32 51 28 32 51 28 32 51 28 32 51 28 32 50 28
31 50 28 31 50 28 31 50 28 31 50 28 31 50 27 31 50 27 31 50 27 31 50
27 31 50 27 31 49 27 31 49 27 31 49 27 31 49 27 31 49 27 31 49 27 31
49 27 31 49 27 30 49 27 30 48 27 30 48 27 30 48 27 30 48 27 30 48 27
30 48 27 30 48 27 30 48 27 30 48 27 30 48 27 30 47 27 30 47 26 30 47
26 30 47 26
35 67 24 35 67 24 36 67 24 36 67 24 36 68 24 36 68 24 36 68 24 36 68
24 36 68 24 36 68 24 36 68 24 36 69 24 36 69 24 36 69 24 36 69 24 37
69 24 37 69 24 37 69 24 37 70 24 37 70 25 37 70 25 37 70 25 37 70 25
37 70 25 37 70 25 37 71 25 37 71 25 37 71 25 37 71 25 38 71 25 38 71
25 38 71 25 38 71 25 38 72 25 38 72 25 38 72 25 38 72 25 38 72 25 38
72 25 38 72 25 38 72 25 38 73 25 38 73 25 39 73 25 39 73 25 39 73 25
39 73 26 39 73 26 39 73 26 39 74 26 39 74 26 39 74 26 39 74 26 39 74
26 39 74 26 39 74 26 39 74 26 39 74 26 39 75 26 39 75 26 40 75 26 40
75 26 40 75 26 40 75 26 40 75 26 40 75 26 40 75 26 40 75 26 40 75 26
40 76 26 40 76 26 40 76 26 40 76 26 40 76 26 40 76 26 40 76 26 40 76
26 40 76 26 40 76 26 41 76 26 41 76 26 41 76 26 41 77 27 41 77 27 41
77 27 41 77 27 41 77 27 41 77 27 41 77 27 41 77 27 41 77 27 41 77 27
41 77 27 41 77 27 41 77 27 41 77 27 41 77 27 41 77 27 41 77 27 41 77
27 41 77 27 41 77 27 41 78 27 41 78 27 41 78 27 41 78 27 41 78 27 41
78 27 41 78 27 41 78 27 42 78 27 42 78 27 42 78 27 42 78 27 42 78 27
42 78 27 42 78 27 42 78 27 42 78 27 42 78 27 42 78 27 42 78 27 42 78
27 42 78 27 42 78 27 42 78 27 42 78 27 42 78 27 42 78 27 42 78 27 42
78 27 42 78 27 42 78 27 42 78 27 42 78 27 42 78 27 42 77 27 42 77 27
42 77 27 42 77 27 42 77 27 42 77 27 42 77 27 42 77 27 42 77 27 42 77
27 42 77 27 42 77 27 42 77 27 42 77 27 42 77 27 42 77 27 42 77 27 42
77 27 42 77 27 42 77 27 42 77 27 42 76 27 42 76 27 41 76 27 41 76 27
41 76 27 41 76 27 41 76 27 41 76 27 41 76 27 41 76 27 41 76 27 41 76
27 41 76 27 41 75 27 41 75 27 41 75 27 41 75 27 41 75 27 41 75 27 41
75 27 41 75 27 41 75 27 41 75 27 41 75 27 41 74 27 41 74 27 41 74 27
41 74 27 41 74 27 41 74 27 41 74 27 41 74 27 41 74 27 41 73 27 41 73
27 40 73 27 40 73 27 40 73 27 40 73 27 40 73 27 40 73 27 40 73 27 40
72 27 40 72 27 40 72 27 40 72 27 40 72 27 40 72 27 40 72 27 40 72 27
40 71 27 40 71 27 40 71 27 40 71 27 40 71 27 40 71 27 40 71 27 40 70
28 39 70 28 39 70 28 39 70 28 39 70 28 39 70 28 39 70 28 39 70 28 39
69 28 39 69 28 39 69 28 39 69 28 39 69 28 39 69 28 39 69 28 39 68 28
39 68 28 39 68 28 39 68 28 39 68 28 39 68 28 38 68 28 38 67 28 38 67
28 38 67 28 38 67 28 38 67 28 38 67 28 38 67 28 38 66 28 38 66 28 38
66 28 38 66 28 38 66 28 38 66 28 38 66 28 38 65 28 38 65 28 38 65 28
38 65 28 37 65 28 37 65 28 37 65 28 37 64 28 37 64 28 37 64 28 37 64
28 37 64 28 37 64 28 37 64 28 37 64 28 37 63 28 37 63 28 37 63 28 37
63 28 37 63 28 37 63 28 37 63 28 37 62 28 36 62 28 36 62 28 36 62 28
36 62 28 36 62 28 36 62 28 36 61 28 36 61 28 36 61 28 36 61 28 36 61
28 36 61 28 36 61 28 36 60 28 36 60 28 36 60 28 36 60 28 36 60 28 36
60 28 36 60 28 35 59 28 35 59 28 35 59 28 35 59 28 35 59 28 35 59 28
35 59 28 35 59 28 35 58 28 35 58 28 35 58 28 35 58 28 35 58 28 35 58
28 35 58 28 35 58 28 35 57 28 35 57 28 35 57 28 34 57 28 34 57 28 34
57 28 34 57 28 34 56 28 34 56 28 34 56 28 34 56 28 34 56 28 34 56 28
34 56 28 34 56 28 34 55 28 34 55 28 34 55 28 34 55 28 34 55 28 34 55
28 34 55 28 33 55 28 33 55 28 33 54 28 33 54 28 33 54 28 33 54 28 33
54 28 33 54 28 33 54 28 33 54 28 33 53 28 33 53 28 33 53 28 33 53 28
33 53 28 33 53 28 33 53 28 33 53 28 32 53 28 32 52 28 32 52 28 32 52
28 32 52 28 32 52 28 32 52 28 32 52 28 32 52 28 32 51 28 32 51 28 32
51 28 32 51 28 32 51 28 32 51 28 32 51 28 32 51 28 32 51 28 31 51 28
31 50 28 31 50 27 31 50 27 31 50 27 31 50 27 31 50 27 31 50 27 31 50
27 31 50 27 31 49 27 31 49 27 31 49 27 31 49 27 31 49 27 31 49 27 31
49 27 31 49 27 30 49 27 30 49 27 30 48 27 30 48 27 30 48 27 30 48 27
30 48 27 30 48 27 30 48 27 30 48 27 30 48 27 30 48 26 30 47 26 30 47
26 30 47 26
35 67 24 35 67 24 36 67 24 36 67 24 36 68 24 36 68 24 36 68 24 36 68
24 36 68 24 36 68 24 36 68 24 36 68 24 36 69 24 36 69 24 36 69 24 37
69 24 37 69 24 37 69 24 37 69 24 37 70 24 37 70 25 37 70 25 37 70 25
37 70 25 37 70 25 37 70 25 37 71 25 37 71 25 37 71 25 37 71 25 38 71
25 38 71 25 38 71 25 38 71 25 38 72 25 38 72 25 38 72 25 38 72 25 38
72 25 38 72 25 38 72 25 38 72 25 38 73 25 38 73 25 38 73 25 39 73 25
39 73 25 39 73 26 39 73 26 39 73 26 39 73 26 39 74 26 39 74 26 39 74
26 39 74 26 39 74 26 39 74 26 39 74 26 39 74 26 39 74 26 39 74 26 39
75 26 40 75 26 40 75 26 40 75 26 40 75 26 40 75 26 40 75 26 40 75 26
40 75 26 40 75 26 40 75 26 40 75 26 40 76 26 40 76 26 40 76 26 40 76
26 40 76 26 40 76 26 40 76 26 40 76 26 40 76 26 40 76 26 41 76 26 41
76 26 41 76 26 41 76 26 41 76 27 41 77 27 41 77 27 41 77 27 41 77 27
41 77 27 41 77 27 41 77 27 41 77 27 41 77 27 41 77 27 41 77 27 41 77
27 41 77 27 41 77 27 41 77 27 41 77 27 41 77 27 41 77 27 41 77 27 41
77 27 41 77 27 41 77 27 41 77 27 41 77 27 41 77 27 41 77 27 41 77 27
41 77 27 41 77 27 41 77 27 41 77 27 41 77 27 41 77 27 41 77 27 41 77
27 41 77 27 41 77 27 41 77 27 41 77 27 42 77 27 42 77 27 42 77 27 42
77 27 42 77 27 42 77 27 42 77 27 42 77 27 42 77 27 42 77 27 42 77 27
42 77 27 42 77 27 41 77 27 41 77 27 41 77 27 41 77 27 41 77 27 41 77
27 41 77 27 41 77 27 41 77 27 41 76 27 41 76 27 41 76 27 41 76 27 41
76 27 41 76 27 41 76 27 41 76 27 41 76 27 41 76 27 41 76 27 41 76 27
41 76 27 41 76 27 41 76 27 41 75 27 41 75 27 41 75 27 41 75 27 41 75
27 41 75 27 41 75 27 41 75 27 41 75 27 41 75 27 41 75 27 41 75 27 41
74 27 41 74 27 41 74 27 41 74 27 41 74 27 41 74 27 41 74 27 41 74 27
41 74 27 41 74 27 41 73 27 40 73 27 40 73 27 40 73 27 40 73 27 40 73
27 40 73 27 40 73 27 40 73 27 40 72 27 40 72 27 40 72 27 40 72 27 40
72 27 40 72 27 40 72 27 40 72 27 40 72 27 40 71 27 40 71 27 40 71 27
40 71 27 40 71 27 40 71 27 40 71 27 39 71 27 39 70 27 39 70 27 39 70
27 39 70 27 39 70 27 39 70 27 39 70 27 39 70 27 39 69 27 39 69 27 39
69 27 39 69 27 39 69 27 39 69 27 39 69 27 39 68 28 39 68 28 39 68 28
39 68 28 39 68 28 38 68 28 38 68 28 38 68 28 38 67 28 38 67 28 38 67
28 38 67 28 38 67 28 38 67 28 38 67 28 38 66 28 38 66 28 38 66 28 38
66 28 38 66 28 38 66 28 38 66 28 38 65 28 38 65 28 38 65 28 37 65 28
37 65 28 37 65 28 37 65 28 37 64 28 37 64 28 37 64 28 37 64 28 37 64
28 37 64 28 37 64 28 37 63 28 37 63 28 37 63 28 37 63 28 37 63 28 37
63 28 37 63 28 37 63 28 36 62 28 36 62 28 36 62 28 36 62 28 36 62 28
36 62 28 36 62 28 36 61 28 36 61 28 36 61 28 36 61 28 36 61 28 36 61
28 36 61 28 36 60 28 36 60 28 36 60 28 36 60 28 36 60 28 36 60 28 35
60 28 35 60 28 35 59 28 35 59 28 35 59 28 35 59 28 35 59 28 35 59 28
35 59 28 35 58 28 35 58 28 35 58 28 35 58 28 35 58 28 35 58 28 35 58
28 35 58 28 35 57 28 35 57 28 34 57 28 34 57 28 34 57 28 34 57 28 34
57 28 34 57 28 34 56 28 34 56 28 34 56 28 34 56 28 34 56 28 34 56 28
34 56 28 34 56 28 34 55 28 34 55 28 34 55 28 34 55 28 34 55 28 34 55
28 33 55 28 33 55 28 33 54 28 33 54 28 33 54 28 33 54 28 33 54 28 33
54 28 33 54 28 33 54 28 33 54 28 33 53 28 33 53 28 33 53 28 33 53 28
33 53 28 33 53 28 33 53 28 33 53 28 32 53 28 32 52 28 32 52 28 32 52
28 32 52 28 32 52 28 32 52 28 32 52 28 32 52 28 32 52 28 32 51 28 32
51 28 32 51 28 32 51 28 32 51 28 32 51 28 32 51 27 32 51 27 31 51 27
31 50 27 31 50 27 31 50 27 31 50 27 31 50 27 31 50 27 31 50 27 31 50
27 31 50 27 31 50 27 31 49 27 31 49 27 31 49 27 31 49 27 31 49 27 31
49 27 31 49 27 30 49 27 30 49 27 30 49 27 30 48 27 30 48 27 30 48 27
30 48 27 30 48 27 30 48 27 30 48 27 30 48 26 30 48 26 30 48 26 30 47
26 30 47 26
35 67 24 35 67 24 36 67 24 36 67 24 36 67 24 36 68 24 36 68 24 36 68
24 36 68 24 36 68 24 36 68 24 36 68 24 36 69 24 36 69 24 36 69 24 36
69 24 37 69 24 37 69 24 37 69 24 37 69 24 37 70 24 37 70 25 37 70 25
37 70 25 37 70 25 37 70 25 37 70 25 37 71 25 37 71 25 37 71 25 37 71
25 38 71 25 38 71 25 38 71 25 38 71 25 38 71 25 38 72 25 38 72 25 38
72 25 38 72 25 38 72 25 38 72 25 38 72 25 38 72 25 38 73 25 38 73 25
39 73 25 39 73 25 39 73 25 39 73 26 39 73 26 39 73 26 39 73 26 39 73
26 39 74 26 39 74 26 39 74 26 39 74 26 39 74 26 39 74 26 39 74 26 39
74 26 39 74 26 39 74 26 40 74 26 40 75 26 40 75 26 40 75 26 40 75 26
40 75 26 40 75 26 40 75 26 40 75 26 40 75 26 40 75 26 40 75 26 40 75
26 40 75 26 40 76 26 40 76 26 40 76 26 40 76 26 40 76 26 40 76 26 40
76 26 40 76 26 40 76 26 40 76 26 41 76 26 41 76 26 41 76 26 41 76 26
41 76 26 41 76 27 41 76 27 41 76 27 41 76 27 41 77 27 41 77 27 41 77
27 41 77 27 41 77 27 41 77 27 41 77 27 41 77 27 41 77 27 41 77 27 41
77 27 41 77 27 41 77 27 41 77 27 41 77 27 41 77 27 41 77 27 41 77 27
41 77 27 41 77 27 41 77 27 41 77 27 41 77 27 41 77 27 41 77 27 41 77
27 41 77 27 41 77 27 41 77 27 41 77 27 41 77 27 41 77 27 41 77 27 41
77 27 41 77 27 41 77 27 41 77 27 41 77 27 41 77 27 41 77 27 41 77 27
41 77 27 41 76 27 41 76 27 41 76 27 41 76 27 41 76 27 41 76 27 41 76
27 41 76 27 41 76 27 41 76 27 41 76 27 41 76 27 41 76 27 41 76 27 41
76 27 41 76 27 41 76 27 41 76 27 41 76 27 41 75 27 41 75 27 41 75 27
41 75 27 41 75 27 41 75 27 41 75 27 41 75 27 41 75 27 41 75 27 41 75
27 41 75 27 41 75 27 41 75 27 41 74 27 41 74 27 41 74 27 41 74 27 41
74 27 41 74 27 41 74 27 41 74 27 41 74 27 40 74 27 40 73 27 40 73 27
40 73 27 40 73 27 40 73 27 40 73 27 40 73 27 40 73 27 40 73 27 40 73
27 40 72 27 40 72 27 40 72 27 40 72 27 40 72 27 40 72 27 40 72 27 40
72 27 40 72 27 40 71 27 40 71 27 40 71 27 40 71 27 40 71 27 40 71 27
39 71 27 39 71 27 39 70 27 39 70 27 39 70 27 39 70 27 39 70 27 39 70
27 39 70 27 39 70 27 39 69 27 39 69 27 39 69 27 39 69 27 39 69 27 39
69 27 39 69 27 39 69 27 39 68 27 39 68 27 39 68 27 39 68 27 38 68 27
38 68 27 38 68 27 38 68 27 38 67 27 38 67 27 38 67 27 38 67 27 38 67
27 38 67 27 38 67 28 38 66 28 38 66 28 38 66 28 38 66 28 38 66 28 38
66 28 38 66 28 38 66 28 38 65 28 37 65 28 37 65 28 37 65 28 37 65 28
37 65 28 37 65 28 37 64 28 37 64 28 37 64 28 37 64 28 37 64 28 37 64
28 37 64 28 37 63 28 37 63 28 37 63 28 37 63 28 37 63 28 37 63 28 37
63 28 36 63 28 36 62 28 36 62 28 36 62 28 36 62 28 36 62 28 36 62 28
36 62 28 36 61 28 36 61 28 36 61 28 36 61 28 36 61 28 36 61 28 36 61
28 36 61 28 36 60 28 36 60 28 36 60 28 36 60 28 35 60 28 35 60 28 35
60 28 35 59 28 35 59 28 35 59 28 35 59 28 35 59 28 35 59 28 35 59 28
35 59 28 35 58 28 35 58 28 35 58 28 35 58 28 35 58 28 35 58 28 35 58
28 35 58 28 35 57 28 34 57 28 34 57 28 34 57 28 34 57 28 34 57 28 34
57 28 34 57 28 34 56 28 34 56 28 34 56 28 34 56 28 34 56 28 34 56 28
34 56 28 34 56 28 34 55 28 34 55 28 34 55 28 34 55 28 33 55 28 33 55
28 33 55 28 33 55 28 33 54 28 33 54 28 33 54 28 33 54 28 33 54 28 33
54 28 33 54 28 33 54 28 33 54 28 33 53 28 33 53 28 33 53 28 33 53 28
33 53 28 33 53 28 33 53 28 32 53 28 32 53 28 32 52 28 32 52 28 32 52
28 32 52 28 32 52 28 32 52 28 32 52 28 32 52 28 32 52 28 32 51 28 32
51 28 32 51 27 32 51 27 32 51 27 32 51 27 32 51 27 32 51 27 31 51 27
31 50 27 31 50 27 31 50 27 31 50 27 31 50 27 31 50 27 31 50 27 31 50
27 31 50 27 31 50 27 31 49 27 31 49 27 31 49 27 31 49 27 31 49 27 31
49 27 31 49 27 30 49 27 30 49 27 30 49 27 30 48 27 30 48 27 30 48 27
30 48 27 30 48 27 30 48 26 30 48 26 30 48 26 30 48 26 30 48 26 30 48
26 30 47 26
35 67 24 35 67 24 36 67 24 36 67 24 36 67 24 36 68 24 36 68 24 36 68
24 36 68 24 36 68 24 36 68 24 36 68 24 36 68 24 36 69 24 36 69 24 36
69 24 36 69 24 37 69 24 37 69 24 37 69 24 37 69 24 37 70 24 37 70 25
37 70 25 37 70 25 37 70 25 37 70 25 37 70 25 37 70 25 37 71 25 37 71
25 37 71 25 38 71 25 38 71 25 38 71 25 38 71 25 38 71 25 38 72 25 38
72 25 38 72 25 38 72 25 38 72 25 38 72 25 38 72 25 38 72 25 38 72 25
38 73 25 38 73 25 39 73 25 39 73 25 39 73 25 39 73 25 39 73 26 39 73
26 39 73 26 39 73 26 39 73 26 39 74 26 39 74 26 39 74 26 39 74 26 39
74 26 39 74 26 39 74 26 39 74 26 39 74 26 39 74 26 40 74 26 40 75 26
40 75 26 40 75 26 40 75 26 40 75 26 40 75 26 40 75 26 40 75 26 40 75
26 40 75 26 40 75 26 40 75 26 40 75 26 40 75 26 40 75 26 40 76 26 40
76 26 40 76 26 40 76 26 40 76 26 40 76 26 40 76 26 40 76 26 40 76 26
40 76 26 41 76 26 41 76 26 41 76 26 41 76 26 41 76 26 41 76 26 41 76
26 41 76 27 41 76 27 41 76 27 41 76 27 41 76 27 41 76 27 41 76 27 41
76 27 41 76 27 41 76 27 41 76 27 41 76 27 41 76 27 41 76 27 41 76 27
41 76 27 41 76 27 41 76 27 41 76 27 41 76 27 41 76 27 41 76 27 41 76
27 41 76 27 41 76 27 41 76 27 41 76 27 41 76 27 41 76 27 41 76 27 41
76 27 41 76 27 41 76 27 41 76 27 41 76 27 41 76 27 41 76 27 41 76 27
41 76 27 41 76 27 41 76 27 41 76 27 41 76 27 41 76 27 41 76 27 41 76
27 41 76 27 41 76 27 41 76 27 41 76 27 41 76 27 41 75 27 41 75 27 41
75 27 41 75 27 41 75 27 41 75 27 41 75 27 41 75 27 41 75 27 41 75 27
41 75 27 41 75 27 41 75 27 41 75 27 41 75 27 41 74 27 41 74 27 41 74
27 41 74 27 41 74 27 41 74 27 41 74 27 41 74 27 40 74 27 40 74 27 40
74 27 40 74 27 40 73 27 40 73 27 40 73 27 40 73 27 40 73 27 40 73 27
40 73 27 40 73 27 40 73 27 40 73 27 40 73 27 40 72 27 40 72 27 40 72
27 40 72 27 40 72 27 40 72 27 40 72 27 40 72 27 40 72 27 40 71 27 40
71 27 40 71 27 40 71 27 40 71 27 39 71 27 39 71 27 39 71 27 39 71 27
39 70 27 39 70 27 39 70 27 39 70 27 39 70 27 39 70 27 39 70 27 39 70
27 39 69 27 39 69 27 39 69 27 39 69 27 39 69 27 39 69 27 39 69 27 39
69 27 39 68 27 39 68 27 39 68 27 38 68 27 38 68 27 38 68 27 38 68 27
38 68 27 38 67 27 38 67 27 38 67 27 38 67 27 38 67 27 38 67 27 38 67
27 38 66 27 38 66 27 38 66 27 38 66 27 38 66 27 38 66 27 38 66 27 38
66 27 38 65 27 37 65 27 37 65 27 37 65 27 37 65 27 37 65 28 37 65 28
37 64 28 37 64 28 37 64 28 37 64 28 37 64 28 37 64 28 37 64 28 37 64
28 37 63 28 37 63 28 37 63 28 37 63 28 37 63 28 37 63 28 36 63 28 36
62 28 36 62 28 36 62 28 36 62 28 36 62 28 36 62 28 36 62 28 36 62 28
36 61 28 36 61 28 36 61 28 36 61 28 36 61 28 36 61 28 36 61 28 36 61
28 36 60 28 36 60 28 36 60 28 35 60 28 35 60 28 35 60 28 35 60 28 35
59 28 35 59 28 35 59 28 35 59 28 35 59 28 35 59 28 35 59 28 35 59 28
35 58 28 35 58 28 35 58 28 35 58 28 35 58 28 35 58 28 35 58 28 35 58
28 34 57 28 34 57 28 34 57 28 34 57 28 34 57 28 34 57 28 34 57 28 34
57 28 34 56 28 34 56 28 34 56 28 34 56 28 34 56 28 34 56 28 34 56 28
34 56 28 34 56 28 34 55 28 34 55 28 34 55 28 33 55 28 33 55 28 33 55
28 33 55 28 33 55 28 33 54 28 33 54 28 33 54 28 33 54 28 33 54 28 33
54 28 33 54 28 33 54 28 33 54 28 33 53 28 33 53 28 33 53 28 33 53 28
33 53 28 33 53 28 32 53 28 32 53 28 32 53 28 32 52 28 32 52 28 32 52
28 32 52 28 32 52 28 32 52 28 32 52 27 32 52 27 32 52 27 32 51 27 32
51 27 32 51 27 32 51 27 32 51 27 32 51 27 32 51 27 31 51 27 31 51 27
31 51 27 31 50 27 31 50 27 31 50 27 31 50 27 31 50 27 31 50 27 31 50
27 31 50 27 31 50 27 31 50 27 31 49 27 31 49 27 31 49 27 31 49 27 31
49 27 31 49 27 30 49 27 30 49 27 30 49 27 30 49 27 30 48 27 30 48 27
30 48 26 30 48 26 30 48 26 30 48 26 30 48 26 30 48 26 30 48 26 30 48
26 24 35 21
35 67 24 35 67 24 35 67 24 36 67 24 36 67 24 36 67 24 36 68 24 36 68
24 36 68 24 36 68 24 36 68 24 36 68 24 36 68 24 36 68 24 36 69 24 36
69 24 36 69 24 37 69 24 37 69 24 37 69 24 37 69 24 37 69 24 37 70 24
37 70 25 37 70 25 37 70 25 37 70 25 37 70 25 37 70 25 37 70 25 37 71
25 37 71 25 37 71 25 38 71 25 38 71 25 38 71 25 38 71 25 38 71 25 38
71 25 38 72 25 38 72 25 38 72 25 38 72 25 38 72 25 38 72 25 38 72 25
38 72 25 38 72 25 38 72 25 38 73 25 39 73 25 39 73 25 39 73 25 39 73
25 39 73 26 39 73 26 39 73 26 39 73 26 39 73 26 39 73 26 39 74 26 39
74 26 39 74 26 39 74 26 39 74 26 39 74 26 39 74 26 39 74 26 39 74 26
39 74 26 40 74 26 40 74 26 40 74 26 40 75 26 40 75 26 40 75 26 40 75
26 40 75 26 40 75 26 40 75 26 40 75 26 40 75 26 40 75 26 40 75 26 40
75 26 40 75 26 40 75 26 40 75 26 40 75 26 40 75 26 40 75 26 40 76 26
40 76 26 40 76 26 40 76 26 40 76 26 40 76 26 40 76 26 40 76 26 40 76
26 41 76 26 41 76 26 41 76 26 41 76 26 41 76 26 41 76 26 41 76 26 41
76 26 41 76 27 41 76 27 41 76 27 41 76 27 41 76 27 41 76 27 41 76 27
41 76 27 41 76 27 41 76 27 41 76 27 41 76 27 41 76 27 41 76 27 41 76
27 41 76 27 41 76 27 41 76 27 41 76 27 41 76 27 41 76 27 41 76 27 41
76 27 41 76 27 41 76 27 41 76 27 41 76 27 41 76 27 41 76 27 41 76 27
41 76 27 41 76 27 41 76 27 41 76 27 41 75 27 41 75 27 41 75 27 41 75
27 41 75 27 41 75 27 41 75 27 41 75 27 41 75 27 41 75 27 41 75 27 41
75 27 41 75 27 41 75 27 41 75 27 41 75 27 41 75 27 41 75 27 41 75 27
41 74 27 41 74 27 41 74 27 41 74 27 40 74 27 40 74 27 40 74 27 40 74
27 40 74 27 40 74 27 40 74 27 40 74 27 40 74 27 40 73 27 40 73 27 40
73 27 40 73 27 40 73 27 40 73 27 40 73 27 40 73 27 40 73 27 40 73 27
40 73 27 40 72 27 40 72 27 40 72 27 40 72 27 40 72 27 40 72 27 40 72
27 40 72 27 40 72 27 40 72 27 40 71 27 40 71 27 40 71 27 39 71 27 39
71 27 39 71 27 39 71 27 39 71 27 39 71 27 39 70 27 39 70 27 39 70 27
39 70 27 39 70 27 39 70 27 39 70 27 39 70 27 39 69 27 39 69 27 39 69
27 39 69 27 39 69 27 39 69 27 39 69 27 39 69 27 39 69 27 39 68 27 38
68 27 38 68 27 38 68 27 38 68 27 38 68 27 38 68 27 38 68 27 38 67 27
38 67 27 38 67 27 38 67 27 38 67 27 38 67 27 38 67 27 38 67 27 38 66
27 38 66 27 38 66 27 38 66 27 38 66 27 38 66 27 38 66 27 37 65 27 37
65 27 37 65 27 37 65 27 37 65 27 37 65 27 37 65 27 37 65 27 37 64 27
37 64 27 37 64 27 37 64 27 37 64 27 37 64 27 37 64 27 37 64 27 37 63
27 37 63 27 37 63 27 37 63 28 37 63 28 36 63 28 36 63 28 36 62 28 36
62 28 36 62 28 36 62 28 36 62 28 36 62 28 36 62 28 36 62 28 36 61 28
36 61 28 36 61 28 36 61 28 36 61 28 36 61 28 36 61 28 36 61 28 36 60
28 36 60 28 35 60 28 35 60 28 35 60 28 35 60 28 35 60 28 35 60 28 35
59 28 35 59 28 35 59 28 35 59 28 35 59 28 35 59 28 35 59 28 35 59 28
35 58 28 35 58 28 35 58 28 35 58 28 35 58 28 35 58 28 35 58 28 34 58
28 34 57 28 34 57 28 34 57 28 34 57 28 34 57 28 34 57 28 34 57 28 34
57 28 34 56 28 34 56 28 34 56 28 34 56 28 34 56 28 34 56 28 34 56 28
34 56 28 34 56 28 34 55 28 34 55 28 33 55 28 33 55 28 33 55 28 33 55
28 33 55 28 33 55 28 33 54 28 33 54 28 33 54 28 33 54 28 33 54 28 33
54 28 33 54 28 33 54 28 33 54 28 33 53 28 33 53 28 33 53 28 33 53 28
33 53 28 32 53 28 32 53 28 32 53 28 32 53 28 32 52 27 32 52 27 32 52
27 32 52 27 32 52 27 32 52 27 32 52 27 32 52 27 32 52 27 32 51 27 32
51 27 32 51 27 32 51 27 32 51 27 32 51 27 31 51 27 31 51 27 31 51 27
31 51 27 31 50 27 31 50 27 31 50 27 31 50 27 31 50 27 31 50 27 31 50
27 31 50 27 31 50 27 31 50 27 31 49 27 31 49 27 31 49 27 31 49 27 31
49 27 31 49 27 30 49 27 30 49 27 30 49 27 30 49 27 30 48 27 30 48 26
30 48 26 24 36 21 24 36 21 24 36 21 24 35 21 24 35 21 24 35 21 24 35
21 24 35 21
35 67 24 35 67 24 35 67 24 36 67 24 36 67 24 36 67 24 36 67 24 36 68
24 36 68 24 36 68 24 36 68 24 36 68 24 36 68 24 36 68 24 36 68 24 36
69 24 36 69 24 36 69 24 37 69 24 37 69 24 37 69 24 37 69 24 37 69 24
37 70 24 37 70 25 37 70 25 37 70 25 37 70 25 37 70 25 37 70 25 37 70
25 37 70 25 37 71 25 37 71 25 38 71 25 38 71 25 38 71 25 38 71 25 38
71 25 38 71 25 38 71 25 38 72 25 38 72 25 38 72 25 38 72 25 38 72 25
38 72 25 38 72 25 38 72 25 38 72 25 38 72 25 38 73 25 39 73 25 39 73
25 39 73 25 39 73 25 39 73 25 39 73 26 39 73 26 39 73 26 39 73 26 39
73 26 39 73 26 39 74 26 39 74 26 39 74 26 39 74 26 39 74 26 39 74 26
39 74 26 39 74 26 39 74 26 39 74 26 39 74 26 40 74 26 40 74 26 40 74
26 40 74 26 40 75 26 40 75 26 40 75 26 40 75 26 40 75 26 40 75 26 40
75 26 40 75 26 40 75 26 40 75 26 40 75 26 40 75 26 40 75 26 40 75 26
40 75 26 40 75 26 40 75 26 40 75 26 40 75 26 40 75 26 40 75 26 40 75
26 40 75 26 40 75 26 40 75 26 40 75 26 40 76 26 40 76 26 40 76 26 40
76 26 40 76 26 40 76 26 41 76 26 41 76 26 41 76 26 41 76 26 41 76 26
41 76 26 41 76 26 41 76 26 41 76 27 41 76 27 41 76 27 41 76 27 41 76
27 41 76 27 41 76 27 41 76 27 41 76 27 41 75 27 41 75 27 41 75 27 41
75 27 41 75 27 41 75 27 41 75 27 41 75 27 41 75 27 41 75 27 41 75 27
41 75 27 41 75 27 41 75 27 41 75 27 41 75 27 41 75 27 41 75 27 41 75
27 41 75 27 41 75 27 41 75 27 41 75 27 41 75 27 41 75 27 41 75 27 41
75 27 40 74 27 40 74 27 40 74 27 40 74 27 40 74 27 40 74 27 40 74 27
40 74 27 40 74 27 40 74 27 40 74 27 40 74 27 40 74 27 40 74 27 40 74
27 40 73 27 40 73 27 40 73 27 40 73 27 40 73 27 40 73 27 40 73 27 40
73 27 40 73 27 40 73 27 40 73 27 40 73 27 40 72 27 40 72 27 40 72 27
40 72 27 40 72 27 40 72 27 40 72 27 40 72 27 40 72 27 40 72 27 40 71
27 40 71 27 39 71 27 39 71 27 39 71 27 39 71 27 39 71 27 39 71 27 39
71 27 39 71 27 39 70 27 39 70 27 39 70 27 39 70 27 39 70 27 39 70 27
39 70 27 39 70 27 39 70 27 39 69 27 39 69 27 39 69 27 39 69 27 39 69
27 39 69 27 39 69 27 39 69 27 39 68 27 38 68 27 38 68 27 38 68 27 38
68 27 38 68 27 38 68 27 38 68 27 38 68 27 38 67 27 38 67 27 38 67 27
38 67 27 38 67 27 38 67 27 38 67 27 38 67 27 38 66 27 38 66 27 38 66
27 38 66 27 38 66 27 38 66 27 37 66 27 37 66 27 37 65 27 37 65 27 37
65 27 37 65 27 37 65 27 37 65 27 37 65 27 37 65 27 37 64 27 37 64 27
37 64 27 37 64 27 37 64 27 37 64 27 37 64 27 37 63 27 37 63 27 37 63
27 37 63 27 36 63 27 36 63 27 36 63 27 36 63 27 36 62 27 36 62 27 36
62 27 36 62 27 36 62 27 36 62 27 36 62 27 36 62 27 36 61 27 36 61 27
36 61 27 36 61 28 36 61 28 36 61 28 36 61 28 36 61 28 36 60 28 35 60
28 35 60 28 35 60 28 35 60 28 35 60 28 35 60 28 35 60 28 35 59 28 35
59 28 35 59 28 35 59 28 35 59 28 35 59 28 35 59 28 35 59 28 35 58 28
35 58 28 35 58 28 35 58 28 35 58 28 35 58 28 34 58 28 34 58 28 34 57
28 34 57 28 34 57 28 34 57 28 34 57 28 34 57 28 34 57 28 34 57 28 34
57 28 34 56 28 34 56 28 34 56 28 34 56 28 34 56 28 34 56 28 34 56 28
34 56 28 34 55 28 34 55 28 33 55 28 33 55 28 33 55 28 33 55 28 33 55
28 33 55 28 33 55 28 33 54 28 33 54 28 33 54 28 33 54 28 33 54 28 33
54 28 33 54 28 33 54 28 33 54 28 33 53 27 33 53 27 33 53 27 33 53 27
32 53 27 32 53 27 32 53 27 32 53 27 32 53 27 32 52 27 32 52 27 32 52
27 32 52 27 32 52 27 32 52 27 32 52 27 32 52 27 32 52 27 32 52 27 32
51 27 32 51 27 32 51 27 32 51 27 32 51 27 31 51 27 31 51 27 31 51 27
31 51 27 31 50 27 31 50 27 31 50 27 31 50 27 31 50 27 31 50 27 31 50
27 31 50 27 31 50 27 31 50 27 31 49 27 31 49 27 31 49 27 31 49 27 31
49 27 30 49 27 30 49 27 25 36 21 25 36 21 25 36 21 24 36 21 24 36 21
24 36 21 24 36 21 24 36 21 24 36 21 24 36 21 24 35 21 24 35 21 24 35
21 24 35 21
35 67 24 35 67 24 35 67 24 36 67 24 36 67 24 36 67 24 36 67 24 36 68
24 36 68 24 36 68 24 36 68 24 36 68 24 36 68 24 36 68 24 36 68 24 36
68 24 36 69 24 36 69 24 36 69 24 37 69 24 37 69 24 37 69 24 37 69 24
37 69 24 37 70 24 37 70 25 37 70 25 37 70 25 37 70 25 37 70 25 37 70
25 37 70 25 37 70 25 37 71 25 37 71 25 37 71 25 38 71 25 38 71 25 38
71 25 38 71 25 38 71 25 38 71 25 38 71 25 38 72 25 38 72 25 38 72 25
38 72 25 38 72 25 38 72 25 38 72 25 38 72 25 38 72 25 38 72 25 38 72
25 38 73 25 39 73 25 39 73 25 39 73 25 39 73 25 39 73 26 39 73 26 39
73 26 39 73 26 39 73 26 39 73 26 39 73 26 39 73 26 39 74 26 39 74 26
39 74 26 39 74 26 39 74 26 39 74 26 39 74 26 39 74 26 39 74 26 39 74
26 39 74 26 40 74 26 40 74 26 40 74 26 40 74 26 40 74 26 40 74 26 40
74 26 40 75 26 40 75 26 40 75 26 40 75 26 40 75 26 40 75 26 40 75 26
40 75 26 40 75 26 40 75 26 40 75 26 40 75 26 40 75 26 40 75 26 40 75
26 40 75 26 40 75 26 40 75 26 40 75 26 40 75 26 40 75 26 40 75 26 40
75 26 40 75 26 40 75 26 40 75 26 40 75 26 40 75 26 40 75 26 40 75 26
40 75 26 40 75 26 40 75 26 40 75 26 40 75 26 40 75 26 40 75 26 40 75
26 40 75 26 40 75 26 40 75 26 40 75 26 40 75 26 40 75 26 40 75 26 40
75 26 40 75 27 40 75 27 40 75 27 40 75 27 40 75 27 40 75 27 40 75 27
40 75 27 40 75 27 40 75 27 40 75 27 40 75 27 40 75 27 40 75 27 40 75
27 40 74 27 40 74 27 40 74 27 40 74 27 40 74 27 40 74 27 40 74 27 40
74 27 40 74 27 40 74 27 40 74 27 40 74 27 40 74 27 40 74 27 40 74 27
40 74 27 40 74 27 40 73 27 40 73 27 40 73 27 40 73 27 40 73 27 40 73
27 40 73 27 40 73 27 40 73 27 40 73 27 40 73 27 40 73 27 40 73 27 40
72 27 40 72 27 40 72 27 40 72 27 40 72 27 40 72 27 40 72 27 40 72 27
40 72 27 40 72 27 40 72 27 40 72 27 39 71 27 39 71 27 39 71 27 39 71
27 39 71 27 39 71 27 39 71 27 39 71 27 39 71 27 39 71 27 39 70 27 39
70 27 39 70 27 39 70 27 39 70 27 39 70 27 39 70 27 39 70 27 39 70 27
39 69 27 39 69 27 39 69 27 39 69 27 39 69 27 39 69 27 39 69 27 39 69
27 38 69 27 38 68 27 38 68 27 38 68 27 38 68 27 38 68 27 38 68 27 38
68 27 38 68 27 38 68 27 38 67 27 38 67 27 38 67 27 38 67 27 38 67 27
38 67 27 38 67 27 38 67 27 38 66 27 38 66 27 38 66 27 38 66 27 38 66
27 37 66 27 37 66 27 37 66 27 37 65 27 37 65 27 37 65 27 37 65 27 37
65 27 37 65 27 37 65 27 37 65 27 37 64 27 37 64 27 37 64 27 37 64 27
37 64 27 37 64 27 37 64 27 37 64 27 37 63 27 37 63 27 37 63 27 36 63
27 36 63 27 36 63 27 36 63 27 36 63 27 36 62 27 36 62 27 36 62 27 36
62 27 36 62 27 36 62 27 36 62 27 36 62 27 36 61 27 36 61 27 36 61 27
36 61 27 36 61 27 36 61 27 36 61 27 36 61 27 35 60 27 35 60 27 35 60
27 35 60 27 35 60 27 35 60 27 35 60 27 35 60 27 35 59 27 35 59 27 35
59 27 35 59 27 35 59 27 35 59 27 35 59 27 35 59 27 35 58 27 35 58 28
35 58 28 35 58 28 35 58 28 34 58 28 34 58 28 34 58 28 34 58 28 34 57
28 34 57 28 34 57 28 34 57 28 34 57 28 34 57 28 34 57 28 34 57 28 34
56 28 34 56 28 34 56 28 34 56 28 34 56 28 34 56 28 34 56 28 34 56 28
34 56 28 33 55 28 33 55 28 33 55 28 33 55 27 33 55 27 33 55 27 33 55
27 33 55 27 33 55 27 33 54 27 33 54 27 33 54 27 33 54 27 33 54 27 33
54 27 33 54 27 33 54 27 33 54 27 33 53 27 33 53 27 33 53 27 32 53 27
32 53 27 32 53 27 32 53 27 32 53 27 32 53 27 32 52 27 32 52 27 32 52
27 32 52 27 32 52 27 32 52 27 32 52 27 32 52 27 32 52 27 32 52 27 32
51 27 32 51 27 32 51 27 32 51 27 31 51 27 31 51 27 31 51 27 31 51 27
31 51 27 31 51 27 31 50 27 31 50 27 31 50 27 31 50 27 31 50 27 31 50
27 31 50 27 31 50 27 31 50 27 31 50 27 31 49 27 25 36 21 25 36 21 25
36 21 25 36 21 25 36 21 25 36 21 25 36 21 25 36 21 24 36 21 24 36 21
24 36 21 24 36 21 24 36 21 24 36 21 24 36 21 24 35 21 24 35 21 24 35
21 24 35 21
35 67 24 35 67 24 35 67 24 35 67 24 36 67 24 36 67 24 36 67 24 36 67
24 36 68 24 36 68 24 36 68 24 36 68 24 36 68 24 36 68 24 36 68 24 36
68 24 36 68 24 36 69 24 36 69 24 36 69 24 37 69 24 37 69 24 37 69 24
37 69 24 37 69 24 37 69 24 37 70 25 37 70 25 37 70 25 37 70 25 37 70
25 37 70 25 37 70 25 37 70 25 37 70 25 37 71 25 37 71 25 38 71 25 38
71 25 38 71 25 38 71 25 38 71 25 38 71 25 38 71 25 38 71 25 38 71 25
38 72 25 38 72 25 38 72 25 38 72 25 38 72 25 38 72 25 38 72 25 38 72
25 38 72 25 38 72 25 38 72 25 39 73 25 39 73 25 39 73 25 39 73 25 39
73 25 39 73 26 39 73 26 39 73 26 39 73 26 39 73 26 39 73 26 39 73 26
39 73 26 39 73 26 39 73 26 39 74 26 39 74 26 39 74 26 39 74 26 39 74
26 39 74 26 39 74 26 39 74 26 39 74 26 39 74 26 39 74 26 40 74 26 40
74 26 40 74 26 40 74 26 40 74 26 40 74 26 40 74 26 40 74 26 40 74 26
40 74 26 40 74 26 40 75 26 40 75 26 40 75 26 40 75 26 40 75 26 40 75
26 40 75 26 40 75 26 40 75 26 40 75 26 40 75 26 40 75 26 40 75 26 40
75 26 40 75 26 40 75 26 40 75 26 40 75 26 40 75 26 40 75 26 40 75 26
40 75 26 40 75 26 40 75 26 40 75 26 40 75 26 40 75 26 40 75 26 40 75
26 40 75 26 40 75 26 40 75 26 40 75 26 40 75 26 40 75 26 40 75 26 40
75 26 40 75 26 40 75 26 40 75 26 40 75 26 40 74 26 40 74 26 40 74 26
40 74 26 40 74 26 40 74 26 40 74 26 40 74 26 40 74 26 40 74 26 40 74
26 40 74 26 40 74 26 40 74 27 40 74 27 40 74 27 40 74 27 40 74 27 40
74 27 40 74 27 40 74 27 40 74 27 40 73 27 40 73 27 40 73 27 40 73 27
40 73 27 40 73 27 40 73 27 40 73 27 40 73 27 40 73 27 40 73 27 40 73
27 40 73 27 40 73 27 40 73 27 40 72 27 40 72 27 40 72 27 40 72 27 40
72 27 40 72 27 40 72 27 40 72 27 40 72 27 40 72 27 39 72 27 39 72 27
39 71 27 39 71 27 39 71 27 39 71 27 39 71 27 39 71 27 39 71 27 39 71
27 39 71 27 39 71 27 39 71 27 39 70 27 39 70 27 39 70 27 39 70 27 39
70 27 39 70 27 39 70 27 39 70 27 39 70 27 39 69 27 39 69 27 39 69 27
39 69 27 39 69 27 39 69 27 39 69 27 38 69 27 38 69 27 38 69 27 38 68
27 38 68 27 38 68 27 38 68 27 38 68 27 38 68 27 38 68 27 38 68 27 38
67 27 38 67 27 38 67 27 38 67 27 38 67 27 38 67 27 38 67 27 38 67 27
38 67 27 38 66 27 38 66 27 38 66 27 38 66 27 37 66 27 37 66 27 37 66
27 37 66 27 37 65 27 37 65 27 37 65 27 37 65 27 37 65 27 37 65 27 37
65 27 37 65 27 37 64 27 37 64 27 37 64 27 37 64 27 37 64 27 37 64 27
37 64 27 37 64 27 37 64 27 37 63 27 36 63 27 36 63 27 36 63 27 36 63
27 36 63 27 36 63 27 36 63 27 36 62 27 36 62 27 36 62 27 36 62 27 36
62 27 36 62 27 36 62 27 36 62 27 36 61 27 36 61 27 36 61 27 36 61 27
36 61 27 36 61 27 36 61 27 35 61 27 35 60 27 35 60 27 35 60 27 35 60
27 35 60 27 35 60 27 35 60 27 35 60 27 35 59 27 35 59 27 35 59 27 35
59 27 35 59 27 35 59 27 35 59 27 35 59 27 35 59 27 35 58 27 35 58 27
35 58 27 35 58 27 34 58 27 34 58 27 34 58 27 34 58 27 34 57 27 34 57
27 34 57 27 34 57 27 34 57 27 34 57 27 34 57 27 34 57 27 34 57 27 34
56 27 34 56 27 34 56 27 34 56 27 34 56 27 34 56 27 34 56 27 34 56 27
33 56 27 33 55 27 33 55 27 33 55 27 33 55 27 33 55 27 33 55 27 33 55
27 33 55 27 33 55 27 33 54 27 33 54 27 33 54 27 33 54 27 33 54 27 33
54 27 33 54 27 33 54 27 33 54 27 33 53 27 33 53 27 32 53 27 32 53 27
32 53 27 32 53 27 32 53 27 32 53 27 32 53 27 32 52 27 32 52 27 32 52
27 32 52 27 32 52 27 32 52 27 32 52 27 32 52 27 32 52 27 32 52 27 32
51 27 32 51 27 32 51 27 32 51 27 31 51 27 31 51 27 31 51 27 31 51 27
31 51 27 31 51 27 31 50 27 31 50 27 31 50 27 31 50 27 31 50 27 31 50
27 25 37 21 25 37 21 25 37 21 25 37 21 25 37 21 25 36 21 25 36 21 25
36 21 25 36 21 25 36 21 25 36 21 25 36 21 24 36 21 24 36 21 24 36 21
24 36 21 24 36 21 24 36 21 24 36 21 24 36 21 24 36 21 24 35 21 24 35
21 24 35 21
35 67 24 35 67 24 35 67 24 35 67 24 35 67 24 36 67 24 36 67 24 36 67
24 36 67 24 36 68 24 36 68 24 36 68 24 36 68 24 36 68 24 36 68 24 36
68 24 36 68 24 36 68 24 36 69 24 36 69 24 36 69 24 37 69 24 37 69 24
37 69 24 37 69 24 37 69 24 37 69 24 37 70 24 37 70 25 37 70 25 37 70
25 37 70 25 37 70 25 37 70 25 37 70 25 37 70 25 37 70 25 37 71 25 37
71 25 38 71 25 38 71 25 38 71 25 38 71 25 38 71 25 38 71 25 38 71 25
38 71 25 38 71 25 38 72 25 38 72 25 38 72 25 38 72 25 38 72 25 38 72
25 38 72 25 38 72 25 38 72 25 38 72 25 38 72 25 38 72 25 39 72 25 39
73 25 39 73 25 39 73 25 39 73 25 39 73 25 39 73 26 39 73 26 39 73 26
39 73 26 39 73 26 39 73 26 39 73 26 39 73 26 39 73 26 39 73 26 39 73
26 39 73 26 39 74 26 39 74 26 39 74 26 39 74 26 39 74 26 39 74 26 39
74 26 39 74 26 39 74 26 39 74 26 40 74 26 40 74 26 40 74 26 40 74 26
40 74 26 40 74 26 40 74 26 40 74 26 40 74 26 40 74 26 40 74 26 40 74
26 40 74 26 40 74 26 40 74 26 40 74 26 40 74 26 40 74 26 40 74 26 40
74 26 40 74 26 40 74 26 40 74 26 40 74 26 40 74 26 40 74 26 40 74 26
40 74 26 40 74 26 40 74 26 40 74 26 40 74 26 40 74 26 40 74 26 40 74
26 40 74 26 40 74 26 40 74 26 40 74 26 40 74 26 40 74 26 40 74 26 40
74 26 40 74 26 40 74 26 40 74 26 40 74 26 40 74 26 40 74 26 40 74 26
40 74 26 40 74 26 40 74 26 40 74 26 40 74 26 40 74 26 40 74 26 40 74
26 40 74 26 40 74 26 40 74 26 40 74 26 40 73 26 40 73 26 40 73 26 40
73 26 40 73 26 40 73 26 40 73 26 40 73 26 40 73 26 40 73 26 40 73 26
40 73 26 40 73 26 40 73 26 40 73 26 40 73 26 40 73 26 40 72 26 40 72
26 40 72 27 40 72 27 40 72 27 40 72 27 40 72 27 40 72 27 39 72 27 39
72 27 39 72 27 39 72 27 39 72 27 39 71 27 39 71 27 39 71 27 39 71 27
39 71 27 39 71 27 39 71 27 39 71 27 39 71 27 39 71 27 39 71 27 39 70
27 39 70 27 39 70 27 39 70 27 39 70 27 39 70 27 39 70 27 39 70 27 39
70 27 39 70 27 39 69 27 39 69 27 39 69 27 39 69 27 39 69 27 39 69 27
38 69 27 38 69 27 38 69 27 38 69 27 38 68 27 38 68 27 38 68 27 38 68
27 38 68 27 38 68 27 38 68 27 38 68 27 38 68 27 38 67 27 38 67 27 38
67 27 38 67 27 38 67 27 38 67 27 38 67 27 38 67 27 38 67 27 38 66 27
38 66 27 38 66 27 37 66 27 37 66 27 37 66 27 37 66 27 37 66 27 37 65
27 37 65 27 37 65 27 37 65 27 37 65 27 37 65 27 37 65 27 37 65 27 37
65 27 37 64 27 37 64 27 37 64 27 37 64 27 37 64 27 37 64 27 37 64 27
37 64 27 37 63 27 36 63 27 36 63 27 36 63 27 36 63 27 36 63 27 36 63
27 36 63 27 36 62 27 36 62 27 36 62 27 36 62 27 36 62 27 36 62 27 36
62 27 36 62 27 36 62 27 36 61 27 36 61 27 36 61 27 36 61 27 36 61 27
36 61 27 35 61 27 35 61 27 35 60 27 35 60 27 35 60 27 35 60 27 35 60
27 35 60 27 35 60 27 35 60 27 35 60 27 35 59 27 35 59 27 35 59 27 35
59 27 35 59 27 35 59 27 35 59 27 35 59 27 35 58 27 35 58 27 35 58 27
34 58 27 34 58 27 34 58 27 34 58 27 34 58 27 34 58 27 34 57 27 34 57
27 34 57 27 34 57 27 34 57 27 34 57 27 34 57 27 34 57 27 34 56 27 34
56 27 34 56 27 34 56 27 34 56 27 34 56 27 34 56 27 34 56 27 33 56 27
33 55 27 33 55 27 33 55 27 33 55 27 33 55 27 33 55 27 33 55 27 33 55
27 33 55 27 33 54 27 33 54 27 33 54 27 33 54 27 33 54 27 33 54 27 33
54 27 33 54 27 33 54 27 33 54 27 33 53 27 32 53 27 32 53 27 32 53 27
32 53 27 32 53 27 32 53 27 32 53 27 32 53 27 32 52 27 32 52 27 32 52
27 32 52 27 32 52 27 32 52 27 32 52 27 32 52 27 32 52 27 32 52 27 32
51 27 32 51 27 32 51 27 31 51 27 31 51 27 31 51 27 31 51 27 31 51 27
31 51 27 31 51 27 31 50 27 31 50 27 31 50 27 25 37 21 25 37 21 25 37
21 25 37 21 25 37 21 25 37 21 25 37 21 25 37 21 25 36 21 25 36 21 25
36 21 25 36 21 25 36 21 25 36 21 24 36 21 24 36 21 24 36 21 24 36 21
24 36 21 24 36 21 24 36 21 24 36 21 24 36 21 24 36 21 24 35 21 24 35
21 24 35 21
35 66 24 35 67 24 35 67 24 35 67 24 35 67 24 36 67 24 36 67 24 36 67
24 36 67 24 36 67 24 36 68 24 36 68 24 36 68 24 36 68 24 36 68 24 36
68 24 36 68 24 36 68 24 36 68 24 36 69 24 36 69 24 36 69 24 37 69 24
37 69 24 37 69 24 37 69 24 37 69 24 37 69 24 37 69 24 37 70 25 37 70
25 37 70 25 37 70 25 37 70 25 37 70 25 37 70 25 37 70 25 37 70 25 37
70 25 37 71 25 37 71 25 38 71 25 38 71 25 38 71 25 38 71 25 38 71 25
38 71 25 38 71 25 38 71 25 38 71 25 38 71 25 38 72 25 38 72 25 38 72
25 38 72 25 38 72 25 38 72 25 38 72 25 38 72 25 38 72 25 38 72 25 38
72 25 38 72 25 39 72 25 39 72 25 39 73 25 39 73 25 39 73 25 39 73 25
39 73 25 39 73 26 39 73 26 39 73 26 39 73 26 39 73 26 39 73 26 39 73
26 39 73 26 39 73 26 39 73 26 39 73 26 39 73 26 39 73 26 39 73 26 39
73 26 39 74 26 39 74 26 39 74 26 39 74 26 39 74 26 39 74 26 39 74 26
39 74 26 39 74 26 39 74 26 40 74 26 40 74 26 40 74 26 40 74 26 40 74
26 40 74 26 40 74 26 40 74 26 40 74 26 40 74 26 40 74 26 40 74 26 40
74 26 40 74 26 40 74 26 40 74 26 40 74 26 40 74 26 40 74 26 40 74 26
40 74 26 40 74 26 40 74 26 40 74 26 40 74 26 40 74 26 40 74 26 40 74
26 40 74 26 40 74 26 40 74 26 40 74 26 40 74 26 40 74 26 40 74 26 40
74 26 40 74 26 40 74 26 40 74 26 40 74 26 40 74 26 40 74 26 40 74 26
40 74 26 40 74 26 40 74 26 40 73 26 40 73 26 40 73 26 40 73 26 40 73
26 40 73 26 40 73 26 40 73 26 40 73 26 40 73 26 40 73 26 40 73 26 40
73 26 40 73 26 40 73 26 40 73 26 40 73 26 40 73 26 40 73 26 40 73 26
40 72 26 40 72 26 40 72 26 40 72 26 40 72 26 39 72 26 39 72 26 39 72
26 39 72 26 39 72 26 39 72 26 39 72 26 39 72 26 39 72 26 39 71 26 39
71 26 39 71 26 39 71 26 39 71 26 39 71 26 39 71 26 39 71 26 39 71 26
39 71 26 39 71 26 39 71 26 39 70 26 39 70 26 39 70 27 39 70 27 39 70
27 39 70 27 39 70 27 39 70 27 39 70 27 39 70 27 39 70 27 39 69 27 39
69 27 39 69 27 39 69 27 38 69 27 38 69 27 38 69 27 38 69 27 38 69 27
38 69 27 38 68 27 38 68 27 38 68 27 38 68 27 38 68 27 38 68 27 38 68
27 38 68 27 38 68 27 38 68 27 38 67 27 38 67 27 38 67 27 38 67 27 38
67 27 38 67 27 38 67 27 38 67 27 38 67 27 38 66 27 37 66 27 37 66 27
37 66 27 37 66 27 37 66 27 37 66 27 37 66 27 37 66 27 37 65 27 37 65
27 37 65 27 37 65 27 37 65 27 37 65 27 37 65 27 37 65 27 37 64 27 37
64 27 37 64 27 37 64 27 37 64 27 37 64 27 37 64 27 37 64 27 36 64 27
36 63 27 36 63 27 36 63 27 36 63 27 36 63 27 36 63 27 36 63 27 36 63
27 36 62 27 36 62 27 36 62 27 36 62 27 36 62 27 36 62 27 36 62 27 36
62 27 36 62 27 36 61 27 36 61 27 36 61 27 36 61 27 36 61 27 35 61 27
35 61 27 35 61 27 35 60 27 35 60 27 35 60 27 35 60 27 35 60 27 35 60
27 35 60 27 35 60 27 35 60 27 35 59 27 35 59 27 35 59 27 35 59 27 35
59 27 35 59 27 35 59 27 35 59 27 35 58 27 35 58 27 34 58 27 34 58 27
34 58 27 34 58 27 34 58 27 34 58 27 34 58 27 34 57 27 34 57 27 34 57
27 34 57 27 34 57 27 34 57 27 34 57 27 34 57 27 34 57 27 34 56 27 34
56 27 34 56 27 34 56 27 34 56 27 34 56 27 33 56 27 33 56 27 33 56 27
33 55 27 33 55 27 33 55 27 33 55 27 33 55 27 33 55 27 33 55 27 33 55
27 33 55 27 33 54 27 33 54 27 33 54 27 33 54 27 33 54 27 33 54 27 33
54 27 33 54 27 33 54 27 33 54 27 32 53 27 32 53 27 32 53 27 32 53 27
32 53 27 32 53 27 32 53 27 32 53 27 32 53 27 32 52 27 32 52 27 32 52
27 32 52 27 32 52 27 32 52 27 32 52 27 32 52 27 32 52 27 32 52 27 32
51 27 32 51 27 31 51 27 31 51 27 31 51 27 31 51 27 31 51 27 31 51 27
31 51 27 31 51 27 25 37 21 25 37 21 25 37 21 25 37 21 25 37 21 25 37
21 25 37 21 25 37 21 25 37 21 25 37 21 25 37 21 25 36 21 25 36 21 25
36 21 25 36 21 25 36 21 25 36 21 24 36 21 24 36 21 24 36 21 24 36 21
24 36 21 24 36 21 24 36 21 24 36 21 24 36 21 24 36 21 24 35 21 24 35
21 24 35 21
35 66 24 35 66 24 35 67 24 35 67 24 35 67 24 35 67 24 36 67 24 36 67
24 36 67 24 36 67 24 36 67 24 36 68 24 36 68 24 36 68 24 36 68 24 36
68 24 36 68 24 36 68 24 36 68 24 36 68 24 36 68 24 36 69 24 36 69 24
37 69 24 37 69 24 37 69 24 37 69 24 37 69 24 37 69 24 37 69 24 37 69
24 37 70 25 37 70 25 37 70 25 37 70 25 37 70 25 37 70 25 37 70 25 37
70 25 37 70 25 37 70 25 37 70 25 37 71 25 38 71 25 38 71 25 38 71 25
38 71 25 38 71 25 38 71 25 38 71 25 38 71 25 38 71 25 38 71 25 38 71
25 38 71 25 38 72 25 38 72 25 38 72 25 38 72 25 38 72 25 38 72 25 38
72 25 38 72 25 38 72 25 38 72 25 38 72 25 39 72 25 39 72 25 39 72 25
39 72 25 39 73 25 39 73 25 39 73 25 39 73 25 39 73 26 39 73 26 39 73
26 39 73 26 39 73 26 39 73 26 39 73 26 39 73 26 39 73 26 39 73 26 39
73 26 39 73 26 39 73 26 39 73 26 39 73 26 39 73 26 39 73 26 39 73 26
39 73 26 39 73 26 39 73 26 39 73 26 39 73 26 39 74 26 39 74 26 39 74
26 39 74 26 39 74 26 39 74 26 39 74 26 40 74 26 40 74 26 40 74 26 40
74 26 40 74 26 40 74 26 40 74 26 40 74 26 40 74 26 40 74 26 40 74 26
40 74 26 40 74 26 40 74 26 40 74 26 40 74 26 40 74 26 40 74 26 40 74
26 40 74 26 40 74 26 40 74 26 40 74 26 40 74 26 40 73 26 40 73 26 40
73 26 40 73 26 40 73 26 40 73 26 40 73 26 40 73 26 40 73 26 40 73 26
40 73 26 40 73 26 40 73 26 40 73 26 40 73 26 40 73 26 40 73 26 40 73
26 40 73 26 40 73 26 40 73 26 40 73 26 40 73 26 40 73 26 40 73 26 40
73 26 40 73 26 40 72 26 39 72 26 39 72 26 39 72 26 39 72 26 39 72 26
39 72 26 39 72 26 39 72 26 39 72 26 39 72 26 39 72 26 39 72 26 39 72
26 39 72 26 39 72 26 39 71 26 39 71 26 39 71 26 39 71 26 39 71 26 39
71 26 39 71 26 39 71 26 39 71 26 39 71 26 39 71 26 39 71 26 39 71 26
39 70 26 39 70 26 39 70 26 39 70 26 39 70 26 39 70 26 39 70 26 39 70
26 39 70 26 39 70 26 39 70 26 39 69 26 39 69 26 38 69 26 38 69 26 38
69 26 38 69 26 38 69 26 38 69 26 38 69 26 38 69 26 38 68 26 38 68 26
38 68 27 38 68 27 38 68 27 38 68 27 38 68 27 38 68 27 38 68 27 38 68
27 38 67 27 38 67 27 38 67 27 38 67 27 38 67 27 38 67 27 38 67 27 38
67 27 38 67 27 38 66 27 37 66 27 37 66 27 37 66 27 37 66 27 37 66 27
37 66 27 37 66 27 37 66 27 37 66 27 37 65 27 37 65 27 37 65 27 37 65
27 37 65 27 37 65 27 37 65 27 37 65 27 37 64 27 37 64 27 37 64 27 37
64 27 37 64 27 37 64 27 37 64 27 36 64 27 36 64 27 36 63 27 36 63 27
36 63 27 36 63 27 36 63 27 36 63 27 36 63 27 36 63 27 36 63 27 36 62
27 36 62 27 36 62 27 36 62 27 36 62 27 36 62 27 36 62 27 36 62 27 36
61 27 36 61 27 36 61 27 36 61 27 35 61 27 35 61 27 35 61 27 35 61 27
35 61 27 35 60 27 35 60 27 35 60 27 35 60 27 35 60 27 35 60 27 35 60
27 35 60 27 35 60 27 35 59 27 35 59 27 35 59 27 35 59 27 35 59 27 35
59 27 35 59 27 35 59 27 35 59 27 34 58 27 34 58 27 34 58 27 34 58 27
34 58 27 34 58 27 34 58 27 34 58 27 34 57 27 34 57 27 34 57 27 34 57
27 34 57 27 34 57 27 34 57 27 34 57 27 34 57 27 34 56 27 34 56 27 34
56 27 34 56 27 34 56 27 34 56 27 33 56 27 33 56 27 33 56 27 33 56 27
33 55 27 33 55 27 33 55 27 33 55 27 33 55 27 33 55 27 33 55 27 33 55
27 33 55 27 33 54 27 33 54 27 33 54 27 33 54 27 33 54 27 33 54 27 33
54 27 33 54 27 33 54 27 32 54 27 32 53 27 32 53 27 32 53 27 32 53 27
32 53 27 32 53 27 32 53 27 32 53 27 32 53 27 32 52 27 32 52 27 32 52
27 32 52 27 32 52 27 32 52 27 32 52 27 32 52 27 32 52 27 32 52 27 32
51 27 32 51 27 31 51 27 31 51 27 31 51 27 31 51 27 31 51 27 25 37 21
25 37 21 25 37 21 25 37 21 25 37 21 25 37 21 25 37 21 25 37 21 25 37
21 25 37 21 25 37 21 25 37 21 25 37 21 25 37 21 25 36 21 25 36 21 25
36 21 25 36 21 25 36 21 24 36 21 24 36 21 24 36 21 24 36 21 24 36 21
24 36 21 24 36 21 24 36 21 24 36 21 24 36 21 24 36 21 24 36 21 24 35
20 24 35 20
35 66 24 35 66 24 35 66 24 35 67 24 35 67 24 35 67 24 35 67 24 36 67
24 36 67 24 36 67 24 36 67 24 36 67 24 36 68 24 36 68 24 36 68 24 36
68 24 36 68 24 36 68 24 36 68 24 36 68 24 36 68 24 36 68 24 36 69 24
36 69 24 36 69 24 37 69 24 37 69 24 37 69 24 37 69 24 37 69 24 37 69
24 37 69 24 37 69 25 37 70 25 37 70 25 37 70 25 37 70 25 37 70 25 37
70 25 37 70 25 37 70 25 37 70 25 37 70 25 37 70 25 37 71 25 38 71 25
38 71 25 38 71 25 38 71 25 38 71 25 38 71 25 38 71 25 38 71 25 38 71
25 38 71 25 38 71 25 38 71 25 38 71 25 38 72 25 38 72 25 38 72 25 38
72 25 38 72 25 38 72 25 38 72 25 38 72 25 38 72 25 38 72 25 38 72 25
38 72 25 39 72 25 39 72 25 39 72 25 39 72 25 39 72 25 39 72 25 39 73
25 39 73 25 39 73 26 39 73 26 39 73 26 39 73 26 39 73 26 39 73 26 39
73 26 39 73 26 39 73 26 39 73 26 39 73 26 39 73 26 39 73 26 39 73 26
39 73 26 39 73 26 39 73 26 39 73 26 39 73 26 39 73 26 39 73 26 39 73
26 39 73 26 39 73 26 39 73 26 39 73 26 39 73 26 39 73 26 39 73 26 39
73 26 39 73 26 39 73 26 39 73 26 39 73 26 39 73 26 39 73 26 39 73 26
39 73 26 39 73 26 39 73 26 39 73 26 39 73 26 39 73 26 39 73 26 39 73
26 39 73 26 40 73 26 40 73 26 40 73 26 40 73 26 40 73 26 40 73 26 40
73 26 40 73 26 40 73 26 40 73 26 40 73 26 39 73 26 39 73 26 39 73 26
39 73 26 39 73 26 39 73 26 39 73 26 39 73 26 39 73 26 39 73 26 39 73
26 39 73 26 39 72 26 39 72 26 39 72 26 39 72 26 39 72 26 39 72 26 39
72 26 39 72 26 39 72 26 39 72 26 39 72 26 39 72 26 39 72 26 39 72 26
39 72 26 39 72 26 39 72 26 39 72 26 39 71 26 39 71 26 39 71 26 39 71
26 39 71 26 39 71 26 39 71 26 39 71 26 39 71 26 39 71 26 39 71 26 39
71 26 39 71 26 39 71 26 39 70 26 39 70 26 39 70 26 39 70 26 39 70 26
39 70 26 39 70 26 39 70 26 39 70 26 39 70 26 39 70 26 39 70 26 39 69
26 38 69 26 38 69 26 38 69 26 38 69 26 38 69 26 38 69 26 38 69 26 38
69 26 38 69 26 38 69 26 38 68 26 38 68 26 38 68 26 38 68 26 38 68 26
38 68 26 38 68 26 38 68 26 38 68 26 38 68 26 38 68 26 38 67 26 38 67
26 38 67 26 38 67 26 38 67 26 38 67 26 38 67 26 38 67 26 37 67 26 37
66 26 37 66 27 37 66 27 37 66 27 37 66 27 37 66 27 37 66 27 37 66 27
37 66 27 37 66 27 37 65 27 37 65 27 37 65 27 37 65 27 37 65 27 37 65
27 37 65 27 37 65 27 37 65 27 37 64 27 37 64 27 37 64 27 37 64 27 37
64 27 36 64 27 36 64 27 36 64 27 36 64 27 36 63 27 36 63 27 36 63 27
36 63 27 36 63 27 36 63 27 36 63 27 36 63 27 36 62 27 36 62 27 36 62
27 36 62 27 36 62 27 36 62 27 36 62 27 36 62 27 36 62 27 36 61 27 36
61 27 36 61 27 35 61 27 35 61 27 35 61 27 35 61 27 35 61 27 35 61 27
35 60 27 35 60 27 35 60 27 35 60 27 35 60 27 35 60 27 35 60 27 35 60
27 35 60 27 35 59 27 35 59 27 35 59 27 35 59 27 35 59 27 35 59 27 35
59 27 35 59 27 34 59 27 34 58 27 34 58 27 34 58 27 34 58 27 34 58 27
34 58 27 34 58 27 34 58 27 34 58 27 34 57 27 34 57 27 34 57 27 34 57
27 34 57 27 34 57 27 34 57 27 34 57 27 34 57 27 34 56 27 34 56 27 34
56 27 34 56 27 33 56 27 33 56 27 33 56 27 33 56 27 33 56 27 33 55 27
33 55 27 33 55 27 33 55 27 33 55 27 33 55 27 33 55 27 33 55 27 33 55
27 33 55 27 33 54 27 33 54 27 33 54 27 33 54 27 33 54 27 33 54 27 33
54 27 33 54 27 32 54 27 32 53 27 32 53 27 32 53 27 32 53 27 32 53 27
32 53 27 32 53 27 32 53 27 32 53 27 32 53 27 32 52 27 32 52 27 32 52
27 32 52 27 32 52 27 32 52 27 32 52 27 32 52 27 32 52 27 32 52 27 32
52 27 31 51 27 31 51 27 31 51 27 31 51 27 25 38 21 25 37 21 25 37 21
25 37 21 25 37 21 25 37 21 25 37 21 25 37 21 25 37 21 25 37 21 25 37
21 25 37 21 25 37 21 25 37 21 25 37 21 25 37 21 25 37 21 25 36 21 25
36 21 25 36 21 24 36 21 24 36 21 24 36 21 24 36 21 24 36 21 24 36 21
24 36 21 24 36 21 24 36 20 24 36 20 24 36 20 24 36 20 24 36 20 24 35
20 24 35 20
35 66 23 35 66 24 35 66 24 35 66 24 35 67 24 35 67 24 35 67 24 36 67
24 36 67 24 36 67 24 36 67 24 36 67 24 36 67 24 36 68 24 36 68 24 36
68 24 36 68 24 36 68 24 36 68 24 36 68 24 36 68 24 36 68 24 36 68 24
36 68 24 36 69 24 36 69 24 37 69 24 37 69 24 37 69 24 37 69 24 37 69
24 37 69 24 37 69 24 37 69 24 37 69 25 37 70 25 37 70 25 37 70 25 37
70 25 37 70 25 37 70 25 37 70 25 37 70 25 37 70 25 37 70 25 37 70 25
37 70 25 38 71 25 38 71 25 38 71 25 38 71 25 38 71 25 38 71 25 38 71
25 38 71 25 38 71 25 38 71 25 38 71 25 38 71 25 38 71 25 38 71 25 38
71 25 38 71 25 38 72 25 38 72 25 38 72 25 38 72 25 38 72 25 38 72 25
38 72 25 38 72 25 38 72 25 38 72 25 38 72 25 38 72 25 39 72 25 39 72
25 39 72 25 39 72 25 39 72 25 39 72 25 39 72 25 39 72 25 39 72 26 39
73 26 39 73 26 39 73 26 39 73 26 39 73 26 39 73 26 39 73 26 39 73 26
39 73 26 39 73 26 39 73 26 39 73 26 39 73 26 39 73 26 39 73 26 39 73
26 39 73 26 39 73 26 39 73 26 39 73 26 39 73 26 39 73 26 39 73 26 39
73 26 39 73 26 39 73 26 39 73 26 39 73 26 39 73 26 39 73 26 39 73 26
39 73 26 39 73 26 39 73 26 39 73 26 39 73 26 39 73 26 39 73 26 39 73
26 39 73 26 39 73 26 39 73 26 39 73 26 39 73 26 39 73 26 39 73 26 39
73 26 39 73 26 39 73 26 39 73 26 39 73 26 39 73 26 39 73 26 39 73 26
39 72 26 39 72 26 39 72 26 39 72 26 39 72 26 39 72 26 39 72 26 39 72
26 39 72 26 39 72 26 39 72 26 39 72 26 39 72 26 39 72 26 39 72 26 39
72 26 39 72 26 39 72 26 39 72 26 39 72 26 39 72 26 39 72 26 39 71 26
39 71 26 39 71 26 39 71 26 39 71 26 39 71 26 39 71 26 39 71 26 39 71
26 39 71 26 39 71 26 39 71 26 39 71 26 39 71 26 39 71 26 39 70 26 39
70 26 39 70 26 39 70 26 39 70 26 39 70 26 39 70 26 39 70 26 39 70 26
39 70 26 39 70 26 38 70 26 38 70 26 38 69 26 38 69 26 38 69 26 38 69
26 38 69 26 38 69 26 38 69 26 38 69 26 38 69 26 38 69 26 38 69 26 38
68 26 38 68 26 38 68 26 38 68 26 38 68 26 38 68 26 38 68 26 38 68 26
38 68 26 38 68 26 38 68 26 38 67 26 38 67 26 38 67 26 38 67 26 38 67
26 38 67 26 38 67 26 37 67 26 37 67 26 37 67 26 37 66 26 37 66 26 37
66 26 37 66 26 37 66 26 37 66 26 37 66 26 37 66 26 37 66 26 37 65 26
37 65 26 37 65 26 37 65 26 37 65 26 37 65 26 37 65 26 37 65 26 37 65
27 37 65 27 37 64 27 37 64 27 37 64 27 37 64 27 36 64 27 36 64 27 36
64 27 36 64 27 36 64 27 36 63 27 36 63 27 36 63 27 36 63 27 36 63 27
36 63 27 36 63 27 36 63 27 36 63 27 36 62 27 36 62 27 36 62 27 36 62
27 36 62 27 36 62 27 36 62 27 36 62 27 36 62 27 36 61 27 36 61 27 35
61 27 35 61 27 35 61 27 35 61 27 35 61 27 35 61 27 35 61 27 35 60 27
35 60 27 35 60 27 35 60 27 35 60 27 35 60 27 35 60 27 35 60 27 35 60
27 35 59 27 35 59 27 35 59 27 35 59 27 35 59 27 35 59 27 35 59 27 34
59 27 34 59 27 34 58 27 34 58 27 34 58 27 34 58 27 34 58 27 34 58 27
34 58 27 34 58 27 34 58 27 34 57 27 34 57 27 34 57 27 34 57 27 34 57
27 34 57 27 34 57 27 34 57 27 34 57 27 34 56 27 34 56 27 34 56 27 34
56 27 33 56 27 33 56 27 33 56 27 33 56 27 33 56 27 33 56 27 33 55 27
33 55 27 33 55 27 33 55 27 33 55 27 33 55 27 33 55 27 33 55 27 33 55
27 33 54 27 33 54 27 33 54 27 33 54 27 33 54 27 33 54 27 33 54 27 32
54 27 32 54 27 32 54 27 32 53 27 32 53 27 32 53 27 32 53 27 32 53 27
32 53 27 32 53 27 32 53 27 32 53 27 32 53 27 32 52 27 32 52 27 32 52
27 32 52 27 32 52 27 32 52 27 32 52 27 32 52 27 32 52 27 32 52 27 31
52 27 31 51 27 31 51 26 25 38 21 25 38 21 25 37 21 25 37 21 25 37 21
25 37 21 25 37 21 25 37 21 25 37 21 25 37 21 25 37 21 25 37 21 25 37
21 25 37 21 25 37 21 25 37 21 25 37 21 25 37 21 25 37 21 25 36 21 25
36 21 24 36 21 24 36 21 24 36 21 24 36 20 24 36 20 24 36 20 24 36 20
24 36 20 24 36 20 24 36 20 24 36 20 24 36 20 24 36 20 24 36 20 24 36
20 24 35 20
35 66 23 35 66 23 35 66 24 35 66 24 35 66 24 35 67 24 35 67 24 35 67
24 36 67 24 36 67 24 36 67 24 36 67 24 36 67 24 36 67 24 36 67 24 36
68 24 36 68 24 36 68 24 36 68 24 36 68 24 36 68 24 36 68 24 36 68 24
36 68 24 36 68 24 36 68 24 36 69 24 36 69 24 37 69 24 37 69 24 37 69
24 37 69 24 37 69 24 37 69 24 37 69 24 37 69 24 37 69 25 37 70 25 37
70 25 37 70 25 37 70 25 37 70 25 37 70 25 37 70 25 37 70 25 37 70 25
37 70 25 37 70 25 37 70 25 37 70 25 38 70 25 38 71 25 38 71 25 38 71
25 38 71 25 38 71 25 38 71 25 38 71 25 38 71 25 38 71 25 38 71 25 38
71 25 38 71 25 38 71 25 38 71 25 38 71 25 38 71 25 38 71 25 38 72 25
38 72 25 38 72 25 38 72 25 38 72 25 38 72 25 38 72 25 38 72 25 38 72
25 38 72 25 38 72 25 39 72 25 39 72 25 39 72 25 39 72 25 39 72 25 39
72 25 39 72 25 39 72 25 39 72 25 39 72 25 39 72 26 39 72 26 39 72 26
39 72 26 39 72 26 39 72 26 39 72 26 39 72 26 39 72 26 39 73 26 39 73
26 39 73 26 39 73 26 39 73 26 39 73 26 39 73 26 39 73 26 39 73 26 39
73 26 39 73 26 39 73 26 39 73 26 39 73 26 39 73 26 39 73 26 39 73 26
39 73 26 39 73 26 39 73 26 39 73 26 39 73 26 39 73 26 39 73 26 39 72
26 39 72 26 39 72 26 39 72 26 39 72 26 39 72 26 39 72 26 39 72 26 39
72 26 39 72 26 39 72 26 39 72 26 39 72 26 39 72 26 39 72 26 39 72 26
39 72 26 39 72 26 39 72 26 39 72 26 39 72 26 39 72 26 39 72 26 39 72
26 39 72 26 39 72 26 39 72 26 39 72 26 39 72 26 39 72 26 39 72 26 39
71 26 39 71 26 39 71 26 39 71 26 39 71 26 39 71 26 39 71 26 39 71 26
39 71 26 39 71 26 39 71 26 39 71 26 39 71 26 39 71 26 39 71 26 39 71
26 39 71 26 39 70 26 39 70 26 39 70 26 39 70 26 39 70 26 39 70 26 39
70 26 39 70 26 39 70 26 39 70 26 38 70 26 38 70 26 38 70 26 38 70 26
38 69 26 38 69 26 38 69 26 38 69 26 38 69 26 38 69 26 38 69 26 38 69
26 38 69 26 38 69 26 38 69 26 38 69 26 38 68 26 38 68 26 38 68 26 38
68 26 38 68 26 38 68 26 38 68 26 38 68 26 38 68 26 38 68 26 38 68 26
38 67 26 38 67 26 38 67 26 38 67 26 38 67 26 38 67 26 37 67 26 37 67
26 37 67 26 37 67 26 37 66 26 37 66 26 37 66 26 37 66 26 37 66 26 37
66 26 37 66 26 37 66 26 37 66 26 37 66 26 37 65 26 37 65 26 37 65 26
37 65 26 37 65 26 37 65 26 37 65 26 37 65 26 37 65 26 37 65 26 37 64
26 37 64 26 37 64 26 36 64 26 36 64 26 36 64 26 36 64 26 36 64 26 36
64 26 36 63 26 36 63 26 36 63 26 36 63 26 36 63 26 36 63 26 36 63 27
36 63 27 36 63 27 36 62 27 36 62 27 36 62 27 36 62 27 36 62 27 36 62
27 36 62 27 36 62 27 36 62 27 36 62 27 35 61 27 35 61 27 35 61 27 35
61 27 35 61 27 35 61 27 35 61 27 35 61 27 35 61 27 35 60 27 35 60 27
35 60 27 35 60 27 35 60 27 35 60 27 35 60 27 35 60 27 35 60 27 35 59
27 35 59 27 35 59 27 35 59 27 35 59 27 35 59 27 34 59 27 34 59 27 34
59 27 34 58 27 34 58 27 34 58 27 34 58 27 34 58 27 34 58 27 34 58 27
34 58 27 34 58 27 34 57 27 34 57 27 34 57 27 34 57 27 34 57 27 34 57
27 34 57 27 34 57 27 34 57 27 34 57 27 34 56 27 34 56 27 33 56 27 33
56 27 33 56 27 33 56 27 33 56 27 33 56 27 33 56 27 33 55 27 33 55 27
33 55 27 33 55 27 33 55 27 33 55 27 33 55 27 33 55 27 33 55 27 33 55
27 33 54 27 33 54 27 33 54 27 33 54 27 33 54 27 33 54 27 32 54 27 32
54 27 32 54 27 32 54 27 32 53 27 32 53 27 32 53 27 32 53 27 32 53 27
32 53 27 32 53 27 32 53 27 32 53 27 32 53 27 32 52 27 32 52 27 32 52
27 32 52 27 32 52 27 32 52 26 32 52 26 32 52 26 32 52 26 31 52 26 31
52 26 25 38 21 25 38 21 25 38 21 25 38 21 25 37 21 25 37 21 25 37 21
25 37 21 25 37 21 25 37 21 25 37 21 25 37 21 25 37 21 25 37 21 25 37
21 25 37 21 25 37 21 25 37 21 25 37 20 25 37 20 25 37 20 25 36 20 24
36 20 24 36 20 24 36 20 24 36 20 24 36 20 24 36 20 24 36 20 24 36 20
24 36 20 24 36 20 24 36 20 24 36 20 24 36 20 24 36 20 24 36 20 24 36
20 24 35 20
35 66 23 35 66 23 35 66 23 35 66 24 35 66 24 35 66 24 35 67 24 35 67
24 35 67 24 36 67 24 36 67 24 36 67 24 36 67 24 36 67 24 36 67 24 36
67 24 36 68 24 36 68 24 36 68 24 36 68 24 36 68 24 36 68 24 36 68 24
36 68 24 36 68 24 36 68 24 36 68 24 36 68 24 36 69 24 37 69 24 37 69
24 37 69 24 37 69 24 37 69 24 37 69 24 37 69 24 37 69 24 37 69 24 37
69 24 37 69 25 37 70 25 37 70 25 37 70 25 37 70 25 37 70 25 37 70 25
37 70 25 37 70 25 37 70 25 37 70 25 37 70 25 37 70 25 37 70 25 38 70
25 38 70 25 38 71 25 38 71 25 38 71 25 38 71 25 38 71 25 38 71 25 38
71 25 38 71 25 38 71 25 38 71 25 38 71 25 38 71 25 38 71 25 38 71 25
38 71 25 38 71 25 38 71 25 38 71 25 38 71 25 38 72 25 38 72 25 38 72
25 38 72 25 38 72 25 38 72 25 38 72 25 38 72 25 38 72 25 38 72 25 38
72 25 39 72 25 39 72 25 39 72 25 39 72 25 39 72 25 39 72 25 39 72 25
39 72 25 39 72 25 39 72 25 39 72 25 39 72 26 39 72 26 39 72 26 39 72
26 39 72 26 39 72 26 39 72 26 39 72 26 39 72 26 39 72 26 39 72 26 39
72 26 39 72 26 39 72 26 39 72 26 39 72 26 39 72 26 39 72 26 39 72 26
39 72 26 39 72 26 39 72 26 39 72 26 39 72 26 39 72 26 39 72 26 39 72
26 39 72 26 39 72 26 39 72 26 39 72 26 39 72 26 39 72 26 39 72 26 39
72 26 39 72 26 39 72 26 39 72 26 39 72 26 39 72 26 39 72 26 39 72 26
39 72 26 39 72 26 39 72 26 39 72 26 39 72 26 39 72 26 39 72 26 39 71
26 39 71 26 39 71 26 39 71 26 39 71 26 39 71 26 39 71 26 39 71 26 39
71 26 39 71 26 39 71 26 39 71 26 39 71 26 39 71 26 39 71 26 39 71 26
39 71 26 39 71 26 39 71 26 39 71 26 39 70 26 39 70 26 39 70 26 39 70
26 39 70 26 39 70 26 39 70 26 38 70 26 38 70 26 38 70 26 38 70 26 38
70 26 38 70 26 38 70 26 38 70 26 38 69 26 38 69 26 38 69 26 38 69 26
38 69 26 38 69 26 38 69 26 38 69 26 38 69 26 38 69 26 38 69 26 38 69
26 38 69 26 38 68 26 38 68 26 38 68 26 38 68 26 38 68 26 38 68 26 38
68 26 38 68 26 38 68 26 38 68 26 38 68 26 38 67 26 38 67 26 38 67 26
38 67 26 38 67 26 37 67 26 37 67 26 37 67 26 37 67 26 37 67 26 37 67
26 37 66 26 37 66 26 37 66 26 37 66 26 37 66 26 37 66 26 37 66 26 37
66 26 37 66 26 37 66 26 37 65 26 37 65 26 37 65 26 37 65 26 37 65 26
37 65 26 37 65 26 37 65 26 37 65 26 37 65 26 37 64 26 37 64 26 36 64
26 36 64 26 36 64 26 36 64 26 36 64 26 36 64 26 36 64 26 36 63 26 36
63 26 36 63 26 36 63 26 36 63 26 36 63 26 36 63 26 36 63 26 36 63 26
36 63 26 36 62 26 36 62 26 36 62 26 36 62 26 36 62 26 36 62 26 36 62
26 36 62 26 36 62 26 35 61 26 35 61 26 35 61 26 35 61 26 35 61 26 35
61 27 35 61 27 35 61 27 35 61 27 35 61 27 35 60 27 35 60 27 35 60 27
35 60 27 35 60 27 35 60 27 35 60 27 35 60 27 35 60 27 35 59 27 35 59
27 35 59 27 35 59 27 35 59 27 34 59 27 34 59 27 34 59 27 34 59 27 34
58 27 34 58 27 34 58 27 34 58 27 34 58 27 34 58 27 34 58 27 34 58 27
34 58 27 34 58 27 34 57 27 34 57 27 34 57 27 34 57 27 34 57 27 34 57
27 34 57 27 34 57 27 34 57 27 34 56 27 33 56 27 33 56 27 33 56 27 33
56 27 33 56 27 33 56 27 33 56 27 33 56 27 33 56 27 33 55 27 33 55 27
33 55 27 33 55 27 33 55 27 33 55 27 33 55 27 33 55 27 33 55 27 33 55
27 33 54 27 33 54 27 33 54 27 33 54 27 33 54 27 32 54 27 32 54 27 32
54 27 32 54 27 32 54 27 32 53 27 32 53 27 32 53 27 32 53 27 32 53 27
32 53 27 32 53 26 32 53 26 32 53 26 32 53 26 32 52 26 32 52 26 32 52
26 32 52 26 32 52 26 32 52 26 32 52 26 32 52 26 31 52 26 25 38 20 25
38 20 25 38 20 25 38 20 25 38 20 25 38 20 25 37 20 25 37 20 25 37 20
25 37 20 25 37 20 25 37 20 25 37 20 25 37 20 25 37 20 25 37 20 25 37
20 25 37 20 25 37 20 25 37 20 25 37 20 25 37 20 25 37 20 24 36 20 24
36 20 24 36 20 24 36 20 24 36 20 24 36 20 24 36 20 24 36 20 24 36 20
24 36 20 24 36 20 24 36 20 24 36 20 24 36 20 24 36 20 24 36 20 24 36
20 24 35 20
35 66 23 35 66 23 35 66 23 35 66 23 35 66 24 35 66 24 35 66 24 35 67
24 35 67 24 35 67 24 36 67 24 36 67 24 36 67 24 36 67 24 36 67 24 36
67 24 36 67 24 36 67 24 36 68 24 36 68 24 36 68 24 36 68 24 36 68 24
36 68 24 36 68 24 36 68 24 36 68 24 36 68 24 36 68 24 36 68 24 36 69
24 37 69 24 37 69 24 37 69 24 37 69 24 37 69 24 37 69 24 37 69 24 37
69 24 37 69 24 37 69 24 37 69 25 37 69 25 37 70 25 37 70 25 37 70 25
37 70 25 37 70 25 37 70 25 37 70 25 37 70 25 37 70 25 37 70 25 37 70
25 37 70 25 37 70 25 38 70 25 38 70 25 38 70 25 38 71 25 38 71 25 38
71 25 38 71 25 38 71 25 38 71 25 38 71 25 38 71 25 38 71 25 38 71 25
38 71 25 38 71 25 38 71 25 38 71 25 38 71 25 38 71 25 38 71 25 38 71
25 38 71 25 38 71 25 38 71 25 38 71 25 38 71 25 38 72 25 38 72 25 38
72 25 38 72 25 38 72 25 38 72 25 38 72 25 38 72 25 38 72 25 38 72 25
38 72 25 39 72 25 39 72 25 39 72 25 39 72 25 39 72 25 39 72 25 39 72
25 39 72 25 39 72 25 39 72 25 39 72 26 39 72 26 39 72 26 39 72 26 39
72 26 39 72 26 39 72 26 39 72 26 39 72 26 39 72 26 39 72 26 39 72 26
39 72 26 39 72 26 39 72 26 39 72 26 39 72 26 39 72 26 39 72 26 39 72
26 39 72 26 39 72 26 39 72 26 39 72 26 39 72 26 39 72 26 39 72 26 39
72 26 39 72 26 39 72 26 39 72 26 39 72 26 39 72 26 39 71 26 39 71 26
39 71 26 39 71 26 39 71 26 39 71 26 39 71 26 39 71 26 39 71 26 39 71
26 39 71 26 39 71 26 39 71 26 39 71 26 39 71 26 39 71 26 39 71 26 39
71 26 39 71 26 39 71 26 39 71 26 39 71 26 39 71 26 39 70 26 39 70 26
39 70 26 39 70 26 39 70 26 38 70 26 38 70 26 38 70 26 38 70 26 38 70
26 38 70 26 38 70 26 38 70 26 38 70 26 38 70 26 38 70 26 38 70 26 38
69 26 38 69 26 38 69 26 38 69 26 38 69 26 38 69 26 38 69 26 38 69 26
38 69 26 38 69 26 38 69 26 38 69 26 38 69 26 38 68 26 38 68 26 38 68
26 38 68 26 38 68 26 38 68 26 38 68 26 38 68 26 38 68 26 38 68 26 38
68 26 38 68 26 38 67 26 38 67 26 38 67 26 38 67 26 37 67 26 37 67 26
37 67 26 37 67 26 37 67 26 37 67 26 37 67 26 37 66 26 37 66 26 37 66
26 37 66 26 37 66 26 37 66 26 37 66 26 37 66 26 37 66 26 37 66 26 37
66 26 37 65 26 37 65 26 37 65 26 37 65 26 37 65 26 37 65 26 37 65 26
37 65 26 37 65 26 37 65 26 37 64 26 36 64 26 36 64 26 36 64 26 36 64
26 36 64 26 36 64 26 36 64 26 36 64 26 36 64 26 36 63 26 36 63 26 36
63 26 36 63 26 36 63 26 36 63 26 36 63 26 36 63 26 36 63 26 36 62 26
36 62 26 36 62 26 36 62 26 36 62 26 36 62 26 36 62 26 36 62 26 35 62
26 35 62 26 35 61 26 35 61 26 35 61 26 35 61 26 35 61 26 35 61 26 35
61 26 35 61 26 35 61 26 35 60 26 35 60 26 35 60 26 35 60 26 35 60 26
35 60 26 35 60 26 35 60 26 35 60 26 35 60 26 35 59 26 35 59 26 35 59
26 35 59 26 34 59 26 34 59 26 34 59 26 34 59 26 34 59 27 34 58 27 34
58 27 34 58 27 34 58 27 34 58 27 34 58 27 34 58 27 34 58 27 34 58 27
34 58 27 34 57 27 34 57 27 34 57 27 34 57 27 34 57 27 34 57 27 34 57
27 34 57 27 34 57 27 34 57 27 33 56 27 33 56 27 33 56 27 33 56 27 33
56 27 33 56 27 33 56 27 33 56 27 33 56 27 33 55 27 33 55 27 33 55 27
33 55 27 33 55 27 33 55 27 33 55 27 33 55 27 33 55 27 33 55 27 33 54
27 33 54 27 33 54 26 33 54 26 33 54 26 32 54 26 32 54 26 32 54 26 32
54 26 32 54 26 32 54 26 32 53 26 32 53 26 32 53 26 32 53 26 32 53 26
32 53 26 32 53 26 32 53 26 32 53 26 32 53 26 32 52 26 32 52 26 32 52
26 32 52 26 32 52 26 32 52 26 32 52 26 31 52 26 25 38 20 25 38 20 25
38 20 25 38 20 25 38 20 25 38 20 25 38 20 25 37 20 25 37 20 25 37 20
25 37 20 25 37 20 25 37 20 25 37 20 25 37 20 25 37 20 25 37 20 25 37
20 25 37 20 25 37 20 25 37 20 25 37 20 25 37 20 24 37 20 24 36 20 24
36 20 24 36 20 24 36 20 24 36 20 24 36 20 24 36 20 24 36 20 24 36 20
24 36 20 24 36 20 24 36 20 24 36 20 24 36 20 24 36 20 24 36 20 24 36
20 24 36 20
35 66 23 35 66 23 35 66 23 35 66 23 35 66 24 35 66 24 35 66 24 35 66
24 35 67 24 35 67 24 35 67 24 35 67 24 36 67 24 36 67 24 36 67 24 36
67 24 36 67 24 36 67 24 36 67 24 36 67 24 36 68 24 36 68 24 36 68 24
36 68 24 36 68 24 36 68 24 36 68 24 36 68 24 36 68 24 36 68 24 36 68
24 36 68 24 36 69 24 37 69 24 37 69 24 37 69 24 37 69 24 37 69 24 37
69 24 37 69 24 37 69 24 37 69 24 37 69 24 37 69 25 37 69 25 37 69 25
37 70 25 37 70 25 37 70 25 37 70 25 37 70 25 37 70 25 37 70 25 37 70
25 37 70 25 37 70 25 37 70 25 37 70 25 37 70 25 38 70 25 38 70 25 38
70 25 38 70 25 38 70 25 38 71 25 38 71 25 38 71 25 38 71 25 38 71 25
38 71 25 38 71 25 38 71 25 38 71 25 38 71 25 38 71 25 38 71 25 38 71
25 38 71 25 38 71 25 38 71 25 38 71 25 38 71 25 38 71 25 38 71 25 38
71 25 38 71 25 38 71 25 38 71 25 38 71 25 38 71 25 38 71 25 38 71 25
38 71 25 38 71 25 38 71 25 38 71 25 38 72 25 38 72 25 38 72 25 38 72
25 38 72 25 38 72 25 38 72 25 39 72 25 39 72 25 39 72 25 39 72 25 39
72 25 39 72 25 39 72 25 39 72 25 39 72 25 39 72 26 39 72 26 39 72 26
39 72 26 39 72 26 39 72 26 39 72 26 39 72 26 39 71 26 39 71 26 39 71
26 39 71 26 39 71 26 39 71 26 39 71 26 39 71 26 39 71 26 39 71 26 39
71 26 39 71 26 39 71 26 39 71 26 39 71 26 39 71 26 39 71 26 39 71 26
39 71 26 39 71 26 39 71 26 39 71 26 39 71 26 39 71 26 39 71 26 39 71
26 39 71 26 39 71 26 39 71 26 39 71 26 39 71 26 39 71 26 38 71 26 38
70 26 38 70 26 38 70 26 38 70 26 38 70 26 38 70 26 38 70 26 38 70 26
38 70 26 38 70 26 38 70 26 38 70 26 38 70 26 38 70 26 38 70 26 38 70
26 38 70 26 38 70 26 38 69 26 38 69 26 38 69 26 38 69 26 38 69 26 38
69 26 38 69 26 38 69 26 38 69 26 38 69 26 38 69 26 38 69 26 38 69 26
38 69 26 38 68 26 38 68 26 38 68 26 38 68 26 38 68 26 38 68 26 38 68
26 38 68 26 38 68 26 38 68 26 38 68 26 38 68 26 38 68 26 38 67 26 38
67 26 37 67 26 37 67 26 37 67 26 37 67 26 37 67 26 37 67 26 37 67 26
37 67 26 37 67 26 37 66 26 37 66 26 37 66 26 37 66 26 37 66 26 37 66
26 37 66 26 37 66 26 37 66 26 37 66 26 37 66 26 37 65 26 37 65 26 37
65 26 37 65 26 37 65 26 37 65 26 37 65 26 37 65 26 37 65 26 37 65 26
37 65 26 36 64 26 36 64 26 36 64 26 36 64 26 36 64 26 36 64 26 36 64
26 36 64 26 36 64 26 36 64 26 36 63 26 36 63 26 36 63 26 36 63 26 36
63 26 36 63 26 36 63 26 36 63 26 36 63 26 36 63 26 36 62 26 36 62 26
36 62 26 36 62 26 36 62 26 36 62 26 35 62 26 35 62 26 35 62 26 35 61
26 35 61 26 35 61 26 35 61 26 35 61 26 35 61 26 35 61 26 35 61 26 35
61 26 35 61 26 35 60 26 35 60 26 35 60 26 35 60 26 35 60 26 35 60 26
35 60 26 35 60 26 35 60 26 35 60 26 35 59 26 35 59 26 35 59 26 34 59
26 34 59 26 34 59 26 34 59 26 34 59 26 34 59 26 34 58 26 34 58 26 34
58 26 34 58 26 34 58 26 34 58 26 34 58 26 34 58 26 34 58 26 34 58 26
34 57 26 34 57 26 34 57 26 34 57 26 34 57 26 34 57 26 34 57 26 34 57
26 34 57 26 33 57 26 33 56 26 33 56 26 33 56 26 33 56 26 33 56 26 33
56 26 33 56 26 33 56 26 33 56 26 33 56 26 33 55 26 33 55 26 33 55 26
33 55 26 33 55 26 33 55 26 33 55 26 33 55 26 33 55 26 33 55 26 33 54
26 33 54 26 33 54 26 32 54 26 32 54 26 32 54 26 32 54 26 32 54 26 32
54 26 32 54 26 32 53 26 32 53 26 32 53 26 32 53 26 32 53 26 32 53 26
32 53 26 32 53 26 32 53 26 32 53 26 32 53 26 32 52 26 32 52 26 32 52
26 32 52 26 32 52 26 32 52 26 31 52 26 25 38 20 25 38 20 25 38 20 25
38 20 25 38 20 25 38 20 25 38 20 25 38 20 25 37 20 25 37 20 25 37 20
25 37 20 25 37 20 25 37 20 25 37 20 25 37 20 25 37 20 25 37 20 25 37
20 25 37 20 25 37 20 25 37 20 25 37 20 24 37 20 24 37 20 24 36 20 24
36 20 24 36 20 24 36 20 24 36 20 24 36 20 24 36 20 24 36 20 24 36 20
24 36 20 24 36 20 24 36 20 24 36 20 24 36 20 24 36 20 24 36 20 24 36
20 24 36 20
35 66 23 35 66 23 35 66 23 35 66 23 35 66 23 35 66 23 35 66 24 35 66
24 35 66 24 35 66 24 35 67 24 35 67 24 35 67 24 36 67 24 36 67 24 36
67 24 36 67 24 36 67 24 36 67 24 36 67 24 36 67 24 36 67 24 36 68 24
36 68 24 36 68 24 36 68 24 36 68 24 36 68 24 36 68 24 36 68 24 36 68
24 36 68 24 36 68 24 36 68 24 36 68 24 37 69 24 37 69 24 37 69 24 37
69 24 37 69 24 37 69 24 37 69 24 37 69 24 37 69 24 37 69 24 37 69 24
37 69 25 37 69 25 37 69 25 37 69 25 37 70 25 37 70 25 37 70 25 37 70
25 37 70 25 37 70 25 37 70 25 37 70 25 37 70 25 37 70 25 37 70 25 37
70 25 37 70 25 38 70 25 38 70 25 38 70 25 38 70 25 38 70 25 38 70 25
38 70 25 38 71 25 38 71 25 38 71 25 38 71 25 38 71 25 38 71 25 38 71
25 38 71 25 38 71 25 38 71 25 38 71 25 38 71 25 38 71 25 38 71 25 38
71 25 38 71 25 38 71 25 38 71 25 38 71 25 38 71 25 38 71 25 38 71 25
38 71 25 38 71 25 38 71 25 38 71 25 38 71 25 38 71 25 38 71 25 38 71
25 38 71 25 38 71 25 38 71 25 38 71 25 38 71 25 38 71 25 38 71 25 38
71 25 38 71 25 38 71 25 38 71 25 38 71 25 38 71 25 38 71 25 38 71 25
38 71 25 38 71 25 38 71 25 38 71 25 38 71 25 38 71 25 38 71 25 38 71
26 38 71 26 38 71 26 38 71 26 38 71 26 38 71 26 38 71 26 38 71 26 38
71 26 38 71 26 38 71 26 38 71 26 38 71 26 38 71 26 38 71 26 38 71 26
38 71 26 38 71 26 38 71 26 38 71 26 38 71 26 38 71 26 38 71 26 38 70
26 38 70 26 38 70 26 38 70 26 38 70 26 38 70 26 38 70 26 38 70 26 38
70 26 38 70 26 38 70 26 38 70 26 38 70 26 38 70 26 38 70 26 38 70 26
38 70 26 38 70 26 38 70 26 38 70 26 38 70 26 38 69 26 38 69 26 38 69
26 38 69 26 38 69 26 38 69 26 38 69 26 38 69 26 38 69 26 38 69 26 38
69 26 38 69 26 38 69 26 38 69 26 38 69 26 38 68 26 38 68 26 38 68 26
38 68 26 38 68 26 38 68 26 38 68 26 38 68 26 38 68 26 38 68 26 38 68
26 38 68 26 38 68 26 38 68 26 37 67 26 37 67 26 37 67 26 37 67 26 37
67 26 37 67 26 37 67 26 37 67 26 37 67 26 37 67 26 37 67 26 37 67 26
37 66 26 37 66 26 37 66 26 37 66 26 37 66 26 37 66 26 37 66 26 37 66
26 37 66 26 37 66 26 37 66 26 37 65 26 37 65 26 37 65 26 37 65 26 37
65 26 37 65 26 37 65 26 37 65 26 37 65 26 36 65 26 36 65 26 36 64 26
36 64 26 36 64 26 36 64 26 36 64 26 36 64 26 36 64 26 36 64 26 36 64
26 36 64 26 36 63 26 36 63 26 36 63 26 36 63 26 36 63 26 36 63 26 36
63 26 36 63 26 36 63 26 36 63 26 36 62 26 36 62 26 36 62 26 36 62 26
36 62 26 36 62 26 35 62 26 35 62 26 35 62 26 35 62 26 35 61 26 35 61
26 35 61 26 35 61 26 35 61 26 35 61 26 35 61 26 35 61 26 35 61 26 35
61 26 35 60 26 35 60 26 35 60 26 35 60 26 35 60 26 35 60 26 35 60 26
35 60 26 35 60 26 35 60 26 35 59 26 35 59 26 34 59 26 34 59 26 34 59
26 34 59 26 34 59 26 34 59 26 34 59 26 34 58 26 34 58 26 34 58 26 34
58 26 34 58 26 34 58 26 34 58 26 34 58 26 34 58 26 34 58 26 34 57 26
34 57 26 34 57 26 34 57 26 34 57 26 34 57 26 34 57 26 34 57 26 33 57
26 33 57 26 33 56 26 33 56 26 33 56 26 33 56 26 33 56 26 33 56 26 33
56 26 33 56 26 33 56 26 33 56 26 33 55 26 33 55 26 33 55 26 33 55 26
33 55 26 33 55 26 33 55 26 33 55 26 33 55 26 33 55 26 33 55 26 33 54
26 33 54 26 32 54 26 32 54 26 32 54 26 32 54 26 32 54 26 32 54 26 32
54 26 32 54 26 32 53 26 32 53 26 32 53 26 32 53 26 32 53 26 32 53 26
32 53 26 32 53 26 32 53 26 32 53 26 32 53 26 32 52 26 32 52 26 32 52
26 32 52 26 32 52 26 32 52 26 25 38 20 25 38 20 25 38 20 25 38 20 25
38 20 25 38 20 25 38 20 25 38 20 25 38 20 25 37 20 25 37 20 25 37 20
25 37 20 25 37 20 25 37 20 25 37 20 25 37 20 25 37 20 25 37 20 25 37
20 25 37 20 25 37 20 25 37 20 24 37 20 24 37 20 24 37 20 24 36 20 24
36 20 24 36 20 24 36 20 24 36 20 24 36 20 24 36 20 24 36 20 24 36 20
24 36 20 24 36 20 24 36 20 24 36 20 24 36 20 24 36 20 24 36 20 24 36
20 24 36 20
35 66 23 35 66 23 35 66 23 35 66 23 35 66 23 35 66 23 35 66 23 35 66
24 35 66 24 35 66 24 35 66 24 35 67 24 35 67 24 35 67 24 36 67 24 36
67 24 36 67 24 36 67 24 36 67 24 36 67 24 36 67 24 36 67 24 36 67 24
36 67 24 36 68 24 36 68 24 36 68 24 36 68 24 36 68 24 36 68 24 36 68
24 36 68 24 36 68 24 36 68 24 36 68 24 36 68 24 36 68 24 37 68 24 37
69 24 37 69 24 37 69 24 37 69 24 37 69 24 37 69 24 37 69 24 37 69 24
37 69 24 37 69 24 37 69 24 37 69 25 37 69 25 37 69 25 37 69 25 37 69
25 37 70 25 37 70 25 37 70 25 37 70 25 37 70 25 37 70 25 37 70 25 37
70 25 37 70 25 37 70 25 37 70 25 37 70 25 37 70 25 38 70 25 38 70 25
38 70 25 38 70 25 38 70 25 38 70 25 38 70 25 38 70 25 38 70 25 38 70
25 38 70 25 38 71 25 38 71 25 38 71 25 38 71 25 38 71 25 38 71 25 38
71 25 38 71 25 38 71 25 38 71 25 38 71 25 38 71 25 38 71 25 38 71 25
38 71 25 38 71 25 38 71 25 38 71 25 38 71 25 38 71 25 38 71 25 38 71
25 38 71 25 38 71 25 38 71 25 38 71 25 38 71 25 38 71 25 38 71 25 38
71 25 38 71 25 38 71 25 38 71 25 38 71 25 38 71 25 38 71 25 38 71 25
38 71 25 38 71 25 38 71 25 38 71 25 38 71 25 38 71 25 38 71 25 38 71
25 38 71 25 38 71 25 38 71 25 38 71 25 38 71 25 38 71 25 38 71 25 38
71 25 38 71 25 38 71 25 38 71 25 38 71 26 38 71 26 38 70 26 38 70 26
38 70 26 38 70 26 38 70 26 38 70 26 38 70 26 38 70 26 38 70 26 38 70
26 38 70 26 38 70 26 38 70 26 38 70 26 38 70 26 38 70 26 38 70 26 38
70 26 38 70 26 38 70 26 38 70 26 38 70 26 38 70 26 38 70 26 38 69 26
38 69 26 38 69 26 38 69 26 38 69 26 38 69 26 38 69 26 38 69 26 38 69
26 38 69 26 38 69 26 38 69 26 38 69 26 38 69 26 38 69 26 38 69 26 38
69 26 38 68 26 38 68 26 38 68 26 38 68 26 38 68 26 38 68 26 38 68 26
38 68 26 38 68 26 38 68 26 38 68 26 38 68 26 37 68 26 37 68 26 37 67
26 37 67 26 37 67 26 37 67 26 37 67 26 37 67 26 37 67 26 37 67 26 37
67 26 37 67 26 37 67 26 37 67 26 37 67 26 37 66 26 37 66 26 37 66 26
37 66 26 37 66 26 37 66 26 37 66 26 37 66 26 37 66 26 37 66 26 37 66
26 37 65 26 37 65 26 37 65 26 37 65 26 37 65 26 37 65 26 37 65 26 37
65 26 36 65 26 36 65 26 36 65 26 36 64 26 36 64 26 36 64 26 36 64 26
36 64 26 36 64 26 36 64 26 36 64 26 36 64 26 36 64 26 36 64 26 36 63
26 36 63 26 36 63 26 36 63 26 36 63 26 36 63 26 36 63 26 36 63 26 36
63 26 36 63 26 36 62 26 36 62 26 36 62 26 36 62 26 36 62 26 35 62 26
35 62 26 35 62 26 35 62 26 35 62 26 35 61 26 35 61 26 35 61 26 35 61
26 35 61 26 35 61 26 35 61 26 35 61 26 35 61 26 35 61 26 35 60 26 35
60 26 35 60 26 35 60 26 35 60 26 35 60 26 35 60 26 35 60 26 35 60 26
35 60 26 35 59 26 35 59 26 34 59 26 34 59 26 34 59 26 34 59 26 34 59
26 34 59 26 34 59 26 34 59 26 34 58 26 34 58 26 34 58 26 34 58 26 34
58 26 34 58 26 34 58 26 34 58 26 34 58 26 34 58 26 34 57 26 34 57 26
34 57 26 34 57 26 34 57 26 34 57 26 34 57 26 33 57 26 33 57 26 33 57
26 33 57 26 33 56 26 33 56 26 33 56 26 33 56 26 33 56 26 33 56 26 33
56 26 33 56 26 33 56 26 33 56 26 33 55 26 33 55 26 33 55 26 33 55 26
33 55 26 33 55 26 33 55 26 33 55 26 33 55 26 33 55 26 33 54 26 33 54
26 32 54 26 32 54 26 32 54 26 32 54 26 32 54 26 32 54 26 32 54 26 32
54 26 32 54 26 32 53 26 32 53 26 32 53 26 32 53 26 32 53 26 32 53 26
32 53 26 32 53 26 32 53 26 32 53 26 32 53 26 32 52 26 32 52 26 32 52
26 32 52 26 32 52 26 25 38 20 25 38 20 25 38 20 25 38 20 25 38 20 25
38 20 25 38 20 25 38 20 25 38 20 25 38 20 25 37 20 25 37 20 25 37 20
25 37 20 25 37 20 25 37 20 25 37 20 25 37 20 25 37 20 25 37 20 25 37
20 25 37 20 25 37 20 24 37 20 24 37 20 24 37 20 24 37 20 24 36 20 24
36 20 24 36 20 24 36 20 24 36 20 24 36 20 24 36 20 24 36 20 24 36 20
24 36 20 24 36 20 24 36 20 24 36 20 24 36 20 24 36 20 24 36 20 24 36
20 24 36 20
35 65 23 35 66 23 35 66 23 35 66 23 35 66 23 35 66 23 35 66 23 35 66
23 35 66 24 35 66 24 35 66 24 35 66 24 35 66 24 35 67 24 35 67 24 36
67 24 36 67 24 36 67 24 36 67 24 36 67 24 36 67 24 36 67 24 36 67 24
36 67 24 36 67 24 36 67 24 36 68 24 36 68 24 36 68 24 36 68 24 36 68
24 36 68 24 36 68 24 36 68 24 36 68 24 36 68 24 36 68 24 36 68 24 36
68 24 36 68 24 37 68 24 37 69 24 37 69 24 37 69 24 37 69 24 37 69 24
37 69 24 37 69 24 37 69 24 37 69 24 37 69 24 37 69 24 37 69 25 37 69
25 37 69 25 37 69 25 37 69 25 37 69 25 37 69 25 37 70 25 37 70 25 37
70 25 37 70 25 37 70 25 37 70 25 37 70 25 37 70 25 37 70 25 37 70 25
37 70 25 37 70 25 37 70 25 38 70 25 38 70 25 38 70 25 38 70 25 38 70
25 38 70 25 38 70 25 38 70 25 38 70 25 38 70 25 38 70 25 38 70 25 38
70 25 38 70 25 38 70 25 38 70 25 38 70 25 38 70 25 38 71 25 38 71 25
38 71 25 38 71 25 38 71 25 38 71 25 38 71 25 38 71 25 38 71 25 38 71
25 38 71 25 38 71 25 38 71 25 38 71 25 38 71 25 38 71 25 38 71 25 38
71 25 38 71 25 38 71 25 38 71 25 38 71 25 38 71 25 38 71 25 38 71 25
38 71 25 38 71 25 38 71 25 38 71 25 38 71 25 38 71 25 38 71 25 38 70
25 38 70 25 38 70 25 38 70 25 38 70 25 38 70 25 38 70 25 38 70 25 38
70 25 38 70 25 38 70 25 38 70 25 38 70 25 38 70 25 38 70 25 38 70 25
38 70 25 38 70 25 38 70 25 38 70 25 38 70 25 38 70 25 38 70 25 38 70
25 38 70 25 38 70 25 38 70 26 38 70 26 38 70 26 38 70 26 38 70 26 38
70 26 38 69 26 38 69 26 38 69 26 38 69 26 38 69 26 38 69 26 38 69 26
38 69 26 38 69 26 38 69 26 38 69 26 38 69 26 38 69 26 38 69 26 38 69
26 38 69 26 38 69 26 38 69 26 38 68 26 38 68 26 38 68 26 38 68 26 38
68 26 38 68 26 38 68 26 38 68 26 38 68 26 38 68 26 38 68 26 37 68 26
37 68 26 37 68 26 37 68 26 37 67 26 37 67 26 37 67 26 37 67 26 37 67
26 37 67 26 37 67 26 37 67 26 37 67 26 37 67 26 37 67 26 37 67 26 37
67 26 37 67 26 37 66 26 37 66 26 37 66 26 37 66 26 37 66 26 37 66 26
37 66 26 37 66 26 37 66 26 37 66 26 37 66 26 37 66 26 37 65 26 37 65
26 37 65 26 37 65 26 37 65 26 37 65 26 36 65 26 36 65 26 36 65 26 36
65 26 36 65 26 36 64 26 36 64 26 36 64 26 36 64 26 36 64 26 36 64 26
36 64 26 36 64 26 36 64 26 36 64 26 36 64 26 36 63 26 36 63 26 36 63
26 36 63 26 36 63 26 36 63 26 36 63 26 36 63 26 36 63 26 36 63 26 36
62 26 36 62 26 36 62 26 36 62 26 35 62 26 35 62 26 35 62 26 35 62 26
35 62 26 35 62 26 35 62 26 35 61 26 35 61 26 35 61 26 35 61 26 35 61
26 35 61 26 35 61 26 35 61 26 35 61 26 35 61 26 35 60 26 35 60 26 35
60 26 35 60 26 35 60 26 35 60 26 35 60 26 35 60 26 35 60 26 35 60 26
34 59 26 34 59 26 34 59 26 34 59 26 34 59 26 34 59 26 34 59 26 34 59
26 34 59 26 34 59 26 34 58 26 34 58 26 34 58 26 34 58 26 34 58 26 34
58 26 34 58 26 34 58 26 34 58 26 34 58 26 34 58 26 34 57 26 34 57 26
34 57 26 34 57 26 34 57 26 34 57 26 33 57 26 33 57 26 33 57 26 33 57
26 33 56 26 33 56 26 33 56 26 33 56 26 33 56 26 33 56 26 33 56 26 33
56 26 33 56 26 33 56 26 33 55 26 33 55 26 33 55 26 33 55 26 33 55 26
33 55 26 33 55 26 33 55 26 33 55 26 33 55 26 33 55 26 32 54 26 32 54
26 32 54 26 32 54 26 32 54 26 32 54 26 32 54 26 32 54 26 32 54 26 32
54 26 32 54 26 32 53 26 32 53 26 32 53 26 32 53 26 32 53 26 32 53 26
32 53 26 32 53 26 32 53 26 32 53 26 32 53 26 32 52 26 32 52 26 32 52
26 32 52 26 25 38 20 25 38 20 25 38 20 25 38 20 25 38 20 25 38 20 25
38 20 25 38 20 25 38 20 25 38 20 25 37 20 25 37 20 25 37 20 25 37 20
25 37 20 25 37 20 25 37 20 25 37 20 25 37 20 25 37 20 25 37 20 25 37
20 25 37 20 24 37 20 24 37 20 24 37 20 24 37 20 24 37 20 24 36 20 24
36 20 24 36 20 24 36 20 24 36 20 24 36 20 24 36 20 24 36 20 24 36 20
24 36 20 24 36 20 24 36 20 24 36 20 24 36 20 24 36 20 24 36 20 24 36
20 24 36 20
35 65 23 35 65 23 35 65 23 35 66 23 35 66 23 35 66 23 35 66 23 35 66
23 35 66 23 35 66 24 35 66 24 35 66 24 35 66 24 35 66 24 35 66 24 35
67 24 35 67 24 36 67 24 36 67 24 36 67 24 36 67 24 36 67 24 36 67 24
36 67 24 36 67 24 36 67 24 36 67 24 36 67 24 36 68 24 36 68 24 36 68
24 36 68 24 36 68 24 36 68 24 36 68 24 36 68 24 36 68 24 36 68 24 36
68 24 36 68 24 36 68 24 36 68 24 37 68 24 37 68 24 37 69 24 37 69 24
37 69 24 37 69 24 37 69 24 37 69 24 37 69 24 37 69 24 37 69 24 37 69
24 37 69 24 37 69 25 37 69 25 37 69 25 37 69 25 37 69 25 37 69 25 37
69 25 37 69 25 37 69 25 37 69 25 37 70 25 37 70 25 37 70 25 37 70 25
37 70 25 37 70 25 37 70 25 37 70 25 37 70 25 37 70 25 37 70 25 37 70
25 38 70 25 38 70 25 38 70 25 38 70 25 38 70 25 38 70 25 38 70 25 38
70 25 38 70 25 38 70 25 38 70 25 38 70 25 38 70 25 38 70 25 38 70 25
38 70 25 38 70 25 38 70 25 38 70 25 38 70 25 38 70 25 38 70 25 38 70
25 38 70 25 38 70 25 38 70 25 38 70 25 38 70 25 38 70 25 38 70 25 38
70 25 38 70 25 38 70 25 38 70 25 38 70 25 38 70 25 38 70 25 38 70 25
38 70 25 38 70 25 38 70 25 38 70 25 38 70 25 38 70 25 38 70 25 38 70
25 38 70 25 38 70 25 38 70 25 38 70 25 38 70 25 38 70 25 38 70 25 38
70 25 38 70 25 38 70 25 38 70 25 38 70 25 38 70 25 38 70 25 38 70 25
38 70 25 38 70 25 38 70 25 38 70 25 38 70 25 38 70 25 38 70 25 38 70
25 38 70 25 38 69 25 38 69 25 38 69 25 38 69 25 38 69 25 38 69 25 38
69 25 38 69 25 38 69 25 38 69 25 38 69 25 38 69 25 38 69 25 38 69 25
38 69 25 38 69 25 38 69 25 38 69 26 38 69 26 38 69 26 38 68 26 38 68
26 38 68 26 38 68 26 38 68 26 38 68 26 38 68 26 38 68 26 38 68 26 37
68 26 37 68 26 37 68 26 37 68 26 37 68 26 37 68 26 37 68 26 37 67 26
37 67 26 37 67 26 37 67 26 37 67 26 37 67 26 37 67 26 37 67 26 37 67
26 37 67 26 37 67 26 37 67 26 37 67 26 37 67 26 37 66 26 37 66 26 37
66 26 37 66 26 37 66 26 37 66 26 37 66 26 37 66 26 37 66 26 37 66 26
37 66 26 37 66 26 37 66 26 37 65 26 37 65 26 37 65 26 37 65 26 37 65
26 36 65 26 36 65 26 36 65 26 36 65 26 36 65 26 36 65 26 36 65 26 36
64 26 36 64 26 36 64 26 36 64 26 36 64 26 36 64 26 36 64 26 36 64 26
36 64 26 36 64 26 36 64 26 36 63 26 36 63 26 36 63 26 36 63 26 36 63
26 36 63 26 36 63 26 36 63 26 36 63 26 36 63 26 36 63 26 36 62 26 36
62 26 35 62 26 35 62 26 35 62 26 35 62 26 35 62 26 35 62 26 35 62 26
35 62 26 35 61 26 35 61 26 35 61 26 35 61 26 35 61 26 35 61 26 35 61
26 35 61 26 35 61 26 35 61 26 35 61 26 35 60 26 35 60 26 35 60 26 35
60 26 35 60 26 35 60 26 35 60 26 35 60 26 35 60 26 34 60 26 34 59 26
34 59 26 34 59 26 34 59 26 34 59 26 34 59 26 34 59 26 34 59 26 34 59
26 34 59 26 34 58 26 34 58 26 34 58 26 34 58 26 34 58 26 34 58 26 34
58 26 34 58 26 34 58 26 34 58 26 34 58 26 34 57 26 34 57 26 34 57 26
34 57 26 34 57 26 33 57 26 33 57 26 33 57 26 33 57 26 33 57 26 33 56
26 33 56 26 33 56 26 33 56 26 33 56 26 33 56 26 33 56 26 33 56 26 33
56 26 33 56 26 33 56 26 33 55 26 33 55 26 33 55 26 33 55 26 33 55 26
33 55 26 33 55 26 33 55 26 33 55 26 33 55 26 32 54 26 32 54 26 32 54
26 32 54 26 32 54 26 32 54 26 32 54 26 32 54 26 32 54 26 32 54 26 32
54 26 32 53 26 32 53 26 32 53 26 32 53 26 32 53 26 32 53 26 32 53 26
32 53 26 32 53 26 32 53 26 32 53 26 32 52 26 32 52 26 32 52 26 32 52
26 31 52 26 25 38 20 25 38 20 25 38 20 25 38 20 25 38 20 25 38 20 25
38 20 25 38 20 25 38 20 25 38 20 25 37 20 25 37 20 25 37 20 25 37 20
25 37 20 25 37 20 25 37 20 25 37 20 25 37 20 25 37 20 25 37 20 25 37
20 24 37 20 24 37 20 24 37 20 24 37 20 24 37 20 24 37 20 24 36 20 24
36 20 24 36 20 24 36 20 24 36 20 24 36 20 24 36 20 24 36 20 24 36 20
24 36 20 24 36 20 24 36 20 24 36 20 24 36 20 24 36 20 24 36 20 24 36
20 24 36 20
35 65 23 35 65 23 35 65 23 35 65 23 35 66 23 35 66 23 35 66 23 35 66
23 35 66 23 35 66 23 35 66 23 35 66 24 35 66 24 35 66 24 35 66 24 35
66 24 35 66 24 35 67 24 35 67 24 36 67 24 36 67 24 36 67 24 36 67 24
36 67 24 36 67 24 36 67 24 36 67 24 36 67 24 36 67 24 36 67 24 36 67
24 36 68 24 36 68 24 36 68 24 36 68 24 36 68 24 36 68 24 36 68 24 36
68 24 36 68 24 36 68 24 36 68 24 36 68 24 36 68 24 36 68 24 37 68 24
37 68 24 37 68 24 37 69 24 37 69 24 37 69 24 37 69 24 37 69 24 37 69
24 37 69 24 37 69 24 37 69 24 37 69 24 37 69 24 37 69 25 37 69 25 37
69 25 37 69 25 37 69 25 37 69 25 37 69 25 37 69 25 37 69 25 37 69 25
37 69 25 37 69 25 37 69 25 37 70 25 37 70 25 37 70 25 37 70 25 37 70
25 37 70 25 37 70 25 37 70 25 37 70 25 37 70 25 37 70 25 37 70 25 38
70 25 38 70 25 38 70 25 38 70 25 38 70 25 38 70 25 38 70 25 38 70 25
38 70 25 38 70 25 38 70 25 38 70 25 38 70 25 38 70 25 38 70 25 38 70
25 38 70 25 38 70 25 38 70 25 38 70 25 38 70 25 38 70 25 38 70 25 38
70 25 38 70 25 38 70 25 38 70 25 38 70 25 38 70 25 38 70 25 38 70 25
38 70 25 38 70 25 38 70 25 38 70 25 38 70 25 38 70 25 38 70 25 38 70
25 38 70 25 38 70 25 38 70 25 38 70 25 38 70 25 38 70 25 38 70 25 38
70 25 38 70 25 38 70 25 38 70 25 38 70 25 38 70 25 38 70 25 38 70 25
38 69 25 38 69 25 38 69 25 38 69 25 38 69 25 38 69 25 38 69 25 38 69
25 38 69 25 38 69 25 38 69 25 38 69 25 38 69 25 38 69 25 38 69 25 38
69 25 38 69 25 38 69 25 38 69 25 38 69 25 38 69 25 38 69 25 38 69 25
38 69 25 38 68 25 38 68 25 38 68 25 38 68 25 38 68 25 38 68 25 37 68
25 37 68 25 37 68 25 37 68 25 37 68 25 37 68 25 37 68 25 37 68 25 37
68 25 37 68 25 37 68 25 37 67 25 37 67 25 37 67 26 37 67 26 37 67 26
37 67 26 37 67 26 37 67 26 37 67 26 37 67 26 37 67 26 37 67 26 37 67
26 37 67 26 37 67 26 37 66 26 37 66 26 37 66 26 37 66 26 37 66 26 37
66 26 37 66 26 37 66 26 37 66 26 37 66 26 37 66 26 37 66 26 37 66 26
37 65 26 37 65 26 37 65 26 37 65 26 36 65 26 36 65 26 36 65 26 36 65
26 36 65 26 36 65 26 36 65 26 36 65 26 36 64 26 36 64 26 36 64 26 36
64 26 36 64 26 36 64 26 36 64 26 36 64 26 36 64 26 36 64 26 36 64 26
36 64 26 36 63 26 36 63 26 36 63 26 36 63 26 36 63 26 36 63 26 36 63
26 36 63 26 36 63 26 36 63 26 36 63 26 36 62 26 35 62 26 35 62 26 35
62 26 35 62 26 35 62 26 35 62 26 35 62 26 35 62 26 35 62 26 35 62 26
35 61 26 35 61 26 35 61 26 35 61 26 35 61 26 35 61 26 35 61 26 35 61
26 35 61 26 35 61 26 35 60 26 35 60 26 35 60 26 35 60 26 35 60 26 35
60 26 35 60 26 35 60 26 35 60 26 34 60 26 34 60 26 34 59 26 34 59 26
34 59 26 34 59 26 34 59 26 34 59 26 34 59 26 34 59 26 34 59 26 34 59
26 34 58 26 34 58 26 34 58 26 34 58 26 34 58 26 34 58 26 34 58 26 34
58 26 34 58 26 34 58 26 34 58 26 34 57 26 34 57 26 34 57 26 34 57 26
33 57 26 33 57 26 33 57 26 33 57 26 33 57 26 33 57 26 33 56 26 33 56
26 33 56 26 33 56 26 33 56 26 33 56 26 33 56 26 33 56 26 33 56 26 33
56 26 33 56 26 33 55 26 33 55 26 33 55 26 33 55 26 33 55 26 33 55 26
33 55 26 33 55 26 33 55 26 32 55 26 32 55 26 32 54 26 32 54 26 32 54
26 32 54 26 32 54 26 32 54 26 32 54 26 32 54 26 32 54 26 32 54 26 32
54 26 32 53 26 32 53 26 32 53 26 32 53 26 32 53 26 32 53 26 32 53 26
32 53 26 32 53 26 32 53 26 32 53 26 32 52 26 32 52 26 32 52 26 31 52
26 25 38 20 25 38 20 25 38 20 25 38 20 25 38 20 25 38 20 25 38 20 25
38 20 25 38 20 25 38 20 25 38 20 25 37 20 25 37 20 25 37 20 25 37 20
25 37 20 25 37 20 25 37 20 25 37 20 25 37 20 25 37 20 24 37 20 24 37
20 24 37 20 24 37 20 24 37 20 24 37 20 24 37 20 24 37 20 24 36 20 24
36 20 24 36 20 24 36 20 24 36 20 24 36 20 24 36 20 24 36 20 24 36 20
24 36 20 24 36 20 24 36 20 24 36 20 24 36 20 24 36 20 24 36 20 24 36
20 24 36 20
35 65 23 35 65 23 35 65 23 35 65 23 35 65 23 35 65 23 35 66 23 35 66
23 35 66 23 35 66 23 35 66 23 35 66 23 35 66 24 35 66 24 35 66 24 35
66 24 35 66 24 35 66 24 35 66 24 35 67 24 36 67 24 36 67 24 36 67 24
36 67 24 36 67 24 36 67 24 36 67 24 36 67 24 36 67 24 36 67 24 36 67
24 36 67 24 36 67 24 36 67 24 36 68 24 36 68 24 36 68 24 36 68 24 36
68 24 36 68 24 36 68 24 36 68 24 36 68 24 36 68 24 36 68 24 36 68 24
36 68 24 36 68 24 37 68 24 37 68 24 37 68 24 37 68 24 37 68 24 37 69
24 37 69 24 37 69 24 37 69 24 37 69 24 37 69 24 37 69 24 37 69 24 37
69 24 37 69 25 37 69 25 37 69 25 37 69 25 37 69 25 37 69 25 37 69 25
37 69 25 37 69 25 37 69 25 37 69 25 37 69 25 37 69 25 37 69 25 37 69
25 37 69 25 37 69 25 37 69 25 37 69 25 37 69 25 37 70 25 37 70 25 37
70 25 37 70 25 37 70 25 37 70 25 37 70 25 37 70 25 37 70 25 37 70 25
38 70 25 38 70 25 38 70 25 38 70 25 38 70 25 38 70 25 38 70 25 38 70
25 38 70 25 38 70 25 38 70 25 38 70 25 38 70 25 38 70 25 38 70 25 38
70 25 38 70 25 38 70 25 38 70 25 38 70 25 38 70 25 38 70 25 38 70 25
38 70 25 38 70 25 38 70 25 38 70 25 38 70 25 38 70 25 38 70 25 38 70
25 38 70 25 38 70 25 38 70 25 38 70 25 38 69 25 38 69 25 38 69 25 38
69 25 38 69 25 38 69 25 38 69 25 38 69 25 38 69 25 38 69 25 38 69 25
38 69 25 38 69 25 38 69 25 38 69 25 38 69 25 38 69 25 38 69 25 38 69
25 38 69 25 38 69 25 38 69 25 38 69 25 38 69 25 38 69 25 38 69 25 38
69 25 38 69 25 38 69 25 38 68 25 38 68 25 37 68 25 37 68 25 37 68 25
37 68 25 37 68 25 37 68 25 37 68 25 37 68 25 37 68 25 37 68 25 37 68
25 37 68 25 37 68 25 37 68 25 37 68 25 37 68 25 37 68 25 37 67 25 37
67 25 37 67 25 37 67 25 37 67 25 37 67 25 37 67 25 37 67 25 37 67 25
37 67 25 37 67 25 37 67 25 37 67 25 37 67 25 37 67 25 37 66 25 37 66
25 37 66 25 37 66 25 37 66 25 37 66 25 37 66 25 37 66 25 37 66 26 37
66 26 37 66 26 37 66 26 37 66 26 37 66 26 37 65 26 37 65 26 37 65 26
36 65 26 36 65 26 36 65 26 36 65 26 36 65 26 36 65 26 36 65 26 36 65
26 36 65 26 36 65 26 36 64 26 36 64 26 36 64 26 36 64 26 36 64 26 36
64 26 36 64 26 36 64 26 36 64 26 36 64 26 36 64 26 36 63 26 36 63 26
36 63 26 36 63 26 36 63 26 36 63 26 36 63 26 36 63 26 36 63 26 36 63
26 36 63 26 36 63 26 35 62 26 35 62 26 35 62 26 35 62 26 35 62 26 35
62 26 35 62 26 35 62 26 35 62 26 35 62 26 35 62 26 35 61 26 35 61 26
35 61 26 35 61 26 35 61 26 35 61 26 35 61 26 35 61 26 35 61 26 35 61
26 35 61 26 35 60 26 35 60 26 35 60 26 35 60 26 35 60 26 35 60 26 35
60 26 34 60 26 34 60 26 34 60 26 34 59 26 34 59 26 34 59 26 34 59 26
34 59 26 34 59 26 34 59 26 34 59 26 34 59 26 34 59 26 34 59 26 34 58
26 34 58 26 34 58 26 34 58 26 34 58 26 34 58 26 34 58 26 34 58 26 34
58 26 34 58 26 34 58 26 34 57 26 34 57 26 34 57 26 33 57 26 33 57 26
33 57 26 33 57 26 33 57 26 33 57 26 33 57 26 33 57 26 33 56 26 33 56
26 33 56 26 33 56 26 33 56 26 33 56 26 33 56 26 33 56 26 33 56 26 33
56 26 33 55 26 33 55 26 33 55 26 33 55 26 33 55 26 33 55 26 33 55 26
33 55 26 33 55 26 32 55 26 32 55 26 32 54 26 32 54 26 32 54 26 32 54
26 32 54 26 32 54 26 32 54 26 32 54 26 32 54 26 32 54 26 32 54 26 32
54 26 32 53 26 32 53 26 32 53 26 32 53 26 32 53 26 32 53 26 32 53 26
32 53 26 32 53 26 32 53 26 32 53 26 32 52 26 31 52 26 31 52 26 31 52
26 25 38 20 25 38 20 25 38 20 25 38 20 25 38 20 25 38 20 25 38 20 25
38 20 25 38 20 25 38 20 25 38 20 25 37 20 25 37 20 25 37 20 25 37 20
25 37 20 25 37 20 25 37 20 25 37 20 25 37 20 24 37 20 24 37 20 24 37
20 24 37 20 24 37 20 24 37 20 24 37 20 24 37 20 24 37 20 24 36 20 24
36 20 24 36 20 24 36 20 24 36 20 24 36 20 24 36 20 24 36 20 24 36 20
24 36 20 24 36 20 24 36 20 24 36 20 24 36 20 24 36 20 24 36 20 24 36
20 24 36 20
35 65 23 35 65 23 35 65 23 35 65 23 35 65 23 35 65 23 35 65 23 35 66
23 35 66 23 35 66 23 35 66 23 35 66 23 35 66 23 35 66 23 35 66 24 35
66 24 35 66 24 35 66 24 35 66 24 35 66 24 35 66 24 35 67 24 36 67 24
36 67 24 36 67 24 36 67 24 36 67 24 36 67 24 36 67 24 36 67 24 36 67
24 36 67 24 36 67 24 36 67 24 36 67 24 36 67 24 36 67 24 36 68 24 36
68 24 36 68 24 36 68 24 36 68 24 36 68 24 36 68 24 36 68 24 36 68 24
36 68 24 36 68 24 36 68 24 36 68 24 36 68 24 36 68 24 37 68 24 37 68
24 37 68 24 37 68 24 37 68 24 37 68 24 37 69 24 37 69 24 37 69 24 37
69 24 37 69 24 37 69 24 37 69 24 37 69 24 37 69 25 37 69 25 37 69 25
37 69 25 37 69 25 37 69 25 37 69 25 37 69 25 37 69 25 37 69 25 37 69
25 37 69 25 37 69 25 37 69 25 37 69 25 37 69 25 37 69 25 37 69 25 37
69 25 37 69 25 37 69 25 37 69 25 37 69 25 37 69 25 37 69 25 37 69 25
37 69 25 37 69 25 37 69 25 37 69 25 37 69 25 37 69 25 37 69 25 37 69
25 37 69 25 37 69 25 37 69 25 37 69 25 37 69 25 38 69 25 38 69 25 38
69 25 38 69 25 38 69 25 38 69 25 38 69 25 38 69 25 38 69 25 38 69 25
38 69 25 38 69 25 38 69 25 38 69 25 38 69 25 38 69 25 38 69 25 38 69
25 38 69 25 38 69 25 38 69 25 38 69 25 38 69 25 38 69 25 38 69 25 38
69 25 38 69 25 38 69 25 38 69 25 38 69 25 38 69 25 38 69 25 38 69 25
38 69 25 38 69 25 38 69 25 38 69 25 38 69 25 38 69 25 37 69 25 37 69
25 37 69 25 37 69 25 37 69 25 37 69 25 37 68 25 37 68 25 37 68 25 37
68 25 37 68 25 37 68 25 37 68 25 37 68 25 37 68 25 37 68 25 37 68 25
37 68 25 37 68 25 37 68 25 37 68 25 37 68 25 37 68 25 37 68 25 37 68
25 37 68 25 37 67 25 37 67 25 37 67 25 37 67 25 37 67 25 37 67 25 37
67 25 37 67 25 37 67 25 37 67 25 37 67 25 37 67 25 37 67 25 37 67 25
37 67 25 37 67 25 37 67 25 37 66 25 37 66 25 37 66 25 37 66 25 37 66
25 37 66 25 37 66 25 37 66 25 37 66 25 37 66 25 37 66 25 37 66 25 37
66 25 37 66 25 37 65 25 36 65 25 36 65 25 36 65 25 36 65 25 36 65 25
36 65 25 36 65 25 36 65 25 36 65 25 36 65 25 36 65 25 36 65 25 36 64
25 36 64 25 36 64 26 36 64 26 36 64 26 36 64 26 36 64 26 36 64 26 36
64 26 36 64 26 36 64 26 36 64 26 36 63 26 36 63 26 36 63 26 36 63 26
36 63 26 36 63 26 36 63 26 36 63 26 36 63 26 36 63 26 36 63 26 35 63
26 35 62 26 35 62 26 35 62 26 35 62 26 35 62 26 35 62 26 35 62 26 35
62 26 35 62 26 35 62 26 35 62 26 35 61 26 35 61 26 35 61 26 35 61 26
35 61 26 35 61 26 35 61 26 35 61 26 35 61 26 35 61 26 35 61 26 35 60
26 35 60 26 35 60 26 35 60 26 35 60 26 35 60 26 35 60 26 34 60 26 34
60 26 34 60 26 34 60 26 34 59 26 34 59 26 34 59 26 34 59 26 34 59 26
34 59 26 34 59 26 34 59 26 34 59 26 34 59 26 34 59 26 34 58 26 34 58
26 34 58 26 34 58 26 34 58 26 34 58 26 34 58 26 34 58 26 34 58 26 34
58 26 34 58 26 34 57 26 34 57 26 33 57 26 33 57 26 33 57 26 33 57 26
33 57 26 33 57 26 33 57 26 33 57 26 33 57 26 33 56 26 33 56 26 33 56
26 33 56 26 33 56 26 33 56 26 33 56 26 33 56 26 33 56 26 33 56 26 33
56 26 33 55 26 33 55 26 33 55 26 33 55 26 33 55 26 33 55 26 33 55 26
32 55 26 32 55 26 32 55 26 32 55 26 32 54 26 32 54 26 32 54 26 32 54
26 32 54 26 32 54 26 32 54 26 32 54 26 32 54 26 32 54 26 32 54 26 32
53 26 32 53 26 32 53 26 32 53 26 32 53 26 32 53 26 32 53 26 32 53 26
32 53 26 32 53 26 32 53 26 32 53 26 31 52 26 31 52 26 31 52 26 31 52
26 25 38 20 25 38 20 25 38 20 25 38 20 25 38 20 25 38 20 25 38 20 25
38 20 25 38 20 25 38 20 25 37 20 25 37 20 25 37 20 25 37 20 25 37 20
25 37 20 25 37 20 25 37 20 25 37 20 24 37 20 24 37 20 24 37 20 24 37
20 24 37 20 24 37 20 24 37 20 24 37 20 24 37 20 24 37 20 24 36 20 24
36 20 24 36 20 24 36 20 24 36 20 24 36 20 24 36 20 24 36 20 24 36 20
24 36 20 24 36 20 24 36 20 24 36 20 24 36 20 24 36 20 24 36 20 24 36
20 24 36 20
35 65 23 35 65 23 35 65 23 35 65 23 35 65 23 35 65 23 35 65 23 35 65
23 35 65 23 35 66 23 35 66 23 35 66 23 35 66 23 35 66 23 35 66 23 35
66 24 35 66 24 35 66 24 35 66 24 35 66 24 35 66 24 35 66 24 35 66 24
35 66 24 36 67 24 36 67 24 36 67 24 36 67 24 36 67 24 36 67 24 36 67
24 36 67 24 36 67 24 36 67 24 36 67 24 36 67 24 36 67 24 36 67 24 36
67 24 36 67 24 36 67 24 36 68 24 36 68 24 36 68 24 36 68 24 36 68 24
36 68 24 36 68 24 36 68 24 36 68 24 36 68 24 36 68 24 36 68 24 36 68
24 36 68 24 37 68 24 37 68 24 37 68 24 37 68 24 37 68 24 37 68 24 37
68 24 37 68 24 37 68 24 37 69 24 37 69 24 37 69 24 37 69 24 37 69 24
37 69 24 37 69 24 37 69 25 37 69 25 37 69 25 37 69 25 37 69 25 37 69
25 37 69 25 37 69 25 37 69 25 37 69 25 37 69 25 37 69 25 37 69 25 37
69 25 37 69 25 37 69 25 37 69 25 37 69 25 37 69 25 37 69 25 37 69 25
37 69 25 37 69 25 37 69 25 37 69 25 37 69 25 37 69 25 37 69 25 37 69
25 37 69 25 37 69 25 37 69 25 37 69 25 37 69 25 37 69 25 37 69 25 37
69 25 37 69 25 37 69 25 37 69 25 37 69 25 37 69 25 37 69 25 37 69 25
37 69 25 37 69 25 37 69 25 37 69 25 37 69 25 37 69 25 37 69 25 37 69
25 37 69 25 37 69 25 37 69 25 37 69 25 37 69 25 37 69 25 37 69 25 37
69 25 37 69 25 37 69 25 37 69 25 37 69 25 37 69 25 37 69 25 37 69 25
37 69 25 37 69 25 37 69 25 37 69 25 37 68 25 37 68 25 37 68 25 37 68
25 37 68 25 37 68 25 37 68 25 37 68 25 37 68 25 37 68 25 37 68 25 37
68 25 37 68 25 37 68 25 37 68 25 37 68 25 37 68 25 37 68 25 37 68 25
37 68 25 37 68 25 37 68 25 37 68 25 37 67 25 37 67 25 37 67 25 37 67
25 37 67 25 37 67 25 37 67 25 37 67 25 37 67 25 37 67 25 37 67 25 37
67 25 37 67 25 37 67 25 37 67 25 37 67 25 37 67 25 37 67 25 37 66 25
37 66 25 37 66 25 37 66 25 37 66 25 37 66 25 37 66 25 37 66 25 37 66
25 37 66 25 37 66 25 37 66 25 37 66 25 37 66 25 36 66 25 36 65 25 36
65 25 36 65 25 36 65 25 36 65 25 36 65 25 36 65 25 36 65 25 36 65 25
36 65 25 36 65 25 36 65 25 36 65 25 36 64 25 36 64 25 36 64 25 36 64
25 36 64 25 36 64 25 36 64 25 36 64 25 36 64 25 36 64 25 36 64 25 36
64 25 36 64 25 36 63 25 36 63 25 36 63 25 36 63 25 36 63 25 36 63 25
36 63 25 36 63 25 36 63 25 35 63 26 35 63 26 35 63 26 35 62 26 35 62
26 35 62 26 35 62 26 35 62 26 35 62 26 35 62 26 35 62 26 35 62 26 35
62 26 35 62 26 35 61 26 35 61 26 35 61 26 35 61 26 35 61 26 35 61 26
35 61 26 35 61 26 35 61 26 35 61 26 35 61 26 35 61 26 35 60 26 35 60
26 35 60 26 35 60 26 35 60 26 34 60 26 34 60 26 34 60 26 34 60 26 34
60 26 34 60 26 34 59 26 34 59 26 34 59 26 34 59 26 34 59 26 34 59 26
34 59 26 34 59 26 34 59 26 34 59 26 34 59 26 34 58 26 34 58 26 34 58
26 34 58 26 34 58 26 34 58 26 34 58 26 34 58 26 34 58 26 34 58 26 34
58 26 34 57 26 33 57 26 33 57 26 33 57 26 33 57 26 33 57 26 33 57 26
33 57 26 33 57 26 33 57 26 33 57 26 33 56 26 33 56 26 33 56 26 33 56
26 33 56 26 33 56 26 33 56 26 33 56 26 33 56 26 33 56 26 33 56 26 33
55 26 33 55 26 33 55 26 33 55 26 33 55 26 33 55 26 33 55 26 32 55 26
32 55 26 32 55 26 32 55 26 32 54 26 32 54 26 32 54 26 32 54 26 32 54
26 32 54 26 32 54 26 32 54 26 32 54 26 32 54 26 32 54 26 32 54 26 32
53 26 32 53 26 32 53 26 32 53 26 32 53 26 32 53 26 32 53 26 32 53 26
32 53 26 32 53 26 32 53 26 31 53 26 31 52 26 31 52 26 31 52 26 31 52
26 25 38 20 25 38 20 25 38 20 25 38 20 25 38 20 25 38 20 25 38 20 25
38 20 25 38 20 25 38 20 25 37 20 25 37 20 25 37 20 25 37 20 25 37 20
25 37 20 25 37 20 24 37 20 24 37 20 24 37 20 24 37 20 24 37 20 24 37
20 24 37 20 24 37 20 24 37 20 24 37 20 24 37 20 24 37 20 24 36 20 24
36 20 24 36 20 24 36 20 24 36 20 24 36 20 24 36 20 24 36 20 24 36 20
24 36 20 24 36 20 24 36 20 24 36 20 24 36 20 24 36 20 24 36 20 24 36
20 24 36 19
35 65 23 35 65 23 35 65 23 35 65 23 35 65 23 35 65 23 35 65 23 35 65
23 35 65 23 35 65 23 35 65 23 35 66 23 35 66 23 35 66 23 35 66 23 35
66 23 35 66 23 35 66 24 35 66 24 35 66 24 35 66 24 35 66 24 35 66 24
35 66 24 35 66 24 35 66 24 36 66 24 36 67 24 36 67 24 36 67 24 36 67
24 36 67 24 36 67 24 36 67 24 36 67 24 36 67 24 36 67 24 36 67 24 36
67 24 36 67 24 36 67 24 36 67 24 36 67 24 36 67 24 36 67 24 36 68 24
36 68 24 36 68 24 36 68 24 36 68 24 36 68 24 36 68 24 36 68 24 36 68
24 36 68 24 36 68 24 36 68 24 36 68 24 36 68 24 37 68 24 37 68 24 37
68 24 37 68 24 37 68 24 37 68 24 37 68 24 37 68 24 37 68 24 37 68 24
37 68 24 37 68 24 37 68 24 37 69 24 37 69 24 37 69 24 37 69 24 37 69
25 37 69 25 37 69 25 37 69 25 37 69 25 37 69 25 37 69 25 37 69 25 37
69 25 37 69 25 37 69 25 37 69 25 37 69 25 37 69 25 37 69 25 37 69 25
37 69 25 37 69 25 37 69 25 37 69 25 37 69 25 37 69 25 37 69 25 37 69
25 37 69 25 37 69 25 37 69 25 37 69 25 37 69 25 37 69 25 37 69 25 37
69 25 37 69 25 37 69 25 37 69 25 37 69 25 37 69 25 37 69 25 37 69 25
37 69 25 37 69 25 37 69 25 37 69 25 37 69 25 37 69 25 37 69 25 37 69
25 37 69 25 37 69 25 37 69 25 37 69 25 37 69 25 37 69 25 37 69 25 37
69 25 37 69 25 37 69 25 37 68 25 37 68 25 37 68 25 37 68 25 37 68 25
37 68 25 37 68 25 37 68 25 37 68 25 37 68 25 37 68 25 37 68 25 37 68
25 37 68 25 37 68 25 37 68 25 37 68 25 37 68 25 37 68 25 37 68 25 37
68 25 37 68 25 37 68 25 37 68 25 37 68 25 37 68 25 37 68 25 37 67 25
37 67 25 37 67 25 37 67 25 37 67 25 37 67 25 37 67 25 37 67 25 37 67
25 37 67 25 37 67 25 37 67 25 37 67 25 37 67 25 37 67 25 37 67 25 37
67 25 37 67 25 37 67 25 37 66 25 37 66 25 37 66 25 37 66 25 37 66 25
37 66 25 37 66 25 37 66 25 37 66 25 37 66 25 37 66 25 37 66 25 36 66
25 36 66 25 36 66 25 36 65 25 36 65 25 36 65 25 36 65 25 36 65 25 36
65 25 36 65 25 36 65 25 36 65 25 36 65 25 36 65 25 36 65 25 36 65 25
36 65 25 36 64 25 36 64 25 36 64 25 36 64 25 36 64 25 36 64 25 36 64
25 36 64 25 36 64 25 36 64 25 36 64 25 36 64 25 36 64 25 36 63 25 36
63 25 36 63 25 36 63 25 36 63 25 36 63 25 36 63 25 36 63 25 36 63 25
35 63 25 35 63 25 35 63 25 35 63 25 35 62 25 35 62 25 35 62 25 35 62
25 35 62 25 35 62 25 35 62 25 35 62 25 35 62 25 35 62 25 35 62 25 35
61 25 35 61 25 35 61 25 35 61 25 35 61 25 35 61 25 35 61 26 35 61 26
35 61 26 35 61 26 35 61 26 35 61 26 35 60 26 35 60 26 35 60 26 35 60
26 34 60 26 34 60 26 34 60 26 34 60 26 34 60 26 34 60 26 34 60 26 34
59 26 34 59 26 34 59 26 34 59 26 34 59 26 34 59 26 34 59 26 34 59 26
34 59 26 34 59 26 34 59 26 34 59 26 34 58 26 34 58 26 34 58 26 34 58
26 34 58 26 34 58 26 34 58 26 34 58 26 34 58 26 34 58 26 34 58 26 33
57 26 33 57 26 33 57 26 33 57 26 33 57 26 33 57 26 33 57 26 33 57 26
33 57 26 33 57 26 33 57 26 33 56 26 33 56 26 33 56 26 33 56 26 33 56
26 33 56 26 33 56 26 33 56 26 33 56 26 33 56 26 33 56 26 33 55 26 33
55 26 33 55 26 33 55 26 33 55 26 33 55 26 32 55 26 32 55 26 32 55 26
32 55 26 32 55 26 32 55 26 32 54 26 32 54 26 32 54 26 32 54 26 32 54
26 32 54 26 32 54 26 32 54 26 32 54 26 32 54 26 32 54 26 32 54 26 32
53 26 32 53 26 32 53 26 32 53 26 32 53 26 32 53 26 32 53 26 32 53 26
32 53 26 32 53 26 31 53 26 31 52 26 31 52 26 31 52 26 31 52 26 31 52
25 25 38 19 25 38 19 25 38 19 25 38 20 25 38 20 25 38 20 25 38 20 25
38 20 25 38 20 25 38 20 25 37 20 25 37 20 25 37 20 25 37 20 25 37 20
25 37 20 24 37 20 24 37 20 24 37 20 24 37 20 24 37 20 24 37 20 24 37
20 24 37 20 24 37 20 24 37 20 24 37 20 24 37 20 24 37 20 24 36 20 24
36 20 24 36 20 24 36 20 24 36 20 24 36 20 24 36 19 24 36 19 24 36 19
24 36 19 24 36 19 24 36 19 24 36 19 24 36 19 24 36 19 24 36 19 24 36
19 24 36 19
34 65 23 34 65 23 35 65 23 35 65 23 35 65 23 35 65 23 35 65 23 35 65
23 35 65 23 35 65 23 35 65 23 35 65 23 35 65 23 35 66 23 35 66 23 35
66 23 35 66 23 35 66 23 35 66 23 35 66 24 35 66 24 35 66 24 35 66 24
35 66 24 35 66 24 35 66 24 35 66 24 35 66 24 35 66 24 36 67 24 36 67
24 36 67 24 36 67 24 36 67 24 36 67 24 36 67 24 36 67 24 36 67 24 36
67 24 36 67 24 36 67 24 36 67 24 36 67 24 36 67 24 36 67 24 36 67 24
36 67 24 36 67 24 36 67 24 36 67 24 36 68 24 36 68 24 36 68 24 36 68
24 36 68 24 36 68 24 36 68 24 36 68 24 36 68 24 36 68 24 36 68 24 36
68 24 36 68 24 36 68 24 37 68 24 37 68 24 37 68 24 37 68 24 37 68 24
37 68 24 37 68 24 37 68 24 37 68 24 37 68 24 37 68 24 37 68 24 37 68
24 37 68 24 37 68 24 37 68 24 37 68 24 37 68 25 37 68 25 37 68 25 37
69 25 37 69 25 37 69 25 37 69 25 37 69 25 37 69 25 37 69 25 37 69 25
37 69 25 37 69 25 37 69 25 37 69 25 37 69 25 37 69 25 37 69 25 37 69
25 37 69 25 37 69 25 37 69 25 37 69 25 37 69 25 37 69 25 37 69 25 37
69 25 37 69 25 37 69 25 37 69 25 37 69 25 37 69 25 37 69 25 37 69 25
37 69 25 37 69 25 37 69 25 37 69 25 37 68 25 37 68 25 37 68 25 37 68
25 37 68 25 37 68 25 37 68 25 37 68 25 37 68 25 37 68 25 37 68 25 37
68 25 37 68 25 37 68 25 37 68 25 37 68 25 37 68 25 37 68 25 37 68 25
37 68 25 37 68 25 37 68 25 37 68 25 37 68 25 37 68 25 37 68 25 37 68
25 37 68 25 37 68 25 37 68 25 37 68 25 37 68 25 37 68 25 37 68 25 37
68 25 37 67 25 37 67 25 37 67 25 37 67 25 37 67 25 37 67 25 37 67 25
37 67 25 37 67 25 37 67 25 37 67 25 37 67 25 37 67 25 37 67 25 37 67
25 37 67 25 37 67 25 37 67 25 37 67 25 37 67 25 37 66 25 37 66 25 37
66 25 37 66 25 37 66 25 37 66 25 37 66 25 37 66 25 37 66 25 37 66 25
37 66 25 36 66 25 36 66 25 36 66 25 36 66 25 36 66 25 36 66 25 36 65
25 36 65 25 36 65 25 36 65 25 36 65 25 36 65 25 36 65 25 36 65 25 36
65 25 36 65 25 36 65 25 36 65 25 36 65 25 36 65 25 36 64 25 36 64 25
36 64 25 36 64 25 36 64 25 36 64 25 36 64 25 36 64 25 36 64 25 36 64
25 36 64 25 36 64 25 36 64 25 36 64 25 36 63 25 36 63 25 36 63 25 36
63 25 36 63 25 36 63 25 36 63 25 35 63 25 35 63 25 35 63 25 35 63 25
35 63 25 35 62 25 35 62 25 35 62 25 35 62 25 35 62 25 35 62 25 35 62
25 35 62 25 35 62 25 35 62 25 35 62 25 35 62 25 35 62 25 35 61 25 35
61 25 35 61 25 35 61 25 35 61 25 35 61 25 35 61 25 35 61 25 35 61 25
35 61 25 35 61 25 35 60 25 35 60 25 35 60 25 35 60 25 34 60 25 34 60
25 34 60 25 34 60 25 34 60 25 34 60 25 34 60 25 34 60 25 34 59 25 34
59 25 34 59 25 34 59 25 34 59 25 34 59 26 34 59 26 34 59 26 34 59 26
34 59 26 34 59 26 34 58 26 34 58 26 34 58 26 34 58 26 34 58 26 34 58
26 34 58 26 34 58 26 34 58 26 34 58 26 34 58 26 33 58 26 33 57 26 33
57 26 33 57 26 33 57 26 33 57 26 33 57 26 33 57 26 33 57 26 33 57 26
33 57 26 33 57 26 33 56 26 33 56 26 33 56 26 33 56 26 33 56 26 33 56
26 33 56 26 33 56 26 33 56 26 33 56 26 33 56 26 33 56 26 33 55 26 33
55 26 33 55 26 33 55 26 33 55 26 32 55 26 32 55 26 32 55 26 32 55 26
32 55 26 32 55 26 32 54 26 32 54 26 32 54 26 32 54 26 32 54 26 32 54
26 32 54 26 32 54 26 32 54 26 32 54 26 32 54 26 32 54 26 32 53 26 32
53 26 32 53 26 32 53 25 32 53 25 32 53 25 32 53 25 32 53 25 32 53 25
32 53 25 31 53 25 31 53 25 31 52 25 31 52 25 31 52 25 31 52 25 31 52
25 25 38 19 25 38 19 25 38 19 25 38 19 25 38 19 25 38 19 25 38 19 25
38 19 25 38 19 25 38 19 25 37 19 25 37 19 25 37 19 25 37 19 24 37 19
24 37 19 24 37 19 24 37 19 24 37 19 24 37 19 24 37 19 24 37 19 24 37
19 24 37 19 24 37 19 24 37 19 24 37 19 24 37 19 24 37 19 24 36 19 24
36 19 24 36 19 24 36 19 24 36 19 24 36 19 24 36 19 24 36 19 24 36 19
24 36 19 24 36 19 24 36 19 24 36 19 24 36 19 24 36 19 24 36 19 24 36
19 24 36 19
34 64 23 34 65 23 34 65 23 35 65 23 35 65 23 35 65 23 35 65 23 35 65
23 35 65 23 35 65 23 35 65 23 35 65 23 35 65 23 35 65 23 35 65 23 35
65 23 35 66 23 35 66 23 35 66 23 35 66 23 35 66 23 35 66 24 35 66 24
35 66 24 35 66 24 35 66 24 35 66 24 35 66 24 35 66 24 35 66 24 35 66
24 36 66 24 36 66 24 36 67 24 36 67 24 36 67 24 36 67 24 36 67 24 36
67 24 36 67 24 36 67 24 36 67 24 36 67 24 36 67 24 36 67 24 36 67 24
36 67 24 36 67 24 36 67 24 36 67 24 36 67 24 36 67 24 36 67 24 36 67
24 36 67 24 36 68 24 36 68 24 36 68 24 36 68 24 36 68 24 36 68 24 36
68 24 36 68 24 36 68 24 36 68 24 36 68 24 36 68 24 36 68 24 36 68 24
37 68 24 37 68 24 37 68 24 37 68 24 37 68 24 37 68 24 37 68 24 37 68
24 37 68 24 37 68 24 37 68 24 37 68 24 37 68 24 37 68 24 37 68 24 37
68 24 37 68 24 37 68 24 37 68 25 37 68 25 37 68 25 37 68 25 37 68 25
37 68 25 37 68 25 37 68 25 37 68 25 37 68 25 37 68 25 37 68 25 37 68
25 37 68 25 37 68 25 37 68 25 37 68 25 37 68 25 37 68 25 37 68 25 37
68 25 37 68 25 37 68 25 37 68 25 37 68 25 37 68 25 37 68 25 37 68 25
37 68 25 37 68 25 37 68 25 37 68 25 37 68 25 37 68 25 37 68 25 37 68
25 37 68 25 37 68 25 37 68 25 37 68 25 37 68 25 37 68 25 37 68 25 37
68 25 37 68 25 37 68 25 37 68 25 37 68 25 37 68 25 37 68 25 37 68 25
37 68 25 37 68 25 37 68 25 37 68 25 37 68 25 37 68 25 37 68 25 37 68
25 37 68 25 37 67 25 37 67 25 37 67 25 37 67 25 37 67 25 37 67 25 37
67 25 37 67 25 37 67 25 37 67 25 37 67 25 37 67 25 37 67 25 37 67 25
37 67 25 37 67 25 37 67 25 37 67 25 37 67 25 37 67 25 37 67 25 37 67
25 37 67 25 37 66 25 37 66 25 37 66 25 37 66 25 37 66 25 37 66 25 37
66 25 37 66 25 37 66 25 36 66 25 36 66 25 36 66 25 36 66 25 36 66 25
36 66 25 36 66 25 36 66 25 36 65 25 36 65 25 36 65 25 36 65 25 36 65
25 36 65 25 36 65 25 36 65 25 36 65 25 36 65 25 36 65 25 36 65 25 36
65 25 36 65 25 36 65 25 36 64 25 36 64 25 36 64 25 36 64 25 36 64 25
36 64 25 36 64 25 36 64 25 36 64 25 36 64 25 36 64 25 36 64 25 36 64
25 36 64 25 36 63 25 36 63 25 36 63 25 36 63 25 36 63 25 36 63 25 35
63 25 35 63 25 35 63 25 35 63 25 35 63 25 35 63 25 35 63 25 35 62 25
35 62 25 35 62 25 35 62 25 35 62 25 35 62 25 35 62 25 35 62 25 35 62
25 35 62 25 35 62 25 35 62 25 35 62 25 35 61 25 35 61 25 35 61 25 35
61 25 35 61 25 35 61 25 35 61 25 35 61 25 35 61 25 35 61 25 35 61 25
35 61 25 35 60 25 35 60 25 34 60 25 34 60 25 34 60 25 34 60 25 34 60
25 34 60 25 34 60 25 34 60 25 34 60 25 34 60 25 34 59 25 34 59 25 34
59 25 34 59 25 34 59 25 34 59 25 34 59 25 34 59 25 34 59 25 34 59 25
34 59 25 34 58 25 34 58 25 34 58 25 34 58 25 34 58 25 34 58 25 34 58
25 34 58 25 34 58 25 34 58 25 33 58 25 33 58 25 33 57 25 33 57 25 33
57 25 33 57 25 33 57 25 33 57 25 33 57 25 33 57 25 33 57 25 33 57 25
33 57 25 33 56 25 33 56 25 33 56 25 33 56 25 33 56 25 33 56 25 33 56
25 33 56 25 33 56 25 33 56 25 33 56 25 33 56 25 33 55 25 33 55 25 33
55 25 33 55 25 32 55 25 32 55 25 32 55 25 32 55 25 32 55 25 32 55 25
32 55 25 32 55 25 32 54 25 32 54 25 32 54 25 32 54 25 32 54 25 32 54
25 32 54 25 32 54 25 32 54 25 32 54 25 32 54 25 32 54 25 32 53 25 32
53 25 32 53 25 32 53 25 32 53 25 32 53 25 32 53 25 32 53 25 32 53 25
31 53 25 31 53 25 31 53 25 31 52 25 31 52 25 31 52 25 31 52 25 31 52
25 25 38 19 25 38 19 25 38 19 25 38 19 25 38 19 25 38 19 25 38 19 25
38 19 25 38 19 25 37 19 25 37 19 25 37 19 25 37 19 24 37 19 24 37 19
24 37 19 24 37 19 24 37 19 24 37 19 24 37 19 24 37 19 24 37 19 24 37
19 24 37 19 24 37 19 24 37 19 24 37 19 24 37 19 24 37 19 24 36 19 24
36 19 24 36 19 24 36 19 24 36 19 24 36 19 24 36 19 24 36 19 24 36 19
24 36 19 24 36 19 24 36 19 24 36 19 24 36 19 24 36 19 24 36 19 24 36
19 24 36 19
34 64 23 34 64 23 34 65 23 34 65 23 34 65 23 35 65 23 35 65 23 35 65
23 35 65 23 35 65 23 35 65 23 35 65 23 35 65 23 35 65 23 35 65 23 35
65 23 35 65 23 35 65 23 35 66 23 35 66 23 35 66 23 35 66 23 35 66 23
35 66 24 35 66 24 35 66 24 35 66 24 35 66 24 35 66 24 35 66 24 35 66
24 35 66 24 35 66 24 35 66 24 36 66 24 36 66 24 36 67 24 36 67 24 36
67 24 36 67 24 36 67 24 36 67 24 36 67 24 36 67 24 36 67 24 36 67 24
36 67 24 36 67 24 36 67 24 36 67 24 36 67 24 36 67 24 36 67 24 36 67
24 36 67 24 36 67 24 36 67 24 36 67 24 36 67 24 36 67 24 36 67 24 36
68 24 36 68 24 36 68 24 36 68 24 36 68 24 36 68 24 36 68 24 36 68 24
36 68 24 36 68 24 36 68 24 36 68 24 36 68 24 36 68 24 37 68 24 37 68
24 37 68 24 37 68 24 37 68 24 37 68 24 37 68 24 37 68 24 37 68 24 37
68 24 37 68 24 37 68 24 37 68 24 37 68 24 37 68 24 37 68 24 37 68 24
37 68 24 37 68 25 37 68 25 37 68 25 37 68 25 37 68 25 37 68 25 37 68
25 37 68 25 37 68 25 37 68 25 37 68 25 37 68 25 37 68 25 37 68 25 37
68 25 37 68 25 37 68 25 37 68 25 37 68 25 37 68 25 37 68 25 37 68 25
37 68 25 37 68 25 37 68 25 37 68 25 37 68 25 37 68 25 37 68 25 37 68
25 37 68 25 37 68 25 37 68 25 37 68 25 37 68 25 37 68 25 37 68 25 37
68 25 37 68 25 37 68 25 37 68 25 37 68 25 37 68 25 37 68 25 37 68 25
37 68 25 37 67 25 37 67 25 37 67 25 37 67 25 37 67 25 37 67 25 37 67
25 37 67 25 37 67 25 37 67 25 37 67 25 37 67 25 37 67 25 37 67 25 37
67 25 37 67 25 37 67 25 37 67 25 37 67 25 37 67 25 37 67 25 37 67 25
37 67 25 37 67 25 37 67 25 37 67 25 37 66 25 37 66 25 37 66 25 37 66
25 37 66 25 37 66 25 36 66 25 36 66 25 36 66 25 36 66 25 36 66 25 36
66 25 36 66 25 36 66 25 36 66 25 36 66 25 36 66 25 36 66 25 36 65 25
36 65 25 36 65 25 36 65 25 36 65 25 36 65 25 36 65 25 36 65 25 36 65
25 36 65 25 36 65 25 36 65 25 36 65 25 36 65 25 36 65 25 36 65 25 36
64 25 36 64 25 36 64 25 36 64 25 36 64 25 36 64 25 36 64 25 36 64 25
36 64 25 36 64 25 36 64 25 36 64 25 36 64 25 36 64 25 36 64 25 36 63
25 36 63 25 36 63 25 36 63 25 35 63 25 35 63 25 35 63 25 35 63 25 35
63 25 35 63 25 35 63 25 35 63 25 35 63 25 35 62 25 35 62 25 35 62 25
35 62 25 35 62 25 35 62 25 35 62 25 35 62 25 35 62 25 35 62 25 35 62
25 35 62 25 35 62 25 35 61 25 35 61 25 35 61 25 35 61 25 35 61 25 35
61 25 35 61 25 35 61 25 35 61 25 35 61 25 35 61 25 35 61 25 35 60 25
34 60 25 34 60 25 34 60 25 34 60 25 34 60 25 34 60 25 34 60 25 34 60
25 34 60 25 34 60 25 34 60 25 34 59 25 34 59 25 34 59 25 34 59 25 34
59 25 34 59 25 34 59 25 34 59 25 34 59 25 34 59 25 34 59 25 34 59 25
34 58 25 34 58 25 34 58 25 34 58 25 34 58 25 34 58 25 34 58 25 34 58
25 33 58 25 33 58 25 33 58 25 33 58 25 33 57 25 33 57 25 33 57 25 33
57 25 33 57 25 33 57 25 33 57 25 33 57 25 33 57 25 33 57 25 33 57 25
33 56 25 33 56 25 33 56 25 33 56 25 33 56 25 33 56 25 33 56 25 33 56
25 33 56 25 33 56 25 33 56 25 33 56 25 33 55 25 33 55 25 33 55 25 32
55 25 32 55 25 32 55 25 32 55 25 32 55 25 32 55 25 32 55 25 32 55 25
32 55 25 32 54 25 32 54 25 32 54 25 32 54 25 32 54 25 32 54 25 32 54
25 32 54 25 32 54 25 32 54 25 32 54 25 32 54 25 32 53 25 32 53 25 32
53 25 32 53 25 32 53 25 32 53 25 32 53 25 32 53 25 31 53 25 31 53 25
31 53 25 31 53 25 31 53 25 31 52 25 31 52 25 31 52 25 31 52 25 31 52
25 25 38 19 25 38 19 25 38 19 25 38 19 25 38 19 25 38 19 25 38 19 25
38 19 25 38 19 25 37 19 25 37 19 24 37 19 24 37 19 24 37 19 24 37 19
24 37 19 24 37 19 24 37 19 24 37 19 24 37 19 24 37 19 24 37 19 24 37
19 24 37 19 24 37 19 24 37 19 24 37 19 24 37 19 24 37 19 24 36 19 24
36 19 24 36 19 24 36 19 24 36 19 24 36 19 24 36 19 24 36 19 24 36 19
24 36 19 24 36 19 24 36 19 24 36 19 24 36 19 24 36 19 24 36 19 24 36
19 24 36 19
34 64 23 34 64 23 34 64 23 34 64 23 34 65 23 34 65 23 35 65 23 35 65
23 35 65 23 35 65 23 35 65 23 35 65 23 35 65 23 35 65 23 35 65 23 35
65 23 35 65 23 35 65 23 35 65 23 35 65 23 35 65 23 35 66 23 35 66 23
35 66 23 35 66 23 35 66 24 35 66 24 35 66 24 35 66 24 35 66 24 35 66
24 35 66 24 35 66 24 35 66 24 35 66 24 35 66 24 36 66 24 36 66 24 36
66 24 36 66 24 36 67 24 36 67 24 36 67 24 36 67 24 36 67 24 36 67 24
36 67 24 36 67 24 36 67 24 36 67 24 36 67 24 36 67 24 36 67 24 36 67
24 36 67 24 36 67 24 36 67 24 36 67 24 36 67 24 36 67 24 36 67 24 36
67 24 36 67 24 36 67 24 36 67 24 36 67 24 36 67 24 36 67 24 36 67 24
36 67 24 36 68 24 36 68 24 36 68 24 36 68 24 36 68 24 36 68 24 36 68
24 36 68 24 36 68 24 36 68 24 36 68 24 36 68 24 36 68 24 37 68 24 37
68 24 37 68 24 37 68 24 37 68 24 37 68 24 37 68 24 37 68 24 37 68 24
37 68 24 37 68 24 37 68 24 37 68 24 37 68 24 37 68 24 37 68 24 37 68
24 37 68 25 37 68 25 37 68 25 37 68 25 37 68 25 37 68 25 37 68 25 37
68 25 37 68 25 37 68 25 37 68 25 37 68 25 37 68 25 37 68 25 37 68 25
37 68 25 37 68 25 37 68 25 37 68 25 37 68 25 37 68 25 37 68 25 37 68
25 37 68 25 37 68 25 37 68 25 37 68 25 37 68 25 37 68 25 37 67 25 37
67 25 37 67 25 37 67 25 37 67 25 37 67 25 37 67 25 37 67 25 37 67 25
37 67 25 37 67 25 37 67 25 37 67 25 37 67 25 37 67 25 37 67 25 37 67
25 37 67 25 37 67 25 37 67 25 37 67 25 37 67 25 37 67 25 37 67 25 37
67 25 37 67 25 37 67 25 37 67 25 37 67 25 37 67 25 37 66 25 37 66 25
37 66 25 36 66 25 36 66 25 36 66 25 36 66 25 36 66 25 36 66 25 36 66
25 36 66 25 36 66 25 36 66 25 36 66 25 36 66 25 36 66 25 36 66 25 36
66 25 36 66 25 36 66 25 36 65 25 36 65 25 36 65 25 36 65 25 36 65 25
36 65 25 36 65 25 36 65 25 36 65 25 36 65 25 36 65 25 36 65 25 36 65
25 36 65 25 36 65 25 36 65 25 36 65 25 36 64 25 36 64 25 36 64 25 36
64 25 36 64 25 36 64 25 36 64 25 36 64 25 36 64 25 36 64 25 36 64 25
36 64 25 36 64 25 36 64 25 36 64 25 36 63 25 36 63 25 36 63 25 35 63
25 35 63 25 35 63 25 35 63 25 35 63 25 35 63 25 35 63 25 35 63 25 35
63 25 35 63 25 35 63 25 35 62 25 35 62 25 35 62 25 35 62 25 35 62 25
35 62 25 35 62 25 35 62 25 35 62 25 35 62 25 35 62 25 35 62 25 35 62
25 35 61 25 35 61 25 35 61 25 35 61 25 35 61 25 35 61 25 35 61 25 35
61 25 35 61 25 35 61 25 35 61 25 35 61 25 34 60 25 34 60 25 34 60 25
34 60 25 34 60 25 34 60 25 34 60 25 34 60 25 34 60 25 34 60 25 34 60
25 34 60 25 34 60 25 34 59 25 34 59 25 34 59 25 34 59 25 34 59 25 34
59 25 34 59 25 34 59 25 34 59 25 34 59 25 34 59 25 34 59 25 34 58 25
34 58 25 34 58 25 34 58 25 34 58 25 34 58 25 34 58 25 33 58 25 33 58
25 33 58 25 33 58 25 33 58 25 33 57 25 33 57 25 33 57 25 33 57 25 33
57 25 33 57 25 33 57 25 33 57 25 33 57 25 33 57 25 33 57 25 33 57 25
33 56 25 33 56 25 33 56 25 33 56 25 33 56 25 33 56 25 33 56 25 33 56
25 33 56 25 33 56 25 33 56 25 33 55 25 33 55 25 33 55 25 32 55 25 32
55 25 32 55 25 32 55 25 32 55 25 32 55 25 32 55 25 32 55 25 32 55 25
32 55 25 32 54 25 32 54 25 32 54 25 32 54 25 32 54 25 32 54 25 32 54
25 32 54 25 32 54 25 32 54 25 32 54 25 32 54 25 32 53 25 32 53 25 32
53 25 32 53 25 32 53 25 32 53 25 32 53 25 31 53 25 31 53 25 31 53 25
31 53 25 31 53 25 31 52 25 31 52 25 31 52 25 31 52 25 31 52 25 31 52
25 25 38 19 25 38 19 25 38 19 25 38 19 25 38 19 25 38 19 25 38 19 25
38 19 25 37 19 24 37 19 24 37 19 24 37 19 24 37 19 24 37 19 24 37 19
24 37 19 24 37 19 24 37 19 24 37 19 24 37 19 24 37 19 24 37 19 24 37
19 24 37 19 24 37 19 24 37 19 24 37 19 24 37 19 24 37 19 24 36 19 24
36 19 24 36 19 24 36 19 24 36 19 24 36 19 24 36 19 24 36 19 24 36 19
24 36 19 24 36 19 24 36 19 24 36 19 24 36 19 24 36 19 24 36 19 24 36
19 24 36 19
34 64 23 34 64 23 34 64 23 34 64 23 34 64 23 34 64 23 34 65 23 34 65
23 35 65 23 35 65 23 35 65 23 35 65 23 35 65 23 35 65 23 35 65 23 35
65 23 35 65 23 35 65 23 35 65 23 35 65 23 35 65 23 35 65 23 35 65 23
35 65 23 35 66 23 35 66 23 35 66 23 35 66 24 35 66 24 35 66 24 35 66
24 35 66 24 35 66 24 35 66 24 35 66 24 35 66 24 35 66 24 35 66 24 35
66 24 36 66 24 36 66 24 36 66 24 36 66 24 36 66 24 36 66 24 36 67 24
36 67 24 36 67 24 36 67 24 36 67 24 36 67 24 36 67 24 36 67 24 36 67
24 36 67 24 36 67 24 36 67 24 36 67 24 36 67 24 36 67 24 36 67 24 36
67 24 36 67 24 36 67 24 36 67 24 36 67 24 36 67 24 36 67 24 36 67 24
36 67 24 36 67 24 36 67 24 36 67 24 36 67 24 36 67 24 36 67 24 36 67
24 36 67 24 36 67 24 36 67 24 36 67 24 36 67 24 36 67 24 36 68 24 36
68 24 36 68 24 36 68 24 36 68 24 36 68 24 36 68 24 36 68 24 36 68 24
37 68 24 37 68 24 37 68 24 37 68 24 37 68 24 37 68 24 37 68 24 37 68
24 37 68 24 37 68 24 37 68 24 37 68 24 37 68 24 37 68 24 37 68 24 37
68 24 37 68 25 37 68 25 37 68 25 37 68 25 37 68 25 37 68 25 37 68 25
37 67 25 37 67 25 37 67 25 37 67 25 37 67 25 37 67 25 37 67 25 37 67
25 37 67 25 37 67 25 37 67 25 37 67 25 37 67 25 37 67 25 37 67 25 37
67 25 37 67 25 37 67 25 37 67 25 37 67 25 37 67 25 37 67 25 37 67 25
37 67 25 37 67 25 37 67 25 37 67 25 37 67 25 37 67 25 37 67 25 37 67
25 37 67 25 37 67 25 37 67 25 37 67 25 37 67 25 36 67 25 36 67 25 36
66 25 36 66 25 36 66 25 36 66 25 36 66 25 36 66 25 36 66 25 36 66 25
36 66 25 36 66 25 36 66 25 36 66 25 36 66 25 36 66 25 36 66 25 36 66
25 36 66 25 36 66 25 36 66 25 36 66 25 36 66 25 36 66 25 36 65 25 36
65 25 36 65 25 36 65 25 36 65 25 36 65 25 36 65 25 36 65 25 36 65 25
36 65 25 36 65 25 36 65 25 36 65 25 36 65 25 36 65 25 36 65 25 36 65
25 36 64 25 36 64 25 36 64 25 36 64 25 36 64 25 36 64 25 36 64 25 36
64 25 36 64 25 36 64 25 36 64 25 36 64 25 36 64 25 36 64 25 36 64 25
36 64 25 36 63 25 35 63 25 35 63 25 35 63 25 35 63 25 35 63 25 35 63
25 35 63 25 35 63 25 35 63 25 35 63 25 35 63 25 35 63 25 35 63 25 35
62 25 35 62 25 35 62 25 35 62 25 35 62 25 35 62 25 35 62 25 35 62 25
35 62 25 35 62 25 35 62 25 35 62 25 35 62 25 35 62 25 35 61 25 35 61
25 35 61 25 35 61 25 35 61 25 35 61 25 35 61 25 35 61 25 35 61 25 35
61 25 35 61 25 34 61 25 34 60 25 34 60 25 34 60 25 34 60 25 34 60 25
34 60 25 34 60 25 34 60 25 34 60 25 34 60 25 34 60 25 34 60 25 34 60
25 34 59 25 34 59 25 34 59 25 34 59 25 34 59 25 34 59 25 34 59 25 34
59 25 34 59 25 34 59 25 34 59 25 34 59 25 34 58 25 34 58 25 34 58 25
34 58 25 34 58 25 34 58 25 34 58 25 33 58 25 33 58 25 33 58 25 33 58
25 33 58 25 33 57 25 33 57 25 33 57 25 33 57 25 33 57 25 33 57 25 33
57 25 33 57 25 33 57 25 33 57 25 33 57 25 33 57 25 33 57 25 33 56 25
33 56 25 33 56 25 33 56 25 33 56 25 33 56 25 33 56 25 33 56 25 33 56
25 33 56 25 33 56 25 33 56 25 33 55 25 32 55 25 32 55 25 32 55 25 32
55 25 32 55 25 32 55 25 32 55 25 32 55 25 32 55 25 32 55 25 32 55 25
32 54 25 32 54 25 32 54 25 32 54 25 32 54 25 32 54 25 32 54 25 32 54
25 32 54 25 32 54 25 32 54 25 32 54 25 32 53 25 32 53 25 32 53 25 32
53 25 32 53 25 32 53 25 32 53 25 31 53 25 31 53 25 31 53 25 31 53 25
31 53 25 31 53 25 31 52 25 31 52 25 31 52 25 31 52 25 31 52 25 31 52
25 25 38 19 25 38 19 25 38 19 25 38 19 25 38 19 25 38 19 25 38 19 25
38 19 24 37 19 24 37 19 24 37 19 24 37 19 24 37 19 24 37 19 24 37 19
24 37 19 24 37 19 24 37 19 24 37 19 24 37 19 24 37 19 24 37 19 24 37
19 24 37 19 24 37 19 24 37 19 24 37 19 24 37 19 24 36 19 24 36 19 24
36 19 24 36 19 24 36 19 24 36 19 24 36 19 24 36 19 24 36 19 24 36 19
24 36 19 24 36 19 24 36 19 24 36 19 24 36 19 24 36 19 24 36 19 24 36
19 24 36 19
34 64 23 34 64 23 34 64 23 34 64 23 34 64 23 34 64 23 34 64 23 34 64
23 34 64 23 35 65 23 35 65 23 35 65 23 35 65 23 35 65 23 35 65 23 35
65 23 35 65 23 35 65 23 35 65 23 35 65 23 35 65 23 35 65 23 35 65 23
35 65 23 35 65 23 35 65 23 35 65 23 35 66 23 35 66 23 35 66 23 35 66
24 35 66 24 35 66 24 35 66 24 35 66 24 35 66 24 35 66 24 35 66 24 35
66 24 35 66 24 35 66 24 35 66 24 35 66 24 36 66 24 36 66 24 36 66 24
36 66 24 36 66 24 36 66 24 36 66 24 36 67 24 36 67 24 36 67 24 36 67
24 36 67 24 36 67 24 36 67 24 36 67 24 36 67 24 36 67 24 36 67 24 36
67 24 36 67 24 36 67 24 36 67 24 36 67 24 36 67 24 36 67 24 36 67 24
36 67 24 36 67 24 36 67 24 36 67 24 36 67 24 36 67 24 36 67 24 36 67
24 36 67 24 36 67 24 36 67 24 36 67 24 36 67 24 36 67 24 36 67 24 36
67 24 36 67 24 36 67 24 36 67 24 36 67 24 36 67 24 36 67 24 36 67 24
36 67 24 36 67 24 36 67 24 36 67 24 36 67 24 36 67 24 36 67 24 36 67
24 36 67 24 36 67 24 36 67 24 36 67 24 36 67 24 36 67 24 36 67 24 36
67 24 36 67 24 36 67 24 37 67 24 37 67 24 37 67 24 37 67 24 37 67 24
37 67 24 37 67 25 37 67 25 37 67 25 37 67 25 37 67 25 37 67 25 37 67
25 37 67 25 37 67 25 37 67 25 37 67 25 37 67 25 37 67 25 37 67 25 37
67 25 37 67 25 37 67 25 36 67 25 36 67 25 36 67 25 36 67 25 36 67 25
36 67 25 36 67 25 36 67 25 36 67 25 36 67 25 36 67 25 36 67 25 36 67
25 36 66 25 36 66 25 36 66 25 36 66 25 36 66 25 36 66 25 36 66 25 36
66 25 36 66 25 36 66 25 36 66 25 36 66 25 36 66 25 36 66 25 36 66 25
36 66 25 36 66 25 36 66 25 36 66 25 36 66 25 36 66 25 36 66 25 36 66
25 36 66 25 36 65 25 36 65 25 36 65 25 36 65 25 36 65 25 36 65 25 36
65 25 36 65 25 36 65 25 36 65 25 36 65 25 36 65 25 36 65 25 36 65 25
36 65 25 36 65 25 36 65 25 36 65 25 36 65 25 36 64 25 36 64 25 36 64
25 36 64 25 36 64 25 36 64 25 36 64 25 36 64 25 36 64 25 36 64 25 36
64 25 36 64 25 36 64 25 36 64 25 36 64 25 36 64 25 35 63 25 35 63 25
35 63 25 35 63 25 35 63 25 35 63 25 35 63 25 35 63 25 35 63 25 35 63
25 35 63 25 35 63 25 35 63 25 35 63 25 35 63 25 35 62 25 35 62 25 35
62 25 35 62 25 35 62 25 35 62 25 35 62 25 35 62 25 35 62 25 35 62 25
35 62 25 35 62 25 35 62 25 35 61 25 35 61 25 35 61 25 35 61 25 35 61
25 35 61 25 35 61 25 35 61 25 35 61 25 35 61 25 35 61 25 34 61 25 34
61 25 34 61 25 34 60 25 34 60 25 34 60 25 34 60 25 34 60 25 34 60 25
34 60 25 34 60 25 34 60 25 34 60 25 34 60 25 34 60 25 34 59 25 34 59
25 34 59 25 34 59 25 34 59 25 34 59 25 34 59 25 34 59 25 34 59 25 34
59 25 34 59 25 34 59 25 34 59 25 34 58 25 34 58 25 34 58 25 34 58 25
34 58 25 34 58 25 33 58 25 33 58 25 33 58 25 33 58 25 33 58 25 33 58
25 33 57 25 33 57 25 33 57 25 33 57 25 33 57 25 33 57 25 33 57 25 33
57 25 33 57 25 33 57 25 33 57 25 33 57 25 33 57 25 33 56 25 33 56 25
33 56 25 33 56 25 33 56 25 33 56 25 33 56 25 33 56 25 33 56 25 33 56
25 33 56 25 33 56 25 32 55 25 32 55 25 32 55 25 32 55 25 32 55 25 32
55 25 32 55 25 32 55 25 32 55 25 32 55 25 32 55 25 32 55 25 32 54 25
32 54 25 32 54 25 32 54 25 32 54 25 32 54 25 32 54 25 32 54 25 32 54
25 32 54 25 32 54 25 32 54 25 32 54 25 32 53 25 32 53 25 32 53 25 32
53 25 32 53 25 32 53 25 31 53 25 31 53 25 31 53 25 31 53 25 31 53 25
31 53 25 31 53 25 31 52 25 31 52 25 31 52 25 31 52 25 31 52 25 31 52
25 25 38 19 25 38 19 25 38 19 25 38 19 25 38 19 25 38 19 24 38 19 24
38 19 24 37 19 24 37 19 24 37 19 24 37 19 24 37 19 24 37 19 24 37 19
24 37 19 24 37 19 24 37 19 24 37 19 24 37 19 24 37 19 24 37 19 24 37
19 24 37 19 24 37 19 24 37 19 24 37 19 24 37 19 24 36 19 24 36 19 24
36 19 24 36 19 24 36 19 24 36 19 24 36 19 24 36 19 24 36 19 24 36 19
24 36 19 24 36 19 24 36 19 24 36 19 24 36 19 24 36 19 24 36 19 24 36
19 24 36 19
34 64 23 34 64 23 34 64 23 34 64 23 34 64 23 34 64 23 34 64 23 34 64
23 34 64 23 34 64 23 34 64 23 35 65 23 35 65 23 35 65 23 35 65 23 35
65 23 35 65 23 35 65 23 35 65 23 35 65 23 35 65 23 35 65 23 35 65 23
35 65 23 35 65 23 35 65 23 35 65 23 35 65 23 35 65 23 35 65 23 35 66
23 35 66 23 35 66 24 35 66 24 35 66 24 35 66 24 35 66 24 35 66 24 35
66 24 35 66 24 35 66 24 35 66 24 35 66 24 35 66 24 35 66 24 35 66 24
36 66 24 36 66 24 36 66 24 36 66 24 36 66 24 36 66 24 36 66 24 36 66
24 36 66 24 36 66 24 36 67 24 36 67 24 36 67 24 36 67 24 36 67 24 36
67 24 36 67 24 36 67 24 36 67 24 36 67 24 36 67 24 36 67 24 36 67 24
36 67 24 36 67 24 36 67 24 36 67 24 36 67 24 36 67 24 36 67 24 36 67
24 36 67 24 36 67 24 36 67 24 36 67 24 36 67 24 36 67 24 36 67 24 36
67 24 36 67 24 36 67 24 36 67 24 36 67 24 36 67 24 36 67 24 36 67 24
36 67 24 36 67 24 36 67 24 36 67 24 36 67 24 36 67 24 36 67 24 36 67
24 36 67 24 36 67 24 36 67 24 36 67 24 36 67 24 36 67 24 36 67 24 36
67 24 36 67 24 36 67 24 36 67 24 36 67 24 36 67 24 36 67 24 36 67 24
36 67 24 36 67 24 36 67 24 36 67 24 36 67 24 36 67 24 36 67 24 36 67
24 36 67 24 36 67 24 36 67 24 36 67 25 36 67 25 36 67 25 36 67 25 36
67 25 36 67 25 36 67 25 36 67 25 36 67 25 36 67 25 36 67 25 36 67 25
36 67 25 36 66 25 36 66 25 36 66 25 36 66 25 36 66 25 36 66 25 36 66
25 36 66 25 36 66 25 36 66 25 36 66 25 36 66 25 36 66 25 36 66 25 36
66 25 36 66 25 36 66 25 36 66 25 36 66 25 36 66 25 36 66 25 36 66 25
36 66 25 36 66 25 36 66 25 36 66 25 36 65 25 36 65 25 36 65 25 36 65
25 36 65 25 36 65 25 36 65 25 36 65 25 36 65 25 36 65 25 36 65 25 36
65 25 36 65 25 36 65 25 36 65 25 36 65 25 36 65 25 36 65 25 36 65 25
36 65 25 36 64 25 36 64 25 36 64 25 36 64 25 36 64 25 36 64 25 36 64
25 36 64 25 36 64 25 36 64 25 36 64 25 36 64 25 36 64 25 36 64 25 36
64 25 35 64 25 35 64 25 35 63 25 35 63 25 35 63 25 35 63 25 35 63 25
35 63 25 35 63 25 35 63 25 35 63 25 35 63 25 35 63 25 35 63 25 35 63
25 35 63 25 35 63 25 35 62 25 35 62 25 35 62 25 35 62 25 35 62 25 35
62 25 35 62 25 35 62 25 35 62 25 35 62 25 35 62 25 35 62 25 35 62 25
35 62 25 35 61 25 35 61 25 35 61 25 35 61 25 35 61 25 35 61 25 35 61
25 35 61 25 35 61 25 35 61 25 34 61 25 34 61 25 34 61 25 34 61 25 34
60 25 34 60 25 34 60 25 34 60 25 34 60 25 34 60 25 34 60 25 34 60 25
34 60 25 34 60 25 34 60 25 34 60 25 34 60 25 34 59 25 34 59 25 34 59
25 34 59 25 34 59 25 34 59 25 34 59 25 34 59 25 34 59 25 34 59 25 34
59 25 34 59 25 34 58 25 34 58 25 34 58 25 34 58 25 34 58 25 33 58 25
33 58 25 33 58 25 33 58 25 33 58 25 33 58 25 33 58 25 33 58 25 33 57
25 33 57 25 33 57 25 33 57 25 33 57 25 33 57 25 33 57 25 33 57 25 33
57 25 33 57 25 33 57 25 33 57 25 33 57 25 33 56 25 33 56 25 33 56 25
33 56 25 33 56 25 33 56 25 33 56 25 33 56 25 33 56 25 33 56 25 33 56
25 32 56 25 32 55 25 32 55 25 32 55 25 32 55 25 32 55 25 32 55 25 32
55 25 32 55 25 32 55 25 32 55 25 32 55 25 32 55 25 32 55 25 32 54 25
32 54 25 32 54 25 32 54 25 32 54 25 32 54 25 32 54 25 32 54 25 32 54
25 32 54 25 32 54 25 32 54 25 32 53 25 32 53 25 32 53 25 32 53 25 32
53 25 31 53 25 31 53 25 31 53 25 31 53 25 31 53 25 31 53 25 31 53 25
31 53 25 31 52 25 31 52 25 31 52 25 31 52 25 31 52 25 31 52 25 31 52
25 31 52 25 25 38 19 25 38 19 25 38 19 24 38 19 24 38 19 24 38 19 24
37 19 24 37 19 24 37 19 24 37 19 24 37 19 24 37 19 24 37 19 24 37 19
24 37 19 24 37 19 24 37 19 24 37 19 24 37 19 24 37 19 24 37 19 24 37
19 24 37 19 24 37 19 24 37 19 24 37 19 24 37 19 24 36 19 24 36 19 24
36 19 24 36 19 24 36 19 24 36 19 24 36 19 24 36 19 24 36 19 24 36 19
24 36 19 24 36 19 24 36 19 24 36 19 24 36 19 24 36 19 24 36 19 24 36
19 24 36 19
34 64 23 34 64 23 34 64 23 34 64 23 34 64 23 34 64 23 34 64 23 34 64
23 34 64 23 34 64 23 34 64 23 34 64 23 34 64 23 35 65 23 35 65 23 35
65 23 35 65 23 35 65 23 35 65 23 35 65 23 35 65 23 35 65 23 35 65 23
35 65 23 35 65 23 35 65 23 35 65 23 35 65 23 35 65 23 35 65 23 35 65
23 35 65 23 35 65 23 35 65 23 35 66 23 35 66 24 35 66 24 35 66 24 35
66 24 35 66 24 35 66 24 35 66 24 35 66 24 35 66 24 35 66 24 35 66 24
35 66 24 35 66 24 35 66 24 35 66 24 36 66 24 36 66 24 36 66 24 36 66
24 36 66 24 36 66 24 36 66 24 36 66 24 36 66 24 36 66 24 36 66 24 36
66 24 36 66 24 36 66 24 36 67 24 36 67 24 36 67 24 36 67 24 36 67 24
36 67 24 36 67 24 36 67 24 36 67 24 36 67 24 36 67 24 36 67 24 36 67
24 36 67 24 36 67 24 36 67 24 36 67 24 36 67 24 36 67 24 36 67 24 36
67 24 36 67 24 36 67 24 36 67 24 36 67 24 36 67 24 36 67 24 36 67 24
36 67 24 36 67 24 36 67 24 36 67 24 36 67 24 36 67 24 36 67 24 36 67
24 36 67 24 36 67 24 36 67 24 36 67 24 36 67 24 36 67 24 36 67 24 36
67 24 36 67 24 36 67 24 36 67 24 36 67 24 36 67 24 36 67 24 36 67 24
36 67 24 36 67 24 36 67 24 36 67 24 36 67 24 36 67 24 36 67 24 36 67
24 36 67 24 36 67 24 36 67 24 36 67 24 36 67 24 36 67 24 36 66 24 36
66 24 36 66 24 36 66 24 36 66 24 36 66 24 36 66 24 36 66 25 36 66 25
36 66 25 36 66 25 36 66 25 36 66 25 36 66 25 36 66 25 36 66 25 36 66
25 36 66 25 36 66 25 36 66 25 36 66 25 36 66 25 36 66 25 36 66 25 36
66 25 36 66 25 36 66 25 36 66 25 36 66 25 36 66 25 36 66 25 36 65 25
36 65 25 36 65 25 36 65 25 36 65 25 36 65 25 36 65 25 36 65 25 36 65
25 36 65 25 36 65 25 36 65 25 36 65 25 36 65 25 36 65 25 36 65 25 36
65 25 36 65 25 36 65 25 36 65 25 36 65 25 36 64 25 36 64 25 36 64 25
36 64 25 36 64 25 36 64 25 36 64 25 36 64 25 36 64 25 36 64 25 36 64
25 36 64 25 36 64 25 35 64 25 35 64 25 35 64 25 35 64 25 35 64 25 35
63 25 35 63 25 35 63 25 35 63 25 35 63 25 35 63 25 35 63 25 35 63 25
35 63 25 35 63 25 35 63 25 35 63 25 35 63 25 35 63 25 35 63 25 35 62
25 35 62 25 35 62 25 35 62 25 35 62 25 35 62 25 35 62 25 35 62 25 35
62 25 35 62 25 35 62 25 35 62 25 35 62 25 35 62 25 35 62 25 35 61 25
35 61 25 35 61 25 35 61 25 35 61 25 35 61 25 35 61 25 35 61 25 34 61
25 34 61 25 34 61 25 34 61 25 34 61 25 34 61 25 34 60 25 34 60 25 34
60 25 34 60 25 34 60 25 34 60 25 34 60 25 34 60 25 34 60 25 34 60 25
34 60 25 34 60 25 34 60 25 34 59 25 34 59 25 34 59 25 34 59 25 34 59
25 34 59 25 34 59 25 34 59 25 34 59 25 34 59 25 34 59 25 34 59 25 34
59 25 34 58 25 34 58 25 34 58 25 34 58 25 33 58 25 33 58 25 33 58 25
33 58 25 33 58 25 33 58 25 33 58 25 33 58 25 33 58 25 33 57 25 33 57
25 33 57 25 33 57 25 33 57 25 33 57 25 33 57 25 33 57 25 33 57 25 33
57 25 33 57 25 33 57 25 33 56 25 33 56 25 33 56 25 33 56 25 33 56 25
33 56 25 33 56 25 33 56 25 33 56 25 33 56 25 33 56 25 32 56 25 32 56
25 32 55 25 32 55 25 32 55 25 32 55 25 32 55 25 32 55 25 32 55 25 32
55 25 32 55 25 32 55 25 32 55 25 32 55 25 32 55 25 32 54 25 32 54 25
32 54 25 32 54 25 32 54 25 32 54 25 32 54 25 32 54 25 32 54 25 32 54
25 32 54 25 32 54 25 32 54 25 32 53 25 32 53 25 32 53 25 32 53 25 31
53 25 31 53 25 31 53 25 31 53 25 31 53 25 31 53 25 31 53 25 31 53 25
31 53 25 31 52 25 31 52 25 31 52 25 31 52 25 31 52 25 31 52 25 31 52
25 31 52 25 25 38 19 24 38 19 24 38 19 24 38 19 24 38 19 24 38 19 24
37 19 24 37 19 24 37 19 24 37 19 24 37 19 24 37 19 24 37 19 24 37 19
24 37 19 24 37 19 24 37 19 24 37 19 24 37 19 24 37 19 24 37 19 24 37
19 24 37 19 24 37 19 24 37 19 24 37 19 24 37 19 24 36 19 24 36 19 24
36 19 24 36 19 24 36 19 24 36 19 24 36 19 24 36 19 24 36 19 24 36 19
24 36 19 24 36 19 24 36 19 24 36 19 24 36 19 24 36 19 24 36 19 24 36
19 24 36 19
34 64 23 34 64 23 34 64 23 34 64 23 34 64 23 34 64 23 34 64 23 34 64
23 34 64 23 34 64 23 34 64 23 34 64 23 34 64 23 34 64 23 34 64 23 35
64 23 35 65 23 35 65 23 35 65 23 35 65 23 35 65 23 35 65 23 35 65 23
35 65 23 35 65 23 35 65 23 35 65 23 35 65 23 35 65 23 35 65 23 35 65
23 35 65 23 35 65 23 35 65 23 35 65 23 35 65 23 35 65 23 35 65 23 35
66 24 35 66 24 35 66 24 35 66 24 35 66 24 35 66 24 35 66 24 35 66 24
35 66 24 35 66 24 35 66 24 35 66 24 35 66 24 35 66 24 35 66 24 35 66
24 35 66 24 36 66 24 36 66 24 36 66 24 36 66 24 36 66 24 36 66 24 36
66 24 36 66 24 36 66 24 36 66 24 36 66 24 36 66 24 36 66 24 36 66 24
36 66 24 36 66 24 36 66 24 36 66 24 36 66 24 36 66 24 36 66 24 36 67
24 36 67 24 36 67 24 36 67 24 36 67 24 36 67 24 36 67 24 36 67 24 36
67 24 36 67 24 36 67 24 36 67 24 36 67 24 36 67 24 36 67 24 36 67 24
36 67 24 36 67 24 36 67 24 36 67 24 36 67 24 36 67 24 36 67 24 36 67
24 36 67 24 36 67 24 36 67 24 36 67 24 36 67 24 36 67 24 36 67 24 36
67 24 36 67 24 36 67 24 36 67 24 36 67 24 36 67 24 36 67 24 36 67 24
36 67 24 36 66 24 36 66 24 36 66 24 36 66 24 36 66 24 36 66 24 36 66
24 36 66 24 36 66 24 36 66 24 36 66 24 36 66 24 36 66 24 36 66 24 36
66 24 36 66 24 36 66 24 36 66 24 36 66 24 36 66 24 36 66 24 36 66 24
36 66 24 36 66 24 36 66 24 36 66 24 36 66 24 36 66 24 36 66 24 36 66
24 36 66 24 36 66 24 36 66 25 36 66 25 36 66 25 36 66 25 36 66 25 36
66 25 36 65 25 36 65 25 36 65 25 36 65 25 36 65 25 36 65 25 36 65 25
36 65 25 36 65 25 36 65 25 36 65 25 36 65 25 36 65 25 36 65 25 36 65
25 36 65 25 36 65 25 36 65 25 36 65 25 36 65 25 36 65 25 36 65 25 36
65 25 36 64 25 36 64 25 36 64 25 36 64 25 36 64 25 36 64 25 36 64 25
36 64 25 36 64 25 36 64 25 36 64 25 36 64 25 35 64 25 35 64 25 35 64
25 35 64 25 35 64 25 35 64 25 35 63 25 35 63 25 35 63 25 35 63 25 35
63 25 35 63 25 35 63 25 35 63 25 35 63 25 35 63 25 35 63 25 35 63 25
35 63 25 35 63 25 35 63 25 35 63 25 35 63 25 35 62 25 35 62 25 35 62
25 35 62 25 35 62 25 35 62 25 35 62 25 35 62 25 35 62 25 35 62 25 35
62 25 35 62 25 35 62 25 35 62 25 35 62 25 35 61 25 35 61 25 35 61 25
35 61 25 35 61 25 35 61 25 35 61 25 34 61 25 34 61 25 34 61 25 34 61
25 34 61 25 34 61 25 34 61 25 34 60 25 34 60 25 34 60 25 34 60 25 34
60 25 34 60 25 34 60 25 34 60 25 34 60 25 34 60 25 34 60 25 34 60 25
34 60 25 34 59 25 34 59 25 34 59 25 34 59 25 34 59 25 34 59 25 34 59
25 34 59 25 34 59 25 34 59 25 34 59 25 34 59 25 34 59 25 34 59 25 34
58 25 34 58 25 33 58 25 33 58 25 33 58 25 33 58 25 33 58 25 33 58 25
33 58 25 33 58 25 33 58 25 33 58 25 33 58 25 33 57 25 33 57 25 33 57
25 33 57 25 33 57 25 33 57 25 33 57 25 33 57 25 33 57 25 33 57 25 33
57 25 33 57 25 33 56 25 33 56 25 33 56 25 33 56 25 33 56 25 33 56 25
33 56 25 33 56 25 33 56 25 33 56 25 33 56 25 32 56 25 32 56 25 32 55
25 32 55 25 32 55 25 32 55 25 32 55 25 32 55 25 32 55 25 32 55 25 32
55 25 32 55 25 32 55 25 32 55 25 32 55 25 32 54 25 32 54 25 32 54 25
32 54 25 32 54 25 32 54 25 32 54 25 32 54 25 32 54 25 32 54 25 32 54
25 32 54 25 32 54 25 32 53 25 32 53 25 32 53 25 31 53 25 31 53 25 31
53 25 31 53 25 31 53 25 31 53 25 31 53 25 31 53 25 31 53 25 31 53 25
31 52 25 31 52 25 31 52 25 31 52 25 31 52 25 31 52 25 31 52 25 31 52
25 31 52 25 24 38 19 24 38 19 24 38 19 24 38 19 24 38 19 24 37 19 24
37 19 24 37 19 24 37 19 24 37 19 24 37 19 24 37 19 24 37 19 24 37 19
24 37 19 24 37 19 24 37 19 24 37 19 24 37 19 24 37 19 24 37 19 24 37
19 24 37 19 24 37 19 24 37 19 24 37 19 24 37 19 24 36 19 24 36 19 24
36 19 24 36 19 24 36 19 24 36 19 24 36 19 24 36 19 24 36 19 24 36 19
24 36 19 24 36 19 24 36 19 24 36 19 24 36 19 24 36 19 24 36 19 24 36
19 24 36 19
34 64 23 34 64 23 34 64 23 34 64 23 34 64 23 34 64 23 34 64 23 34 64
23 34 64 23 34 64 23 34 64 23 34 64 23 34 64 23 34 64 23 34 64 23 34
64 23 34 64 23 34 64 23 35 64 23 35 65 23 35 65 23 35 65 23 35 65 23
35 65 23 35 65 23 35 65 23 35 65 23 35 65 23 35 65 23 35 65 23 35 65
23 35 65 23 35 65 23 35 65 23 35 65 23 35 65 23 35 65 23 35 65 23 35
65 23 35 65 23 35 65 23 35 65 24 35 65 24 35 66 24 35 66 24 35 66 24
35 66 24 35 66 24 35 66 24 35 66 24 35 66 24 35 66 24 35 66 24 35 66
24 35 66 24 35 66 24 35 66 24 35 66 24 35 66 24 36 66 24 36 66 24 36
66 24 36 66 24 36 66 24 36 66 24 36 66 24 36 66 24 36 66 24 36 66 24
36 66 24 36 66 24 36 66 24 36 66 24 36 66 24 36 66 24 36 66 24 36 66
24 36 66 24 36 66 24 36 66 24 36 66 24 36 66 24 36 66 24 36 66 24 36
66 24 36 66 24 36 66 24 36 66 24 36 66 24 36 66 24 36 66 24 36 66 24
36 66 24 36 66 24 36 66 24 36 66 24 36 66 24 36 66 24 36 66 24 36 66
24 36 66 24 36 66 24 36 66 24 36 66 24 36 66 24 36 66 24 36 66 24 36
66 24 36 66 24 36 66 24 36 66 24 36 66 24 36 66 24 36 66 24 36 66 24
36 66 24 36 66 24 36 66 24 36 66 24 36 66 24 36 66 24 36 66 24 36 66
24 36 66 24 36 66 24 36 66 24 36 66 24 36 66 24 36 66 24 36 66 24 36
66 24 36 66 24 36 66 24 36 66 24 36 66 24 36 66 24 36 66 24 36 66 24
36 66 24 36 66 24 36 66 24 36 66 24 36 66 24 36 66 24 36 66 24 36 66
24 36 66 24 36 66 24 36 65 24 36 65 24 36 65 24 36 65 24 36 65 24 36
65 24 36 65 24 36 65 24 36 65 24 36 65 24 36 65 24 36 65 24 36 65 24
36 65 25 36 65 25 36 65 25 36 65 25 36 65 25 36 65 25 36 65 25 36 65
25 36 65 25 36 65 25 36 65 25 36 65 25 36 64 25 36 64 25 36 64 25 36
64 25 36 64 25 36 64 25 36 64 25 36 64 25 36 64 25 35 64 25 35 64 25
35 64 25 35 64 25 35 64 25 35 64 25 35 64 25 35 64 25 35 64 25 35 64
25 35 63 25 35 63 25 35 63 25 35 63 25 35 63 25 35 63 25 35 63 25 35
63 25 35 63 25 35 63 25 35 63 25 35 63 25 35 63 25 35 63 25 35 63 25
35 63 25 35 63 25 35 62 25 35 62 25 35 62 25 35 62 25 35 62 25 35 62
25 35 62 25 35 62 25 35 62 25 35 62 25 35 62 25 35 62 25 35 62 25 35
62 25 35 62 25 35 61 25 35 61 25 35 61 25 35 61 25 35 61 25 35 61 25
34 61 25 34 61 25 34 61 25 34 61 25 34 61 25 34 61 25 34 61 25 34 61
25 34 61 25 34 60 25 34 60 25 34 60 25 34 60 25 34 60 25 34 60 25 34
60 25 34 60 25 34 60 25 34 60 25 34 60 25 34 60 25 34 60 25 34 60 25
34 59 25 34 59 25 34 59 25 34 59 25 34 59 25 34 59 25 34 59 25 34 59
25 34 59 25 34 59 25 34 59 25 34 59 25 34 59 25 34 58 25 34 58 25 33
58 25 33 58 25 33 58 25 33 58 25 33 58 25 33 58 25 33 58 25 33 58 25
33 58 25 33 58 25 33 58 25 33 57 25 33 57 25 33 57 25 33 57 25 33 57
25 33 57 25 33 57 25 33 57 25 33 57 25 33 57 25 33 57 25 33 57 25 33
57 25 33 56 25 33 56 25 33 56 25 33 56 25 33 56 25 33 56 25 33 56 25
33 56 25 33 56 25 33 56 25 32 56 25 32 56 25 32 56 25 32 55 25 32 55
25 32 55 25 32 55 25 32 55 25 32 55 25 32 55 25 32 55 25 32 55 25 32
55 25 32 55 25 32 55 25 32 55 25 32 54 25 32 54 25 32 54 25 32 54 25
32 54 25 32 54 25 32 54 25 32 54 25 32 54 25 32 54 25 32 54 25 32 54
25 32 54 25 32 54 25 32 53 25 32 53 25 31 53 25 31 53 25 31 53 25 31
53 25 31 53 25 31 53 25 31 53 25 31 53 25 31 53 25 31 53 25 31 53 25
31 52 25 31 52 25 31 52 25 31 52 25 31 52 25 31 52 25 31 52 25 31 52
25 31 52 25 31 52 25 24 38 19 24 38 19 24 38 19 24 38 19 24 37 19 24
37 19 24 37 19 24 37 19 24 37 19 24 37 19 24 37 19 24 37 19 24 37 19
24 37 19 24 37 19 24 37 19 24 37 19 24 37 19 24 37 19 24 37 19 24 37
19 24 37 19 24 37 19 24 37 19 24 37 19 24 36 19 24 36 19 24 36 19 24
36 19 24 36 19 24 36 19 24 36 19 24 36 19 24 36 19 24 36 19 24 36 19
24 36 19 24 36 19 24 36 19 24 36 19 24 36 19 24 36 19 24 36 19 24 36
19 23 36 19
34 63 23 34 63 23 34 64 23 34 64 23 34 64 23 34 64 23 34 64 23 34 64
23 34 64 23 34 64 23 34 64 23 34 64 23 34 64 23 34 64 23 34 64 23 34
64 23 34 64 23 34 64 23 34 64 23 34 64 23 35 64 23 35 64 23 35 65 23
35 65 23 35 65 23 35 65 23 35 65 23 35 65 23 35 65 23 35 65 23 35 65
23 35 65 23 35 65 23 35 65 23 35 65 23 35 65 23 35 65 23 35 65 23 35
65 23 35 65 23 35 65 23 35 65 23 35 65 23 35 65 23 35 65 24 35 65 24
35 65 24 35 65 24 35 65 24 35 66 24 35 66 24 35 66 24 35 66 24 35 66
24 35 66 24 35 66 24 35 66 24 35 66 24 35 66 24 35 66 24 35 66 24 35
66 24 35 66 24 35 66 24 35 66 24 36 66 24 36 66 24 36 66 24 36 66 24
36 66 24 36 66 24 36 66 24 36 66 24 36 66 24 36 66 24 36 66 24 36 66
24 36 66 24 36 66 24 36 66 24 36 66 24 36 66 24 36 66 24 36 66 24 36
66 24 36 66 24 36 66 24 36 66 24 36 66 24 36 66 24 36 66 24 36 66 24
36 66 24 36 66 24 36 66 24 36 66 24 36 66 24 36 66 24 36 66 24 36 66
24 36 66 24 36 66 24 36 66 24 36 66 24 36 66 24 36 66 24 36 66 24 36
66 24 36 66 24 36 66 24 36 66 24 36 66 24 36 66 24 36 66 24 36 66 24
36 66 24 36 66 24 36 66 24 36 66 24 36 66 24 36 66 24 36 66 24 36 66
24 36 66 24 36 66 24 36 66 24 36 66 24 36 66 24 36 66 24 36 66 24 36
66 24 36 66 24 36 66 24 36 66 24 36 66 24 36 66 24 36 66 24 36 66 24
36 66 24 36 66 24 36 66 24 36 65 24 36 65 24 36 65 24 36 65 24 36 65
24 36 65 24 36 65 24 36 65 24 36 65 24 36 65 24 36 65 24 36 65 24 36
65 24 36 65 24 36 65 24 36 65 24 36 65 24 36 65 24 36 65 24 36 65 24
36 65 24 36 65 24 36 65 24 36 65 24 36 65 24 36 65 24 36 65 24 36 64
24 36 64 24 36 64 24 36 64 24 36 64 24 36 64 24 36 64 24 35 64 24 35
64 25 35 64 25 35 64 25 35 64 25 35 64 25 35 64 25 35 64 25 35 64 25
35 64 25 35 64 25 35 64 25 35 64 25 35 63 25 35 63 25 35 63 25 35 63
25 35 63 25 35 63 25 35 63 25 35 63 25 35 63 25 35 63 25 35 63 25 35
63 25 35 63 25 35 63 25 35 63 25 35 63 25 35 63 25 35 63 25 35 62 25
35 62 25 35 62 25 35 62 25 35 62 25 35 62 25 35 62 25 35 62 25 35 62
25 35 62 25 35 62 25 35 62 25 35 62 25 35 62 25 35 62 25 35 62 25 35
61 25 35 61 25 35 61 25 35 61 25 34 61 25 34 61 25 34 61 25 34 61 25
34 61 25 34 61 25 34 61 25 34 61 25 34 61 25 34 61 25 34 61 25 34 60
25 34 60 25 34 60 25 34 60 25 34 60 25 34 60 25 34 60 25 34 60 25 34
60 25 34 60 25 34 60 25 34 60 25 34 60 25 34 60 25 34 59 25 34 59 25
34 59 25 34 59 25 34 59 25 34 59 25 34 59 25 34 59 25 34 59 25 34 59
25 34 59 25 34 59 25 34 59 25 34 58 25 33 58 25 33 58 25 33 58 25 33
58 25 33 58 25 33 58 25 33 58 25 33 58 25 33 58 25 33 58 25 33 58 25
33 58 25 33 58 25 33 57 25 33 57 25 33 57 25 33 57 25 33 57 25 33 57
25 33 57 25 33 57 25 33 57 25 33 57 25 33 57 25 33 57 25 33 57 25 33
56 25 33 56 25 33 56 25 33 56 25 33 56 25 33 56 25 33 56 25 33 56 25
33 56 25 32 56 25 32 56 25 32 56 25 32 56 25 32 55 25 32 55 25 32 55
25 32 55 25 32 55 25 32 55 25 32 55 25 32 55 25 32 55 25 32 55 25 32
55 25 32 55 25 32 55 25 32 55 25 32 54 25 32 54 25 32 54 25 32 54 25
32 54 25 32 54 25 32 54 25 32 54 25 32 54 25 32 54 25 32 54 25 32 54
25 32 54 25 32 53 25 32 53 25 31 53 25 31 53 25 31 53 25 31 53 25 31
53 25 31 53 25 31 53 25 31 53 25 31 53 25 31 53 25 31 53 25 31 53 25
31 52 25 31 52 25 31 52 25 31 52 25 31 52 25 31 52 25 31 52 25 31 52
25 31 52 25 31 52 25 24 38 19 24 38 19 24 38 19 24 37 19 24 37 19 24
37 19 24 37 19 24 37 19 24 37 19 24 37 19 24 37 19 24 37 19 24 37 19
24 37 19 24 37 19 24 37 19 24 37 19 24 37 19 24 37 19 24 37 19 24 37
19 24 37 19 24 37 19 24 37 19 24 37 19 24 36 19 24 36 19 24 36 19 24
36 19 24 36 19 24 36 19 24 36 19 24 36 19 24 36 19 24 36 19 24 36 19
24 36 19 24 36 19 24 36 19 24 36 19 24 36 19 24 36 19 24 36 19 23 36
19 23 36 19
34 63 23 34 63 23 34 63 23 34 63 23 34 63 23 34 64 23 34 64 23 34 64
23 34 64 23 34 64 23 34 64 23 34 64 23 34 64 23 34 64 23 34 64 23 34
64 23 34 64 23 34 64 23 34 64 23 34 64 23 34 64 23 34 64 23 35 64 23
35 64 23 35 64 23 35 64 23 35 65 23 35 65 23 35 65 23 35 65 23 35 65
23 35 65 23 35 65 23 35 65 23 35 65 23 35 65 23 35 65 23 35 65 23 35
65 23 35 65 23 35 65 23 35 65 23 35 65 23 35 65 23 35 65 23 35 65 23
35 65 23 35 65 24 35 65 24 35 65 24 35 65 24 35 65 24 35 65 24 35 65
24 35 65 24 35 65 24 35 66 24 35 66 24 35 66 24 35 66 24 35 66 24 35
66 24 35 66 24 35 66 24 35 66 24 35 66 24 35 66 24 35 66 24 35 66 24
35 66 24 35 66 24 36 66 24 36 66 24 36 66 24 36 66 24 36 66 24 36 66
24 36 66 24 36 66 24 36 66 24 36 66 24 36 66 24 36 66 24 36 66 24 36
66 24 36 66 24 36 66 24 36 66 24 36 66 24 36 66 24 36 66 24 36 66 24
36 66 24 36 66 24 36 66 24 36 66 24 36 66 24 36 66 24 36 66 24 36 66
24 36 66 24 36 66 24 36 66 24 36 66 24 36 66 24 36 66 24 36 66 24 36
66 24 36 66 24 36 66 24 36 66 24 36 66 24 36 66 24 36 66 24 36 66 24
36 66 24 36 66 24 36 66 24 36 66 24 36 66 24 36 66 24 36 66 24 36 66
24 36 66 24 36 66 24 36 66 24 36 66 24 36 66 24 36 66 24 36 66 24 36
66 24 36 66 24 36 66 24 36 65 24 36 65 24 36 65 24 36 65 24 36 65 24
36 65 24 36 65 24 36 65 24 36 65 24 36 65 24 36 65 24 36 65 24 36 65
24 36 65 24 36 65 24 36 65 24 36 65 24 36 65 24 36 65 24 36 65 24 36
65 24 36 65 24 36 65 24 36 65 24 36 65 24 36 65 24 36 65 24 36 65 24
36 65 24 36 65 24 36 64 24 36 64 24 36 64 24 36 64 24 36 64 24 35 64
24 35 64 24 35 64 24 35 64 24 35 64 24 35 64 24 35 64 24 35 64 24 35
64 24 35 64 24 35 64 24 35 64 24 35 64 24 35 64 24 35 64 24 35 64 24
35 64 24 35 63 24 35 63 24 35 63 24 35 63 24 35 63 24 35 63 24 35 63
25 35 63 25 35 63 25 35 63 25 35 63 25 35 63 25 35 63 25 35 63 25 35
63 25 35 63 25 35 63 25 35 63 25 35 62 25 35 62 25 35 62 25 35 62 25
35 62 25 35 62 25 35 62 25 35 62 25 35 62 25 35 62 25 35 62 25 35 62
25 35 62 25 35 62 25 35 62 25 35 62 25 35 61 25 35 61 25 35 61 25 34
61 25 34 61 25 34 61 25 34 61 25 34 61 25 34 61 25 34 61 25 34 61 25
34 61 25 34 61 25 34 61 25 34 61 25 34 60 25 34 60 25 34 60 25 34 60
25 34 60 25 34 60 25 34 60 25 34 60 25 34 60 25 34 60 25 34 60 25 34
60 25 34 60 25 34 60 25 34 60 25 34 59 25 34 59 25 34 59 25 34 59 25
34 59 25 34 59 25 34 59 25 34 59 25 34 59 25 34 59 25 34 59 25 34 59
25 34 59 25 33 59 25 33 58 25 33 58 25 33 58 25 33 58 25 33 58 25 33
58 25 33 58 25 33 58 25 33 58 25 33 58 25 33 58 25 33 58 25 33 58 25
33 58 25 33 57 25 33 57 25 33 57 25 33 57 25 33 57 25 33 57 25 33 57
25 33 57 25 33 57 25 33 57 25 33 57 25 33 57 25 33 57 25 33 56 25 33
56 25 33 56 25 33 56 25 33 56 25 33 56 25 33 56 25 33 56 25 32 56 25
32 56 25 32 56 25 32 56 25 32 56 25 32 56 25 32 55 25 32 55 25 32 55
25 32 55 25 32 55 25 32 55 25 32 55 25 32 55 25 32 55 25 32 55 25 32
55 25 32 55 25 32 55 25 32 54 25 32 54 25 32 54 25 32 54 25 32 54 25
32 54 25 32 54 25 32 54 25 32 54 25 32 54 25 32 54 25 32 54 25 32 54
25 32 54 25 31 53 25 31 53 25 31 53 25 31 53 25 31 53 25 31 53 25 31
53 25 31 53 25 31 53 25 31 53 25 31 53 25 31 53 25 31 53 25 31 52 25
31 52 25 31 52 25 31 52 25 31 52 25 31 52 25 31 52 25 31 52 25 31 52
25 31 52 25 31 52 25 31 52 25 24 38 19 24 38 19 24 37 19 24 37 19 24
37 19 24 37 19 24 37 19 24 37 19 24 37 19 24 37 19 24 37 19 24 37 19
24 37 19 24 37 19 24 37 19 24 37 19 24 37 19 24 37 19 24 37 19 24 37
19 24 37 19 24 37 19 24 37 19 24 37 19 24 36 19 24 36 19 24 36 19 24
36 19 24 36 19 24 36 19 24 36 19 24 36 19 24 36 19 24 36 19 24 36 19
24 36 19 24 36 19 24 36 19 24 36 19 24 36 19 24 36 19 23 36 19 23 36
19 23 36 19
34 63 23 34 63 23 34 63 23 34 63 23 34 63 23 34 63 23 34 63 23 34 64
23 34 64 23 34 64 23 34 64 23 34 64 23 34 64 23 34 64 23 34 64 23 34
64 23 34 64 23 34 64 23 34 64 23 34 64 23 34 64 23 34 64 23 34 64 23
34 64 23 34 64 23 35 64 23 35 64 23 35 64 23 35 64 23 35 64 23 35 65
23 35 65 23 35 65 23 35 65 23 35 65 23 35 65 23 35 65 23 35 65 23 35
65 23 35 65 23 35 65 23 35 65 23 35 65 23 35 65 23 35 65 23 35 65 23
35 65 23 35 65 23 35 65 23 35 65 23 35 65 23 35 65 24 35 65 24 35 65
24 35 65 24 35 65 24 35 65 24 35 65 24 35 65 24 35 65 24 35 65 24 35
65 24 35 65 24 35 65 24 35 65 24 35 66 24 35 66 24 35 66 24 35 66 24
35 66 24 35 66 24 35 66 24 35 66 24 35 66 24 35 66 24 35 66 24 35 66
24 35 66 24 35 66 24 36 66 24 36 66 24 36 66 24 36 66 24 36 66 24 36
66 24 36 66 24 36 66 24 36 66 24 36 66 24 36 66 24 36 66 24 36 66 24
36 66 24 36 66 24 36 66 24 36 66 24 36 66 24 36 66 24 36 66 24 36 66
24 36 66 24 36 66 24 36 66 24 36 66 24 36 66 24 36 66 24 36 66 24 36
66 24 36 66 24 36 66 24 36 66 24 36 66 24 36 66 24 36 66 24 36 66 24
36 66 24 36 66 24 36 66 24 36 66 24 36 66 24 36 66 24 36 66 24 36 65
24 36 65 24 36 65 24 36 65 24 36 65 24 36 65 24 36 65 24 36 65 24 36
65 24 36 65 24 36 65 24 36 65 24 36 65 24 36 65 24 36 65 24 36 65 24
36 65 24 36 65 24 36 65 24 36 65 24 36 65 24 36 65 24 36 65 24 36 65
24 36 65 24 36 65 24 36 65 24 36 65 24 36 65 24 36 65 24 36 65 24 36
65 24 36 65 24 36 65 24 36 65 24 36 65 24 35 64 24 35 64 24 35 64 24
35 64 24 35 64 24 35 64 24 35 64 24 35 64 24 35 64 24 35 64 24 35 64
24 35 64 24 35 64 24 35 64 24 35 64 24 35 64 24 35 64 24 35 64 24 35
64 24 35 64 24 35 64 24 35 64 24 35 64 24 35 63 24 35 63 24 35 63 24
35 63 24 35 63 24 35 63 24 35 63 24 35 63 24 35 63 24 35 63 24 35 63
24 35 63 24 35 63 24 35 63 24 35 63 24 35 63 24 35 63 24 35 63 24 35
63 24 35 62 24 35 62 24 35 62 24 35 62 24 35 62 24 35 62 24 35 62 24
35 62 24 35 62 25 35 62 25 35 62 25 35 62 25 35 62 25 35 62 25 35 62
25 35 62 25 35 62 25 35 61 25 34 61 25 34 61 25 34 61 25 34 61 25 34
61 25 34 61 25 34 61 25 34 61 25 34 61 25 34 61 25 34 61 25 34 61 25
34 61 25 34 61 25 34 60 25 34 60 25 34 60 25 34 60 25 34 60 25 34 60
25 34 60 25 34 60 25 34 60 25 34 60 25 34 60 25 34 60 25 34 60 25 34
60 25 34 60 25 34 59 25 34 59 25 34 59 25 34 59 25 34 59 25 34 59 25
34 59 25 34 59 25 34 59 25 34 59 25 34 59 25 34 59 25 33 59 25 33 59
25 33 58 25 33 58 25 33 58 25 33 58 25 33 58 25 33 58 25 33 58 25 33
58 25 33 58 25 33 58 25 33 58 25 33 58 25 33 58 25 33 58 25 33 57 25
33 57 25 33 57 25 33 57 25 33 57 25 33 57 25 33 57 25 33 57 25 33 57
25 33 57 25 33 57 25 33 57 25 33 57 25 33 57 25 33 56 25 33 56 25 33
56 25 33 56 25 33 56 25 33 56 25 33 56 25 32 56 25 32 56 25 32 56 25
32 56 25 32 56 25 32 56 25 32 56 25 32 55 25 32 55 25 32 55 25 32 55
25 32 55 25 32 55 25 32 55 25 32 55 25 32 55 25 32 55 25 32 55 25 32
55 25 32 55 25 32 54 25 32 54 25 32 54 25 32 54 25 32 54 25 32 54 25
32 54 25 32 54 25 32 54 25 32 54 25 32 54 25 32 54 25 32 54 25 32 54
25 31 53 25 31 53 25 31 53 25 31 53 25 31 53 25 31 53 25 31 53 25 31
53 25 31 53 25 31 53 25 31 53 25 31 53 25 31 53 25 31 53 25 31 52 25
31 52 25 31 52 25 31 52 25 31 52 25 31 52 25 31 52 25 31 52 25 31 52
25 31 52 25 31 52 25 31 52 25 24 38 19 24 37 19 24 37 19 24 37 19 24
37 19 24 37 19 24 37 19 24 37 19 24 37 19 24 37 19 24 37 19 24 37 19
24 37 19 24 37 19 24 37 19 24 37 19 24 37 19 24 37 19 24 37 19 24 37
19 24 37 19 24 37 19 24 37 19 24 37 19 24 36 19 24 36 19 24 36 19 24
36 19 24 36 19 24 36 19 24 36 19 24 36 19 24 36 19 24 36 19 24 36 19
24 36 19 24 36 19 24 36 19 24 36 19 24 36 19 23 36 19 23 36 19 23 36
19 23 36 19
34 63 23 34 63 23 34 63 23 34 63 23 34 63 23 34 63 23 34 63 23 34 63
23 34 63 23 34 63 23 34 64 23 34 64 23 34 64 23 34 64 23 34 64 23 34
64 23 34 64 23 34 64 23 34 64 23 34 64 23 34 64 23 34 64 23 34 64 23
34 64 23 34 64 23 34 64 23 34 64 23 34 64 23 35 64 23 35 64 23 35 64
23 35 64 23 35 64 23 35 64 23 35 65 23 35 65 23 35 65 23 35 65 23 35
65 23 35 65 23 35 65 23 35 65 23 35 65 23 35 65 23 35 65 23 35 65 23
35 65 23 35 65 23 35 65 23 35 65 23 35 65 23 35 65 23 35 65 23 35 65
23 35 65 24 35 65 24 35 65 24 35 65 24 35 65 24 35 65 24 35 65 24 35
65 24 35 65 24 35 65 24 35 65 24 35 65 24 35 65 24 35 65 24 35 65 24
35 65 24 35 65 24 35 65 24 35 65 24 35 65 24 35 65 24 35 65 24 35 65
24 35 65 24 35 65 24 35 65 24 35 65 24 35 66 24 35 66 24 35 66 24 35
66 24 35 66 24 35 66 24 35 66 24 35 66 24 35 66 24 36 66 24 36 66 24
36 66 24 36 66 24 36 66 24 36 66 24 36 66 24 36 66 24 36 66 24 36 66
24 36 66 24 36 66 24 36 66 24 36 66 24 36 65 24 36 65 24 36 65 24 36
65 24 36 65 24 36 65 24 36 65 24 36 65 24 36 65 24 36 65 24 36 65 24
36 65 24 36 65 24 36 65 24 36 65 24 36 65 24 36 65 24 36 65 24 36 65
24 36 65 24 36 65 24 36 65 24 36 65 24 36 65 24 36 65 24 36 65 24 36
65 24 36 65 24 36 65 24 36 65 24 36 65 24 36 65 24 36 65 24 36 65 24
36 65 24 36 65 24 36 65 24 36 65 24 36 65 24 36 65 24 36 65 24 36 65
24 35 65 24 35 65 24 35 65 24 35 65 24 35 65 24 35 65 24 35 64 24 35
64 24 35 64 24 35 64 24 35 64 24 35 64 24 35 64 24 35 64 24 35 64 24
35 64 24 35 64 24 35 64 24 35 64 24 35 64 24 35 64 24 35 64 24 35 64
24 35 64 24 35 64 24 35 64 24 35 64 24 35 64 24 35 64 24 35 64 24 35
64 24 35 63 24 35 63 24 35 63 24 35 63 24 35 63 24 35 63 24 35 63 24
35 63 24 35 63 24 35 63 24 35 63 24 35 63 24 35 63 24 35 63 24 35 63
24 35 63 24 35 63 24 35 63 24 35 63 24 35 62 24 35 62 24 35 62 24 35
62 24 35 62 24 35 62 24 35 62 24 35 62 24 35 62 24 35 62 24 35 62 24
35 62 24 35 62 24 35 62 24 35 62 24 35 62 24 35 62 24 35 62 24 34 61
24 34 61 24 34 61 24 34 61 24 34 61 24 34 61 24 34 61 24 34 61 24 34
61 24 34 61 24 34 61 24 34 61 24 34 61 25 34 61 25 34 61 25 34 61 25
34 60 25 34 60 25 34 60 25 34 60 25 34 60 25 34 60 25 34 60 25 34 60
25 34 60 25 34 60 25 34 60 25 34 60 25 34 60 25 34 60 25 34 60 25 34
59 25 34 59 25 34 59 25 34 59 25 34 59 25 34 59 25 34 59 25 34 59 25
34 59 25 34 59 25 34 59 25 33 59 25 33 59 25 33 59 25 33 59 25 33 58
25 33 58 25 33 58 25 33 58 25 33 58 25 33 58 25 33 58 25 33 58 25 33
58 25 33 58 25 33 58 25 33 58 25 33 58 25 33 58 25 33 57 25 33 57 25
33 57 25 33 57 25 33 57 25 33 57 25 33 57 25 33 57 25 33 57 25 33 57
25 33 57 25 33 57 25 33 57 25 33 57 25 33 56 25 33 56 25 33 56 25 33
56 25 33 56 25 32 56 25 32 56 25 32 56 25 32 56 25 32 56 25 32 56 25
32 56 25 32 56 25 32 56 25 32 55 25 32 55 25 32 55 25 32 55 25 32 55
25 32 55 25 32 55 25 32 55 25 32 55 25 32 55 25 32 55 25 32 55 25 32
55 25 32 54 25 32 54 25 32 54 25 32 54 25 32 54 25 32 54 25 32 54 25
32 54 25 32 54 25 32 54 25 32 54 25 32 54 25 32 54 25 31 54 25 31 53
25 31 53 25 31 53 25 31 53 25 31 53 25 31 53 25 31 53 25 31 53 25 31
53 25 31 53 25 31 53 25 31 53 25 31 53 25 31 53 25 31 52 25 31 52 25
31 52 25 31 52 25 31 52 25 31 52 25 31 52 25 31 52 25 31 52 25 31 52
25 31 52 25 31 52 25 31 52 25 31 52 25 24 37 19 24 37 19 24 37 19 24
37 19 24 37 19 24 37 19 24 37 19 24 37 19 24 37 19 24 37 19 24 37 19
24 37 19 24 37 19 24 37 19 24 37 19 24 37 19 24 37 19 24 37 19 24 37
19 24 37 19 24 37 19 24 37 19 24 36 19 24 36 19 24 36 19 24 36 19 24
36 19 24 36 19 24 36 19 24 36 19 24 36 19 24 36 19 24 36 19 24 36 19
24 36 19 24 36 19 24 36 19 23 36 19 23 36 19 23 36 19 23 36 19 23 36
19 23 36 19
34 63 23 34 63 23 34 63 23 34 63 23 34 63 23 34 63 23 34 63 23 34 63
23 34 63 23 34 63 23 34 63 23 34 63 23 34 63 23 34 64 23 34 64 23 34
64 23 34 64 23 34 64 23 34 64 23 34 64 23 34 64 23 34 64 23 34 64 23
34 64 23 34 64 23 34 64 23 34 64 23 34 64 23 34 64 23 34 64 23 34 64
23 35 64 23 35 64 23 35 64 23 35 64 23 35 64 23 35 64 23 35 64 23 35
64 23 35 65 23 35 65 23 35 65 23 35 65 23 35 65 23 35 65 23 35 65 23
35 65 23 35 65 23 35 65 23 35 65 23 35 65 23 35 65 23 35 65 23 35 65
23 35 65 23 35 65 23 35 65 23 35 65 23 35 65 24 35 65 24 35 65 24 35
65 24 35 65 24 35 65 24 35 65 24 35 65 24 35 65 24 35 65 24 35 65 24
35 65 24 35 65 24 35 65 24 35 65 24 35 65 24 35 65 24 35 65 24 35 65
24 35 65 24 35 65 24 35 65 24 35 65 24 35 65 24 35 65 24 35 65 24 35
65 24 35 65 24 35 65 24 35 65 24 35 65 24 35 65 24 35 65 24 35 65 24
35 65 24 35 65 24 35 65 24 35 65 24 35 65 24 35 65 24 35 65 24 35 65
24 35 65 24 35 65 24 35 65 24 35 65 24 35 65 24 35 65 24 35 65 24 35
65 24 35 65 24 35 65 24 35 65 24 35 65 24 35 65 24 35 65 24 36 65 24
36 65 24 36 65 24 36 65 24 36 65 24 36 65 24 36 65 24 35 65 24 35 65
24 35 65 24 35 65 24 35 65 24 35 65 24 35 65 24 35 65 24 35 65 24 35
65 24 35 65 24 35 65 24 35 65 24 35 65 24 35 65 24 35 65 24 35 65 24
35 65 24 35 65 24 35 65 24 35 65 24 35 65 24 35 65 24 35 65 24 35 64
24 35 64 24 35 64 24 35 64 24 35 64 24 35 64 24 35 64 24 35 64 24 35
64 24 35 64 24 35 64 24 35 64 24 35 64 24 35 64 24 35 64 24 35 64 24
35 64 24 35 64 24 35 64 24 35 64 24 35 64 24 35 64 24 35 64 24 35 64
24 35 64 24 35 64 24 35 64 24 35 63 24 35 63 24 35 63 24 35 63 24 35
63 24 35 63 24 35 63 24 35 63 24 35 63 24 35 63 24 35 63 24 35 63 24
35 63 24 35 63 24 35 63 24 35 63 24 35 63 24 35 63 24 35 63 24 35 63
24 35 63 24 35 62 24 35 62 24 35 62 24 35 62 24 35 62 24 35 62 24 35
62 24 35 62 24 35 62 24 35 62 24 35 62 24 35 62 24 35 62 24 35 62 24
35 62 24 35 62 24 35 62 24 34 62 24 34 61 24 34 61 24 34 61 24 34 61
24 34 61 24 34 61 24 34 61 24 34 61 24 34 61 24 34 61 24 34 61 24 34
61 24 34 61 24 34 61 24 34 61 24 34 61 24 34 61 24 34 60 24 34 60 24
34 60 24 34 60 24 34 60 24 34 60 24 34 60 24 34 60 24 34 60 24 34 60
24 34 60 24 34 60 24 34 60 24 34 60 24 34 60 24 34 59 24 34 59 24 34
59 24 34 59 24 34 59 25 34 59 25 34 59 25 34 59 25 34 59 25 34 59 25
34 59 25 33 59 25 33 59 25 33 59 25 33 59 25 33 58 25 33 58 25 33 58
25 33 58 25 33 58 25 33 58 25 33 58 25 33 58 25 33 58 25 33 58 25 33
58 25 33 58 25 33 58 25 33 58 25 33 57 25 33 57 25 33 57 25 33 57 25
33 57 25 33 57 25 33 57 25 33 57 25 33 57 25 33 57 25 33 57 25 33 57
25 33 57 25 33 57 25 33 57 25 33 56 25 33 56 25 33 56 25 33 56 25 32
56 25 32 56 25 32 56 25 32 56 25 32 56 25 32 56 25 32 56 25 32 56 25
32 56 25 32 56 25 32 55 25 32 55 25 32 55 25 32 55 25 32 55 25 32 55
25 32 55 25 32 55 25 32 55 25 32 55 25 32 55 25 32 55 25 32 55 25 32
55 25 32 54 25 32 54 25 32 54 25 32 54 25 32 54 25 32 54 25 32 54 25
32 54 25 32 54 25 32 54 25 32 54 25 31 54 25 31 54 25 31 54 25 31 53
25 31 53 25 31 53 25 31 53 25 31 53 25 31 53 25 31 53 25 31 53 25 31
53 25 31 53 25 31 53 25 31 53 25 31 53 25 31 53 25 31 52 25 31 52 25
31 52 25 31 52 25 31 52 24 31 52 24 31 52 24 31 52 24 31 52 24 31 52
24 31 52 24 31 52 24 31 52 24 31 52 24 24 37 18 24 37 18 24 37 18 24
37 18 24 37 18 24 37 18 24 37 18 24 37 18 24 37 18 24 37 19 24 37 19
24 37 19 24 37 19 24 37 19 24 37 19 24 37 19 24 37 19 24 37 19 24 37
19 24 37 19 24 37 19 24 37 19 24 36 19 24 36 19 24 36 19 24 36 19 24
36 19 24 36 19 24 36 19 24 36 19 24 36 19 24 36 19 24 36 19 24 36 19
24 36 19 24 36 19 23 36 19 23 36 19 23 36 19 23 36 19 23 36 19 23 36
19 23 36 19
34 63 23 34 63 23 34 63 23 34 63 23 34 63 23 34 63 23 34 63 23 34 63
23 34 63 23 34 63 23 34 63 23 34 63 23 34 63 23 34 63 23 34 63 23 34
63 23 34 64 23 34 64 23 34 64 23 34 64 23 34 64 23 34 64 23 34 64 23
34 64 23 34 64 23 34 64 23 34 64 23 34 64 23 34 64 23 34 64 23 34 64
23 34 64 23 34 64 23 34 64 23 35 64 23 35 64 23 35 64 23 35 64 23 35
64 23 35 64 23 35 64 23 35 64 23 35 64 23 35 64 23 35 64 23 35 65 23
35 65 23 35 65 23 35 65 23 35 65 23 35 65 23 35 65 23 35 65 23 35 65
23 35 65 23 35 65 23 35 65 23 35 65 23 35 65 23 35 65 23 35 65 23 35
65 23 35 65 24 35 65 24 35 65 24 35 65 24 35 65 24 35 65 24 35 65 24
35 65 24 35 65 24 35 65 24 35 65 24 35 65 24 35 65 24 35 65 24 35 65
24 35 65 24 35 65 24 35 65 24 35 65 24 35 65 24 35 65 24 35 65 24 35
65 24 35 65 24 35 65 24 35 65 24 35 65 24 35 65 24 35 65 24 35 65 24
35 65 24 35 65 24 35 65 24 35 65 24 35 65 24 35 65 24 35 65 24 35 65
24 35 65 24 35 65 24 35 65 24 35 65 24 35 65 24 35 65 24 35 65 24 35
65 24 35 65 24 35 65 24 35 65 24 35 65 24 35 65 24 35 65 24 35 65 24
35 65 24 35 65 24 35 65 24 35 65 24 35 65 24 35 65 24 35 65 24 35 65
24 35 65 24 35 65 24 35 65 24 35 65 24 35 65 24 35 65 24 35 65 24 35
65 24 35 65 24 35 65 24 35 65 24 35 65 24 35 65 24 35 65 24 35 65 24
35 64 24 35 64 24 35 64 24 35 64 24 35 64 24 35 64 24 35 64 24 35 64
24 35 64 24 35 64 24 35 64 24 35 64 24 35 64 24 35 64 24 35 64 24 35
64 24 35 64 24 35 64 24 35 64 24 35 64 24 35 64 24 35 64 24 35 64 24
35 64 24 35 64 24 35 64 24 35 64 24 35 64 24 35 64 24 35 64 24 35 63
24 35 63 24 35 63 24 35 63 24 35 63 24 35 63 24 35 63 24 35 63 24 35
63 24 35 63 24 35 63 24 35 63 24 35 63 24 35 63 24 35 63 24 35 63 24
35 63 24 35 63 24 35 63 24 35 63 24 35 63 24 35 62 24 35 62 24 35 62
24 35 62 24 35 62 24 35 62 24 35 62 24 35 62 24 35 62 24 35 62 24 35
62 24 35 62 24 35 62 24 35 62 24 35 62 24 35 62 24 34 62 24 34 62 24
34 62 24 34 61 24 34 61 24 34 61 24 34 61 24 34 61 24 34 61 24 34 61
24 34 61 24 34 61 24 34 61 24 34 61 24 34 61 24 34 61 24 34 61 24 34
61 24 34 61 24 34 61 24 34 60 24 34 60 24 34 60 24 34 60 24 34 60 24
34 60 24 34 60 24 34 60 24 34 60 24 34 60 24 34 60 24 34 60 24 34 60
24 34 60 24 34 60 24 34 60 24 34 59 24 34 59 24 34 59 24 34 59 24 34
59 24 34 59 24 34 59 24 34 59 24 34 59 24 34 59 24 33 59 24 33 59 24
33 59 24 33 59 24 33 59 24 33 58 24 33 58 24 33 58 24 33 58 24 33 58
24 33 58 24 33 58 24 33 58 24 33 58 24 33 58 24 33 58 24 33 58 24 33
58 24 33 58 24 33 58 24 33 57 24 33 57 24 33 57 24 33 57 25 33 57 25
33 57 25 33 57 25 33 57 25 33 57 25 33 57 25 33 57 25 33 57 25 33 57
25 33 57 25 33 56 25 33 56 25 33 56 25 33 56 25 32 56 25 32 56 25 32
56 25 32 56 25 32 56 25 32 56 25 32 56 25 32 56 25 32 56 25 32 56 25
32 56 25 32 55 25 32 55 25 32 55 25 32 55 25 32 55 25 32 55 25 32 55
25 32 55 25 32 55 25 32 55 25 32 55 25 32 55 25 32 55 25 32 55 25 32
54 25 32 54 25 32 54 25 32 54 25 32 54 25 32 54 25 32 54 25 32 54 25
32 54 25 32 54 25 32 54 25 31 54 25 31 54 25 31 54 25 31 53 25 31 53
24 31 53 24 31 53 24 31 53 24 31 53 24 31 53 24 31 53 24 31 53 24 31
53 24 31 53 24 31 53 24 31 53 24 31 53 24 31 52 24 31 52 24 31 52 24
31 52 24 31 52 24 31 52 24 31 52 24 31 52 24 31 52 24 31 52 24 31 52
24 31 52 24 31 52 24 31 52 24 31 52 24 31 51 24 24 37 18 24 37 18 24
37 18 24 37 18 24 37 18 24 37 18 24 37 18 24 37 18 24 37 18 24 37 18
24 37 18 24 37 18 24 37 18 24 37 18 24 37 18 24 37 18 24 37 18 24 37
18 24 37 18 24 37 18 24 37 18 24 36 18 24 36 18 24 36 18 24 36 18 24
36 18 24 36 18 24 36 18 24 36 18 24 36 18 24 36 18 24 36 18 24 36 18
24 36 18 23 36 18 23 36 18 23 36 18 23 36 18 23 36 18 23 36 18 23 36
18 23 36 18
34 63 23 34 63 23 34 63 23 34 63 23 34 63 23 34 63 23 34 63 23 34 63
23 34 63 23 34 63 23 34 63 23 34 63 23 34 63 23 34 63 23 34 63 23 34
63 23 34 63 23 34 63 23 34 63 23 34 63 23 34 64 23 34 64 23 34 64 23
34 64 23 34 64 23 34 64 23 34 64 23 34 64 23 34 64 23 34 64 23 34 64
23 34 64 23 34 64 23 34 64 23 34 64 23 34 64 23 34 64 23 34 64 23 35
64 23 35 64 23 35 64 23 35 64 23 35 64 23 35 64 23 35 64 23 35 64 23
35 64 23 35 64 23 35 64 23 35 64 23 35 64 23 35 64 23 35 65 23 35 65
23 35 65 23 35 65 23 35 65 23 35 65 23 35 65 23 35 65 23 35 65 23 35
65 23 35 65 23 35 65 23 35 65 23 35 65 23 35 65 23 35 65 24 35 65 24
35 65 24 35 65 24 35 65 24 35 65 24 35 65 24 35 65 24 35 65 24 35 65
24 35 65 24 35 65 24 35 65 24 35 65 24 35 65 24 35 65 24 35 65 24 35
65 24 35 65 24 35 65 24 35 65 24 35 65 24 35 65 24 35 65 24 35 65 24
35 65 24 35 65 24 35 65 24 35 65 24 35 65 24 35 65 24 35 65 24 35 65
24 35 65 24 35 65 24 35 65 24 35 65 24 35 65 24 35 65 24 35 65 24 35
65 24 35 65 24 35 65 24 35 65 24 35 65 24 35 65 24 35 65 24 35 65 24
35 65 24 35 65 24 35 65 24 35 65 24 35 65 24 35 65 24 35 65 24 35 65
24 35 65 24 35 65 24 35 65 24 35 65 24 35 65 24 35 65 24 35 65 24 35
64 24 35 64 24 35 64 24 35 64 24 35 64 24 35 64 24 35 64 24 35 64 24
35 64 24 35 64 24 35 64 24 35 64 24 35 64 24 35 64 24 35 64 24 35 64
24 35 64 24 35 64 24 35 64 24 35 64 24 35 64 24 35 64 24 35 64 24 35
64 24 35 64 24 35 64 24 35 64 24 35 64 24 35 64 24 35 64 24 35 64 24
35 64 24 35 64 24 35 63 24 35 63 24 35 63 24 35 63 24 35 63 24 35 63
24 35 63 24 35 63 24 35 63 24 35 63 24 35 63 24 35 63 24 35 63 24 35
63 24 35 63 24 35 63 24 35 63 24 35 63 24 35 63 24 35 63 24 35 63 24
35 63 24 35 63 24 35 62 24 35 62 24 35 62 24 35 62 24 35 62 24 35 62
24 35 62 24 35 62 24 35 62 24 35 62 24 35 62 24 35 62 24 35 62 24 35
62 24 34 62 24 34 62 24 34 62 24 34 62 24 34 62 24 34 61 24 34 61 24
34 61 24 34 61 24 34 61 24 34 61 24 34 61 24 34 61 24 34 61 24 34 61
24 34 61 24 34 61 24 34 61 24 34 61 24 34 61 24 34 61 24 34 61 24 34
61 24 34 60 24 34 60 24 34 60 24 34 60 24 34 60 24 34 60 24 34 60 24
34 60 24 34 60 24 34 60 24 34 60 24 34 60 24 34 60 24 34 60 24 34 60
24 34 60 24 34 59 24 34 59 24 34 59 24 34 59 24 34 59 24 34 59 24 34
59 24 34 59 24 33 59 24 33 59 24 33 59 24 33 59 24 33 59 24 33 59 24
33 59 24 33 58 24 33 58 24 33 58 24 33 58 24 33 58 24 33 58 24 33 58
24 33 58 24 33 58 24 33 58 24 33 58 24 33 58 24 33 58 24 33 58 24 33
58 24 33 57 24 33 57 24 33 57 24 33 57 24 33 57 24 33 57 24 33 57 24
33 57 24 33 57 24 33 57 24 33 57 24 33 57 24 33 57 24 33 57 24 33 57
24 33 56 24 33 56 24 33 56 24 32 56 24 32 56 24 32 56 24 32 56 24 32
56 24 32 56 24 32 56 24 32 56 24 32 56 24 32 56 24 32 56 24 32 55 24
32 55 24 32 55 24 32 55 24 32 55 24 32 55 24 32 55 24 32 55 24 32 55
24 32 55 24 32 55 24 32 55 24 32 55 24 32 55 24 32 55 24 32 54 24 32
54 24 32 54 24 32 54 24 32 54 24 32 54 24 32 54 24 32 54 24 32 54 24
32 54 24 31 54 24 31 54 24 31 54 24 31 54 24 31 53 24 31 53 24 31 53
24 31 53 24 31 53 24 31 53 24 31 53 24 31 53 24 31 53 24 31 53 24 31
53 24 31 53 24 31 53 24 31 53 24 31 53 24 31 52 24 31 52 24 31 52 24
31 52 24 31 52 24 31 52 24 31 52 24 31 52 24 31 52 24 31 52 24 31 52
24 31 52 24 31 52 24 31 52 24 31 51 24 31 51 24 30 51 24 24 37 18 24
37 18 24 37 18 24 37 18 24 37 18 24 37 18 24 37 18 24 37 18 24 37 18
24 37 18 24 37 18 24 37 18 24 37 18 24 37 18 24 37 18 24 37 18 24 37
18 24 37 18 24 37 18 24 36 18 24 36 18 24 36 18 24 36 18 24 36 18 24
36 18 24 36 18 24 36 18 24 36 18 24 36 18 24 36 18 24 36 18 24 36 18
23 36 18 23 36 18 23 36 18 23 36 18 23 36 18 23 36 18 23 36 18 23 36
18 23 36 18
34 63 23 34 63 23 34 63 23 34 63 23 34 63 23 34 63 23 34 63 23 34 63
23 34 63 23 34 63 23 34 63 23 34 63 23 34 63 23 34 63 23 34 63 23 34
63 23 34 63 23 34 63 23 34 63 23 34 63 23 34 63 23 34 63 23 34 63 23
34 63 23 34 64 23 34 64 23 34 64 23 34 64 23 34 64 23 34 64 23 34 64
23 34 64 23 34 64 23 34 64 23 34 64 23 34 64 23 34 64 23 34 64 23 34
64 23 34 64 23 34 64 23 34 64 23 35 64 23 35 64 23 35 64 23 35 64 23
35 64 23 35 64 23 35 64 23 35 64 23 35 64 23 35 64 23 35 64 23 35 64
23 35 64 23 35 64 23 35 64 23 35 64 23 35 64 23 35 64 23 35 64 23 35
64 23 35 65 23 35 65 23 35 65 23 35 65 23 35 65 23 35 65 23 35 65 23
35 65 23 35 65 23 35 65 23 35 65 24 35 65 24 35 65 24 35 65 24 35 65
24 35 65 24 35 65 24 35 65 24 35 65 24 35 65 24 35 65 24 35 65 24 35
65 24 35 65 24 35 65 24 35 65 24 35 65 24 35 65 24 35 65 24 35 65 24
35 65 24 35 65 24 35 65 24 35 65 24 35 65 24 35 65 24 35 65 24 35 65
24 35 65 24 35 65 24 35 65 24 35 65 24 35 65 24 35 65 24 35 65 24 35
65 24 35 65 24 35 65 24 35 65 24 35 65 24 35 65 24 35 65 24 35 65 24
35 65 24 35 65 24 35 65 24 35 65 24 35 64 24 35 64 24 35 64 24 35 64
24 35 64 24 35 64 24 35 64 24 35 64 24 35 64 24 35 64 24 35 64 24 35
64 24 35 64 24 35 64 24 35 64 24 35 64 24 35 64 24 35 64 24 35 64 24
35 64 24 35 64 24 35 64 24 35 64 24 35 64 24 35 64 24 35 64 24 35 64
24 35 64 24 35 64 24 35 64 24 35 64 24 35 64 24 35 64 24 35 64 24 35
64 24 35 64 24 35 64 24 35 64 24 35 63 24 35 63 24 35 63 24 35 63 24
35 63 24 35 63 24 35 63 24 35 63 24 35 63 24 35 63 24 35 63 24 35 63
24 35 63 24 35 63 24 35 63 24 35 63 24 35 63 24 35 63 24 35 63 24 35
63 24 35 63 24 35 63 24 35 63 24 35 63 24 35 63 24 35 62 24 35 62 24
35 62 24 35 62 24 35 62 24 35 62 24 35 62 24 35 62 24 35 62 24 35 62
24 35 62 24 35 62 24 35 62 24 34 62 24 34 62 24 34 62 24 34 62 24 34
62 24 34 62 24 34 62 24 34 61 24 34 61 24 34 61 24 34 61 24 34 61 24
34 61 24 34 61 24 34 61 24 34 61 24 34 61 24 34 61 24 34 61 24 34 61
24 34 61 24 34 61 24 34 61 24 34 61 24 34 61 24 34 60 24 34 60 24 34
60 24 34 60 24 34 60 24 34 60 24 34 60 24 34 60 24 34 60 24 34 60 24
34 60 24 34 60 24 34 60 24 34 60 24 34 60 24 34 60 24 34 60 24 34 59
24 34 59 24 34 59 24 34 59 24 34 59 24 34 59 24 34 59 24 33 59 24 33
59 24 33 59 24 33 59 24 33 59 24 33 59 24 33 59 24 33 59 24 33 59 24
33 58 24 33 58 24 33 58 24 33 58 24 33 58 24 33 58 24 33 58 24 33 58
24 33 58 24 33 58 24 33 58 24 33 58 24 33 58 24 33 58 24 33 58 24 33
57 24 33 57 24 33 57 24 33 57 24 33 57 24 33 57 24 33 57 24 33 57 24
33 57 24 33 57 24 33 57 24 33 57 24 33 57 24 33 57 24 33 57 24 33 56
24 33 56 24 32 56 24 32 56 24 32 56 24 32 56 24 32 56 24 32 56 24 32
56 24 32 56 24 32 56 24 32 56 24 32 56 24 32 56 24 32 55 24 32 55 24
32 55 24 32 55 24 32 55 24 32 55 24 32 55 24 32 55 24 32 55 24 32 55
24 32 55 24 32 55 24 32 55 24 32 55 24 32 55 24 32 54 24 32 54 24 32
54 24 32 54 24 32 54 24 32 54 24 32 54 24 32 54 24 32 54 24 32 54 24
31 54 24 31 54 24 31 54 24 31 54 24 31 54 24 31 53 24 31 53 24 31 53
24 31 53 24 31 53 24 31 53 24 31 53 24 31 53 24 31 53 24 31 53 24 31
53 24 31 53 24 31 53 24 31 53 24 31 52 24 31 52 24 31 52 24 31 52 24
31 52 24 31 52 24 31 52 24 31 52 24 31 52 24 31 52 24 31 52 24 31 52
24 31 52 24 31 52 24 31 52 24 31 51 24 30 51 24 30 51 24 24 37 18 24
37 18 24 37 18 24 37 18 24 37 18 24 37 18 24 37 18 24 37 18 24 37 18
24 37 18 24 37 18 24 37 18 24 37 18 24 37 18 24 37 18 24 37 18 24 37
18 24 37 18 24 37 18 24 36 18 24 36 18 24 36 18 24 36 18 24 36 18 24
36 18 24 36 18 24 36 18 24 36 18 24 36 18 24 36 18 23 36 18 23 36 18
23 36 18 23 36 18 23 36 18 23 36 18 23 36 18 23 36 18 23 36 18 23 36
18 23 36 18
33 62 23 34 62 23 34 63 23 34 63 23 34 63 23 34 63 23 34 63 23 34 63
23 34 63 23 34 63 23 34 63 23 34 63 23 34 63 23 34 63 23 34 63 23 34
63 23 34 63 23 34 63 23 34 63 23 34 63 23 34 63 23 34 63 23 34 63 23
34 63 23 34 63 23 34 63 23 34 63 23 34 63 23 34 64 23 34 64 23 34 64
23 34 64 23 34 64 23 34 64 23 34 64 23 34 64 23 34 64 23 34 64 23 34
64 23 34 64 23 34 64 23 34 64 23 34 64 23 34 64 23 34 64 23 34 64 23
35 64 23 35 64 23 35 64 23 35 64 23 35 64 23 35 64 23 35 64 23 35 64
23 35 64 23 35 64 23 35 64 23 35 64 23 35 64 23 35 64 23 35 64 23 35
64 23 35 64 23 35 64 23 35 64 23 35 64 23 35 64 23 35 64 23 35 64 23
35 64 23 35 64 23 35 64 23 35 64 23 35 64 23 35 64 23 35 64 23 35 64
23 35 64 24 35 65 24 35 65 24 35 65 24 35 65 24 35 65 24 35 65 24 35
65 24 35 65 24 35 65 24 35 65 24 35 65 24 35 65 24 35 65 24 35 65 24
35 65 24 35 65 24 35 65 24 35 65 24 35 65 24 35 65 24 35 65 24 35 65
24 35 65 24 35 64 24 35 64 24 35 64 24 35 64 24 35 64 24 35 64 24 35
64 24 35 64 24 35 64 24 35 64 24 35 64 24 35 64 24 35 64 24 35 64 24
35 64 24 35 64 24 35 64 24 35 64 24 35 64 24 35 64 24 35 64 24 35 64
24 35 64 24 35 64 24 35 64 24 35 64 24 35 64 24 35 64 24 35 64 24 35
64 24 35 64 24 35 64 24 35 64 24 35 64 24 35 64 24 35 64 24 35 64 24
35 64 24 35 64 24 35 64 24 35 64 24 35 64 24 35 64 24 35 64 24 35 64
24 35 64 24 35 64 24 35 64 24 35 64 24 35 64 24 35 64 24 35 63 24 35
63 24 35 63 24 35 63 24 35 63 24 35 63 24 35 63 24 35 63 24 35 63 24
35 63 24 35 63 24 35 63 24 35 63 24 35 63 24 35 63 24 35 63 24 35 63
24 35 63 24 35 63 24 35 63 24 35 63 24 35 63 24 35 63 24 35 63 24 35
63 24 35 63 24 35 62 24 35 62 24 35 62 24 35 62 24 35 62 24 35 62 24
35 62 24 35 62 24 35 62 24 35 62 24 35 62 24 34 62 24 34 62 24 34 62
24 34 62 24 34 62 24 34 62 24 34 62 24 34 62 24 34 62 24 34 62 24 34
61 24 34 61 24 34 61 24 34 61 24 34 61 24 34 61 24 34 61 24 34 61 24
34 61 24 34 61 24 34 61 24 34 61 24 34 61 24 34 61 24 34 61 24 34 61
24 34 61 24 34 61 24 34 61 24 34 60 24 34 60 24 34 60 24 34 60 24 34
60 24 34 60 24 34 60 24 34 60 24 34 60 24 34 60 24 34 60 24 34 60 24
34 60 24 34 60 24 34 60 24 34 60 24 34 60 24 34 59 24 34 59 24 34 59
24 34 59 24 34 59 24 34 59 24 33 59 24 33 59 24 33 59 24 33 59 24 33
59 24 33 59 24 33 59 24 33 59 24 33 59 24 33 59 24 33 58 24 33 58 24
33 58 24 33 58 24 33 58 24 33 58 24 33 58 24 33 58 24 33 58 24 33 58
24 33 58 24 33 58 24 33 58 24 33 58 24 33 58 24 33 57 24 33 57 24 33
57 24 33 57 24 33 57 24 33 57 24 33 57 24 33 57 24 33 57 24 33 57 24
33 57 24 33 57 24 33 57 24 33 57 24 33 57 24 33 56 24 32 56 24 32 56
24 32 56 24 32 56 24 32 56 24 32 56 24 32 56 24 32 56 24 32 56 24 32
56 24 32 56 24 32 56 24 32 56 24 32 56 24 32 55 24 32 55 24 32 55 24
32 55 24 32 55 24 32 55 24 32 55 24 32 55 24 32 55 24 32 55 24 32 55
24 32 55 24 32 55 24 32 55 24 32 55 24 32 54 24 32 54 24 32 54 24 32
54 24 32 54 24 32 54 24 32 54 24 32 54 24 32 54 24 31 54 24 31 54 24
31 54 24 31 54 24 31 54 24 31 54 24 31 53 24 31 53 24 31 53 24 31 53
24 31 53 24 31 53 24 31 53 24 31 53 24 31 53 24 31 53 24 31 53 24 31
53 24 31 53 24 31 53 24 31 53 24 31 52 24 31 52 24 31 52 24 31 52 24
31 52 24 31 52 24 31 52 24 31 52 24 31 52 24 31 52 24 31 52 24 31 52
24 31 52 24 31 52 24 30 52 24 30 51 24 30 51 24 30 51 24 30 51 24 24
37 18 24 37 18 24 37 18 24 37 18 24 37 18 24 37 18 24 37 18 24 37 18
24 37 18 24 37 18 24 37 18 24 37 18 24 37 18 24 37 18 24 37 18 24 37
18 24 37 18 24 36 18 24 36 18 24 36 18 24 36 18 24 36 18 24 36 18 24
36 18 24 36 18 24 36 18 24 36 18 24 36 18 23 36 18 23 36 18 23 36 18
23 36 18 23 36 18 23 36 18 23 36 18 23 36 18 23 36 18 23 36 18 23 36
18 23 36 18
33 62 23 33 62 23 33 62 23 34 62 23 34 62 23 34 63 23 34 63 23 34 63
23 34 63 23 34 63 23 34 63 23 34 63 23 34 63 23 34 63 23 34 63 23 34
63 23 34 63 23 34 63 23 34 63 23 34 63 23 34 63 23 34 63 23 34 63 23
34 63 23 34 63 23 34 63 23 34 63 23 34 63 23 34 63 23 34 63 23 34 63
23 34 63 23 34 63 23 34 64 23 34 64 23 34 64 23 34 64 23 34 64 23 34
64 23 34 64 23 34 64 23 34 64 23 34 64 23 34 64 23 34 64 23 34 64 23
34 64 23 34 64 23 34 64 23 34 64 23 34 64 23 35 64 23 35 64 23 35 64
23 35 64 23 35 64 23 35 64 23 35 64 23 35 64 23 35 64 23 35 64 23 35
64 23 35 64 23 35 64 23 35 64 23 35 64 23 35 64 23 35 64 23 35 64 23
35 64 23 35 64 23 35 64 23 35 64 23 35 64 23 35 64 23 35 64 23 35 64
23 35 64 23 35 64 23 35 64 23 35 64 23 35 64 23 35 64 24 35 64 24 35
64 24 35 64 24 35 64 24 35 64 24 35 64 24 35 64 24 35 64 24 35 64 24
35 64 24 35 64 24 35 64 24 35 64 24 35 64 24 35 64 24 35 64 24 35 64
24 35 64 24 35 64 24 35 64 24 35 64 24 35 64 24 35 64 24 35 64 24 35
64 24 35 64 24 35 64 24 35 64 24 35 64 24 35 64 24 35 64 24 35 64 24
35 64 24 35 64 24 35 64 24 35 64 24 35 64 24 35 64 24 35 64 24 35 64
24 35 64 24 35 64 24 35 64 24 35 64 24 35 64 24 35 64 24 35 64 24 35
64 24 35 64 24 35 64 24 35 64 24 35 64 24 35 64 24 35 64 24 35 64 24
35 64 24 35 64 24 35 64 24 35 64 24 35 64 24 35 64 24 35 64 24 35 64
24 35 63 24 35 63 24 35 63 24 35 63 24 35 63 24 35 63 24 35 63 24 35
63 24 35 63 24 35 63 24 35 63 24 35 63 24 35 63 24 35 63 24 35 63 24
35 63 24 35 63 24 35 63 24 35 63 24 35 63 24 35 63 24 35 63 24 35 63
24 35 63 24 35 63 24 35 63 24 35 63 24 35 63 24 35 62 24 35 62 24 35
62 24 35 62 24 35 62 24 35 62 24 35 62 24 35 62 24 35 62 24 34 62 24
34 62 24 34 62 24 34 62 24 34 62 24 34 62 24 34 62 24 34 62 24 34 62
24 34 62 24 34 62 24 34 62 24 34 62 24 34 61 24 34 61 24 34 61 24 34
61 24 34 61 24 34 61 24 34 61 24 34 61 24 34 61 24 34 61 24 34 61 24
34 61 24 34 61 24 34 61 24 34 61 24 34 61 24 34 61 24 34 61 24 34 61
24 34 60 24 34 60 24 34 60 24 34 60 24 34 60 24 34 60 24 34 60 24 34
60 24 34 60 24 34 60 24 34 60 24 34 60 24 34 60 24 34 60 24 34 60 24
34 60 24 34 60 24 34 59 24 34 59 24 34 59 24 34 59 24 34 59 24 33 59
24 33 59 24 33 59 24 33 59 24 33 59 24 33 59 24 33 59 24 33 59 24 33
59 24 33 59 24 33 59 24 33 59 24 33 58 24 33 58 24 33 58 24 33 58 24
33 58 24 33 58 24 33 58 24 33 58 24 33 58 24 33 58 24 33 58 24 33 58
24 33 58 24 33 58 24 33 58 24 33 58 24 33 57 24 33 57 24 33 57 24 33
57 24 33 57 24 33 57 24 33 57 24 33 57 24 33 57 24 33 57 24 33 57 24
33 57 24 33 57 24 33 57 24 33 57 24 32 56 24 32 56 24 32 56 24 32 56
24 32 56 24 32 56 24 32 56 24 32 56 24 32 56 24 32 56 24 32 56 24 32
56 24 32 56 24 32 56 24 32 56 24 32 55 24 32 55 24 32 55 24 32 55 24
32 55 24 32 55 24 32 55 24 32 55 24 32 55 24 32 55 24 32 55 24 32 55
24 32 55 24 32 55 24 32 55 24 32 54 24 32 54 24 32 54 24 32 54 24 32
54 24 32 54 24 32 54 24 32 54 24 31 54 24 31 54 24 31 54 24 31 54 24
31 54 24 31 54 24 31 54 24 31 53 24 31 53 24 31 53 24 31 53 24 31 53
24 31 53 24 31 53 24 31 53 24 31 53 24 31 53 24 31 53 24 31 53 24 31
53 24 31 53 24 31 53 24 31 52 24 31 52 24 31 52 24 31 52 24 31 52 24
31 52 24 31 52 24 31 52 24 31 52 24 31 52 24 31 52 24 31 52 24 31 52
24 31 52 24 30 52 24 30 51 24 30 51 24 30 51 24 30 51 24 30 51 24 30
51 24 24 37 18 24 37 18 24 37 18 24 37 18 24 37 18 24 37 18 24 37 18
24 37 18 24 37 18 24 37 18 24 37 18 24 37 18 24 37 18 24 37 18 24 37
18 24 37 18 24 36 18 24 36 18 24 36 18 24 36 18 24 36 18 24 36 18 24
36 18 24 36 18 24 36 18 23 36 18 23 36 18 23 36 18 23 36 18 23 36 18
23 36 18 23 36 18 23 36 18 23 36 18 23 36 18 23 36 18 23 36 18 23 36
18 23 36 18
33 62 22 33 62 23 33 62 23 33 62 23 33 62 23 34 62 23 34 62 23 34 62
23 34 63 23 34 63 23 34 63 23 34 63 23 34 63 23 34 63 23 34 63 23 34
63 23 34 63 23 34 63 23 34 63 23 34 63 23 34 63 23 34 63 23 34 63 23
34 63 23 34 63 23 34 63 23 34 63 23 34 63 23 34 63 23 34 63 23 34 63
23 34 63 23 34 63 23 34 63 23 34 63 23 34 63 23 34 63 23 34 63 23 34
64 23 34 64 23 34 64 23 34 64 23 34 64 23 34 64 23 34 64 23 34 64 23
34 64 23 34 64 23 34 64 23 34 64 23 34 64 23 34 64 23 34 64 23 34 64
23 34 64 23 34 64 23 34 64 23 35 64 23 35 64 23 35 64 23 35 64 23 35
64 23 35 64 23 35 64 23 35 64 23 35 64 23 35 64 23 35 64 23 35 64 23
35 64 23 35 64 23 35 64 23 35 64 23 35 64 23 35 64 23 35 64 23 35 64
23 35 64 23 35 64 23 35 64 23 35 64 23 35 64 23 35 64 23 35 64 23 35
64 23 35 64 23 35 64 23 35 64 23 35 64 24 35 64 24 35 64 24 35 64 24
35 64 24 35 64 24 35 64 24 35 64 24 35 64 24 35 64 24 35 64 24 35 64
24 35 64 24 35 64 24 35 64 24 35 64 24 35 64 24 35 64 24 35 64 24 35
64 24 35 64 24 35 64 24 35 64 24 35 64 24 35 64 24 35 64 24 35 64 24
35 64 24 35 64 24 35 64 24 35 64 24 35 64 24 35 64 24 35 64 24 35 64
24 35 64 24 35 64 24 35 64 24 35 64 24 35 64 24 35 64 24 35 64 24 35
64 24 35 64 24 35 64 24 35 64 24 35 64 24 35 64 24 35 64 24 35 64 24
35 64 24 35 63 24 35 63 24 35 63 24 35 63 24 35 63 24 35 63 24 35 63
24 35 63 24 35 63 24 35 63 24 35 63 24 35 63 24 35 63 24 35 63 24 35
63 24 35 63 24 35 63 24 35 63 24 35 63 24 35 63 24 35 63 24 35 63 24
35 63 24 35 63 24 35 63 24 35 63 24 35 63 24 35 63 24 35 63 24 35 63
24 35 62 24 35 62 24 35 62 24 35 62 24 35 62 24 35 62 24 35 62 24 34
62 24 34 62 24 34 62 24 34 62 24 34 62 24 34 62 24 34 62 24 34 62 24
34 62 24 34 62 24 34 62 24 34 62 24 34 62 24 34 62 24 34 62 24 34 62
24 34 61 24 34 61 24 34 61 24 34 61 24 34 61 24 34 61 24 34 61 24 34
61 24 34 61 24 34 61 24 34 61 24 34 61 24 34 61 24 34 61 24 34 61 24
34 61 24 34 61 24 34 61 24 34 61 24 34 61 24 34 60 24 34 60 24 34 60
24 34 60 24 34 60 24 34 60 24 34 60 24 34 60 24 34 60 24 34 60 24 34
60 24 34 60 24 34 60 24 34 60 24 34 60 24 34 60 24 34 60 24 34 60 24
34 59 24 34 59 24 34 59 24 34 59 24 33 59 24 33 59 24 33 59 24 33 59
24 33 59 24 33 59 24 33 59 24 33 59 24 33 59 24 33 59 24 33 59 24 33
59 24 33 59 24 33 58 24 33 58 24 33 58 24 33 58 24 33 58 24 33 58 24
33 58 24 33 58 24 33 58 24 33 58 24 33 58 24 33 58 24 33 58 24 33 58
24 33 58 24 33 58 24 33 57 24 33 57 24 33 57 24 33 57 24 33 57 24 33
57 24 33 57 24 33 57 24 33 57 24 33 57 24 33 57 24 33 57 24 33 57 24
33 57 24 32 57 24 32 57 24 32 56 24 32 56 24 32 56 24 32 56 24 32 56
24 32 56 24 32 56 24 32 56 24 32 56 24 32 56 24 32 56 24 32 56 24 32
56 24 32 56 24 32 56 24 32 55 24 32 55 24 32 55 24 32 55 24 32 55 24
32 55 24 32 55 24 32 55 24 32 55 24 32 55 24 32 55 24 32 55 24 32 55
24 32 55 24 32 55 24 32 54 24 32 54 24 32 54 24 32 54 24 32 54 24 32
54 24 32 54 24 31 54 24 31 54 24 31 54 24 31 54 24 31 54 24 31 54 24
31 54 24 31 54 24 31 53 24 31 53 24 31 53 24 31 53 24 31 53 24 31 53
24 31 53 24 31 53 24 31 53 24 31 53 24 31 53 24 31 53 24 31 53 24 31
53 24 31 53 24 31 53 24 31 52 24 31 52 24 31 52 24 31 52 24 31 52 24
31 52 24 31 52 24 31 52 24 31 52 24 31 52 24 31 52 24 31 52 24 31 52
24 30 52 24 30 52 24 30 51 24 30 51 24 30 51 24 30 51 24 30 51 24 30
51 24 30 51 24 24 37 18 24 37 18 24 37 18 24 37 18 24 37 18 24 37 18
24 37 18 24 37 18 24 37 18 24 37 18 24 37 18 24 37 18 24 37 18 24 37
18 24 37 18 24 36 18 24 36 18 24 36 18 24 36 18 24 36 18 24 36 18 24
36 18 24 36 18 23 36 18 23 36 18 23 36 18 23 36 18 23 36 18 23 36 18
23 36 18 23 36 18 23 36 18 23 36 18 23 36 18 23 36 18 23 36 18 23 36
18 23 36 18
33 62 22 33 62 22 33 62 22 33 62 23 33 62 23 33 62 23 33 62 23 33 62
23 34 62 23 34 62 23 34 62 23 34 63 23 34 63 23 34 63 23 34 63 23 34
63 23 34 63 23 34 63 23 34 63 23 34 63 23 34 63 23 34 63 23 34 63 23
34 63 23 34 63 23 34 63 23 34 63 23 34 63 23 34 63 23 34 63 23 34 63
23 34 63 23 34 63 23 34 63 23 34 63 23 34 63 23 34 63 23 34 63 23 34
63 23 34 63 23 34 63 23 34 63 23 34 63 23 34 63 23 34 63 23 34 64 23
34 64 23 34 64 23 34 64 23 34 64 23 34 64 23 34 64 23 34 64 23 34 64
23 34 64 23 34 64 23 34 64 23 34 64 23 34 64 23 34 64 23 34 64 23 34
64 23 34 64 23 35 64 23 35 64 23 35 64 23 35 64 23 35 64 23 35 64 23
35 64 23 35 64 23 35 64 23 35 64 23 35 64 23 35 64 23 35 64 23 35 64
23 35 64 23 35 64 23 35 64 23 35 64 23 35 64 23 35 64 23 35 64 23 35
64 23 35 64 23 35 64 23 35 64 23 35 64 23 35 64 23 35 64 23 35 64 23
35 64 23 35 64 23 35 64 24 35 64 24 35 64 24 35 64 24 35 64 24 35 64
24 35 64 24 35 64 24 35 64 24 35 64 24 35 64 24 35 64 24 35 64 24 35
64 24 35 64 24 35 64 24 35 64 24 35 64 24 35 64 24 35 64 24 35 64 24
35 64 24 35 64 24 35 64 24 35 64 24 35 64 24 35 64 24 35 64 24 35 64
24 35 64 24 35 64 24 35 64 24 35 64 24 35 64 24 35 64 24 35 64 24 35
64 24 35 63 24 35 63 24 35 63 24 35 63 24 35 63 24 35 63 24 35 63 24
35 63 24 35 63 24 35 63 24 35 63 24 35 63 24 35 63 24 35 63 24 35 63
24 35 63 24 35 63 24 35 63 24 35 63 24 35 63 24 35 63 24 35 63 24 35
63 24 35 63 24 35 63 24 35 63 24 35 63 24 35 63 24 35 63 24 35 63 24
35 63 24 35 63 24 35 63 24 35 63 24 35 62 24 35 62 24 35 62 24 34 62
24 34 62 24 34 62 24 34 62 24 34 62 24 34 62 24 34 62 24 34 62 24 34
62 24 34 62 24 34 62 24 34 62 24 34 62 24 34 62 24 34 62 24 34 62 24
34 62 24 34 62 24 34 62 24 34 62 24 34 62 24 34 61 24 34 61 24 34 61
24 34 61 24 34 61 24 34 61 24 34 61 24 34 61 24 34 61 24 34 61 24 34
61 24 34 61 24 34 61 24 34 61 24 34 61 24 34 61 24 34 61 24 34 61 24
34 61 24 34 61 24 34 60 24 34 60 24 34 60 24 34 60 24 34 60 24 34 60
24 34 60 24 34 60 24 34 60 24 34 60 24 34 60 24 34 60 24 34 60 24 34
60 24 34 60 24 34 60 24 34 60 24 34 60 24 34 60 24 34 59 24 34 59 24
33 59 24 33 59 24 33 59 24 33 59 24 33 59 24 33 59 24 33 59 24 33 59
24 33 59 24 33 59 24 33 59 24 33 59 24 33 59 24 33 59 24 33 59 24 33
58 24 33 58 24 33 58 24 33 58 24 33 58 24 33 58 24 33 58 24 33 58 24
33 58 24 33 58 24 33 58 24 33 58 24 33 58 24 33 58 24 33 58 24 33 58
24 33 57 24 33 57 24 33 57 24 33 57 24 33 57 24 33 57 24 33 57 24 33
57 24 33 57 24 33 57 24 33 57 24 33 57 24 33 57 24 33 57 24 32 57 24
32 57 24 32 56 24 32 56 24 32 56 24 32 56 24 32 56 24 32 56 24 32 56
24 32 56 24 32 56 24 32 56 24 32 56 24 32 56 24 32 56 24 32 56 24 32
56 24 32 56 24 32 55 24 32 55 24 32 55 24 32 55 24 32 55 24 32 55 24
32 55 24 32 55 24 32 55 24 32 55 24 32 55 24 32 55 24 32 55 24 32 55
24 32 55 24 32 54 24 32 54 24 32 54 24 32 54 24 32 54 24 32 54 24 32
54 24 31 54 24 31 54 24 31 54 24 31 54 24 31 54 24 31 54 24 31 54 24
31 54 24 31 54 24 31 53 24 31 53 24 31 53 24 31 53 24 31 53 24 31 53
24 31 53 24 31 53 24 31 53 24 31 53 24 31 53 24 31 53 24 31 53 24 31
53 24 31 53 24 31 52 24 31 52 24 31 52 24 31 52 24 31 52 24 31 52 24
31 52 24 31 52 24 31 52 24 31 52 24 31 52 24 31 52 24 31 52 24 30 52
24 30 52 24 30 52 24 30 51 24 30 51 24 30 51 24 30 51 24 30 51 24 30
51 24 30 51 24 24 37 18 24 37 18 24 37 18 24 37 18 24 37 18 24 37 18
24 37 18 24 37 18 24 37 18 24 37 18 24 37 18 24 37 18 24 37 18 24 37
18 24 36 18 24 36 18 24 36 18 24 36 18 24 36 18 24 36 18 24 36 18 24
36 18 23 36 18 23 36 18 23 36 18 23 36 18 23 36 18 23 36 18 23 36 18
23 36 18 23 36 18 23 36 18 23 36 18 23 36 18 23 36 18 23 36 18 23 36
18 23 36 18
33 62 22 33 62 22 33 62 22 33 62 22 33 62 22 33 62 23 33 62 23 33 62
23 33 62 23 33 62 23 34 62 23 34 62 23 34 62 23 34 62 23 34 62 23 34
63 23 34 63 23 34 63 23 34 63 23 34 63 23 34 63 23 34 63 23 34 63 23
34 63 23 34 63 23 34 63 23 34 63 23 34 63 23 34 63 23 34 63 23 34 63
23 34 63 23 34 63 23 34 63 23 34 63 23 34 63 23 34 63 23 34 63 23 34
63 23 34 63 23 34 63 23 34 63 23 34 63 23 34 63 23 34 63 23 34 63 23
34 63 23 34 63 23 34 63 23 34 63 23 34 63 23 34 63 23 34 63 23 34 64
23 34 64 23 34 64 23 34 64 23 34 64 23 34 64 23 34 64 23 34 64 23 34
64 23 34 64 23 34 64 23 34 64 23 34 64 23 34 64 23 34 64 23 34 64 23
34 64 23 35 64 23 35 64 23 35 64 23 35 64 23 35 64 23 35 64 23 35 64
23 35 64 23 35 64 23 35 64 23 35 64 23 35 64 23 35 64 23 35 64 23 35
64 23 35 64 23 35 64 23 35 64 23 35 64 23 35 64 23 35 64 23 35 64 23
35 64 23 35 64 23 35 64 23 35 64 23 35 64 23 35 64 23 35 64 23 35 64
23 35 64 23 35 64 24 35 64 24 35 64 24 35 64 24 35 64 24 35 64 24 35
64 24 35 64 24 35 64 24 35 64 24 35 64 24 35 64 24 35 64 24 35 64 24
35 64 24 35 64 24 35 64 24 35 64 24 35 64 24 35 64 24 35 63 24 35 63
24 35 63 24 35 63 24 35 63 24 35 63 24 35 63 24 35 63 24 35 63 24 35
63 24 35 63 24 35 63 24 35 63 24 35 63 24 35 63 24 35 63 24 35 63 24
35 63 24 35 63 24 35 63 24 35 63 24 35 63 24 35 63 24 35 63 24 35 63
24 35 63 24 35 63 24 35 63 24 35 63 24 35 63 24 35 63 24 35 63 24 35
63 24 35 63 24 35 63 24 35 63 24 35 63 24 35 63 24 35 63 24 34 62 24
34 62 24 34 62 24 34 62 24 34 62 24 34 62 24 34 62 24 34 62 24 34 62
24 34 62 24 34 62 24 34 62 24 34 62 24 34 62 24 34 62 24 34 62 24 34
62 24 34 62 24 34 62 24 34 62 24 34 62 24 34 62 24 19 31 22 19 31 22
19 31 22 19 30 22 19 30 22 19 30 22 19 30 22 19 30 22 19 30 22 19 30
22 19 30 22 19 30 22 19 30 22 19 30 22 19 30 22 19 30 22 19 30 22 19
30 22 19 30 22 19 30 22 19 30 22 19 30 22 19 30 22 19 30 22 19 30 22
19 30 22 19 30 22 34 60 24 34 60 24 34 60 24 34 60 24 34 60 24 34 60
24 34 60 24 34 60 24 34 60 24 34 60 24 34 60 24 34 60 24 34 60 24 34
60 24 34 60 24 34 60 24 34 59 24 33 59 24 33 59 24 33 59 24 33 59 24
33 59 24 33 59 24 33 59 24 33 59 24 33 59 24 33 59 24 33 59 24 33 59
24 33 59 24 33 59 24 33 59 24 33 59 24 33 59 24 33 58 24 33 58 24 33
58 24 33 58 24 33 58 24 33 58 24 33 58 24 33 58 24 33 58 24 33 58 24
33 58 24 33 58 24 33 58 24 33 58 24 33 58 24 33 58 24 33 58 24 33 57
24 33 57 24 33 57 24 33 57 24 33 57 24 33 57 24 33 57 24 33 57 24 33
57 24 33 57 24 33 57 24 33 57 24 32 57 24 32 57 24 32 57 24 32 57 24
32 56 24 32 56 24 32 56 24 32 56 24 32 56 24 32 56 24 32 56 24 32 56
24 32 56 24 32 56 24 32 56 24 32 56 24 32 56 24 32 56 24 32 56 24 32
56 24 32 55 24 32 55 24 32 55 24 32 55 24 32 55 24 32 55 24 32 55 24
32 55 24 32 55 24 32 55 24 32 55 24 32 55 24 32 55 24 32 55 24 32 55
24 32 54 24 32 54 24 32 54 24 32 54 24 32 54 24 32 54 24 31 54 24 31
54 24 31 54 24 31 54 24 31 54 24 31 54 24 31 54 24 31 54 24 31 54 24
31 54 24 31 53 24 31 53 24 31 53 24 31 53 24 31 53 24 31 53 24 31 53
24 31 53 24 31 53 24 31 53 24 31 53 24 31 53 24 31 53 24 31 53 24 31
53 24 31 52 24 31 52 24 31 52 24 31 52 24 31 52 24 31 52 24 31 52 24
31 52 24 31 52 24 31 52 24 31 52 24 31 52 24 31 52 24 30 52 24 30 52
24 30 52 24 30 51 24 30 51 24 30 51 24 30 51 24 30 51 24 30 51 24 30
51 24 30 51 24 30 51 24 24 37 18 24 37 18 24 37 18 24 37 18 24 37 18
24 37 18 24 37 18 24 37 18 24 37 18 24 37 18 24 37 18 24 37 18 24 37
18 24 36 18 24 36 18 24 36 18 24 36 18 24 36 18 24 36 18 23 36 18 23
36 18 23 36 18 23 36 18 23 36 18 23 36 18 23 36 18 23 36 18 23 36 18
23 36 18 23 36 18 23 36 18 23 36 18 23 36 18 23 36 18 23 36 18 23 36
18 23 36 18
